ncols 168
nrows 121
xllcenter 640304.69
yllcenter 1081277.12
cellsize 46.59
NODATA_value -9999.000
0.000 0.000 0.000 0.000 0.000 0.000 0.000 0.000 0.000 0.000 0.000 0.000 0.000 0.000 0.000 0.000 0.000 0.000 0.000 0.000 0.000 0.000 0.000 0.000 0.000 0.000 0.000 0.000 0.000 0.000 0.000 0.000 0.000 0.000 0.000 0.000 0.000 0.000 0.000 0.000 0.000 0.000 0.000 0.000 0.000 0.000 0.000 0.000 0.000 0.000 0.000 0.000 0.000 0.000 0.000 0.000 0.000 0.000 0.000 0.000 0.000 0.000 0.000 0.000 0.000 0.000 0.000 0.000 0.000 0.000 0.000 0.000 0.000 0.000 0.000 0.000 0.000 0.000 0.000 0.000 0.000 0.000 0.000 0.000 0.000 0.000 0.000 0.000 0.000 0.000 0.000 0.000 0.000 0.000 0.000 0.000 0.000 0.000 0.000 0.000 0.000 0.000 0.000 0.000 0.000 0.000 0.000 0.000 0.000 0.000 0.000 0.000 0.000 0.000 0.000 0.000 0.000 0.000 0.000 0.000 0.000 0.000 0.000 0.000 0.000 0.000 0.000 0.000 0.000 0.000 0.000 0.000 0.000 0.000 0.000 0.000 0.000 0.000 0.000 0.000 0.000 0.000 0.000 0.000 0.000 0.000 0.000 0.000 0.000 0.000 0.000 0.000 0.000 0.000 0.000 0.000 0.000 0.000 0.000 0.000 0.000 0.000 0.000 0.000 0.000 0.000 0.000 0.000 
0.000 0.397 0.397 0.397 0.296 0.018 0.018 0.000 0.000 0.000 0.024 0.303 0.397 0.397 0.397 0.397 0.397 0.397 0.397 0.397 0.397 0.397 0.397 0.397 0.397 0.397 0.397 0.397 0.397 0.397 0.397 0.397 0.397 0.397 0.481 0.481 0.614 0.784 0.955 0.955 1.032 1.061 1.061 1.061 1.061 1.054 1.054 1.036 1.033 1.033 1.012 0.958 0.784 0.784 0.609 0.498 0.519 0.519 0.678 0.853 0.853 0.986 0.311 0.501 0.501 1.060 1.047 0.944 0.944 0.815 0.686 0.686 0.644 0.691 0.821 0.821 0.950 0.580 0.251 0.251 0.931 1.064 1.064 1.064 1.064 1.064 1.064 1.068 1.081 1.131 1.131 1.181 1.199 1.199 1.127 0.921 0.684 0.684 0.439 0.472 0.334 0.334 0.188 0.856 0.856 0.930 0.757 0.571 0.571 0.460 0.485 0.671 0.671 0.857 1.018 1.018 1.156 1.258 0.760 0.760 0.516 1.272 1.263 1.263 1.162 1.067 1.067 1.067 1.067 1.067 1.067 1.067 1.067 1.067 1.068 1.068 1.068 1.068 1.068 1.068 1.068 1.068 1.068 1.068 1.068 1.068 1.068 1.069 1.069 1.069 1.069 1.069 1.069 1.013 0.445 0.445 0.644 1.038 0.914 0.914 0.730 0.531 0.328 0.328 0.101 0.000 0.000 0.000 
0.000 0.234 0.234 0.233 0.174 0.011 0.011 0.000 0.000 0.000 0.013 0.164 0.220 0.220 0.225 0.224 0.223 0.223 0.222 0.221 0.221 0.220 0.219 0.218 0.218 0.217 0.216 0.212 0.212 0.202 0.200 0.200 0.203 0.211 0.339 0.339 0.521 0.744 0.968 0.968 1.056 1.080 1.080 1.080 1.080 0.900 0.900 0.500 0.497 0.497 0.687 0.918 0.691 0.691 0.464 0.330 0.397 0.397 0.608 0.835 0.835 1.038 0.730 0.820 0.820 1.075 1.045 0.909 0.909 0.741 0.573 0.573 0.543 0.618 0.786 0.786 0.954 0.845 0.718 0.718 1.023 1.082 1.082 1.083 1.083 1.083 1.083 1.091 1.112 1.176 1.176 1.240 1.257 1.257 1.136 0.866 0.544 0.544 0.191 0.199 0.308 0.308 0.525 0.939 0.939 0.896 0.663 0.424 0.424 0.312 0.363 0.602 0.602 0.841 1.044 1.044 1.214 1.345 1.240 1.240 1.186 1.415 1.324 1.324 1.199 1.086 1.086 1.086 1.086 1.086 1.086 1.086 1.086 1.086 1.086 1.086 1.087 1.087 1.087 1.087 1.087 1.087 1.087 1.087 1.087 1.087 1.087 1.087 1.087 1.087 1.088 1.088 1.088 1.069 0.877 0.877 0.945 1.045 0.869 0.869 0.633 0.377 0.112 0.112 0.033 0.000 0.000 0.000 
0.000 0.046 0.046 0.140 0.146 0.075 0.021 0.011 0.007 0.007 0.017 0.083 0.178 0.207 0.218 0.222 0.223 0.223 0.223 0.222 0.222 0.221 0.221 0.220 0.219 0.219 0.218 0.216 0.215 0.211 0.206 0.206 0.208 0.218 0.276 0.344 0.430 0.630 0.852 0.946 0.998 1.051 1.063 1.063 1.057 0.982 0.871 0.689 0.543 0.534 0.596 0.772 0.769 0.689 0.584 0.422 0.398 0.422 0.502 0.720 0.825 0.902 0.882 0.820 0.847 0.948 1.022 0.967 0.901 0.827 0.663 0.598 0.583 0.597 0.700 0.785 0.860 0.889 0.812 0.793 0.889 1.033 1.069 1.077 1.079 1.080 1.082 1.086 1.099 1.138 1.167 1.195 1.228 1.231 1.182 1.007 0.708 0.546 0.378 0.249 0.283 0.334 0.435 0.733 0.880 0.875 0.777 0.551 0.452 0.399 0.376 0.482 0.597 0.712 0.933 1.036 1.126 1.262 1.272 1.241 1.232 1.297 1.342 1.314 1.263 1.146 1.103 1.094 1.090 1.088 1.087 1.086 1.086 1.086 1.086 1.086 1.086 1.086 1.086 1.086 1.087 1.087 1.087 1.087 1.087 1.087 1.087 1.087 1.087 1.086 1.086 1.085 1.082 1.067 0.986 0.918 0.923 0.975 0.944 0.864 0.761 0.529 0.278 0.182 0.158 0.171 0.171 0.000 
0.000 0.014 0.014 0.047 0.072 0.064 0.043 0.033 0.031 0.035 0.055 0.103 0.163 0.197 0.213 0.221 0.224 0.225 0.226 0.226 0.226 0.226 0.225 0.225 0.225 0.225 0.225 0.225 0.225 0.224 0.225 0.228 0.238 0.262 0.306 0.379 0.485 0.641 0.796 0.892 0.952 0.985 0.998 0.998 0.982 0.939 0.849 0.724 0.653 0.639 0.661 0.708 0.718 0.688 0.606 0.535 0.510 0.518 0.576 0.695 0.802 0.847 0.855 0.858 0.874 0.917 0.937 0.931 0.890 0.815 0.727 0.679 0.667 0.675 0.715 0.787 0.839 0.856 0.858 0.868 0.914 0.991 1.033 1.055 1.066 1.072 1.076 1.082 1.094 1.113 1.135 1.148 1.151 1.137 1.085 0.961 0.758 0.581 0.465 0.414 0.403 0.437 0.532 0.679 0.752 0.760 0.720 0.616 0.534 0.503 0.503 0.530 0.611 0.730 0.879 1.009 1.115 1.186 1.221 1.231 1.236 1.259 1.276 1.269 1.229 1.163 1.122 1.104 1.095 1.090 1.088 1.086 1.086 1.085 1.085 1.085 1.085 1.085 1.085 1.085 1.085 1.085 1.085 1.085 1.085 1.085 1.085 1.084 1.083 1.082 1.079 1.074 1.063 1.040 0.994 0.957 0.943 0.935 0.916 0.861 0.760 0.606 0.480 0.433 0.441 0.493 0.493 0.000 
0.000 0.001 0.001 0.017 0.046 0.059 0.061 0.061 0.064 0.074 0.094 0.127 0.168 0.196 0.213 0.222 0.226 0.229 0.231 0.232 0.232 0.233 0.233 0.234 0.235 0.236 0.237 0.239 0.241 0.246 0.253 0.264 0.284 0.317 0.364 0.435 0.534 0.661 0.773 0.850 0.898 0.923 0.931 0.931 0.922 0.894 0.836 0.760 0.715 0.699 0.698 0.706 0.705 0.687 0.643 0.611 0.604 0.610 0.641 0.711 0.786 0.828 0.850 0.866 0.883 0.899 0.903 0.899 0.876 0.826 0.774 0.747 0.739 0.741 0.755 0.792 0.831 0.854 0.873 0.896 0.932 0.979 1.013 1.033 1.047 1.057 1.065 1.072 1.078 1.085 1.090 1.090 1.081 1.058 1.007 0.915 0.772 0.643 0.568 0.537 0.532 0.545 0.594 0.667 0.701 0.706 0.691 0.645 0.603 0.590 0.590 0.604 0.649 0.735 0.854 0.975 1.065 1.125 1.167 1.195 1.209 1.215 1.215 1.210 1.192 1.157 1.125 1.107 1.097 1.091 1.088 1.086 1.085 1.084 1.084 1.084 1.084 1.084 1.084 1.084 1.084 1.083 1.083 1.083 1.083 1.082 1.081 1.080 1.078 1.075 1.070 1.061 1.047 1.027 0.997 0.969 0.948 0.927 0.902 0.858 0.784 0.706 0.665 0.655 0.670 0.707 0.707 0.000 
0.000 0.000 0.000 0.009 0.039 0.064 0.080 0.091 0.101 0.114 0.131 0.154 0.180 0.201 0.216 0.225 0.231 0.235 0.238 0.240 0.241 0.243 0.244 0.246 0.248 0.250 0.254 0.258 0.265 0.274 0.288 0.308 0.336 0.373 0.422 0.488 0.573 0.676 0.762 0.823 0.862 0.883 0.890 0.891 0.886 0.869 0.836 0.788 0.753 0.734 0.723 0.716 0.708 0.696 0.677 0.667 0.665 0.672 0.692 0.733 0.787 0.825 0.850 0.869 0.883 0.890 0.891 0.888 0.873 0.841 0.810 0.793 0.788 0.788 0.793 0.808 0.833 0.858 0.884 0.912 0.945 0.978 1.002 1.019 1.032 1.041 1.048 1.053 1.055 1.056 1.054 1.048 1.034 1.007 0.961 0.886 0.782 0.693 0.639 0.615 0.609 0.613 0.633 0.669 0.687 0.690 0.684 0.664 0.646 0.641 0.644 0.658 0.690 0.749 0.835 0.933 1.010 1.068 1.112 1.144 1.160 1.166 1.167 1.165 1.158 1.143 1.123 1.107 1.097 1.091 1.087 1.085 1.084 1.083 1.082 1.082 1.082 1.082 1.081 1.081 1.081 1.081 1.080 1.080 1.079 1.078 1.077 1.075 1.071 1.066 1.059 1.049 1.036 1.019 0.996 0.972 0.949 0.927 0.901 0.867 0.828 0.802 0.793 0.797 0.817 0.833 0.833 0.000 
0.000 0.000 0.000 0.009 0.042 0.077 0.103 0.123 0.139 0.153 0.167 0.183 0.199 0.213 0.224 0.233 0.239 0.244 0.248 0.251 0.253 0.256 0.259 0.262 0.265 0.269 0.275 0.282 0.293 0.307 0.327 0.351 0.381 0.419 0.467 0.528 0.603 0.688 0.756 0.806 0.839 0.858 0.866 0.868 0.866 0.858 0.839 0.809 0.781 0.761 0.745 0.733 0.724 0.717 0.712 0.711 0.714 0.721 0.735 0.760 0.794 0.828 0.853 0.872 0.883 0.888 0.888 0.886 0.876 0.857 0.838 0.829 0.825 0.825 0.827 0.832 0.845 0.867 0.893 0.923 0.953 0.978 0.997 1.011 1.021 1.027 1.031 1.034 1.034 1.033 1.028 1.019 1.002 0.974 0.932 0.871 0.791 0.727 0.686 0.665 0.657 0.656 0.662 0.676 0.686 0.688 0.686 0.678 0.673 0.674 0.678 0.692 0.718 0.761 0.823 0.899 0.966 1.019 1.060 1.089 1.108 1.119 1.125 1.128 1.128 1.124 1.115 1.104 1.095 1.089 1.086 1.083 1.082 1.080 1.080 1.079 1.079 1.079 1.078 1.078 1.078 1.077 1.077 1.076 1.075 1.074 1.071 1.068 1.064 1.057 1.049 1.040 1.027 1.012 0.994 0.972 0.950 0.929 0.908 0.889 0.877 0.872 0.875 0.891 0.922 0.934 0.934 0.000 
0.000 0.034 0.034 0.022 0.056 0.101 0.135 0.160 0.178 0.192 0.204 0.213 0.222 0.231 0.239 0.246 0.252 0.257 0.261 0.265 0.268 0.272 0.276 0.280 0.285 0.292 0.300 0.311 0.325 0.342 0.363 0.388 0.419 0.457 0.503 0.559 0.627 0.697 0.754 0.796 0.826 0.844 0.853 0.857 0.857 0.853 0.843 0.825 0.803 0.785 0.769 0.757 0.750 0.748 0.749 0.752 0.757 0.764 0.775 0.789 0.810 0.837 0.859 0.875 0.884 0.888 0.889 0.887 0.882 0.873 0.863 0.859 0.857 0.857 0.858 0.861 0.868 0.882 0.904 0.932 0.959 0.980 0.996 1.006 1.013 1.017 1.019 1.020 1.019 1.016 1.009 0.997 0.979 0.952 0.914 0.861 0.799 0.751 0.718 0.699 0.689 0.685 0.685 0.687 0.690 0.691 0.691 0.691 0.692 0.695 0.702 0.714 0.736 0.768 0.814 0.872 0.930 0.977 1.014 1.043 1.063 1.078 1.089 1.096 1.100 1.102 1.101 1.096 1.091 1.086 1.082 1.080 1.078 1.077 1.076 1.076 1.075 1.075 1.075 1.074 1.074 1.073 1.072 1.071 1.070 1.068 1.065 1.061 1.056 1.049 1.041 1.032 1.020 1.006 0.990 0.971 0.953 0.936 0.924 0.918 0.916 0.918 0.926 0.948 0.988 1.015 1.015 0.000 
0.000 0.071 0.071 0.060 0.094 0.141 0.177 0.202 0.220 0.233 0.241 0.246 0.251 0.255 0.259 0.264 0.269 0.273 0.277 0.282 0.286 0.291 0.296 0.301 0.308 0.317 0.327 0.340 0.355 0.373 0.395 0.421 0.452 0.488 0.532 0.584 0.645 0.705 0.754 0.791 0.818 0.836 0.847 0.852 0.854 0.853 0.848 0.838 0.823 0.808 0.796 0.789 0.785 0.786 0.788 0.793 0.798 0.805 0.812 0.821 0.834 0.851 0.869 0.881 0.888 0.892 0.893 0.894 0.893 0.890 0.887 0.885 0.885 0.886 0.888 0.891 0.895 0.904 0.920 0.943 0.966 0.983 0.996 1.004 1.008 1.011 1.011 1.011 1.009 1.004 0.995 0.982 0.963 0.937 0.901 0.856 0.806 0.768 0.740 0.723 0.712 0.706 0.703 0.701 0.700 0.700 0.701 0.704 0.707 0.711 0.718 0.729 0.747 0.772 0.807 0.851 0.900 0.941 0.976 1.003 1.025 1.042 1.056 1.066 1.075 1.080 1.084 1.084 1.082 1.080 1.077 1.075 1.074 1.073 1.072 1.072 1.071 1.071 1.070 1.070 1.069 1.068 1.068 1.066 1.064 1.062 1.059 1.054 1.049 1.042 1.034 1.025 1.014 1.000 0.985 0.970 0.957 0.949 0.944 0.942 0.943 0.947 0.958 0.980 1.018 1.047 1.047 0.000 
0.000 0.210 0.210 0.137 0.165 0.202 0.232 0.254 0.268 0.277 0.281 0.283 0.284 0.284 0.286 0.288 0.291 0.294 0.298 0.302 0.307 0.312 0.318 0.325 0.333 0.343 0.354 0.367 0.383 0.401 0.423 0.449 0.479 0.515 0.556 0.605 0.660 0.712 0.755 0.789 0.814 0.832 0.844 0.851 0.854 0.855 0.854 0.850 0.843 0.834 0.827 0.825 0.825 0.826 0.829 0.833 0.838 0.843 0.848 0.854 0.861 0.870 0.882 0.890 0.896 0.899 0.902 0.904 0.907 0.909 0.910 0.911 0.912 0.914 0.916 0.919 0.924 0.930 0.940 0.955 0.973 0.987 0.997 1.003 1.006 1.007 1.007 1.005 1.002 0.995 0.985 0.971 0.951 0.926 0.893 0.852 0.812 0.780 0.756 0.740 0.729 0.722 0.717 0.715 0.713 0.713 0.714 0.716 0.719 0.723 0.730 0.739 0.754 0.774 0.801 0.834 0.874 0.911 0.942 0.969 0.991 1.010 1.025 1.039 1.050 1.058 1.065 1.069 1.071 1.071 1.070 1.069 1.068 1.067 1.067 1.066 1.066 1.066 1.065 1.065 1.064 1.063 1.062 1.061 1.059 1.056 1.052 1.048 1.043 1.036 1.028 1.019 1.008 0.996 0.983 0.972 0.964 0.959 0.958 0.957 0.959 0.965 0.976 0.998 1.027 1.044 1.044 0.000 
0.000 0.354 0.354 0.278 0.274 0.289 0.305 0.315 0.321 0.322 0.322 0.320 0.318 0.317 0.316 0.316 0.317 0.319 0.321 0.325 0.330 0.335 0.341 0.349 0.357 0.367 0.378 0.392 0.408 0.427 0.449 0.474 0.504 0.538 0.577 0.622 0.672 0.718 0.757 0.788 0.812 0.830 0.843 0.851 0.856 0.860 0.862 0.864 0.863 0.860 0.860 0.860 0.862 0.865 0.868 0.872 0.876 0.880 0.883 0.886 0.889 0.894 0.900 0.905 0.909 0.912 0.916 0.920 0.925 0.929 0.933 0.936 0.939 0.941 0.944 0.947 0.950 0.955 0.961 0.970 0.982 0.993 1.000 1.004 1.006 1.006 1.005 1.002 0.997 0.989 0.978 0.963 0.943 0.918 0.887 0.851 0.816 0.789 0.768 0.752 0.742 0.734 0.729 0.726 0.725 0.725 0.725 0.726 0.729 0.732 0.738 0.746 0.758 0.774 0.795 0.821 0.852 0.884 0.913 0.939 0.961 0.980 0.997 1.012 1.025 1.036 1.045 1.052 1.056 1.059 1.060 1.060 1.061 1.061 1.060 1.060 1.060 1.060 1.059 1.059 1.058 1.057 1.056 1.054 1.052 1.050 1.046 1.042 1.037 1.031 1.023 1.014 1.004 0.992 0.982 0.974 0.969 0.966 0.966 0.966 0.969 0.975 0.987 1.006 1.029 1.042 1.042 0.000 
0.000 0.479 0.479 0.414 0.402 0.388 0.380 0.374 0.368 0.363 0.357 0.353 0.349 0.347 0.346 0.345 0.345 0.346 0.347 0.350 0.353 0.358 0.364 0.370 0.379 0.388 0.400 0.414 0.431 0.450 0.471 0.496 0.525 0.558 0.595 0.637 0.682 0.723 0.759 0.788 0.812 0.830 0.843 0.853 0.861 0.868 0.874 0.879 0.883 0.887 0.890 0.893 0.897 0.901 0.905 0.909 0.912 0.915 0.917 0.918 0.919 0.920 0.922 0.925 0.927 0.931 0.935 0.940 0.946 0.952 0.957 0.962 0.965 0.968 0.970 0.973 0.975 0.979 0.982 0.987 0.994 1.000 1.004 1.006 1.007 1.006 1.004 1.000 0.994 0.985 0.973 0.957 0.937 0.913 0.883 0.850 0.820 0.795 0.776 0.762 0.751 0.744 0.739 0.736 0.734 0.734 0.734 0.735 0.736 0.739 0.744 0.750 0.760 0.773 0.790 0.810 0.835 0.862 0.888 0.912 0.934 0.954 0.971 0.987 1.001 1.014 1.025 1.034 1.040 1.045 1.048 1.050 1.052 1.052 1.053 1.053 1.053 1.053 1.053 1.052 1.052 1.051 1.050 1.048 1.046 1.043 1.040 1.036 1.031 1.025 1.018 1.010 1.000 0.989 0.981 0.975 0.972 0.970 0.970 0.971 0.973 0.980 0.991 1.010 1.029 1.039 1.039 0.000 
0.000 0.603 0.603 0.537 0.496 0.462 0.438 0.420 0.406 0.396 0.387 0.380 0.376 0.373 0.371 0.370 0.370 0.370 0.371 0.372 0.375 0.379 0.384 0.390 0.398 0.408 0.421 0.435 0.451 0.470 0.492 0.517 0.544 0.575 0.610 0.649 0.691 0.729 0.761 0.789 0.812 0.830 0.845 0.858 0.869 0.879 0.889 0.897 0.905 0.913 0.919 0.925 0.930 0.935 0.939 0.943 0.946 0.949 0.950 0.950 0.950 0.949 0.949 0.950 0.951 0.954 0.958 0.963 0.970 0.977 0.983 0.988 0.991 0.994 0.996 0.998 1.000 1.001 1.003 1.005 1.008 1.010 1.010 1.010 1.009 1.007 1.004 1.000 0.992 0.982 0.969 0.953 0.932 0.908 0.880 0.849 0.823 0.801 0.783 0.769 0.759 0.751 0.746 0.743 0.741 0.741 0.741 0.741 0.742 0.744 0.748 0.753 0.761 0.771 0.785 0.802 0.821 0.843 0.866 0.888 0.910 0.929 0.947 0.964 0.979 0.992 1.004 1.015 1.023 1.030 1.035 1.039 1.041 1.043 1.044 1.045 1.045 1.046 1.045 1.045 1.045 1.044 1.043 1.042 1.040 1.037 1.034 1.030 1.026 1.021 1.014 1.006 0.997 0.988 0.980 0.975 0.973 0.972 0.971 0.972 0.975 0.981 0.993 1.010 1.028 1.036 1.036 0.000 
0.000 0.640 0.640 0.609 0.560 0.512 0.478 0.454 0.435 0.421 0.411 0.403 0.398 0.394 0.392 0.391 0.390 0.390 0.391 0.392 0.394 0.397 0.402 0.408 0.417 0.427 0.439 0.454 0.471 0.490 0.511 0.535 0.562 0.591 0.624 0.661 0.699 0.734 0.764 0.791 0.813 0.833 0.850 0.865 0.879 0.893 0.906 0.918 0.929 0.938 0.947 0.954 0.960 0.966 0.971 0.975 0.978 0.980 0.982 0.982 0.982 0.981 0.980 0.979 0.980 0.982 0.985 0.990 0.996 1.004 1.010 1.014 1.017 1.020 1.021 1.022 1.023 1.024 1.024 1.024 1.023 1.021 1.019 1.017 1.014 1.010 1.005 0.999 0.991 0.980 0.966 0.949 0.929 0.905 0.878 0.849 0.825 0.805 0.788 0.775 0.764 0.757 0.752 0.748 0.747 0.746 0.746 0.746 0.746 0.748 0.751 0.755 0.761 0.770 0.781 0.794 0.810 0.828 0.847 0.868 0.887 0.907 0.925 0.942 0.958 0.972 0.984 0.996 1.005 1.014 1.020 1.026 1.030 1.032 1.035 1.036 1.037 1.037 1.038 1.038 1.037 1.037 1.036 1.035 1.033 1.031 1.028 1.025 1.021 1.016 1.010 1.003 0.994 0.986 0.980 0.975 0.973 0.972 0.972 0.973 0.975 0.981 0.992 1.009 1.026 1.034 1.034 0.000 
0.000 0.675 0.675 0.647 0.595 0.542 0.504 0.477 0.456 0.441 0.430 0.421 0.415 0.412 0.409 0.408 0.407 0.407 0.408 0.408 0.410 0.413 0.418 0.425 0.434 0.444 0.457 0.472 0.489 0.507 0.529 0.552 0.578 0.606 0.637 0.671 0.706 0.739 0.768 0.794 0.817 0.838 0.857 0.875 0.893 0.909 0.925 0.940 0.953 0.964 0.973 0.981 0.989 0.995 1.000 1.005 1.008 1.011 1.012 1.013 1.013 1.013 1.013 1.012 1.013 1.014 1.016 1.020 1.026 1.032 1.037 1.041 1.043 1.045 1.045 1.046 1.046 1.046 1.045 1.043 1.040 1.036 1.031 1.026 1.020 1.014 1.008 1.000 0.991 0.979 0.965 0.947 0.927 0.903 0.876 0.850 0.827 0.808 0.792 0.779 0.769 0.762 0.756 0.753 0.750 0.749 0.749 0.749 0.749 0.750 0.752 0.756 0.761 0.768 0.777 0.787 0.801 0.815 0.832 0.850 0.868 0.886 0.904 0.921 0.938 0.952 0.966 0.978 0.988 0.997 1.005 1.012 1.017 1.021 1.024 1.026 1.028 1.029 1.029 1.029 1.029 1.029 1.029 1.028 1.026 1.025 1.022 1.019 1.016 1.011 1.006 1.000 0.992 0.985 0.979 0.975 0.972 0.971 0.971 0.972 0.974 0.980 0.990 1.007 1.023 1.031 1.031 0.000 
0.000 0.650 0.650 0.652 0.607 0.557 0.519 0.491 0.470 0.455 0.443 0.435 0.429 0.426 0.423 0.422 0.422 0.421 0.422 0.422 0.424 0.428 0.433 0.440 0.449 0.460 0.473 0.488 0.505 0.524 0.545 0.567 0.592 0.619 0.649 0.680 0.713 0.744 0.773 0.799 0.823 0.846 0.868 0.889 0.909 0.928 0.946 0.962 0.976 0.988 0.998 1.007 1.015 1.022 1.028 1.033 1.036 1.039 1.041 1.042 1.043 1.044 1.044 1.045 1.046 1.047 1.049 1.052 1.056 1.061 1.064 1.066 1.068 1.069 1.069 1.069 1.069 1.068 1.066 1.062 1.057 1.051 1.044 1.037 1.029 1.021 1.012 1.002 0.991 0.979 0.964 0.946 0.925 0.901 0.875 0.850 0.829 0.810 0.795 0.783 0.773 0.765 0.760 0.756 0.753 0.752 0.752 0.751 0.752 0.752 0.754 0.756 0.760 0.766 0.773 0.782 0.793 0.805 0.819 0.834 0.851 0.867 0.885 0.902 0.919 0.934 0.948 0.961 0.972 0.982 0.990 0.998 1.004 1.009 1.013 1.016 1.018 1.019 1.020 1.021 1.021 1.021 1.021 1.020 1.019 1.018 1.016 1.014 1.011 1.007 1.002 0.997 0.990 0.984 0.978 0.974 0.971 0.970 0.969 0.969 0.971 0.976 0.985 1.001 1.019 1.029 1.029 0.000 
0.000 0.624 0.624 0.632 0.607 0.563 0.526 0.498 0.478 0.464 0.453 0.445 0.440 0.437 0.435 0.434 0.433 0.433 0.433 0.435 0.437 0.441 0.447 0.455 0.464 0.475 0.489 0.503 0.520 0.539 0.559 0.582 0.606 0.632 0.660 0.689 0.721 0.750 0.779 0.806 0.832 0.857 0.881 0.905 0.927 0.948 0.967 0.983 0.998 1.010 1.022 1.031 1.040 1.047 1.053 1.059 1.063 1.066 1.068 1.070 1.072 1.073 1.074 1.075 1.076 1.077 1.079 1.081 1.084 1.087 1.089 1.091 1.091 1.092 1.092 1.091 1.090 1.089 1.086 1.081 1.076 1.068 1.060 1.050 1.040 1.029 1.018 1.006 0.993 0.979 0.963 0.945 0.924 0.900 0.875 0.851 0.831 0.813 0.798 0.786 0.776 0.768 0.762 0.758 0.756 0.754 0.753 0.753 0.753 0.753 0.754 0.756 0.759 0.764 0.769 0.777 0.786 0.796 0.808 0.821 0.836 0.851 0.867 0.884 0.901 0.917 0.932 0.945 0.957 0.967 0.977 0.985 0.991 0.997 1.001 1.005 1.008 1.010 1.011 1.012 1.013 1.013 1.013 1.013 1.012 1.012 1.010 1.008 1.006 1.003 0.999 0.994 0.988 0.982 0.977 0.973 0.969 0.966 0.964 0.963 0.964 0.967 0.975 0.991 1.013 1.026 1.026 0.000 
0.000 0.598 0.598 0.608 0.594 0.564 0.527 0.501 0.482 0.469 0.459 0.452 0.448 0.445 0.443 0.443 0.442 0.442 0.443 0.445 0.448 0.453 0.460 0.468 0.478 0.489 0.502 0.517 0.534 0.553 0.573 0.594 0.618 0.643 0.670 0.698 0.728 0.758 0.787 0.815 0.843 0.871 0.897 0.923 0.946 0.967 0.986 1.003 1.018 1.031 1.043 1.054 1.063 1.071 1.077 1.083 1.087 1.091 1.094 1.096 1.098 1.099 1.101 1.102 1.103 1.105 1.106 1.108 1.110 1.112 1.113 1.114 1.114 1.114 1.114 1.113 1.111 1.109 1.105 1.100 1.094 1.086 1.076 1.065 1.052 1.039 1.025 1.011 0.996 0.980 0.963 0.944 0.923 0.899 0.875 0.852 0.832 0.815 0.801 0.788 0.779 0.771 0.765 0.760 0.757 0.755 0.754 0.754 0.754 0.754 0.754 0.756 0.758 0.762 0.766 0.772 0.780 0.788 0.799 0.810 0.823 0.837 0.852 0.868 0.884 0.901 0.916 0.930 0.943 0.954 0.964 0.972 0.980 0.986 0.991 0.995 0.999 1.001 1.003 1.004 1.005 1.005 1.006 1.006 1.005 1.005 1.004 1.003 1.001 0.998 0.995 0.991 0.986 0.981 0.976 0.971 0.966 0.961 0.956 0.952 0.951 0.952 0.958 0.973 1.005 1.023 1.023 0.000 
0.000 0.572 0.572 0.583 0.575 0.556 0.527 0.501 0.483 0.471 0.462 0.457 0.453 0.451 0.450 0.450 0.450 0.450 0.452 0.454 0.459 0.464 0.471 0.480 0.490 0.502 0.515 0.530 0.547 0.565 0.585 0.606 0.629 0.654 0.680 0.708 0.736 0.766 0.796 0.827 0.857 0.886 0.913 0.939 0.962 0.984 1.003 1.021 1.037 1.051 1.063 1.074 1.084 1.092 1.099 1.105 1.110 1.114 1.118 1.120 1.122 1.124 1.126 1.127 1.129 1.130 1.131 1.133 1.134 1.135 1.135 1.136 1.136 1.135 1.135 1.133 1.131 1.128 1.124 1.118 1.111 1.102 1.092 1.080 1.066 1.051 1.035 1.018 1.001 0.983 0.964 0.944 0.922 0.899 0.875 0.853 0.834 0.817 0.803 0.791 0.781 0.773 0.767 0.762 0.758 0.756 0.755 0.754 0.754 0.754 0.754 0.756 0.757 0.760 0.764 0.768 0.774 0.782 0.791 0.801 0.812 0.825 0.838 0.853 0.869 0.886 0.902 0.916 0.930 0.942 0.952 0.961 0.969 0.976 0.981 0.986 0.990 0.993 0.995 0.996 0.998 0.998 0.998 0.999 0.999 0.998 0.998 0.997 0.995 0.993 0.991 0.987 0.983 0.979 0.974 0.968 0.962 0.955 0.947 0.938 0.930 0.926 0.927 0.940 0.986 1.042 1.042 0.000 
0.000 0.546 0.546 0.558 0.553 0.542 0.522 0.500 0.483 0.471 0.464 0.459 0.457 0.455 0.455 0.455 0.455 0.457 0.459 0.463 0.468 0.474 0.482 0.491 0.501 0.513 0.527 0.542 0.558 0.576 0.596 0.617 0.639 0.664 0.689 0.717 0.745 0.775 0.806 0.838 0.870 0.899 0.927 0.953 0.977 0.999 1.020 1.038 1.054 1.069 1.082 1.093 1.104 1.112 1.120 1.126 1.132 1.136 1.140 1.143 1.145 1.147 1.149 1.150 1.152 1.153 1.154 1.155 1.156 1.156 1.156 1.156 1.156 1.155 1.154 1.152 1.150 1.146 1.141 1.135 1.128 1.118 1.108 1.095 1.080 1.064 1.046 1.027 1.008 0.987 0.967 0.945 0.922 0.898 0.876 0.855 0.836 0.819 0.805 0.793 0.783 0.775 0.768 0.763 0.759 0.757 0.755 0.754 0.754 0.754 0.754 0.755 0.756 0.758 0.761 0.765 0.770 0.776 0.783 0.792 0.803 0.814 0.827 0.841 0.856 0.872 0.888 0.904 0.918 0.930 0.941 0.951 0.959 0.966 0.973 0.978 0.982 0.985 0.987 0.989 0.990 0.991 0.992 0.992 0.992 0.992 0.992 0.991 0.990 0.989 0.986 0.984 0.980 0.976 0.971 0.965 0.958 0.950 0.940 0.928 0.913 0.896 0.879 0.867 0.910 1.069 1.069 0.000 
0.000 0.520 0.520 0.533 0.530 0.523 0.512 0.495 0.481 0.470 0.464 0.460 0.459 0.458 0.458 0.459 0.460 0.462 0.466 0.470 0.476 0.483 0.491 0.501 0.512 0.524 0.537 0.552 0.569 0.586 0.605 0.626 0.648 0.672 0.698 0.725 0.753 0.783 0.815 0.848 0.880 0.911 0.939 0.966 0.991 1.013 1.034 1.053 1.070 1.085 1.099 1.111 1.122 1.131 1.139 1.146 1.151 1.156 1.160 1.163 1.166 1.168 1.170 1.172 1.173 1.174 1.175 1.175 1.176 1.176 1.176 1.176 1.175 1.174 1.173 1.170 1.167 1.163 1.158 1.151 1.143 1.134 1.122 1.109 1.094 1.077 1.058 1.037 1.016 0.993 0.970 0.946 0.923 0.899 0.877 0.856 0.838 0.822 0.807 0.795 0.785 0.776 0.770 0.764 0.760 0.757 0.756 0.755 0.754 0.754 0.754 0.754 0.755 0.757 0.759 0.762 0.766 0.771 0.777 0.785 0.794 0.805 0.817 0.830 0.844 0.860 0.876 0.892 0.907 0.920 0.931 0.941 0.950 0.958 0.964 0.970 0.974 0.977 0.980 0.982 0.984 0.984 0.985 0.985 0.985 0.985 0.985 0.985 0.985 0.984 0.982 0.980 0.977 0.973 0.968 0.961 0.954 0.945 0.935 0.922 0.905 0.882 0.844 0.775 0.682 0.679 0.679 0.000 
0.000 0.495 0.495 0.507 0.506 0.502 0.497 0.487 0.476 0.468 0.463 0.460 0.460 0.460 0.460 0.462 0.464 0.467 0.472 0.477 0.484 0.491 0.500 0.510 0.521 0.533 0.547 0.561 0.578 0.595 0.614 0.634 0.656 0.680 0.705 0.732 0.761 0.791 0.823 0.857 0.890 0.921 0.950 0.977 1.003 1.026 1.048 1.067 1.085 1.100 1.115 1.127 1.138 1.148 1.156 1.164 1.170 1.175 1.179 1.182 1.185 1.188 1.189 1.191 1.192 1.193 1.193 1.194 1.194 1.194 1.194 1.194 1.193 1.192 1.190 1.187 1.184 1.179 1.174 1.167 1.158 1.148 1.136 1.123 1.107 1.090 1.070 1.048 1.025 1.000 0.975 0.949 0.924 0.900 0.878 0.858 0.840 0.824 0.810 0.797 0.787 0.778 0.771 0.765 0.761 0.758 0.756 0.754 0.754 0.754 0.753 0.754 0.754 0.755 0.756 0.759 0.762 0.767 0.772 0.779 0.787 0.797 0.808 0.820 0.834 0.849 0.865 0.881 0.896 0.910 0.922 0.933 0.942 0.950 0.957 0.962 0.967 0.971 0.973 0.976 0.977 0.978 0.979 0.979 0.979 0.979 0.979 0.979 0.979 0.978 0.977 0.975 0.972 0.968 0.963 0.957 0.950 0.941 0.931 0.919 0.903 0.879 0.838 0.755 0.557 0.134 0.134 0.000 
0.000 0.469 0.469 0.482 0.481 0.480 0.478 0.474 0.468 0.463 0.461 0.460 0.459 0.460 0.462 0.464 0.468 0.472 0.477 0.483 0.491 0.499 0.508 0.518 0.529 0.541 0.555 0.569 0.585 0.603 0.621 0.641 0.663 0.686 0.712 0.738 0.767 0.797 0.830 0.864 0.898 0.930 0.960 0.988 1.014 1.037 1.059 1.080 1.098 1.114 1.129 1.142 1.154 1.164 1.172 1.180 1.186 1.192 1.196 1.200 1.203 1.205 1.207 1.209 1.210 1.210 1.211 1.211 1.211 1.211 1.211 1.210 1.210 1.208 1.206 1.203 1.200 1.195 1.189 1.181 1.173 1.162 1.150 1.136 1.120 1.102 1.081 1.059 1.035 1.008 0.980 0.953 0.927 0.903 0.881 0.861 0.843 0.826 0.812 0.800 0.789 0.780 0.772 0.766 0.762 0.758 0.756 0.754 0.753 0.753 0.753 0.753 0.753 0.753 0.755 0.756 0.759 0.763 0.768 0.774 0.781 0.790 0.800 0.812 0.825 0.839 0.855 0.871 0.887 0.901 0.914 0.925 0.935 0.943 0.950 0.956 0.961 0.964 0.967 0.969 0.971 0.972 0.973 0.973 0.973 0.973 0.973 0.973 0.973 0.972 0.971 0.970 0.967 0.964 0.959 0.953 0.946 0.938 0.929 0.919 0.905 0.883 0.847 0.781 0.643 0.435 0.435 0.000 
0.000 0.443 0.443 0.456 0.456 0.457 0.457 0.457 0.456 0.456 0.456 0.457 0.458 0.460 0.463 0.467 0.471 0.476 0.482 0.489 0.497 0.505 0.514 0.525 0.536 0.548 0.562 0.576 0.592 0.609 0.628 0.647 0.669 0.692 0.717 0.744 0.773 0.803 0.836 0.870 0.904 0.937 0.968 0.996 1.023 1.048 1.070 1.091 1.110 1.127 1.142 1.155 1.167 1.178 1.187 1.195 1.202 1.207 1.212 1.216 1.219 1.222 1.223 1.225 1.226 1.226 1.227 1.227 1.227 1.227 1.227 1.226 1.225 1.223 1.221 1.218 1.214 1.209 1.203 1.195 1.186 1.175 1.163 1.148 1.132 1.113 1.093 1.070 1.044 1.017 0.987 0.958 0.931 0.907 0.884 0.864 0.846 0.829 0.815 0.802 0.791 0.781 0.774 0.767 0.762 0.759 0.756 0.754 0.753 0.752 0.752 0.752 0.752 0.752 0.753 0.754 0.757 0.760 0.764 0.770 0.776 0.784 0.794 0.804 0.817 0.830 0.846 0.862 0.878 0.893 0.906 0.918 0.928 0.936 0.944 0.950 0.955 0.959 0.962 0.964 0.965 0.967 0.967 0.968 0.968 0.968 0.968 0.968 0.967 0.967 0.966 0.964 0.962 0.958 0.954 0.948 0.942 0.935 0.928 0.920 0.911 0.900 0.888 0.880 0.905 1.014 1.014 0.000 
0.000 0.417 0.417 0.430 0.432 0.433 0.435 0.438 0.441 0.445 0.449 0.453 0.456 0.460 0.464 0.469 0.474 0.480 0.487 0.494 0.502 0.511 0.520 0.531 0.542 0.555 0.568 0.582 0.598 0.615 0.633 0.653 0.674 0.697 0.722 0.749 0.777 0.808 0.840 0.875 0.910 0.943 0.975 1.004 1.031 1.057 1.080 1.101 1.120 1.138 1.154 1.168 1.180 1.191 1.200 1.209 1.216 1.222 1.227 1.231 1.234 1.236 1.238 1.240 1.241 1.241 1.241 1.242 1.242 1.241 1.241 1.240 1.239 1.238 1.235 1.232 1.228 1.222 1.216 1.208 1.199 1.188 1.175 1.160 1.144 1.125 1.104 1.080 1.054 1.026 0.995 0.964 0.937 0.911 0.889 0.868 0.849 0.832 0.817 0.804 0.793 0.783 0.775 0.768 0.763 0.759 0.756 0.753 0.752 0.751 0.751 0.750 0.750 0.751 0.751 0.752 0.754 0.757 0.761 0.766 0.772 0.779 0.788 0.798 0.810 0.823 0.838 0.854 0.871 0.886 0.899 0.911 0.922 0.931 0.938 0.944 0.949 0.953 0.957 0.959 0.960 0.961 0.962 0.962 0.962 0.962 0.962 0.962 0.962 0.961 0.960 0.958 0.955 0.952 0.948 0.942 0.936 0.931 0.927 0.924 0.922 0.924 0.934 0.962 1.035 1.132 1.132 0.000 
0.000 0.391 0.391 0.405 0.408 0.411 0.415 0.420 0.427 0.434 0.441 0.447 0.453 0.459 0.464 0.470 0.477 0.483 0.490 0.498 0.507 0.516 0.525 0.536 0.547 0.560 0.573 0.587 0.602 0.619 0.637 0.657 0.678 0.701 0.726 0.753 0.782 0.812 0.845 0.879 0.915 0.949 0.981 1.011 1.038 1.064 1.088 1.110 1.130 1.148 1.164 1.179 1.191 1.203 1.213 1.221 1.228 1.235 1.240 1.244 1.247 1.250 1.252 1.253 1.254 1.255 1.255 1.255 1.255 1.255 1.254 1.254 1.252 1.251 1.248 1.245 1.240 1.235 1.228 1.220 1.211 1.200 1.187 1.172 1.155 1.136 1.114 1.090 1.064 1.035 1.003 0.972 0.943 0.917 0.893 0.872 0.853 0.835 0.820 0.806 0.795 0.785 0.776 0.769 0.764 0.759 0.756 0.753 0.751 0.750 0.750 0.749 0.749 0.750 0.750 0.751 0.753 0.755 0.758 0.763 0.768 0.775 0.783 0.793 0.804 0.817 0.831 0.847 0.863 0.879 0.893 0.905 0.916 0.925 0.933 0.940 0.945 0.949 0.952 0.954 0.956 0.957 0.957 0.958 0.958 0.958 0.957 0.957 0.956 0.955 0.954 0.952 0.949 0.945 0.941 0.936 0.931 0.927 0.925 0.925 0.928 0.936 0.956 0.996 1.064 1.116 1.116 0.000 
0.000 0.365 0.365 0.380 0.384 0.390 0.397 0.405 0.415 0.426 0.435 0.443 0.451 0.458 0.465 0.472 0.479 0.486 0.494 0.502 0.511 0.520 0.530 0.540 0.552 0.564 0.577 0.591 0.606 0.623 0.641 0.660 0.682 0.705 0.730 0.756 0.785 0.815 0.848 0.882 0.918 0.953 0.986 1.016 1.045 1.071 1.095 1.118 1.138 1.157 1.173 1.188 1.202 1.213 1.224 1.232 1.240 1.246 1.252 1.256 1.259 1.262 1.264 1.265 1.266 1.267 1.267 1.267 1.267 1.267 1.267 1.266 1.265 1.263 1.260 1.257 1.252 1.247 1.240 1.232 1.222 1.211 1.198 1.183 1.166 1.146 1.125 1.101 1.074 1.045 1.013 0.980 0.951 0.924 0.899 0.877 0.857 0.839 0.823 0.809 0.797 0.786 0.778 0.770 0.764 0.759 0.756 0.753 0.751 0.750 0.749 0.749 0.749 0.749 0.749 0.750 0.751 0.753 0.756 0.760 0.765 0.771 0.779 0.788 0.799 0.811 0.825 0.840 0.857 0.873 0.887 0.900 0.911 0.921 0.929 0.935 0.941 0.945 0.948 0.950 0.952 0.953 0.953 0.953 0.953 0.953 0.953 0.952 0.951 0.950 0.948 0.945 0.942 0.938 0.933 0.928 0.925 0.923 0.923 0.924 0.928 0.939 0.963 1.007 1.069 1.107 1.107 0.000 
0.000 0.339 0.339 0.354 0.362 0.370 0.380 0.393 0.408 0.420 0.431 0.441 0.449 0.457 0.465 0.473 0.480 0.488 0.496 0.505 0.514 0.523 0.533 0.544 0.555 0.567 0.580 0.594 0.609 0.626 0.644 0.663 0.685 0.708 0.733 0.759 0.788 0.818 0.851 0.885 0.921 0.956 0.990 1.021 1.050 1.077 1.102 1.125 1.146 1.165 1.182 1.197 1.211 1.223 1.233 1.243 1.250 1.257 1.262 1.267 1.270 1.273 1.275 1.277 1.278 1.278 1.278 1.278 1.278 1.278 1.278 1.277 1.276 1.274 1.271 1.268 1.263 1.258 1.251 1.243 1.233 1.221 1.208 1.193 1.176 1.157 1.135 1.111 1.084 1.055 1.022 0.989 0.959 0.931 0.905 0.882 0.861 0.843 0.826 0.812 0.799 0.788 0.779 0.771 0.765 0.760 0.756 0.753 0.751 0.749 0.748 0.748 0.748 0.748 0.748 0.749 0.750 0.752 0.754 0.758 0.763 0.769 0.776 0.784 0.795 0.806 0.820 0.835 0.851 0.868 0.882 0.895 0.907 0.917 0.925 0.931 0.937 0.941 0.944 0.947 0.948 0.949 0.949 0.950 0.950 0.950 0.949 0.948 0.947 0.945 0.942 0.939 0.935 0.929 0.924 0.920 0.918 0.917 0.917 0.920 0.925 0.938 0.963 1.008 1.067 1.099 1.099 0.000 
0.000 0.314 0.314 0.330 0.340 0.352 0.367 0.386 0.402 0.417 0.429 0.439 0.449 0.457 0.466 0.474 0.482 0.490 0.499 0.508 0.517 0.526 0.536 0.546 0.557 0.569 0.582 0.596 0.611 0.628 0.646 0.666 0.687 0.710 0.735 0.762 0.790 0.820 0.853 0.887 0.923 0.959 0.993 1.025 1.054 1.082 1.107 1.131 1.152 1.172 1.189 1.205 1.219 1.231 1.242 1.252 1.260 1.266 1.272 1.277 1.280 1.283 1.285 1.287 1.288 1.288 1.289 1.289 1.289 1.288 1.288 1.287 1.286 1.284 1.281 1.278 1.273 1.268 1.261 1.253 1.243 1.231 1.218 1.203 1.186 1.167 1.145 1.121 1.094 1.065 1.033 0.999 0.967 0.938 0.912 0.888 0.866 0.847 0.830 0.815 0.801 0.790 0.780 0.772 0.766 0.760 0.756 0.753 0.751 0.749 0.748 0.748 0.747 0.747 0.748 0.748 0.749 0.751 0.753 0.756 0.761 0.766 0.773 0.781 0.791 0.802 0.815 0.830 0.846 0.863 0.878 0.891 0.903 0.913 0.921 0.928 0.934 0.938 0.941 0.944 0.945 0.946 0.946 0.946 0.946 0.946 0.946 0.945 0.943 0.941 0.938 0.933 0.928 0.922 0.916 0.911 0.909 0.908 0.908 0.910 0.916 0.929 0.955 1.000 1.061 1.095 1.095 0.000 
0.000 0.288 0.288 0.305 0.319 0.336 0.358 0.381 0.400 0.415 0.428 0.439 0.449 0.458 0.466 0.475 0.484 0.492 0.501 0.510 0.519 0.528 0.538 0.548 0.559 0.571 0.584 0.598 0.613 0.630 0.648 0.668 0.689 0.712 0.737 0.763 0.792 0.822 0.854 0.889 0.925 0.961 0.996 1.028 1.058 1.086 1.112 1.136 1.158 1.178 1.196 1.212 1.226 1.239 1.250 1.260 1.268 1.275 1.281 1.286 1.289 1.292 1.294 1.296 1.297 1.298 1.298 1.298 1.298 1.298 1.297 1.296 1.295 1.293 1.291 1.287 1.283 1.277 1.270 1.262 1.252 1.241 1.228 1.213 1.196 1.176 1.155 1.131 1.104 1.075 1.043 1.009 0.976 0.946 0.919 0.894 0.871 0.851 0.833 0.818 0.804 0.792 0.782 0.773 0.766 0.761 0.756 0.753 0.751 0.749 0.748 0.747 0.747 0.747 0.747 0.748 0.748 0.750 0.752 0.755 0.759 0.764 0.771 0.778 0.788 0.799 0.811 0.826 0.842 0.859 0.874 0.888 0.900 0.910 0.918 0.925 0.931 0.935 0.939 0.941 0.942 0.943 0.944 0.944 0.944 0.944 0.943 0.942 0.940 0.937 0.933 0.928 0.922 0.915 0.908 0.902 0.897 0.894 0.893 0.893 0.897 0.908 0.931 0.975 1.045 1.092 1.092 0.000 
0.000 0.262 0.262 0.280 0.299 0.323 0.353 0.379 0.399 0.415 0.428 0.439 0.449 0.458 0.467 0.476 0.485 0.494 0.502 0.511 0.520 0.530 0.539 0.550 0.560 0.572 0.585 0.599 0.615 0.631 0.650 0.669 0.691 0.713 0.738 0.765 0.793 0.823 0.856 0.890 0.926 0.963 0.998 1.030 1.061 1.090 1.116 1.140 1.162 1.183 1.201 1.218 1.232 1.245 1.257 1.267 1.275 1.283 1.289 1.293 1.297 1.300 1.303 1.304 1.305 1.306 1.306 1.306 1.306 1.306 1.306 1.305 1.304 1.302 1.299 1.296 1.291 1.286 1.279 1.271 1.261 1.250 1.237 1.222 1.205 1.185 1.164 1.140 1.114 1.085 1.054 1.019 0.985 0.954 0.926 0.900 0.877 0.856 0.837 0.821 0.806 0.794 0.783 0.775 0.767 0.761 0.757 0.753 0.751 0.749 0.748 0.747 0.747 0.747 0.747 0.747 0.748 0.749 0.751 0.754 0.758 0.763 0.769 0.776 0.785 0.796 0.808 0.822 0.838 0.855 0.871 0.884 0.897 0.907 0.916 0.923 0.929 0.933 0.937 0.939 0.940 0.941 0.942 0.942 0.942 0.941 0.941 0.939 0.937 0.934 0.930 0.924 0.917 0.909 0.900 0.891 0.883 0.876 0.870 0.866 0.864 0.868 0.883 0.921 1.005 1.090 1.090 0.000 
0.000 0.236 0.236 0.256 0.280 0.316 0.351 0.378 0.399 0.415 0.429 0.440 0.450 0.460 0.469 0.478 0.486 0.495 0.504 0.513 0.522 0.531 0.540 0.550 0.561 0.573 0.586 0.600 0.616 0.632 0.651 0.670 0.692 0.715 0.739 0.766 0.794 0.824 0.856 0.891 0.927 0.964 0.999 1.032 1.063 1.092 1.119 1.144 1.166 1.187 1.206 1.223 1.238 1.251 1.263 1.273 1.282 1.289 1.295 1.301 1.305 1.308 1.310 1.312 1.313 1.313 1.314 1.314 1.314 1.314 1.313 1.313 1.311 1.310 1.307 1.304 1.299 1.294 1.287 1.279 1.269 1.258 1.245 1.230 1.213 1.194 1.173 1.149 1.123 1.095 1.064 1.030 0.995 0.963 0.933 0.907 0.882 0.861 0.841 0.824 0.809 0.796 0.785 0.776 0.768 0.762 0.757 0.753 0.751 0.749 0.748 0.747 0.747 0.747 0.747 0.747 0.748 0.749 0.751 0.753 0.757 0.761 0.767 0.774 0.783 0.794 0.806 0.819 0.835 0.852 0.868 0.882 0.894 0.905 0.914 0.921 0.927 0.931 0.935 0.937 0.939 0.940 0.940 0.940 0.940 0.940 0.939 0.937 0.935 0.932 0.927 0.921 0.913 0.904 0.892 0.880 0.867 0.854 0.840 0.827 0.813 0.802 0.797 0.814 0.887 1.087 1.087 0.000 
0.000 0.210 0.210 0.232 0.267 0.314 0.352 0.380 0.401 0.417 0.431 0.442 0.452 0.462 0.471 0.479 0.488 0.497 0.505 0.514 0.522 0.531 0.540 0.551 0.562 0.574 0.587 0.601 0.616 0.633 0.651 0.671 0.692 0.715 0.740 0.766 0.795 0.825 0.857 0.891 0.927 0.965 1.000 1.034 1.065 1.094 1.122 1.147 1.170 1.191 1.210 1.227 1.242 1.256 1.268 1.278 1.287 1.295 1.302 1.307 1.311 1.314 1.317 1.318 1.320 1.320 1.321 1.321 1.321 1.321 1.320 1.320 1.318 1.317 1.314 1.311 1.307 1.301 1.294 1.286 1.277 1.266 1.253 1.238 1.222 1.203 1.182 1.158 1.132 1.104 1.073 1.040 1.004 0.971 0.941 0.913 0.888 0.866 0.846 0.828 0.812 0.799 0.787 0.777 0.769 0.763 0.758 0.754 0.751 0.749 0.748 0.747 0.747 0.747 0.747 0.747 0.747 0.748 0.750 0.753 0.756 0.760 0.766 0.773 0.782 0.792 0.803 0.817 0.832 0.849 0.865 0.879 0.892 0.903 0.912 0.919 0.925 0.930 0.933 0.936 0.937 0.938 0.939 0.939 0.939 0.938 0.938 0.936 0.934 0.930 0.925 0.918 0.910 0.899 0.886 0.871 0.854 0.835 0.813 0.787 0.757 0.720 0.675 0.625 0.579 0.612 0.612 0.000 
0.000 0.184 0.184 0.210 0.263 0.318 0.356 0.385 0.406 0.422 0.435 0.446 0.456 0.465 0.473 0.482 0.490 0.498 0.506 0.514 0.522 0.531 0.540 0.551 0.562 0.574 0.587 0.601 0.617 0.634 0.652 0.672 0.693 0.716 0.740 0.767 0.795 0.825 0.857 0.891 0.927 0.965 1.001 1.035 1.066 1.096 1.124 1.149 1.172 1.194 1.213 1.231 1.246 1.260 1.272 1.283 1.292 1.300 1.307 1.312 1.317 1.320 1.323 1.324 1.326 1.326 1.327 1.327 1.327 1.327 1.326 1.326 1.325 1.323 1.321 1.317 1.313 1.308 1.301 1.293 1.284 1.273 1.260 1.246 1.229 1.211 1.190 1.167 1.141 1.113 1.082 1.049 1.014 0.980 0.949 0.920 0.894 0.871 0.850 0.832 0.815 0.801 0.789 0.779 0.771 0.764 0.759 0.754 0.751 0.749 0.748 0.747 0.747 0.747 0.747 0.747 0.747 0.748 0.750 0.752 0.755 0.760 0.765 0.772 0.780 0.790 0.801 0.815 0.829 0.846 0.862 0.877 0.890 0.901 0.910 0.918 0.924 0.929 0.932 0.935 0.937 0.937 0.938 0.938 0.938 0.938 0.937 0.935 0.933 0.929 0.923 0.916 0.907 0.896 0.882 0.865 0.845 0.821 0.793 0.759 0.718 0.665 0.592 0.481 0.285 0.063 0.063 0.000 
0.000 0.193 0.193 0.206 0.272 0.329 0.368 0.395 0.415 0.430 0.442 0.452 0.461 0.469 0.477 0.484 0.492 0.499 0.507 0.514 0.522 0.531 0.540 0.551 0.562 0.574 0.587 0.602 0.617 0.634 0.652 0.672 0.693 0.716 0.741 0.767 0.795 0.825 0.857 0.891 0.927 0.965 1.001 1.035 1.067 1.097 1.125 1.151 1.174 1.196 1.216 1.234 1.249 1.264 1.276 1.287 1.297 1.305 1.311 1.317 1.322 1.325 1.328 1.330 1.331 1.332 1.332 1.332 1.332 1.332 1.332 1.331 1.330 1.329 1.326 1.323 1.319 1.314 1.308 1.300 1.291 1.280 1.267 1.253 1.237 1.218 1.198 1.175 1.150 1.122 1.091 1.059 1.023 0.989 0.956 0.927 0.900 0.876 0.855 0.836 0.819 0.804 0.792 0.781 0.772 0.765 0.759 0.755 0.752 0.750 0.748 0.747 0.747 0.747 0.747 0.747 0.747 0.748 0.750 0.752 0.755 0.759 0.765 0.771 0.779 0.789 0.800 0.813 0.827 0.844 0.860 0.875 0.888 0.899 0.909 0.917 0.923 0.928 0.932 0.934 0.936 0.937 0.937 0.937 0.937 0.937 0.936 0.935 0.932 0.928 0.923 0.915 0.906 0.894 0.879 0.861 0.839 0.812 0.779 0.740 0.692 0.633 0.555 0.439 0.218 0.000 0.000 0.000 
0.000 0.306 0.306 0.251 0.303 0.357 0.392 0.415 0.431 0.443 0.453 0.461 0.468 0.474 0.481 0.487 0.493 0.500 0.507 0.514 0.522 0.531 0.540 0.551 0.562 0.574 0.587 0.602 0.617 0.634 0.652 0.672 0.693 0.716 0.741 0.767 0.795 0.825 0.857 0.891 0.927 0.965 1.001 1.036 1.068 1.098 1.126 1.152 1.176 1.198 1.218 1.236 1.252 1.267 1.279 1.291 1.300 1.309 1.315 1.321 1.326 1.329 1.332 1.334 1.336 1.337 1.337 1.337 1.337 1.337 1.337 1.336 1.335 1.334 1.332 1.329 1.325 1.319 1.313 1.306 1.297 1.286 1.274 1.260 1.244 1.226 1.205 1.183 1.158 1.130 1.100 1.068 1.033 0.997 0.964 0.934 0.907 0.882 0.860 0.840 0.822 0.807 0.794 0.783 0.774 0.767 0.761 0.756 0.752 0.750 0.748 0.747 0.747 0.747 0.747 0.747 0.747 0.748 0.750 0.752 0.755 0.759 0.764 0.771 0.778 0.788 0.799 0.811 0.826 0.842 0.859 0.874 0.887 0.898 0.908 0.916 0.922 0.927 0.931 0.934 0.936 0.937 0.937 0.937 0.937 0.937 0.936 0.934 0.932 0.928 0.922 0.915 0.905 0.893 0.878 0.859 0.835 0.806 0.771 0.728 0.676 0.614 0.545 0.451 0.279 0.000 0.000 0.000 
0.000 0.436 0.436 0.368 0.380 0.410 0.433 0.446 0.456 0.463 0.468 0.472 0.476 0.481 0.485 0.490 0.495 0.500 0.507 0.514 0.522 0.531 0.540 0.551 0.562 0.574 0.587 0.602 0.617 0.634 0.652 0.672 0.693 0.716 0.741 0.767 0.795 0.825 0.857 0.891 0.927 0.965 1.001 1.036 1.068 1.099 1.127 1.153 1.177 1.199 1.220 1.238 1.254 1.269 1.282 1.293 1.303 1.312 1.319 1.325 1.330 1.333 1.336 1.338 1.340 1.341 1.341 1.341 1.341 1.341 1.341 1.341 1.340 1.338 1.336 1.333 1.329 1.325 1.318 1.311 1.302 1.292 1.280 1.266 1.250 1.232 1.212 1.190 1.166 1.138 1.109 1.077 1.042 1.006 0.972 0.941 0.913 0.887 0.864 0.844 0.826 0.810 0.797 0.786 0.776 0.768 0.762 0.757 0.753 0.751 0.749 0.748 0.747 0.747 0.747 0.747 0.748 0.748 0.750 0.752 0.755 0.759 0.764 0.770 0.778 0.787 0.798 0.810 0.824 0.840 0.857 0.872 0.885 0.897 0.907 0.915 0.922 0.927 0.931 0.934 0.935 0.936 0.937 0.937 0.937 0.937 0.936 0.934 0.932 0.928 0.922 0.915 0.905 0.893 0.877 0.858 0.834 0.804 0.768 0.723 0.666 0.602 0.551 0.522 0.521 0.492 0.492 0.000 
0.000 0.611 0.611 0.515 0.505 0.497 0.492 0.487 0.483 0.481 0.481 0.482 0.484 0.486 0.488 0.492 0.496 0.501 0.507 0.514 0.522 0.530 0.540 0.551 0.562 0.574 0.587 0.602 0.617 0.634 0.652 0.672 0.693 0.716 0.741 0.767 0.795 0.825 0.857 0.891 0.927 0.965 1.001 1.036 1.068 1.099 1.127 1.154 1.178 1.200 1.221 1.239 1.256 1.271 1.284 1.296 1.306 1.314 1.322 1.328 1.333 1.337 1.340 1.342 1.343 1.344 1.345 1.345 1.345 1.345 1.345 1.345 1.344 1.342 1.340 1.338 1.334 1.329 1.323 1.316 1.307 1.297 1.286 1.272 1.256 1.239 1.219 1.197 1.173 1.146 1.117 1.085 1.051 1.014 0.980 0.948 0.919 0.893 0.870 0.849 0.830 0.814 0.800 0.788 0.778 0.770 0.763 0.758 0.754 0.751 0.750 0.748 0.748 0.747 0.747 0.748 0.748 0.749 0.750 0.752 0.755 0.759 0.764 0.770 0.777 0.786 0.797 0.809 0.823 0.839 0.855 0.871 0.884 0.896 0.906 0.915 0.921 0.927 0.931 0.934 0.935 0.936 0.937 0.937 0.937 0.937 0.936 0.934 0.932 0.928 0.922 0.915 0.905 0.893 0.877 0.858 0.834 0.804 0.767 0.722 0.664 0.598 0.554 0.548 0.629 1.033 1.033 0.000 
0.000 0.785 0.785 0.688 0.638 0.580 0.540 0.515 0.501 0.493 0.490 0.488 0.489 0.489 0.491 0.493 0.497 0.501 0.507 0.514 0.522 0.530 0.540 0.550 0.562 0.574 0.587 0.602 0.617 0.634 0.652 0.672 0.693 0.716 0.740 0.767 0.795 0.825 0.857 0.891 0.927 0.965 1.001 1.036 1.068 1.099 1.127 1.154 1.178 1.201 1.222 1.240 1.257 1.272 1.286 1.297 1.308 1.317 1.324 1.330 1.335 1.339 1.343 1.345 1.346 1.348 1.348 1.348 1.349 1.349 1.348 1.348 1.347 1.346 1.344 1.341 1.338 1.333 1.327 1.320 1.312 1.302 1.291 1.277 1.262 1.245 1.226 1.204 1.180 1.154 1.125 1.094 1.060 1.023 0.988 0.956 0.926 0.899 0.875 0.853 0.834 0.818 0.803 0.791 0.781 0.772 0.765 0.760 0.756 0.752 0.750 0.749 0.748 0.748 0.748 0.748 0.748 0.749 0.750 0.752 0.755 0.759 0.764 0.770 0.777 0.786 0.796 0.808 0.822 0.837 0.854 0.870 0.883 0.895 0.906 0.914 0.921 0.926 0.931 0.934 0.935 0.936 0.937 0.937 0.937 0.937 0.936 0.934 0.932 0.928 0.922 0.915 0.905 0.893 0.877 0.858 0.834 0.804 0.768 0.723 0.666 0.602 0.549 0.516 0.505 0.568 0.568 0.000 
0.000 0.955 0.955 0.846 0.721 0.622 0.563 0.528 0.509 0.499 0.494 0.492 0.491 0.491 0.492 0.494 0.497 0.502 0.507 0.514 0.522 0.530 0.540 0.550 0.562 0.574 0.587 0.602 0.617 0.634 0.652 0.672 0.693 0.716 0.740 0.767 0.795 0.825 0.857 0.891 0.927 0.964 1.001 1.036 1.068 1.099 1.127 1.154 1.179 1.201 1.222 1.241 1.258 1.273 1.287 1.299 1.309 1.318 1.326 1.332 1.338 1.342 1.345 1.347 1.349 1.350 1.351 1.351 1.351 1.351 1.351 1.351 1.350 1.349 1.347 1.345 1.341 1.337 1.331 1.324 1.316 1.307 1.296 1.283 1.268 1.251 1.232 1.211 1.187 1.161 1.133 1.102 1.068 1.032 0.996 0.963 0.933 0.905 0.881 0.858 0.839 0.822 0.807 0.794 0.783 0.774 0.767 0.761 0.757 0.754 0.751 0.750 0.749 0.749 0.749 0.749 0.749 0.750 0.751 0.753 0.755 0.759 0.764 0.770 0.777 0.786 0.796 0.808 0.821 0.836 0.853 0.869 0.883 0.895 0.905 0.914 0.921 0.926 0.931 0.934 0.936 0.937 0.937 0.937 0.937 0.937 0.936 0.935 0.932 0.928 0.923 0.916 0.906 0.894 0.878 0.859 0.836 0.807 0.771 0.728 0.674 0.612 0.541 0.445 0.266 0.026 0.026 0.000 
0.000 1.004 1.004 0.925 0.746 0.633 0.569 0.532 0.511 0.500 0.495 0.493 0.492 0.492 0.493 0.495 0.498 0.502 0.508 0.514 0.522 0.530 0.540 0.550 0.561 0.574 0.587 0.601 0.617 0.634 0.652 0.671 0.692 0.715 0.740 0.766 0.794 0.824 0.856 0.890 0.926 0.964 1.001 1.035 1.068 1.099 1.127 1.154 1.179 1.201 1.222 1.241 1.259 1.274 1.288 1.300 1.311 1.320 1.327 1.334 1.339 1.344 1.347 1.349 1.351 1.353 1.353 1.354 1.354 1.354 1.354 1.353 1.353 1.352 1.350 1.347 1.344 1.340 1.335 1.328 1.320 1.311 1.300 1.287 1.273 1.256 1.238 1.217 1.194 1.169 1.141 1.110 1.077 1.041 1.005 0.971 0.940 0.912 0.886 0.864 0.844 0.826 0.811 0.797 0.786 0.777 0.769 0.763 0.759 0.755 0.753 0.751 0.750 0.750 0.750 0.750 0.750 0.750 0.751 0.753 0.756 0.759 0.764 0.770 0.777 0.786 0.796 0.807 0.820 0.835 0.852 0.868 0.882 0.894 0.905 0.913 0.921 0.926 0.931 0.934 0.936 0.937 0.938 0.938 0.938 0.938 0.937 0.935 0.933 0.929 0.924 0.917 0.908 0.896 0.881 0.863 0.840 0.812 0.779 0.738 0.689 0.629 0.550 0.434 0.215 0.000 0.000 0.000 
0.000 0.785 0.785 0.875 0.739 0.628 0.566 0.530 0.510 0.500 0.495 0.493 0.492 0.493 0.494 0.496 0.499 0.503 0.509 0.515 0.522 0.531 0.540 0.550 0.561 0.573 0.586 0.601 0.616 0.633 0.651 0.671 0.692 0.715 0.739 0.765 0.793 0.823 0.855 0.889 0.925 0.963 1.000 1.035 1.068 1.099 1.127 1.154 1.179 1.202 1.222 1.242 1.259 1.275 1.288 1.301 1.311 1.321 1.329 1.335 1.341 1.345 1.349 1.351 1.353 1.354 1.355 1.356 1.356 1.356 1.356 1.355 1.355 1.354 1.352 1.350 1.347 1.343 1.338 1.331 1.324 1.315 1.304 1.292 1.278 1.261 1.243 1.223 1.200 1.175 1.148 1.118 1.085 1.050 1.013 0.979 0.947 0.918 0.893 0.869 0.849 0.830 0.815 0.801 0.789 0.780 0.772 0.766 0.761 0.757 0.754 0.753 0.751 0.751 0.751 0.751 0.751 0.751 0.752 0.754 0.756 0.760 0.764 0.770 0.777 0.785 0.795 0.807 0.820 0.835 0.851 0.867 0.881 0.894 0.904 0.913 0.921 0.926 0.931 0.934 0.936 0.938 0.938 0.939 0.939 0.938 0.938 0.936 0.934 0.931 0.926 0.919 0.910 0.899 0.885 0.868 0.847 0.822 0.791 0.756 0.713 0.659 0.586 0.478 0.286 0.000 0.000 0.000 
0.000 0.571 0.571 0.683 0.661 0.597 0.548 0.520 0.505 0.496 0.493 0.492 0.492 0.492 0.494 0.496 0.500 0.504 0.510 0.516 0.523 0.531 0.540 0.550 0.561 0.573 0.586 0.600 0.615 0.632 0.650 0.670 0.691 0.713 0.738 0.764 0.792 0.822 0.854 0.888 0.924 0.962 0.999 1.034 1.067 1.098 1.127 1.154 1.179 1.202 1.223 1.242 1.259 1.275 1.289 1.301 1.312 1.321 1.329 1.336 1.342 1.346 1.350 1.353 1.355 1.356 1.357 1.357 1.357 1.357 1.357 1.357 1.357 1.356 1.354 1.352 1.349 1.345 1.340 1.334 1.327 1.318 1.308 1.296 1.282 1.266 1.248 1.229 1.206 1.182 1.155 1.126 1.093 1.059 1.022 0.987 0.955 0.925 0.899 0.875 0.854 0.835 0.819 0.805 0.793 0.783 0.775 0.768 0.763 0.759 0.756 0.754 0.753 0.752 0.752 0.752 0.752 0.753 0.754 0.755 0.757 0.760 0.765 0.770 0.777 0.786 0.795 0.807 0.819 0.834 0.850 0.866 0.880 0.893 0.904 0.913 0.920 0.926 0.931 0.935 0.937 0.939 0.939 0.940 0.940 0.940 0.939 0.938 0.936 0.933 0.929 0.922 0.914 0.904 0.892 0.876 0.858 0.836 0.810 0.782 0.749 0.711 0.667 0.622 0.574 0.520 0.520 0.000 
0.000 0.366 0.366 0.474 0.506 0.516 0.505 0.495 0.490 0.488 0.488 0.489 0.490 0.492 0.494 0.497 0.501 0.506 0.511 0.517 0.524 0.532 0.540 0.550 0.560 0.572 0.585 0.599 0.614 0.631 0.649 0.668 0.689 0.712 0.736 0.763 0.791 0.821 0.852 0.886 0.922 0.960 0.998 1.033 1.066 1.098 1.127 1.154 1.178 1.201 1.222 1.242 1.259 1.275 1.289 1.301 1.312 1.322 1.330 1.337 1.343 1.347 1.351 1.354 1.356 1.357 1.358 1.359 1.359 1.359 1.359 1.359 1.358 1.357 1.356 1.354 1.351 1.347 1.342 1.337 1.329 1.321 1.311 1.299 1.286 1.271 1.253 1.234 1.212 1.188 1.162 1.133 1.101 1.067 1.030 0.995 0.962 0.932 0.905 0.881 0.859 0.840 0.824 0.809 0.797 0.786 0.778 0.771 0.766 0.761 0.758 0.756 0.755 0.754 0.754 0.754 0.754 0.754 0.755 0.756 0.758 0.762 0.766 0.771 0.778 0.786 0.795 0.806 0.819 0.833 0.849 0.865 0.880 0.893 0.904 0.913 0.921 0.927 0.932 0.935 0.938 0.940 0.941 0.941 0.942 0.942 0.941 0.940 0.939 0.936 0.932 0.927 0.920 0.911 0.900 0.887 0.872 0.854 0.836 0.817 0.801 0.789 0.784 0.800 0.871 1.054 1.054 0.000 
0.000 0.213 0.213 0.304 0.375 0.418 0.443 0.457 0.467 0.474 0.479 0.483 0.487 0.491 0.494 0.498 0.502 0.507 0.512 0.518 0.525 0.532 0.541 0.550 0.560 0.571 0.584 0.598 0.613 0.629 0.647 0.667 0.688 0.710 0.735 0.761 0.789 0.819 0.850 0.884 0.921 0.959 0.996 1.032 1.065 1.097 1.126 1.153 1.178 1.201 1.222 1.242 1.259 1.275 1.289 1.302 1.313 1.322 1.330 1.337 1.343 1.348 1.352 1.354 1.357 1.358 1.359 1.360 1.360 1.360 1.360 1.360 1.359 1.358 1.357 1.355 1.353 1.349 1.344 1.339 1.332 1.324 1.314 1.303 1.289 1.275 1.258 1.239 1.218 1.194 1.168 1.140 1.109 1.076 1.039 1.003 0.970 0.940 0.912 0.887 0.865 0.846 0.829 0.814 0.801 0.790 0.781 0.774 0.768 0.764 0.761 0.759 0.757 0.756 0.756 0.756 0.756 0.756 0.757 0.758 0.760 0.763 0.767 0.772 0.778 0.786 0.795 0.806 0.819 0.833 0.849 0.865 0.879 0.892 0.903 0.913 0.921 0.927 0.932 0.936 0.940 0.942 0.943 0.944 0.944 0.944 0.944 0.943 0.942 0.940 0.937 0.933 0.927 0.920 0.912 0.901 0.890 0.878 0.868 0.861 0.858 0.859 0.869 0.901 0.975 1.054 1.054 0.000 
0.000 0.154 0.154 0.208 0.287 0.356 0.401 0.431 0.450 0.463 0.472 0.479 0.485 0.490 0.494 0.499 0.504 0.508 0.514 0.520 0.526 0.533 0.541 0.550 0.559 0.570 0.583 0.596 0.611 0.627 0.645 0.664 0.685 0.708 0.732 0.758 0.786 0.816 0.848 0.882 0.918 0.956 0.994 1.030 1.064 1.096 1.125 1.152 1.178 1.201 1.222 1.241 1.259 1.275 1.289 1.302 1.313 1.322 1.331 1.338 1.343 1.348 1.352 1.355 1.357 1.359 1.360 1.360 1.361 1.361 1.361 1.361 1.360 1.359 1.358 1.356 1.354 1.350 1.346 1.341 1.334 1.326 1.316 1.305 1.293 1.278 1.262 1.243 1.223 1.200 1.174 1.147 1.116 1.084 1.048 1.012 0.978 0.947 0.919 0.894 0.871 0.851 0.834 0.819 0.805 0.794 0.785 0.778 0.772 0.767 0.764 0.761 0.760 0.759 0.758 0.758 0.758 0.758 0.759 0.760 0.762 0.765 0.768 0.773 0.779 0.787 0.796 0.807 0.819 0.833 0.848 0.864 0.879 0.892 0.903 0.913 0.921 0.928 0.933 0.938 0.941 0.944 0.946 0.947 0.947 0.947 0.947 0.947 0.947 0.945 0.943 0.940 0.936 0.931 0.925 0.918 0.911 0.905 0.901 0.899 0.901 0.907 0.923 0.955 1.011 1.051 1.051 0.000 
0.000 0.096 0.096 0.148 0.237 0.326 0.382 0.418 0.441 0.458 0.469 0.477 0.484 0.490 0.495 0.500 0.504 0.510 0.515 0.521 0.527 0.533 0.541 0.549 0.559 0.569 0.581 0.594 0.609 0.625 0.643 0.662 0.683 0.705 0.729 0.755 0.783 0.813 0.845 0.879 0.915 0.954 0.992 1.028 1.062 1.094 1.124 1.151 1.177 1.200 1.222 1.241 1.259 1.275 1.289 1.302 1.313 1.322 1.331 1.338 1.344 1.349 1.352 1.355 1.358 1.359 1.360 1.361 1.361 1.361 1.361 1.361 1.361 1.360 1.359 1.357 1.355 1.352 1.347 1.342 1.336 1.328 1.319 1.308 1.296 1.281 1.265 1.247 1.227 1.205 1.180 1.153 1.123 1.091 1.057 1.020 0.986 0.955 0.927 0.901 0.878 0.857 0.840 0.824 0.810 0.799 0.789 0.782 0.775 0.771 0.767 0.764 0.763 0.762 0.761 0.761 0.761 0.761 0.762 0.763 0.764 0.767 0.770 0.775 0.780 0.788 0.796 0.807 0.819 0.832 0.847 0.864 0.878 0.891 0.903 0.913 0.921 0.929 0.935 0.939 0.943 0.946 0.949 0.950 0.951 0.952 0.952 0.952 0.952 0.951 0.950 0.948 0.946 0.943 0.939 0.934 0.931 0.928 0.927 0.928 0.932 0.940 0.957 0.986 1.026 1.048 1.048 0.000 
0.000 0.036 0.036 0.100 0.225 0.318 0.376 0.413 0.438 0.456 0.468 0.477 0.484 0.490 0.495 0.500 0.505 0.510 0.516 0.521 0.527 0.533 0.541 0.549 0.558 0.568 0.580 0.592 0.607 0.623 0.640 0.659 0.679 0.702 0.726 0.752 0.780 0.810 0.842 0.876 0.912 0.950 0.989 1.026 1.060 1.092 1.122 1.150 1.176 1.199 1.221 1.241 1.258 1.274 1.289 1.301 1.313 1.322 1.331 1.338 1.344 1.349 1.353 1.356 1.358 1.360 1.361 1.361 1.362 1.362 1.362 1.362 1.361 1.361 1.360 1.358 1.356 1.352 1.348 1.343 1.337 1.330 1.321 1.310 1.298 1.284 1.269 1.251 1.231 1.209 1.185 1.159 1.130 1.098 1.064 1.029 0.995 0.963 0.934 0.908 0.885 0.864 0.846 0.830 0.816 0.804 0.794 0.786 0.780 0.774 0.771 0.768 0.766 0.765 0.764 0.764 0.764 0.764 0.765 0.765 0.767 0.769 0.772 0.777 0.782 0.789 0.797 0.807 0.819 0.832 0.847 0.863 0.878 0.891 0.903 0.913 0.922 0.930 0.936 0.941 0.945 0.949 0.951 0.953 0.955 0.956 0.957 0.957 0.957 0.957 0.957 0.956 0.955 0.953 0.951 0.949 0.947 0.947 0.947 0.949 0.954 0.963 0.979 1.004 1.031 1.046 1.046 0.000 
0.000 0.134 0.134 0.118 0.242 0.322 0.376 0.413 0.438 0.456 0.468 0.477 0.484 0.490 0.496 0.501 0.506 0.511 0.516 0.522 0.527 0.533 0.540 0.548 0.557 0.567 0.578 0.590 0.604 0.620 0.637 0.655 0.676 0.698 0.722 0.748 0.776 0.805 0.837 0.872 0.908 0.946 0.985 1.023 1.057 1.090 1.120 1.148 1.174 1.198 1.220 1.240 1.258 1.274 1.288 1.301 1.312 1.322 1.331 1.338 1.344 1.349 1.353 1.356 1.358 1.360 1.361 1.362 1.362 1.362 1.362 1.362 1.362 1.361 1.360 1.358 1.356 1.353 1.349 1.344 1.338 1.331 1.322 1.312 1.300 1.287 1.272 1.254 1.235 1.214 1.190 1.164 1.136 1.105 1.072 1.037 1.002 0.971 0.942 0.916 0.892 0.871 0.852 0.836 0.821 0.809 0.799 0.791 0.784 0.779 0.775 0.772 0.770 0.769 0.768 0.768 0.767 0.768 0.768 0.769 0.770 0.772 0.775 0.779 0.784 0.791 0.799 0.808 0.819 0.832 0.847 0.863 0.878 0.891 0.903 0.913 0.923 0.930 0.937 0.942 0.947 0.951 0.954 0.956 0.958 0.959 0.960 0.961 0.962 0.962 0.962 0.962 0.962 0.962 0.961 0.960 0.960 0.961 0.962 0.966 0.971 0.980 0.994 1.014 1.033 1.043 1.043 0.000 
0.000 0.471 0.471 0.301 0.315 0.345 0.382 0.416 0.441 0.458 0.470 0.479 0.486 0.492 0.497 0.502 0.507 0.512 0.517 0.522 0.527 0.533 0.539 0.547 0.555 0.565 0.576 0.588 0.601 0.616 0.633 0.652 0.672 0.694 0.717 0.743 0.771 0.801 0.833 0.867 0.903 0.942 0.981 1.019 1.054 1.087 1.118 1.146 1.173 1.197 1.219 1.239 1.257 1.273 1.288 1.301 1.312 1.322 1.331 1.338 1.344 1.349 1.353 1.356 1.358 1.360 1.361 1.362 1.362 1.362 1.362 1.362 1.362 1.361 1.360 1.359 1.357 1.354 1.350 1.345 1.339 1.332 1.324 1.314 1.302 1.289 1.274 1.257 1.239 1.218 1.195 1.169 1.142 1.111 1.079 1.044 1.010 0.978 0.949 0.923 0.899 0.878 0.859 0.842 0.828 0.815 0.805 0.796 0.789 0.784 0.779 0.776 0.774 0.773 0.772 0.771 0.771 0.771 0.772 0.772 0.773 0.775 0.778 0.782 0.787 0.793 0.800 0.809 0.820 0.833 0.847 0.862 0.877 0.891 0.903 0.914 0.923 0.931 0.938 0.944 0.948 0.952 0.955 0.958 0.960 0.962 0.963 0.965 0.966 0.966 0.967 0.968 0.968 0.968 0.969 0.969 0.970 0.972 0.974 0.978 0.984 0.992 1.004 1.021 1.034 1.041 1.041 0.000 
0.000 0.524 0.524 0.445 0.378 0.378 0.398 0.427 0.448 0.463 0.474 0.482 0.489 0.494 0.499 0.504 0.508 0.513 0.517 0.522 0.527 0.532 0.538 0.546 0.554 0.563 0.573 0.585 0.598 0.613 0.629 0.647 0.667 0.689 0.712 0.738 0.766 0.795 0.827 0.862 0.898 0.937 0.977 1.015 1.051 1.084 1.115 1.144 1.171 1.195 1.217 1.238 1.256 1.273 1.287 1.300 1.312 1.322 1.330 1.338 1.344 1.349 1.353 1.356 1.358 1.360 1.361 1.362 1.362 1.362 1.362 1.362 1.362 1.361 1.360 1.359 1.357 1.354 1.350 1.346 1.340 1.333 1.325 1.315 1.304 1.291 1.277 1.260 1.242 1.221 1.199 1.174 1.147 1.117 1.085 1.051 1.017 0.986 0.957 0.930 0.906 0.885 0.866 0.849 0.834 0.821 0.811 0.802 0.795 0.789 0.784 0.781 0.779 0.777 0.776 0.776 0.776 0.776 0.776 0.776 0.777 0.779 0.781 0.785 0.789 0.795 0.802 0.811 0.821 0.833 0.847 0.862 0.877 0.891 0.903 0.914 0.923 0.932 0.938 0.944 0.949 0.953 0.957 0.960 0.962 0.964 0.966 0.967 0.968 0.970 0.971 0.972 0.973 0.974 0.975 0.976 0.978 0.980 0.984 0.988 0.994 1.002 1.012 1.024 1.033 1.038 1.038 0.000 
0.000 0.187 0.187 0.362 0.391 0.411 0.428 0.447 0.463 0.474 0.482 0.489 0.494 0.498 0.502 0.506 0.510 0.514 0.517 0.521 0.526 0.531 0.537 0.544 0.552 0.560 0.571 0.582 0.595 0.609 0.625 0.643 0.662 0.683 0.707 0.732 0.760 0.789 0.821 0.856 0.892 0.931 0.972 1.010 1.047 1.080 1.112 1.141 1.168 1.193 1.215 1.236 1.255 1.271 1.286 1.300 1.311 1.321 1.330 1.337 1.343 1.348 1.353 1.356 1.358 1.360 1.361 1.362 1.362 1.362 1.362 1.362 1.362 1.361 1.360 1.359 1.357 1.354 1.351 1.346 1.340 1.334 1.326 1.316 1.305 1.293 1.278 1.262 1.244 1.224 1.202 1.178 1.151 1.122 1.091 1.057 1.024 0.992 0.963 0.937 0.913 0.891 0.872 0.855 0.840 0.828 0.817 0.808 0.800 0.794 0.790 0.786 0.784 0.782 0.781 0.781 0.780 0.780 0.780 0.781 0.782 0.783 0.785 0.788 0.793 0.798 0.805 0.813 0.823 0.834 0.847 0.862 0.877 0.891 0.903 0.914 0.924 0.932 0.939 0.945 0.950 0.954 0.958 0.961 0.963 0.966 0.967 0.969 0.971 0.972 0.973 0.975 0.976 0.977 0.979 0.981 0.983 0.986 0.990 0.996 1.002 1.009 1.018 1.026 1.032 1.035 1.035 0.000 
0.000 0.200 0.200 0.269 0.407 0.452 0.470 0.480 0.487 0.492 0.495 0.499 0.502 0.504 0.507 0.509 0.511 0.514 0.517 0.521 0.525 0.530 0.535 0.542 0.549 0.558 0.567 0.578 0.591 0.605 0.620 0.638 0.657 0.678 0.701 0.726 0.753 0.783 0.815 0.849 0.886 0.925 0.966 1.005 1.042 1.076 1.108 1.138 1.165 1.190 1.213 1.234 1.253 1.270 1.285 1.299 1.310 1.321 1.329 1.337 1.343 1.348 1.352 1.356 1.358 1.360 1.361 1.362 1.362 1.362 1.362 1.362 1.362 1.361 1.360 1.359 1.357 1.354 1.351 1.346 1.341 1.334 1.326 1.317 1.306 1.294 1.280 1.264 1.247 1.227 1.205 1.182 1.156 1.127 1.097 1.063 1.030 0.998 0.969 0.943 0.919 0.897 0.878 0.861 0.846 0.833 0.822 0.813 0.806 0.800 0.795 0.791 0.789 0.787 0.786 0.785 0.785 0.785 0.785 0.785 0.786 0.787 0.789 0.792 0.796 0.801 0.807 0.815 0.824 0.835 0.848 0.862 0.877 0.891 0.903 0.914 0.924 0.932 0.939 0.946 0.951 0.955 0.959 0.962 0.964 0.967 0.969 0.970 0.972 0.974 0.975 0.977 0.978 0.980 0.982 0.984 0.987 0.990 0.995 1.001 1.008 1.016 1.022 1.027 1.031 1.033 1.033 0.000 
0.000 0.650 0.650 0.420 0.487 0.519 0.527 0.525 0.520 0.515 0.512 0.510 0.510 0.510 0.510 0.511 0.512 0.514 0.516 0.519 0.523 0.528 0.533 0.539 0.546 0.555 0.564 0.575 0.587 0.600 0.615 0.632 0.651 0.671 0.694 0.719 0.746 0.776 0.808 0.842 0.879 0.919 0.960 1.000 1.037 1.072 1.104 1.134 1.162 1.187 1.211 1.232 1.251 1.268 1.284 1.297 1.309 1.320 1.329 1.336 1.343 1.348 1.352 1.355 1.358 1.360 1.361 1.362 1.362 1.362 1.362 1.362 1.362 1.361 1.360 1.359 1.357 1.354 1.351 1.346 1.341 1.334 1.327 1.318 1.307 1.295 1.281 1.266 1.249 1.230 1.208 1.185 1.159 1.132 1.101 1.069 1.035 1.004 0.975 0.949 0.925 0.903 0.884 0.867 0.852 0.839 0.828 0.818 0.811 0.804 0.799 0.796 0.793 0.791 0.790 0.789 0.789 0.789 0.789 0.789 0.790 0.791 0.793 0.796 0.799 0.804 0.810 0.818 0.826 0.837 0.848 0.862 0.877 0.891 0.903 0.914 0.924 0.932 0.940 0.946 0.951 0.956 0.959 0.963 0.965 0.967 0.969 0.971 0.973 0.975 0.976 0.978 0.980 0.981 0.983 0.986 0.989 0.993 0.998 1.005 1.013 1.021 1.026 1.029 1.030 1.030 1.030 0.000 
0.000 0.925 0.925 0.762 0.666 0.622 0.592 0.568 0.548 0.535 0.525 0.519 0.515 0.513 0.512 0.512 0.513 0.514 0.516 0.518 0.521 0.526 0.531 0.536 0.543 0.551 0.560 0.570 0.582 0.595 0.610 0.626 0.645 0.665 0.687 0.712 0.739 0.768 0.800 0.835 0.872 0.912 0.953 0.994 1.031 1.067 1.099 1.130 1.158 1.184 1.208 1.229 1.249 1.266 1.282 1.296 1.308 1.318 1.328 1.335 1.342 1.347 1.352 1.355 1.357 1.359 1.361 1.361 1.362 1.362 1.362 1.362 1.362 1.361 1.360 1.359 1.357 1.354 1.351 1.346 1.341 1.335 1.327 1.318 1.308 1.296 1.283 1.267 1.250 1.232 1.211 1.188 1.163 1.135 1.106 1.074 1.041 1.009 0.981 0.954 0.930 0.908 0.889 0.872 0.857 0.843 0.832 0.823 0.815 0.809 0.804 0.800 0.797 0.795 0.794 0.793 0.793 0.793 0.793 0.793 0.794 0.795 0.796 0.799 0.802 0.807 0.813 0.820 0.828 0.838 0.849 0.862 0.877 0.891 0.903 0.914 0.924 0.932 0.940 0.946 0.951 0.956 0.960 0.963 0.966 0.968 0.970 0.972 0.974 0.975 0.977 0.979 0.980 0.982 0.984 0.987 0.990 0.994 0.999 1.007 1.016 1.025 1.030 1.032 1.031 1.028 1.028 0.000 
0.000 0.999 0.999 0.924 0.787 0.694 0.635 0.595 0.566 0.547 0.533 0.524 0.518 0.515 0.513 0.513 0.513 0.513 0.515 0.517 0.519 0.523 0.528 0.533 0.540 0.547 0.556 0.566 0.577 0.590 0.604 0.620 0.638 0.658 0.680 0.705 0.732 0.761 0.793 0.828 0.865 0.905 0.946 0.987 1.025 1.061 1.094 1.125 1.154 1.180 1.204 1.226 1.246 1.264 1.280 1.294 1.306 1.317 1.326 1.334 1.341 1.346 1.351 1.354 1.357 1.359 1.360 1.361 1.361 1.362 1.362 1.362 1.361 1.361 1.360 1.359 1.357 1.354 1.351 1.346 1.341 1.335 1.327 1.318 1.308 1.297 1.283 1.268 1.252 1.233 1.213 1.190 1.166 1.139 1.110 1.078 1.045 1.014 0.985 0.959 0.935 0.913 0.893 0.876 0.861 0.848 0.836 0.827 0.819 0.812 0.807 0.803 0.800 0.798 0.797 0.796 0.796 0.796 0.796 0.796 0.797 0.798 0.799 0.802 0.805 0.809 0.815 0.822 0.830 0.839 0.850 0.863 0.877 0.891 0.903 0.914 0.924 0.933 0.940 0.946 0.952 0.956 0.960 0.963 0.966 0.968 0.970 0.972 0.974 0.976 0.977 0.979 0.981 0.982 0.985 0.987 0.990 0.994 1.000 1.007 1.017 1.028 1.036 1.039 1.038 1.030 1.030 0.000 
0.000 0.994 0.994 0.960 0.833 0.726 0.656 0.608 0.576 0.553 0.537 0.526 0.520 0.516 0.514 0.513 0.513 0.513 0.513 0.515 0.517 0.520 0.524 0.529 0.536 0.543 0.551 0.561 0.572 0.584 0.598 0.614 0.632 0.652 0.674 0.699 0.726 0.755 0.787 0.821 0.858 0.897 0.939 0.980 1.019 1.055 1.089 1.120 1.149 1.176 1.200 1.223 1.243 1.261 1.277 1.291 1.304 1.315 1.325 1.333 1.340 1.345 1.350 1.353 1.356 1.358 1.360 1.361 1.361 1.361 1.361 1.361 1.361 1.361 1.360 1.358 1.357 1.354 1.351 1.346 1.341 1.335 1.327 1.319 1.309 1.297 1.284 1.269 1.253 1.235 1.215 1.192 1.168 1.142 1.113 1.082 1.050 1.019 0.990 0.963 0.939 0.917 0.898 0.880 0.865 0.852 0.840 0.830 0.822 0.816 0.810 0.806 0.803 0.801 0.800 0.799 0.799 0.799 0.799 0.799 0.799 0.800 0.802 0.804 0.807 0.811 0.817 0.823 0.831 0.840 0.851 0.863 0.877 0.891 0.903 0.914 0.924 0.933 0.940 0.946 0.952 0.956 0.960 0.963 0.966 0.968 0.970 0.972 0.974 0.976 0.977 0.979 0.981 0.982 0.985 0.987 0.990 0.994 1.000 1.007 1.017 1.029 1.043 1.053 1.059 1.064 1.064 0.000 
0.000 0.908 0.908 0.935 0.840 0.734 0.662 0.613 0.579 0.555 0.538 0.527 0.520 0.516 0.513 0.512 0.512 0.512 0.512 0.513 0.514 0.517 0.521 0.525 0.531 0.538 0.546 0.556 0.566 0.579 0.593 0.609 0.627 0.647 0.669 0.693 0.720 0.749 0.780 0.814 0.851 0.890 0.931 0.973 1.012 1.049 1.083 1.115 1.144 1.171 1.196 1.219 1.239 1.258 1.274 1.289 1.302 1.313 1.323 1.331 1.338 1.344 1.349 1.352 1.355 1.357 1.359 1.360 1.360 1.361 1.361 1.361 1.360 1.360 1.359 1.358 1.356 1.354 1.350 1.346 1.341 1.335 1.327 1.319 1.309 1.297 1.284 1.270 1.254 1.236 1.216 1.194 1.170 1.144 1.116 1.086 1.054 1.022 0.994 0.967 0.943 0.921 0.901 0.884 0.868 0.855 0.843 0.833 0.825 0.819 0.813 0.809 0.806 0.804 0.802 0.801 0.801 0.801 0.801 0.801 0.801 0.802 0.804 0.806 0.809 0.813 0.818 0.824 0.832 0.841 0.851 0.863 0.877 0.890 0.903 0.914 0.924 0.932 0.940 0.946 0.952 0.956 0.960 0.963 0.966 0.968 0.970 0.972 0.974 0.976 0.977 0.979 0.981 0.982 0.984 0.987 0.990 0.994 0.999 1.006 1.016 1.029 1.047 1.070 1.089 1.098 1.098 0.000 
0.000 0.809 0.809 0.853 0.811 0.731 0.661 0.613 0.579 0.555 0.538 0.527 0.520 0.515 0.512 0.511 0.510 0.510 0.510 0.510 0.511 0.514 0.517 0.521 0.527 0.533 0.541 0.550 0.561 0.574 0.588 0.604 0.621 0.641 0.664 0.688 0.714 0.743 0.774 0.808 0.844 0.882 0.923 0.965 1.005 1.042 1.077 1.109 1.139 1.166 1.192 1.214 1.235 1.254 1.271 1.286 1.299 1.311 1.321 1.329 1.336 1.342 1.347 1.351 1.354 1.356 1.358 1.359 1.359 1.360 1.360 1.360 1.360 1.359 1.359 1.357 1.356 1.353 1.350 1.346 1.341 1.335 1.327 1.319 1.309 1.297 1.285 1.270 1.254 1.237 1.217 1.196 1.172 1.147 1.119 1.089 1.057 1.026 0.997 0.970 0.946 0.924 0.904 0.887 0.871 0.858 0.846 0.836 0.828 0.821 0.816 0.811 0.808 0.806 0.804 0.803 0.803 0.803 0.803 0.803 0.803 0.804 0.805 0.807 0.810 0.814 0.819 0.825 0.833 0.841 0.852 0.863 0.877 0.890 0.903 0.914 0.924 0.932 0.940 0.946 0.952 0.956 0.960 0.963 0.966 0.968 0.970 0.972 0.974 0.975 0.977 0.979 0.980 0.982 0.984 0.986 0.988 0.992 0.997 1.004 1.013 1.027 1.047 1.078 1.111 1.123 1.123 0.000 
0.000 0.698 0.698 0.753 0.741 0.704 0.653 0.609 0.577 0.553 0.537 0.526 0.518 0.513 0.510 0.508 0.507 0.507 0.507 0.507 0.508 0.510 0.513 0.517 0.522 0.528 0.536 0.546 0.556 0.569 0.583 0.599 0.617 0.637 0.659 0.683 0.709 0.738 0.769 0.802 0.837 0.875 0.915 0.957 0.998 1.035 1.070 1.103 1.133 1.161 1.187 1.210 1.231 1.250 1.267 1.283 1.296 1.308 1.318 1.327 1.334 1.340 1.345 1.349 1.353 1.355 1.356 1.358 1.358 1.359 1.359 1.359 1.359 1.358 1.358 1.356 1.355 1.352 1.349 1.345 1.340 1.334 1.327 1.319 1.309 1.297 1.285 1.271 1.255 1.237 1.218 1.197 1.174 1.148 1.121 1.092 1.060 1.029 1.000 0.973 0.949 0.927 0.907 0.890 0.874 0.860 0.848 0.838 0.830 0.823 0.817 0.813 0.810 0.807 0.806 0.805 0.804 0.804 0.804 0.804 0.804 0.805 0.807 0.808 0.811 0.815 0.820 0.826 0.833 0.842 0.852 0.863 0.876 0.890 0.903 0.914 0.924 0.932 0.940 0.946 0.951 0.956 0.960 0.963 0.966 0.968 0.970 0.972 0.973 0.975 0.976 0.978 0.979 0.981 0.982 0.984 0.986 0.989 0.993 0.999 1.007 1.021 1.043 1.076 1.121 1.146 1.146 0.000 
0.000 0.594 0.594 0.646 0.650 0.647 0.628 0.598 0.570 0.549 0.533 0.522 0.514 0.509 0.506 0.504 0.503 0.503 0.503 0.503 0.504 0.506 0.508 0.512 0.517 0.524 0.532 0.541 0.552 0.564 0.579 0.595 0.613 0.633 0.655 0.678 0.704 0.733 0.763 0.796 0.831 0.868 0.908 0.950 0.990 1.028 1.063 1.096 1.127 1.155 1.181 1.205 1.226 1.246 1.263 1.279 1.293 1.305 1.315 1.324 1.332 1.338 1.343 1.347 1.351 1.353 1.355 1.356 1.357 1.357 1.357 1.357 1.357 1.357 1.356 1.355 1.354 1.351 1.348 1.345 1.340 1.334 1.327 1.318 1.309 1.297 1.285 1.271 1.255 1.238 1.219 1.198 1.175 1.150 1.123 1.094 1.062 1.031 1.003 0.976 0.952 0.929 0.910 0.892 0.876 0.862 0.850 0.840 0.832 0.825 0.819 0.814 0.811 0.809 0.807 0.806 0.805 0.805 0.805 0.805 0.806 0.806 0.807 0.809 0.812 0.816 0.820 0.826 0.833 0.842 0.852 0.863 0.876 0.890 0.903 0.914 0.924 0.932 0.940 0.946 0.951 0.956 0.960 0.963 0.966 0.968 0.970 0.971 0.973 0.974 0.975 0.976 0.977 0.978 0.979 0.980 0.982 0.983 0.986 0.990 0.997 1.009 1.030 1.065 1.119 1.154 1.154 0.000 
0.000 0.494 0.494 0.547 0.569 0.581 0.584 0.575 0.557 0.539 0.525 0.515 0.508 0.503 0.500 0.499 0.498 0.498 0.498 0.498 0.499 0.501 0.504 0.508 0.513 0.519 0.527 0.537 0.548 0.560 0.575 0.591 0.609 0.629 0.650 0.674 0.700 0.728 0.758 0.790 0.824 0.861 0.900 0.942 0.982 1.021 1.056 1.090 1.121 1.149 1.175 1.199 1.221 1.241 1.259 1.275 1.289 1.301 1.312 1.321 1.329 1.335 1.341 1.345 1.348 1.351 1.353 1.354 1.355 1.355 1.356 1.356 1.355 1.355 1.355 1.354 1.352 1.350 1.347 1.343 1.339 1.333 1.326 1.318 1.308 1.297 1.285 1.271 1.255 1.238 1.219 1.198 1.176 1.151 1.124 1.096 1.065 1.034 1.005 0.978 0.954 0.931 0.911 0.894 0.878 0.864 0.852 0.842 0.833 0.826 0.820 0.816 0.812 0.810 0.808 0.807 0.806 0.806 0.806 0.806 0.806 0.807 0.808 0.810 0.813 0.816 0.821 0.826 0.834 0.842 0.852 0.863 0.876 0.890 0.902 0.913 0.923 0.932 0.939 0.946 0.951 0.955 0.959 0.962 0.965 0.967 0.969 0.971 0.972 0.973 0.974 0.974 0.975 0.975 0.976 0.976 0.975 0.975 0.975 0.976 0.979 0.986 1.002 1.035 1.100 1.158 1.158 0.000 
0.000 0.436 0.436 0.475 0.508 0.527 0.536 0.540 0.535 0.524 0.513 0.504 0.498 0.495 0.492 0.491 0.491 0.491 0.491 0.492 0.494 0.496 0.499 0.503 0.508 0.515 0.523 0.533 0.544 0.557 0.571 0.588 0.605 0.625 0.647 0.670 0.695 0.723 0.752 0.784 0.818 0.854 0.893 0.934 0.974 1.013 1.049 1.083 1.114 1.143 1.169 1.194 1.216 1.236 1.254 1.270 1.284 1.297 1.308 1.317 1.326 1.332 1.338 1.342 1.346 1.349 1.351 1.352 1.353 1.353 1.353 1.354 1.353 1.353 1.353 1.352 1.350 1.348 1.346 1.342 1.338 1.332 1.325 1.317 1.308 1.297 1.285 1.271 1.255 1.238 1.219 1.199 1.176 1.152 1.126 1.097 1.066 1.035 1.007 0.980 0.955 0.933 0.913 0.895 0.879 0.865 0.853 0.843 0.834 0.827 0.821 0.816 0.813 0.810 0.808 0.807 0.807 0.807 0.806 0.807 0.807 0.807 0.809 0.810 0.813 0.816 0.821 0.827 0.834 0.842 0.852 0.863 0.876 0.889 0.902 0.913 0.923 0.931 0.939 0.945 0.950 0.955 0.959 0.962 0.964 0.966 0.968 0.969 0.970 0.971 0.971 0.972 0.972 0.971 0.970 0.969 0.967 0.964 0.960 0.956 0.951 0.946 0.950 0.970 1.034 1.142 1.142 0.000 
0.000 0.410 0.410 0.433 0.462 0.480 0.492 0.500 0.503 0.501 0.495 0.489 0.485 0.483 0.482 0.481 0.481 0.482 0.483 0.485 0.487 0.490 0.494 0.498 0.504 0.511 0.520 0.529 0.541 0.554 0.568 0.584 0.602 0.622 0.643 0.666 0.691 0.718 0.747 0.778 0.811 0.847 0.885 0.925 0.966 1.005 1.041 1.075 1.107 1.136 1.163 1.188 1.210 1.230 1.249 1.265 1.280 1.293 1.304 1.314 1.322 1.329 1.335 1.339 1.343 1.346 1.348 1.349 1.350 1.351 1.351 1.351 1.351 1.351 1.351 1.350 1.348 1.346 1.344 1.340 1.336 1.331 1.324 1.316 1.307 1.296 1.284 1.271 1.255 1.238 1.220 1.199 1.177 1.153 1.126 1.098 1.068 1.037 1.008 0.981 0.957 0.934 0.914 0.896 0.880 0.866 0.854 0.843 0.835 0.827 0.821 0.817 0.813 0.811 0.809 0.808 0.807 0.807 0.807 0.807 0.807 0.808 0.809 0.811 0.813 0.816 0.821 0.827 0.834 0.842 0.852 0.863 0.875 0.889 0.901 0.912 0.922 0.931 0.938 0.944 0.950 0.954 0.958 0.961 0.963 0.965 0.966 0.967 0.968 0.968 0.968 0.968 0.967 0.966 0.964 0.961 0.956 0.950 0.941 0.929 0.914 0.894 0.870 0.848 0.868 1.006 1.006 0.000 
0.000 0.384 0.384 0.403 0.424 0.440 0.452 0.461 0.468 0.471 0.471 0.469 0.468 0.468 0.468 0.469 0.470 0.471 0.474 0.476 0.479 0.483 0.488 0.493 0.499 0.507 0.516 0.526 0.538 0.551 0.565 0.581 0.599 0.618 0.639 0.662 0.686 0.713 0.742 0.772 0.805 0.840 0.878 0.917 0.958 0.997 1.034 1.068 1.100 1.129 1.156 1.181 1.204 1.225 1.243 1.260 1.275 1.288 1.299 1.309 1.318 1.325 1.331 1.336 1.340 1.343 1.345 1.346 1.347 1.348 1.348 1.348 1.348 1.348 1.348 1.347 1.346 1.344 1.342 1.338 1.334 1.329 1.323 1.315 1.306 1.296 1.284 1.270 1.255 1.238 1.220 1.199 1.177 1.153 1.127 1.099 1.069 1.038 1.009 0.982 0.958 0.935 0.915 0.897 0.881 0.867 0.855 0.844 0.835 0.828 0.822 0.817 0.814 0.811 0.809 0.808 0.807 0.807 0.807 0.807 0.807 0.808 0.809 0.811 0.813 0.817 0.821 0.827 0.833 0.842 0.851 0.862 0.875 0.888 0.901 0.912 0.921 0.930 0.937 0.943 0.948 0.953 0.956 0.959 0.961 0.963 0.964 0.965 0.965 0.965 0.965 0.964 0.962 0.960 0.956 0.951 0.943 0.933 0.921 0.905 0.885 0.858 0.817 0.747 0.596 0.435 0.435 0.000 
0.000 0.358 0.358 0.376 0.390 0.403 0.414 0.423 0.431 0.437 0.442 0.444 0.446 0.449 0.451 0.453 0.456 0.459 0.462 0.466 0.471 0.476 0.481 0.488 0.495 0.503 0.512 0.523 0.535 0.548 0.563 0.579 0.596 0.615 0.636 0.658 0.682 0.708 0.736 0.766 0.799 0.833 0.870 0.909 0.950 0.989 1.026 1.060 1.092 1.122 1.149 1.174 1.197 1.218 1.237 1.254 1.269 1.283 1.294 1.305 1.313 1.321 1.327 1.332 1.336 1.339 1.341 1.343 1.344 1.345 1.345 1.345 1.345 1.345 1.345 1.344 1.343 1.341 1.339 1.336 1.332 1.327 1.321 1.313 1.305 1.294 1.283 1.270 1.255 1.238 1.220 1.199 1.177 1.153 1.128 1.100 1.070 1.039 1.010 0.983 0.959 0.936 0.916 0.898 0.881 0.867 0.855 0.844 0.835 0.828 0.822 0.817 0.814 0.811 0.809 0.808 0.807 0.807 0.807 0.807 0.807 0.808 0.809 0.811 0.813 0.816 0.821 0.826 0.833 0.841 0.851 0.862 0.874 0.888 0.900 0.911 0.920 0.929 0.936 0.942 0.947 0.951 0.954 0.957 0.959 0.960 0.961 0.961 0.961 0.961 0.960 0.959 0.956 0.953 0.948 0.940 0.931 0.919 0.904 0.886 0.864 0.838 0.801 0.730 0.543 0.132 0.132 0.000 
0.000 0.332 0.332 0.348 0.359 0.370 0.379 0.388 0.396 0.403 0.409 0.415 0.421 0.426 0.430 0.435 0.440 0.445 0.450 0.455 0.461 0.467 0.474 0.482 0.490 0.499 0.509 0.520 0.532 0.545 0.560 0.576 0.593 0.612 0.632 0.654 0.678 0.703 0.731 0.761 0.793 0.827 0.863 0.901 0.942 0.981 1.018 1.052 1.084 1.114 1.142 1.167 1.190 1.212 1.231 1.248 1.263 1.277 1.289 1.299 1.308 1.316 1.322 1.328 1.332 1.335 1.337 1.339 1.340 1.341 1.341 1.342 1.342 1.342 1.341 1.341 1.340 1.338 1.336 1.333 1.329 1.324 1.318 1.311 1.303 1.293 1.281 1.268 1.254 1.237 1.219 1.199 1.177 1.154 1.128 1.100 1.071 1.040 1.011 0.984 0.959 0.937 0.916 0.898 0.882 0.868 0.855 0.845 0.836 0.828 0.822 0.817 0.814 0.811 0.809 0.808 0.807 0.807 0.807 0.807 0.807 0.808 0.809 0.811 0.813 0.816 0.821 0.826 0.833 0.841 0.850 0.861 0.873 0.887 0.899 0.910 0.919 0.927 0.934 0.940 0.945 0.949 0.952 0.954 0.956 0.957 0.957 0.957 0.957 0.956 0.955 0.953 0.950 0.945 0.939 0.931 0.920 0.907 0.890 0.871 0.849 0.827 0.803 0.769 0.717 0.686 0.686 0.000 
0.000 0.307 0.307 0.322 0.330 0.339 0.347 0.356 0.364 0.371 0.379 0.387 0.395 0.402 0.409 0.416 0.423 0.430 0.437 0.444 0.452 0.460 0.468 0.476 0.485 0.495 0.506 0.517 0.529 0.543 0.557 0.573 0.590 0.608 0.628 0.650 0.673 0.699 0.726 0.755 0.786 0.820 0.855 0.893 0.933 0.972 1.009 1.044 1.076 1.106 1.134 1.160 1.183 1.205 1.224 1.242 1.257 1.271 1.283 1.294 1.303 1.311 1.317 1.323 1.327 1.330 1.333 1.335 1.336 1.337 1.337 1.338 1.338 1.338 1.337 1.337 1.336 1.334 1.332 1.330 1.326 1.321 1.315 1.309 1.300 1.291 1.280 1.267 1.253 1.237 1.219 1.199 1.177 1.154 1.128 1.101 1.071 1.040 1.011 0.984 0.960 0.937 0.917 0.898 0.882 0.868 0.855 0.845 0.836 0.828 0.822 0.817 0.814 0.811 0.809 0.808 0.807 0.807 0.807 0.807 0.807 0.808 0.809 0.810 0.813 0.816 0.820 0.826 0.833 0.840 0.850 0.860 0.872 0.885 0.898 0.908 0.918 0.926 0.932 0.938 0.943 0.946 0.949 0.951 0.952 0.953 0.953 0.953 0.952 0.951 0.950 0.947 0.943 0.938 0.931 0.922 0.911 0.897 0.880 0.859 0.837 0.821 0.814 0.824 0.900 1.094 1.094 0.000 
0.000 0.281 0.281 0.296 0.302 0.310 0.318 0.326 0.335 0.343 0.352 0.362 0.373 0.382 0.392 0.400 0.409 0.418 0.426 0.435 0.444 0.453 0.462 0.471 0.481 0.492 0.503 0.514 0.527 0.540 0.555 0.570 0.587 0.605 0.625 0.646 0.669 0.694 0.721 0.749 0.780 0.813 0.848 0.885 0.925 0.964 1.001 1.036 1.068 1.098 1.126 1.152 1.176 1.197 1.217 1.235 1.250 1.265 1.277 1.288 1.297 1.305 1.312 1.317 1.322 1.325 1.328 1.330 1.331 1.332 1.333 1.333 1.333 1.333 1.333 1.332 1.332 1.330 1.328 1.326 1.322 1.318 1.312 1.306 1.298 1.288 1.278 1.265 1.251 1.235 1.218 1.198 1.177 1.154 1.128 1.101 1.071 1.041 1.012 0.985 0.960 0.937 0.917 0.898 0.882 0.868 0.855 0.845 0.836 0.828 0.822 0.817 0.814 0.811 0.809 0.808 0.807 0.807 0.807 0.807 0.807 0.808 0.809 0.810 0.813 0.816 0.820 0.825 0.832 0.840 0.849 0.859 0.871 0.884 0.896 0.906 0.916 0.923 0.930 0.936 0.940 0.943 0.945 0.947 0.948 0.948 0.948 0.948 0.947 0.946 0.944 0.941 0.937 0.931 0.923 0.914 0.903 0.889 0.873 0.852 0.831 0.817 0.814 0.828 0.911 1.092 1.092 0.000 
0.000 0.255 0.255 0.270 0.276 0.283 0.291 0.299 0.308 0.318 0.329 0.342 0.354 0.366 0.377 0.387 0.397 0.407 0.417 0.426 0.436 0.446 0.456 0.467 0.477 0.488 0.499 0.511 0.524 0.538 0.552 0.567 0.584 0.602 0.621 0.642 0.665 0.689 0.715 0.744 0.774 0.806 0.840 0.877 0.916 0.955 0.992 1.027 1.060 1.090 1.118 1.144 1.168 1.190 1.209 1.227 1.243 1.258 1.270 1.281 1.291 1.299 1.306 1.312 1.316 1.320 1.323 1.325 1.326 1.327 1.328 1.328 1.328 1.328 1.328 1.328 1.327 1.326 1.324 1.321 1.318 1.314 1.308 1.302 1.294 1.285 1.275 1.263 1.249 1.234 1.217 1.197 1.176 1.153 1.128 1.101 1.072 1.041 1.012 0.985 0.960 0.937 0.917 0.898 0.882 0.868 0.855 0.845 0.836 0.828 0.822 0.817 0.813 0.811 0.809 0.808 0.807 0.807 0.806 0.807 0.807 0.807 0.808 0.810 0.812 0.815 0.819 0.825 0.831 0.838 0.847 0.858 0.869 0.882 0.894 0.904 0.913 0.921 0.927 0.932 0.936 0.939 0.941 0.942 0.943 0.943 0.943 0.942 0.942 0.940 0.938 0.934 0.930 0.924 0.916 0.907 0.896 0.883 0.867 0.848 0.828 0.810 0.795 0.784 0.800 0.934 0.934 0.000 
0.000 0.229 0.229 0.244 0.250 0.257 0.265 0.274 0.285 0.297 0.311 0.326 0.340 0.353 0.365 0.376 0.387 0.398 0.409 0.419 0.430 0.441 0.451 0.462 0.473 0.485 0.496 0.509 0.521 0.535 0.549 0.564 0.581 0.599 0.618 0.638 0.660 0.684 0.710 0.738 0.767 0.799 0.833 0.869 0.907 0.946 0.983 1.018 1.051 1.081 1.110 1.136 1.160 1.182 1.201 1.220 1.236 1.250 1.263 1.274 1.284 1.292 1.299 1.305 1.310 1.314 1.317 1.319 1.321 1.322 1.322 1.323 1.323 1.323 1.323 1.322 1.321 1.320 1.319 1.316 1.313 1.309 1.304 1.298 1.291 1.282 1.272 1.260 1.247 1.232 1.215 1.196 1.175 1.153 1.128 1.101 1.072 1.041 1.012 0.985 0.960 0.937 0.917 0.898 0.882 0.868 0.855 0.844 0.835 0.828 0.822 0.817 0.813 0.810 0.808 0.807 0.806 0.806 0.806 0.806 0.806 0.807 0.808 0.809 0.811 0.814 0.818 0.823 0.830 0.837 0.846 0.856 0.867 0.880 0.892 0.902 0.910 0.918 0.924 0.929 0.932 0.935 0.936 0.937 0.937 0.937 0.937 0.937 0.936 0.934 0.932 0.928 0.923 0.917 0.909 0.900 0.889 0.877 0.862 0.846 0.827 0.806 0.776 0.717 0.567 0.383 0.383 0.000 
0.000 0.203 0.203 0.218 0.225 0.233 0.242 0.252 0.265 0.280 0.297 0.313 0.328 0.342 0.355 0.367 0.379 0.391 0.402 0.413 0.424 0.436 0.447 0.458 0.470 0.481 0.493 0.506 0.519 0.532 0.546 0.562 0.578 0.595 0.614 0.634 0.656 0.680 0.705 0.732 0.761 0.792 0.825 0.861 0.898 0.937 0.974 1.009 1.042 1.072 1.101 1.127 1.151 1.173 1.193 1.211 1.228 1.242 1.255 1.267 1.277 1.285 1.292 1.298 1.303 1.307 1.310 1.313 1.314 1.315 1.316 1.316 1.317 1.317 1.317 1.316 1.316 1.315 1.313 1.311 1.308 1.304 1.299 1.293 1.286 1.278 1.268 1.257 1.244 1.229 1.213 1.194 1.174 1.152 1.127 1.101 1.072 1.041 1.012 0.985 0.960 0.937 0.917 0.898 0.882 0.868 0.855 0.844 0.835 0.827 0.821 0.816 0.813 0.810 0.808 0.806 0.806 0.805 0.805 0.805 0.805 0.806 0.807 0.808 0.810 0.813 0.817 0.822 0.828 0.835 0.844 0.854 0.865 0.877 0.889 0.898 0.907 0.914 0.920 0.924 0.927 0.929 0.931 0.931 0.931 0.931 0.931 0.931 0.930 0.928 0.925 0.921 0.916 0.910 0.903 0.894 0.883 0.871 0.858 0.844 0.828 0.807 0.775 0.710 0.536 0.166 0.166 0.000 
0.000 0.178 0.178 0.193 0.200 0.209 0.220 0.232 0.248 0.267 0.286 0.304 0.320 0.334 0.348 0.360 0.373 0.385 0.396 0.408 0.420 0.431 0.443 0.454 0.466 0.478 0.490 0.503 0.516 0.529 0.543 0.559 0.575 0.592 0.610 0.630 0.652 0.675 0.699 0.726 0.755 0.785 0.818 0.853 0.890 0.928 0.965 1.000 1.033 1.063 1.092 1.118 1.142 1.164 1.184 1.203 1.219 1.234 1.247 1.259 1.269 1.277 1.285 1.291 1.296 1.300 1.303 1.306 1.308 1.309 1.309 1.310 1.310 1.310 1.310 1.310 1.309 1.308 1.307 1.305 1.302 1.298 1.294 1.288 1.281 1.273 1.264 1.253 1.240 1.226 1.210 1.192 1.172 1.150 1.126 1.100 1.072 1.041 1.012 0.985 0.960 0.937 0.917 0.898 0.882 0.867 0.855 0.844 0.835 0.827 0.821 0.816 0.812 0.809 0.807 0.805 0.805 0.804 0.804 0.804 0.804 0.805 0.805 0.807 0.809 0.812 0.815 0.820 0.826 0.833 0.841 0.851 0.862 0.874 0.885 0.895 0.903 0.910 0.915 0.919 0.922 0.924 0.925 0.925 0.925 0.925 0.925 0.924 0.923 0.921 0.919 0.915 0.910 0.904 0.896 0.888 0.877 0.866 0.855 0.843 0.831 0.816 0.795 0.763 0.721 0.712 0.712 0.000 
0.000 0.152 0.152 0.167 0.176 0.187 0.199 0.216 0.236 0.258 0.279 0.297 0.314 0.328 0.342 0.355 0.368 0.380 0.392 0.404 0.416 0.427 0.439 0.451 0.463 0.475 0.487 0.500 0.513 0.526 0.540 0.555 0.571 0.588 0.607 0.626 0.647 0.670 0.694 0.720 0.748 0.778 0.810 0.844 0.881 0.919 0.956 0.990 1.023 1.054 1.082 1.108 1.133 1.155 1.175 1.194 1.210 1.225 1.238 1.250 1.260 1.269 1.277 1.283 1.288 1.292 1.296 1.298 1.300 1.301 1.302 1.303 1.303 1.303 1.303 1.303 1.302 1.301 1.300 1.298 1.296 1.292 1.288 1.282 1.276 1.268 1.259 1.248 1.236 1.222 1.207 1.189 1.170 1.148 1.125 1.099 1.071 1.041 1.012 0.985 0.960 0.937 0.916 0.898 0.881 0.867 0.854 0.843 0.834 0.826 0.820 0.814 0.810 0.807 0.805 0.804 0.803 0.803 0.802 0.802 0.803 0.803 0.804 0.805 0.807 0.809 0.813 0.818 0.823 0.830 0.838 0.848 0.859 0.870 0.881 0.890 0.898 0.904 0.909 0.913 0.916 0.917 0.918 0.919 0.919 0.919 0.918 0.918 0.917 0.915 0.912 0.908 0.904 0.898 0.891 0.883 0.873 0.861 0.851 0.843 0.838 0.834 0.836 0.855 0.927 1.079 1.079 0.000 
0.000 0.126 0.126 0.142 0.153 0.165 0.182 0.203 0.228 0.253 0.274 0.293 0.310 0.325 0.339 0.352 0.364 0.376 0.388 0.400 0.412 0.424 0.436 0.448 0.460 0.472 0.484 0.497 0.510 0.523 0.537 0.552 0.568 0.585 0.603 0.622 0.642 0.665 0.688 0.714 0.742 0.771 0.802 0.836 0.872 0.909 0.946 0.981 1.013 1.044 1.072 1.099 1.123 1.145 1.166 1.184 1.201 1.216 1.229 1.241 1.251 1.260 1.268 1.274 1.280 1.284 1.288 1.290 1.292 1.293 1.294 1.295 1.295 1.295 1.295 1.295 1.295 1.294 1.293 1.291 1.288 1.285 1.281 1.276 1.270 1.262 1.253 1.243 1.231 1.218 1.203 1.186 1.167 1.146 1.123 1.098 1.070 1.041 1.012 0.984 0.959 0.936 0.916 0.897 0.880 0.866 0.853 0.842 0.833 0.825 0.818 0.813 0.809 0.806 0.804 0.802 0.801 0.801 0.800 0.800 0.800 0.801 0.801 0.803 0.804 0.807 0.810 0.815 0.820 0.827 0.835 0.844 0.854 0.866 0.876 0.885 0.892 0.898 0.903 0.907 0.909 0.911 0.912 0.912 0.912 0.912 0.912 0.911 0.910 0.908 0.905 0.902 0.898 0.892 0.886 0.878 0.869 0.858 0.849 0.843 0.841 0.843 0.853 0.889 0.981 1.076 1.076 0.000 
0.000 0.100 0.100 0.117 0.130 0.146 0.168 0.195 0.224 0.250 0.271 0.291 0.307 0.323 0.337 0.349 0.362 0.374 0.386 0.398 0.409 0.421 0.433 0.445 0.457 0.469 0.481 0.493 0.506 0.520 0.534 0.548 0.564 0.581 0.598 0.617 0.638 0.659 0.683 0.708 0.735 0.764 0.795 0.827 0.862 0.899 0.936 0.971 1.003 1.034 1.062 1.088 1.113 1.135 1.155 1.174 1.191 1.206 1.219 1.231 1.242 1.251 1.259 1.265 1.271 1.275 1.279 1.281 1.283 1.285 1.286 1.286 1.287 1.287 1.287 1.287 1.286 1.286 1.284 1.283 1.281 1.277 1.274 1.269 1.263 1.256 1.247 1.237 1.226 1.213 1.198 1.182 1.163 1.143 1.120 1.096 1.069 1.040 1.011 0.984 0.959 0.936 0.915 0.896 0.879 0.865 0.852 0.841 0.831 0.823 0.816 0.811 0.807 0.804 0.801 0.800 0.799 0.798 0.798 0.798 0.798 0.798 0.799 0.800 0.802 0.804 0.807 0.811 0.817 0.823 0.830 0.839 0.849 0.860 0.870 0.879 0.886 0.892 0.896 0.900 0.902 0.904 0.905 0.905 0.905 0.905 0.905 0.904 0.903 0.901 0.899 0.896 0.892 0.887 0.881 0.874 0.866 0.856 0.848 0.843 0.841 0.843 0.854 0.891 0.982 1.073 1.073 0.000 
0.000 0.075 0.075 0.092 0.107 0.129 0.159 0.192 0.222 0.248 0.270 0.290 0.307 0.322 0.335 0.348 0.360 0.372 0.384 0.396 0.407 0.419 0.430 0.442 0.454 0.465 0.478 0.490 0.503 0.516 0.530 0.544 0.560 0.576 0.594 0.612 0.632 0.654 0.677 0.701 0.728 0.756 0.786 0.819 0.853 0.889 0.926 0.960 0.993 1.023 1.051 1.078 1.102 1.124 1.145 1.163 1.180 1.196 1.209 1.221 1.232 1.241 1.249 1.255 1.261 1.266 1.269 1.272 1.274 1.276 1.277 1.277 1.278 1.278 1.278 1.278 1.277 1.277 1.276 1.274 1.272 1.269 1.265 1.261 1.255 1.248 1.240 1.231 1.220 1.207 1.193 1.177 1.159 1.139 1.117 1.094 1.068 1.039 1.010 0.983 0.958 0.935 0.914 0.895 0.878 0.863 0.850 0.839 0.829 0.821 0.814 0.809 0.804 0.801 0.798 0.797 0.796 0.795 0.795 0.795 0.795 0.795 0.796 0.796 0.798 0.800 0.803 0.807 0.812 0.818 0.825 0.834 0.844 0.854 0.864 0.872 0.879 0.884 0.889 0.892 0.895 0.897 0.898 0.898 0.898 0.898 0.898 0.897 0.896 0.895 0.893 0.890 0.887 0.883 0.877 0.871 0.863 0.855 0.847 0.841 0.838 0.836 0.841 0.864 0.936 1.071 1.071 0.000 
0.000 0.049 0.049 0.067 0.087 0.117 0.155 0.191 0.222 0.248 0.270 0.289 0.306 0.321 0.335 0.348 0.360 0.371 0.383 0.394 0.405 0.417 0.428 0.439 0.451 0.462 0.474 0.486 0.499 0.512 0.526 0.540 0.556 0.572 0.589 0.607 0.627 0.648 0.671 0.695 0.721 0.748 0.778 0.810 0.843 0.879 0.915 0.949 0.982 1.012 1.040 1.067 1.091 1.113 1.134 1.152 1.169 1.185 1.198 1.210 1.221 1.230 1.238 1.245 1.251 1.255 1.259 1.262 1.264 1.266 1.267 1.267 1.268 1.268 1.268 1.268 1.268 1.267 1.266 1.265 1.263 1.260 1.257 1.252 1.247 1.240 1.232 1.223 1.213 1.201 1.187 1.171 1.154 1.135 1.114 1.091 1.065 1.038 1.009 0.982 0.956 0.933 0.912 0.893 0.876 0.861 0.848 0.836 0.827 0.818 0.811 0.806 0.801 0.798 0.795 0.793 0.792 0.791 0.791 0.791 0.791 0.791 0.792 0.792 0.794 0.796 0.799 0.802 0.807 0.813 0.820 0.828 0.837 0.847 0.856 0.864 0.871 0.876 0.881 0.884 0.887 0.889 0.890 0.891 0.891 0.891 0.891 0.891 0.890 0.889 0.887 0.885 0.882 0.878 0.874 0.868 0.861 0.854 0.846 0.838 0.830 0.819 0.805 0.783 0.769 0.869 0.869 0.000 
0.000 0.028 0.028 0.045 0.072 0.112 0.155 0.192 0.222 0.248 0.270 0.289 0.306 0.322 0.335 0.348 0.360 0.371 0.382 0.393 0.404 0.415 0.426 0.437 0.448 0.459 0.471 0.483 0.495 0.508 0.521 0.536 0.551 0.567 0.584 0.602 0.621 0.642 0.664 0.688 0.713 0.740 0.769 0.800 0.833 0.868 0.904 0.938 0.970 1.001 1.029 1.055 1.079 1.101 1.122 1.141 1.158 1.173 1.187 1.199 1.209 1.219 1.227 1.234 1.239 1.244 1.248 1.251 1.253 1.255 1.256 1.257 1.257 1.257 1.257 1.257 1.257 1.257 1.256 1.255 1.253 1.250 1.247 1.243 1.238 1.231 1.224 1.215 1.205 1.193 1.180 1.165 1.148 1.130 1.109 1.087 1.062 1.036 1.007 0.980 0.955 0.931 0.910 0.891 0.874 0.859 0.845 0.834 0.824 0.815 0.808 0.802 0.797 0.794 0.791 0.789 0.788 0.787 0.787 0.786 0.786 0.787 0.787 0.788 0.789 0.791 0.793 0.797 0.801 0.806 0.813 0.820 0.829 0.839 0.847 0.855 0.862 0.867 0.872 0.876 0.879 0.881 0.883 0.884 0.885 0.885 0.885 0.885 0.884 0.883 0.882 0.880 0.878 0.874 0.870 0.865 0.859 0.853 0.845 0.837 0.826 0.811 0.782 0.719 0.559 0.328 0.328 0.000 
0.000 0.010 0.010 0.028 0.065 0.113 0.157 0.193 0.223 0.249 0.271 0.290 0.307 0.322 0.336 0.348 0.360 0.371 0.381 0.392 0.402 0.413 0.424 0.434 0.445 0.456 0.467 0.479 0.491 0.504 0.517 0.531 0.546 0.561 0.578 0.596 0.615 0.635 0.657 0.680 0.705 0.732 0.760 0.791 0.823 0.857 0.893 0.927 0.959 0.989 1.017 1.043 1.067 1.089 1.110 1.128 1.145 1.160 1.174 1.186 1.197 1.207 1.215 1.222 1.228 1.232 1.236 1.239 1.242 1.244 1.245 1.246 1.246 1.246 1.246 1.246 1.246 1.246 1.245 1.244 1.242 1.240 1.236 1.233 1.228 1.222 1.215 1.206 1.196 1.185 1.172 1.158 1.142 1.124 1.104 1.082 1.059 1.033 1.005 0.978 0.952 0.929 0.908 0.888 0.871 0.856 0.842 0.830 0.820 0.811 0.804 0.798 0.793 0.789 0.786 0.784 0.783 0.782 0.781 0.781 0.781 0.781 0.781 0.782 0.783 0.785 0.787 0.790 0.794 0.799 0.805 0.812 0.820 0.829 0.838 0.845 0.852 0.858 0.862 0.867 0.870 0.873 0.875 0.877 0.878 0.879 0.879 0.879 0.879 0.878 0.877 0.876 0.874 0.871 0.867 0.863 0.858 0.852 0.845 0.837 0.826 0.810 0.781 0.716 0.549 0.210 0.210 0.000 
0.000 0.030 0.030 0.029 0.067 0.118 0.161 0.197 0.227 0.252 0.274 0.292 0.309 0.323 0.337 0.349 0.360 0.371 0.381 0.391 0.401 0.412 0.422 0.432 0.442 0.453 0.464 0.475 0.487 0.499 0.512 0.525 0.540 0.555 0.572 0.589 0.608 0.628 0.650 0.673 0.697 0.723 0.751 0.781 0.813 0.846 0.881 0.915 0.946 0.976 1.004 1.030 1.054 1.076 1.097 1.115 1.132 1.147 1.161 1.173 1.184 1.194 1.202 1.209 1.215 1.220 1.224 1.227 1.229 1.231 1.233 1.233 1.234 1.234 1.234 1.234 1.234 1.234 1.233 1.232 1.230 1.228 1.225 1.221 1.217 1.211 1.204 1.196 1.187 1.176 1.164 1.150 1.135 1.117 1.098 1.077 1.054 1.029 1.002 0.975 0.949 0.926 0.904 0.885 0.868 0.852 0.838 0.826 0.815 0.807 0.799 0.793 0.788 0.784 0.781 0.778 0.777 0.776 0.775 0.775 0.775 0.775 0.775 0.776 0.777 0.778 0.780 0.783 0.787 0.791 0.797 0.803 0.811 0.819 0.827 0.835 0.841 0.847 0.852 0.857 0.861 0.864 0.867 0.869 0.871 0.872 0.873 0.874 0.874 0.873 0.873 0.872 0.870 0.868 0.865 0.861 0.857 0.852 0.845 0.837 0.828 0.817 0.799 0.770 0.735 0.746 0.746 0.000 
0.000 0.062 0.062 0.052 0.085 0.130 0.171 0.205 0.234 0.258 0.278 0.296 0.312 0.326 0.338 0.350 0.361 0.371 0.381 0.391 0.401 0.410 0.420 0.430 0.439 0.449 0.460 0.471 0.482 0.494 0.506 0.520 0.534 0.549 0.565 0.583 0.601 0.621 0.642 0.664 0.688 0.714 0.741 0.770 0.801 0.834 0.869 0.902 0.934 0.963 0.991 1.016 1.040 1.062 1.083 1.101 1.118 1.134 1.147 1.160 1.170 1.180 1.188 1.195 1.201 1.206 1.210 1.214 1.216 1.218 1.219 1.220 1.221 1.221 1.221 1.221 1.221 1.221 1.220 1.219 1.218 1.216 1.213 1.209 1.205 1.200 1.193 1.186 1.177 1.166 1.155 1.141 1.126 1.110 1.091 1.071 1.049 1.025 0.998 0.971 0.946 0.922 0.901 0.881 0.863 0.847 0.833 0.821 0.810 0.801 0.793 0.787 0.782 0.777 0.774 0.772 0.770 0.769 0.768 0.768 0.768 0.768 0.768 0.768 0.769 0.770 0.772 0.775 0.778 0.782 0.787 0.793 0.800 0.807 0.815 0.823 0.829 0.836 0.841 0.846 0.851 0.855 0.858 0.861 0.864 0.866 0.867 0.869 0.869 0.869 0.869 0.868 0.867 0.865 0.863 0.860 0.856 0.851 0.845 0.839 0.835 0.832 0.835 0.853 0.922 1.058 1.058 0.000 
0.000 0.157 0.157 0.110 0.133 0.156 0.186 0.217 0.244 0.267 0.286 0.303 0.317 0.330 0.342 0.353 0.363 0.373 0.382 0.391 0.400 0.409 0.418 0.427 0.436 0.446 0.456 0.466 0.477 0.488 0.501 0.514 0.528 0.542 0.558 0.575 0.593 0.613 0.633 0.655 0.679 0.704 0.731 0.760 0.790 0.822 0.856 0.889 0.920 0.949 0.977 1.002 1.026 1.048 1.068 1.087 1.104 1.119 1.133 1.145 1.156 1.165 1.174 1.181 1.187 1.192 1.196 1.200 1.202 1.204 1.205 1.206 1.207 1.207 1.207 1.207 1.207 1.207 1.206 1.206 1.204 1.202 1.200 1.196 1.192 1.187 1.181 1.174 1.165 1.155 1.144 1.131 1.117 1.101 1.083 1.064 1.042 1.019 0.994 0.967 0.941 0.918 0.896 0.876 0.858 0.842 0.828 0.815 0.804 0.795 0.787 0.780 0.775 0.770 0.767 0.764 0.762 0.761 0.760 0.760 0.760 0.760 0.760 0.760 0.761 0.762 0.763 0.765 0.768 0.772 0.777 0.782 0.788 0.795 0.802 0.810 0.817 0.823 0.829 0.835 0.840 0.845 0.849 0.853 0.856 0.859 0.862 0.863 0.865 0.865 0.865 0.865 0.864 0.863 0.862 0.859 0.856 0.851 0.845 0.841 0.839 0.840 0.849 0.882 0.966 1.055 1.055 0.000 
0.000 0.270 0.270 0.208 0.188 0.191 0.209 0.236 0.261 0.280 0.297 0.312 0.324 0.336 0.346 0.356 0.366 0.374 0.383 0.392 0.400 0.408 0.416 0.425 0.433 0.442 0.452 0.461 0.472 0.483 0.495 0.507 0.521 0.535 0.551 0.567 0.585 0.604 0.624 0.646 0.669 0.694 0.720 0.748 0.778 0.809 0.842 0.875 0.906 0.935 0.962 0.987 1.011 1.033 1.053 1.071 1.088 1.103 1.117 1.129 1.140 1.150 1.158 1.165 1.172 1.177 1.181 1.184 1.187 1.189 1.190 1.191 1.192 1.192 1.193 1.193 1.192 1.192 1.192 1.191 1.190 1.188 1.186 1.183 1.179 1.174 1.168 1.161 1.153 1.144 1.133 1.121 1.107 1.091 1.074 1.055 1.035 1.012 0.988 0.962 0.936 0.912 0.891 0.871 0.852 0.836 0.822 0.809 0.798 0.788 0.780 0.773 0.767 0.762 0.758 0.756 0.754 0.752 0.751 0.751 0.750 0.750 0.750 0.751 0.751 0.752 0.753 0.755 0.758 0.761 0.765 0.770 0.775 0.781 0.788 0.796 0.803 0.810 0.816 0.822 0.828 0.834 0.839 0.844 0.848 0.852 0.855 0.858 0.860 0.862 0.862 0.863 0.862 0.862 0.861 0.859 0.856 0.852 0.846 0.842 0.840 0.841 0.850 0.881 0.965 1.053 1.053 0.000 
0.000 0.175 0.175 0.219 0.214 0.227 0.244 0.264 0.283 0.299 0.313 0.324 0.335 0.344 0.353 0.361 0.369 0.377 0.385 0.392 0.400 0.407 0.415 0.422 0.430 0.438 0.447 0.456 0.466 0.477 0.488 0.500 0.513 0.527 0.542 0.558 0.576 0.594 0.614 0.636 0.658 0.682 0.708 0.736 0.765 0.796 0.828 0.860 0.891 0.920 0.947 0.972 0.995 1.017 1.037 1.055 1.072 1.087 1.101 1.113 1.124 1.133 1.142 1.149 1.155 1.160 1.165 1.168 1.171 1.173 1.174 1.176 1.176 1.177 1.177 1.177 1.177 1.176 1.176 1.175 1.174 1.173 1.170 1.168 1.164 1.159 1.154 1.147 1.139 1.130 1.120 1.108 1.095 1.081 1.064 1.046 1.026 1.005 0.981 0.956 0.930 0.906 0.884 0.864 0.846 0.829 0.814 0.801 0.790 0.780 0.771 0.764 0.758 0.753 0.749 0.746 0.744 0.742 0.741 0.740 0.740 0.740 0.740 0.740 0.740 0.741 0.742 0.744 0.746 0.749 0.752 0.757 0.762 0.767 0.774 0.781 0.788 0.795 0.802 0.809 0.816 0.822 0.828 0.834 0.839 0.844 0.849 0.852 0.856 0.858 0.860 0.861 0.861 0.861 0.861 0.859 0.857 0.853 0.848 0.842 0.838 0.835 0.835 0.852 0.913 1.050 1.050 0.000 
0.000 0.027 0.027 0.143 0.237 0.270 0.288 0.302 0.314 0.324 0.333 0.341 0.348 0.355 0.362 0.368 0.374 0.381 0.387 0.393 0.400 0.406 0.413 0.420 0.427 0.434 0.442 0.451 0.460 0.470 0.481 0.493 0.505 0.519 0.533 0.549 0.566 0.584 0.604 0.625 0.647 0.671 0.696 0.723 0.751 0.781 0.813 0.845 0.875 0.903 0.930 0.955 0.978 1.000 1.019 1.038 1.054 1.069 1.083 1.095 1.106 1.116 1.124 1.132 1.138 1.143 1.147 1.151 1.154 1.156 1.157 1.158 1.159 1.160 1.160 1.160 1.160 1.160 1.159 1.159 1.158 1.156 1.154 1.151 1.148 1.144 1.138 1.132 1.125 1.116 1.106 1.095 1.083 1.069 1.053 1.035 1.016 0.996 0.973 0.948 0.923 0.899 0.877 0.856 0.838 0.821 0.806 0.793 0.781 0.771 0.762 0.754 0.748 0.743 0.739 0.735 0.733 0.731 0.730 0.729 0.729 0.728 0.728 0.728 0.729 0.729 0.730 0.731 0.733 0.736 0.739 0.742 0.747 0.752 0.758 0.765 0.772 0.779 0.787 0.794 0.802 0.809 0.816 0.823 0.830 0.836 0.841 0.846 0.851 0.855 0.857 0.859 0.860 0.861 0.861 0.860 0.858 0.855 0.850 0.844 0.835 0.822 0.801 0.768 0.730 0.805 0.805 0.000 
0.000 0.312 0.312 0.190 0.293 0.332 0.345 0.351 0.353 0.356 0.358 0.361 0.365 0.368 0.372 0.377 0.381 0.386 0.390 0.395 0.400 0.405 0.411 0.417 0.423 0.430 0.437 0.445 0.454 0.463 0.474 0.485 0.497 0.510 0.524 0.539 0.556 0.574 0.593 0.613 0.635 0.658 0.683 0.709 0.737 0.766 0.797 0.829 0.858 0.886 0.913 0.937 0.960 0.982 1.001 1.019 1.036 1.051 1.064 1.077 1.088 1.097 1.106 1.113 1.119 1.124 1.129 1.132 1.135 1.137 1.139 1.140 1.141 1.141 1.142 1.142 1.142 1.142 1.141 1.141 1.140 1.138 1.136 1.134 1.131 1.127 1.122 1.116 1.109 1.101 1.091 1.081 1.069 1.055 1.040 1.024 1.005 0.985 0.963 0.940 0.915 0.891 0.868 0.848 0.829 0.812 0.797 0.783 0.771 0.761 0.751 0.744 0.737 0.732 0.727 0.724 0.721 0.719 0.717 0.716 0.716 0.716 0.715 0.715 0.716 0.716 0.717 0.718 0.719 0.721 0.724 0.727 0.731 0.736 0.741 0.748 0.755 0.762 0.770 0.778 0.787 0.795 0.803 0.811 0.819 0.826 0.833 0.840 0.846 0.851 0.855 0.858 0.860 0.861 0.861 0.861 0.860 0.857 0.853 0.846 0.835 0.817 0.784 0.715 0.548 0.275 0.275 0.000 
0.000 0.692 0.692 0.493 0.440 0.427 0.417 0.408 0.399 0.393 0.388 0.385 0.384 0.384 0.385 0.386 0.388 0.391 0.394 0.397 0.400 0.404 0.409 0.414 0.419 0.425 0.432 0.439 0.447 0.456 0.466 0.476 0.488 0.500 0.514 0.529 0.545 0.562 0.581 0.600 0.622 0.644 0.668 0.694 0.721 0.750 0.780 0.811 0.841 0.868 0.894 0.919 0.941 0.962 0.982 1.000 1.016 1.031 1.045 1.057 1.068 1.077 1.086 1.093 1.099 1.105 1.109 1.113 1.116 1.118 1.119 1.121 1.121 1.122 1.122 1.122 1.122 1.122 1.122 1.121 1.121 1.119 1.118 1.115 1.112 1.108 1.104 1.098 1.092 1.084 1.075 1.065 1.053 1.041 1.026 1.010 0.993 0.973 0.953 0.930 0.905 0.881 0.859 0.838 0.819 0.802 0.786 0.772 0.760 0.749 0.740 0.732 0.725 0.719 0.714 0.710 0.707 0.705 0.704 0.702 0.702 0.701 0.701 0.701 0.701 0.701 0.702 0.703 0.704 0.706 0.708 0.711 0.715 0.719 0.724 0.730 0.737 0.744 0.753 0.761 0.770 0.779 0.788 0.798 0.807 0.815 0.824 0.832 0.839 0.846 0.852 0.857 0.860 0.862 0.863 0.863 0.863 0.861 0.857 0.850 0.838 0.819 0.785 0.716 0.558 0.253 0.253 0.000 
0.000 0.746 0.746 0.682 0.579 0.520 0.483 0.457 0.438 0.424 0.414 0.406 0.401 0.398 0.396 0.395 0.395 0.396 0.397 0.398 0.400 0.403 0.406 0.410 0.415 0.420 0.426 0.433 0.440 0.448 0.457 0.467 0.478 0.490 0.503 0.518 0.533 0.550 0.568 0.587 0.608 0.630 0.653 0.678 0.705 0.733 0.762 0.793 0.822 0.849 0.875 0.899 0.921 0.942 0.961 0.979 0.995 1.010 1.023 1.036 1.046 1.056 1.064 1.072 1.078 1.083 1.088 1.092 1.095 1.097 1.099 1.100 1.101 1.101 1.101 1.102 1.102 1.101 1.101 1.101 1.100 1.099 1.097 1.095 1.092 1.089 1.084 1.079 1.073 1.066 1.057 1.048 1.037 1.024 1.011 0.995 0.979 0.960 0.940 0.918 0.895 0.871 0.848 0.827 0.808 0.791 0.775 0.760 0.748 0.737 0.727 0.718 0.711 0.705 0.700 0.696 0.693 0.690 0.689 0.687 0.686 0.686 0.686 0.686 0.686 0.686 0.686 0.687 0.688 0.689 0.691 0.694 0.697 0.701 0.706 0.711 0.718 0.725 0.734 0.743 0.752 0.762 0.772 0.783 0.793 0.803 0.813 0.823 0.832 0.841 0.849 0.855 0.860 0.863 0.866 0.867 0.867 0.866 0.864 0.858 0.847 0.830 0.805 0.772 0.745 0.778 0.778 0.000 
0.000 0.737 0.737 0.720 0.643 0.575 0.528 0.494 0.469 0.449 0.435 0.424 0.416 0.409 0.405 0.402 0.400 0.399 0.399 0.399 0.400 0.402 0.404 0.407 0.410 0.415 0.420 0.426 0.433 0.440 0.448 0.458 0.468 0.480 0.492 0.506 0.520 0.537 0.554 0.573 0.593 0.614 0.637 0.661 0.687 0.714 0.743 0.773 0.801 0.828 0.854 0.877 0.900 0.920 0.939 0.957 0.973 0.988 1.001 1.013 1.024 1.033 1.042 1.049 1.055 1.061 1.065 1.069 1.072 1.074 1.076 1.077 1.078 1.079 1.079 1.079 1.079 1.079 1.079 1.079 1.078 1.077 1.076 1.074 1.071 1.068 1.064 1.059 1.053 1.046 1.038 1.029 1.018 1.007 0.994 0.979 0.963 0.945 0.926 0.905 0.883 0.859 0.836 0.815 0.796 0.778 0.762 0.747 0.734 0.723 0.713 0.704 0.696 0.690 0.685 0.680 0.677 0.674 0.672 0.671 0.670 0.669 0.669 0.668 0.668 0.668 0.669 0.669 0.670 0.671 0.673 0.675 0.678 0.682 0.686 0.692 0.698 0.705 0.714 0.723 0.733 0.744 0.755 0.766 0.778 0.790 0.801 0.813 0.824 0.835 0.844 0.853 0.860 0.866 0.870 0.873 0.875 0.875 0.874 0.871 0.865 0.857 0.853 0.869 0.925 1.037 1.037 0.000 
0.000 0.714 0.714 0.714 0.666 0.605 0.557 0.520 0.492 0.470 0.452 0.438 0.428 0.419 0.412 0.407 0.404 0.401 0.400 0.399 0.399 0.400 0.401 0.403 0.406 0.409 0.414 0.419 0.425 0.431 0.439 0.448 0.457 0.468 0.480 0.493 0.507 0.523 0.539 0.557 0.577 0.597 0.620 0.643 0.668 0.695 0.723 0.752 0.780 0.806 0.831 0.855 0.877 0.897 0.916 0.933 0.949 0.964 0.977 0.989 1.000 1.009 1.018 1.025 1.031 1.037 1.041 1.045 1.048 1.050 1.052 1.054 1.055 1.055 1.055 1.056 1.056 1.056 1.055 1.055 1.055 1.054 1.052 1.050 1.048 1.045 1.041 1.036 1.031 1.024 1.017 1.008 0.998 0.987 0.975 0.961 0.946 0.929 0.910 0.890 0.869 0.845 0.822 0.801 0.782 0.764 0.747 0.732 0.719 0.707 0.697 0.688 0.680 0.673 0.668 0.663 0.659 0.656 0.654 0.652 0.651 0.651 0.650 0.650 0.650 0.650 0.650 0.650 0.651 0.652 0.653 0.655 0.658 0.662 0.666 0.671 0.677 0.685 0.693 0.702 0.712 0.724 0.735 0.748 0.761 0.774 0.788 0.801 0.814 0.827 0.839 0.850 0.861 0.870 0.876 0.881 0.885 0.888 0.890 0.891 0.891 0.896 0.909 0.937 0.988 1.035 1.035 0.000 
0.000 0.688 0.688 0.695 0.667 0.619 0.575 0.539 0.510 0.486 0.467 0.451 0.438 0.427 0.419 0.412 0.406 0.403 0.400 0.399 0.398 0.398 0.398 0.399 0.401 0.404 0.407 0.411 0.416 0.422 0.429 0.437 0.446 0.456 0.467 0.479 0.493 0.508 0.524 0.541 0.560 0.580 0.601 0.624 0.648 0.674 0.701 0.730 0.757 0.783 0.808 0.831 0.852 0.872 0.891 0.908 0.924 0.938 0.951 0.963 0.974 0.983 0.992 0.999 1.005 1.011 1.015 1.019 1.022 1.025 1.027 1.028 1.029 1.030 1.030 1.030 1.030 1.030 1.030 1.030 1.029 1.028 1.027 1.026 1.023 1.020 1.017 1.013 1.007 1.001 0.994 0.986 0.977 0.966 0.954 0.941 0.926 0.910 0.893 0.873 0.853 0.830 0.807 0.786 0.766 0.748 0.731 0.716 0.703 0.691 0.680 0.670 0.662 0.655 0.649 0.644 0.640 0.637 0.635 0.633 0.632 0.631 0.630 0.630 0.630 0.630 0.630 0.630 0.630 0.631 0.633 0.634 0.637 0.640 0.644 0.649 0.655 0.663 0.671 0.680 0.691 0.702 0.715 0.728 0.742 0.757 0.772 0.787 0.802 0.817 0.832 0.846 0.860 0.873 0.884 0.892 0.899 0.905 0.911 0.918 0.926 0.938 0.957 0.983 1.016 1.035 1.035 0.000 
0.000 0.662 0.662 0.672 0.656 0.623 0.584 0.551 0.523 0.500 0.479 0.462 0.447 0.434 0.424 0.415 0.408 0.403 0.400 0.398 0.396 0.395 0.395 0.395 0.396 0.398 0.400 0.403 0.408 0.413 0.419 0.426 0.434 0.443 0.454 0.465 0.478 0.492 0.507 0.524 0.542 0.561 0.581 0.603 0.627 0.652 0.678 0.705 0.733 0.758 0.782 0.805 0.826 0.846 0.864 0.881 0.897 0.911 0.924 0.936 0.946 0.956 0.964 0.971 0.978 0.983 0.988 0.992 0.995 0.997 0.999 1.001 1.002 1.002 1.003 1.003 1.003 1.003 1.003 1.003 1.002 1.001 1.000 0.999 0.997 0.994 0.991 0.987 0.982 0.976 0.969 0.962 0.953 0.943 0.932 0.919 0.905 0.890 0.873 0.855 0.835 0.813 0.791 0.769 0.749 0.731 0.714 0.698 0.685 0.672 0.661 0.651 0.643 0.636 0.629 0.624 0.620 0.617 0.614 0.612 0.610 0.609 0.609 0.608 0.608 0.608 0.608 0.608 0.609 0.609 0.610 0.612 0.614 0.618 0.622 0.626 0.632 0.639 0.648 0.657 0.668 0.680 0.693 0.707 0.722 0.738 0.754 0.771 0.788 0.806 0.823 0.841 0.858 0.875 0.892 0.906 0.917 0.928 0.939 0.950 0.964 0.980 0.999 1.020 1.034 1.038 1.038 0.000 
0.000 0.636 0.636 0.647 0.637 0.617 0.587 0.559 0.534 0.512 0.491 0.472 0.455 0.440 0.427 0.417 0.409 0.403 0.399 0.396 0.394 0.392 0.391 0.391 0.391 0.391 0.393 0.395 0.398 0.403 0.408 0.414 0.421 0.430 0.439 0.450 0.462 0.475 0.490 0.505 0.522 0.541 0.560 0.582 0.604 0.628 0.653 0.680 0.706 0.731 0.755 0.777 0.798 0.818 0.836 0.853 0.868 0.882 0.895 0.906 0.917 0.926 0.934 0.942 0.948 0.954 0.958 0.962 0.965 0.968 0.970 0.971 0.972 0.973 0.973 0.974 0.974 0.974 0.974 0.974 0.973 0.973 0.972 0.970 0.968 0.966 0.963 0.959 0.954 0.949 0.943 0.935 0.927 0.918 0.907 0.895 0.882 0.867 0.851 0.834 0.815 0.794 0.772 0.751 0.731 0.712 0.695 0.679 0.665 0.652 0.641 0.631 0.622 0.614 0.608 0.602 0.598 0.594 0.591 0.589 0.587 0.586 0.586 0.585 0.585 0.585 0.585 0.585 0.585 0.586 0.587 0.588 0.591 0.594 0.597 0.602 0.608 0.615 0.623 0.633 0.644 0.656 0.669 0.684 0.700 0.717 0.735 0.753 0.772 0.792 0.812 0.833 0.854 0.875 0.897 0.919 0.939 0.955 0.971 0.987 1.003 1.020 1.037 1.051 1.058 1.059 1.059 0.000 
0.000 0.611 0.611 0.622 0.615 0.602 0.584 0.564 0.543 0.523 0.502 0.480 0.461 0.444 0.430 0.419 0.409 0.403 0.397 0.393 0.390 0.388 0.386 0.385 0.385 0.385 0.385 0.387 0.389 0.392 0.396 0.402 0.408 0.416 0.424 0.434 0.445 0.457 0.471 0.486 0.502 0.519 0.538 0.558 0.580 0.603 0.627 0.652 0.678 0.703 0.726 0.748 0.768 0.788 0.805 0.822 0.837 0.851 0.864 0.875 0.885 0.895 0.903 0.910 0.916 0.922 0.927 0.930 0.934 0.936 0.938 0.940 0.941 0.942 0.942 0.942 0.942 0.943 0.942 0.942 0.942 0.941 0.941 0.939 0.938 0.935 0.933 0.929 0.925 0.920 0.914 0.907 0.899 0.890 0.880 0.869 0.857 0.843 0.828 0.811 0.793 0.773 0.752 0.730 0.710 0.691 0.674 0.658 0.644 0.630 0.619 0.608 0.599 0.591 0.585 0.579 0.574 0.570 0.567 0.565 0.563 0.562 0.561 0.560 0.560 0.560 0.560 0.560 0.560 0.561 0.562 0.563 0.565 0.568 0.572 0.577 0.583 0.589 0.598 0.607 0.618 0.631 0.645 0.660 0.676 0.694 0.714 0.734 0.755 0.777 0.799 0.823 0.847 0.872 0.899 0.928 0.958 0.984 1.006 1.025 1.043 1.059 1.073 1.083 1.091 1.097 1.097 0.000 
0.000 0.585 0.585 0.596 0.592 0.586 0.578 0.567 0.551 0.532 0.511 0.488 0.466 0.447 0.432 0.419 0.409 0.401 0.395 0.389 0.385 0.382 0.380 0.379 0.378 0.377 0.377 0.378 0.379 0.381 0.384 0.389 0.394 0.401 0.408 0.417 0.427 0.439 0.451 0.465 0.480 0.497 0.514 0.534 0.554 0.576 0.599 0.623 0.648 0.672 0.695 0.717 0.737 0.755 0.773 0.789 0.804 0.818 0.830 0.842 0.852 0.861 0.869 0.876 0.883 0.888 0.893 0.897 0.900 0.902 0.904 0.906 0.907 0.908 0.909 0.909 0.909 0.909 0.909 0.909 0.909 0.908 0.907 0.906 0.905 0.903 0.900 0.897 0.893 0.888 0.883 0.876 0.869 0.861 0.851 0.841 0.829 0.816 0.801 0.785 0.768 0.750 0.729 0.708 0.688 0.669 0.651 0.635 0.620 0.607 0.595 0.584 0.575 0.567 0.560 0.554 0.549 0.545 0.541 0.539 0.537 0.535 0.534 0.534 0.533 0.533 0.533 0.533 0.534 0.534 0.535 0.537 0.539 0.541 0.545 0.550 0.556 0.562 0.571 0.580 0.592 0.604 0.618 0.634 0.651 0.670 0.691 0.712 0.735 0.759 0.785 0.811 0.839 0.868 0.898 0.932 0.970 1.007 1.037 1.061 1.080 1.096 1.108 1.117 1.124 1.129 1.129 0.000 
0.000 0.559 0.559 0.573 0.576 0.578 0.575 0.569 0.557 0.540 0.519 0.494 0.470 0.449 0.432 0.419 0.408 0.399 0.391 0.385 0.380 0.376 0.373 0.371 0.369 0.368 0.368 0.368 0.368 0.370 0.372 0.375 0.379 0.385 0.392 0.399 0.409 0.419 0.430 0.443 0.457 0.473 0.489 0.507 0.526 0.547 0.569 0.592 0.616 0.640 0.662 0.683 0.703 0.721 0.738 0.754 0.769 0.782 0.795 0.806 0.816 0.825 0.833 0.840 0.846 0.852 0.856 0.860 0.864 0.866 0.868 0.870 0.871 0.872 0.873 0.873 0.873 0.873 0.873 0.873 0.873 0.872 0.872 0.871 0.869 0.867 0.865 0.862 0.859 0.854 0.849 0.843 0.836 0.828 0.820 0.810 0.798 0.786 0.772 0.758 0.741 0.723 0.704 0.684 0.663 0.644 0.626 0.610 0.595 0.582 0.569 0.558 0.549 0.540 0.533 0.527 0.521 0.517 0.514 0.511 0.509 0.507 0.506 0.506 0.505 0.505 0.505 0.505 0.505 0.506 0.507 0.508 0.510 0.513 0.517 0.521 0.527 0.534 0.542 0.552 0.563 0.576 0.591 0.607 0.625 0.645 0.666 0.689 0.714 0.740 0.767 0.797 0.828 0.860 0.895 0.933 0.976 1.023 1.064 1.095 1.117 1.133 1.145 1.152 1.156 1.157 1.157 0.000 
0.000 0.533 0.533 0.551 0.569 0.575 0.576 0.572 0.562 0.547 0.525 0.498 0.472 0.450 0.432 0.418 0.405 0.395 0.386 0.379 0.373 0.368 0.364 0.362 0.359 0.358 0.357 0.357 0.357 0.357 0.358 0.361 0.364 0.368 0.374 0.381 0.389 0.398 0.409 0.420 0.433 0.447 0.463 0.479 0.497 0.516 0.537 0.559 0.582 0.605 0.626 0.647 0.666 0.684 0.701 0.717 0.731 0.744 0.757 0.768 0.777 0.786 0.794 0.801 0.808 0.813 0.818 0.821 0.825 0.827 0.830 0.831 0.832 0.833 0.834 0.834 0.834 0.835 0.835 0.835 0.834 0.834 0.833 0.833 0.831 0.830 0.827 0.825 0.821 0.818 0.813 0.807 0.801 0.794 0.785 0.776 0.766 0.754 0.741 0.727 0.712 0.695 0.677 0.657 0.637 0.617 0.600 0.583 0.568 0.554 0.542 0.531 0.521 0.512 0.504 0.498 0.492 0.488 0.484 0.481 0.479 0.477 0.476 0.476 0.475 0.475 0.475 0.475 0.475 0.476 0.477 0.478 0.480 0.483 0.487 0.491 0.497 0.504 0.512 0.522 0.534 0.547 0.562 0.578 0.597 0.617 0.640 0.664 0.690 0.718 0.748 0.780 0.814 0.850 0.889 0.931 0.977 1.030 1.084 1.125 1.154 1.172 1.183 1.188 1.189 1.187 1.187 0.000 
0.000 0.550 0.550 0.549 0.570 0.578 0.579 0.577 0.568 0.552 0.529 0.500 0.473 0.450 0.431 0.415 0.402 0.390 0.380 0.372 0.365 0.359 0.355 0.351 0.348 0.346 0.345 0.344 0.344 0.344 0.344 0.346 0.348 0.351 0.356 0.361 0.368 0.376 0.385 0.396 0.408 0.420 0.435 0.450 0.466 0.484 0.503 0.523 0.545 0.567 0.588 0.609 0.628 0.645 0.662 0.677 0.691 0.704 0.716 0.727 0.736 0.745 0.753 0.760 0.766 0.771 0.776 0.780 0.783 0.786 0.788 0.790 0.791 0.792 0.793 0.793 0.793 0.793 0.793 0.793 0.793 0.793 0.792 0.792 0.791 0.789 0.787 0.785 0.782 0.778 0.774 0.769 0.763 0.756 0.748 0.739 0.730 0.719 0.707 0.694 0.679 0.663 0.646 0.627 0.608 0.589 0.571 0.554 0.539 0.525 0.512 0.501 0.491 0.482 0.474 0.467 0.461 0.457 0.453 0.450 0.447 0.446 0.444 0.444 0.443 0.443 0.443 0.443 0.443 0.444 0.445 0.446 0.448 0.451 0.455 0.460 0.465 0.473 0.481 0.491 0.503 0.516 0.531 0.548 0.567 0.588 0.611 0.637 0.664 0.694 0.726 0.760 0.797 0.837 0.880 0.926 0.975 1.031 1.094 1.150 1.189 1.213 1.225 1.229 1.228 1.219 1.219 0.000 
0.000 0.570 0.570 0.566 0.583 0.590 0.591 0.586 0.575 0.557 0.531 0.500 0.472 0.449 0.429 0.411 0.396 0.383 0.372 0.363 0.355 0.349 0.343 0.339 0.336 0.333 0.331 0.330 0.329 0.329 0.329 0.330 0.331 0.333 0.336 0.341 0.346 0.353 0.361 0.370 0.381 0.392 0.405 0.419 0.434 0.450 0.467 0.486 0.506 0.527 0.548 0.568 0.586 0.603 0.619 0.634 0.648 0.661 0.672 0.683 0.692 0.701 0.709 0.716 0.722 0.727 0.731 0.735 0.739 0.741 0.743 0.745 0.747 0.748 0.748 0.749 0.749 0.749 0.749 0.749 0.749 0.749 0.748 0.748 0.747 0.745 0.744 0.741 0.739 0.735 0.731 0.727 0.721 0.715 0.708 0.700 0.691 0.681 0.670 0.657 0.644 0.629 0.613 0.595 0.576 0.557 0.539 0.523 0.507 0.493 0.481 0.469 0.459 0.449 0.441 0.434 0.428 0.424 0.419 0.416 0.414 0.412 0.411 0.410 0.410 0.409 0.409 0.409 0.410 0.410 0.411 0.413 0.415 0.418 0.421 0.426 0.432 0.439 0.448 0.458 0.470 0.483 0.499 0.516 0.536 0.557 0.581 0.608 0.636 0.668 0.702 0.738 0.778 0.820 0.867 0.916 0.970 1.029 1.095 1.164 1.220 1.255 1.273 1.280 1.280 1.278 1.278 0.000 
0.000 0.664 0.664 0.612 0.619 0.619 0.614 0.603 0.585 0.561 0.531 0.499 0.471 0.446 0.424 0.406 0.389 0.375 0.363 0.353 0.344 0.337 0.330 0.326 0.322 0.319 0.316 0.314 0.313 0.313 0.312 0.312 0.313 0.314 0.316 0.319 0.323 0.329 0.336 0.343 0.352 0.362 0.373 0.385 0.399 0.413 0.429 0.446 0.465 0.484 0.504 0.524 0.542 0.559 0.574 0.589 0.602 0.615 0.626 0.636 0.646 0.654 0.662 0.668 0.674 0.679 0.684 0.688 0.691 0.694 0.696 0.698 0.699 0.700 0.701 0.701 0.701 0.702 0.702 0.702 0.702 0.701 0.701 0.700 0.700 0.699 0.697 0.695 0.693 0.690 0.686 0.682 0.677 0.671 0.665 0.657 0.649 0.640 0.629 0.618 0.605 0.591 0.576 0.560 0.542 0.523 0.506 0.489 0.474 0.460 0.447 0.435 0.424 0.415 0.407 0.400 0.394 0.388 0.384 0.381 0.378 0.376 0.375 0.374 0.374 0.374 0.374 0.374 0.374 0.375 0.375 0.377 0.379 0.382 0.386 0.391 0.397 0.404 0.413 0.423 0.435 0.449 0.465 0.483 0.503 0.525 0.549 0.576 0.606 0.639 0.674 0.713 0.755 0.800 0.849 0.902 0.960 1.023 1.091 1.167 1.240 1.297 1.331 1.347 1.353 1.353 1.353 0.000 
0.000 0.760 0.760 0.704 0.686 0.670 0.651 0.626 0.598 0.565 0.530 0.497 0.467 0.441 0.418 0.398 0.380 0.365 0.352 0.341 0.331 0.323 0.316 0.310 0.306 0.302 0.299 0.297 0.295 0.294 0.293 0.293 0.293 0.293 0.294 0.296 0.300 0.304 0.309 0.315 0.322 0.331 0.340 0.350 0.362 0.375 0.389 0.404 0.421 0.439 0.458 0.477 0.494 0.511 0.526 0.540 0.553 0.565 0.576 0.586 0.595 0.604 0.611 0.618 0.623 0.628 0.633 0.637 0.640 0.643 0.645 0.646 0.648 0.649 0.650 0.650 0.651 0.651 0.651 0.651 0.651 0.651 0.650 0.650 0.649 0.648 0.647 0.645 0.643 0.640 0.637 0.634 0.629 0.624 0.618 0.611 0.604 0.595 0.586 0.575 0.563 0.551 0.537 0.521 0.505 0.487 0.469 0.453 0.437 0.423 0.410 0.399 0.388 0.378 0.370 0.363 0.357 0.351 0.347 0.344 0.341 0.339 0.337 0.337 0.336 0.336 0.336 0.336 0.336 0.337 0.338 0.339 0.342 0.345 0.349 0.354 0.360 0.368 0.376 0.387 0.399 0.413 0.429 0.447 0.468 0.490 0.515 0.543 0.574 0.607 0.644 0.684 0.728 0.775 0.827 0.883 0.944 1.011 1.083 1.162 1.246 1.326 1.389 1.430 1.449 1.452 1.452 0.000 
0.000 0.878 0.878 0.810 0.783 0.743 0.699 0.653 0.608 0.566 0.527 0.493 0.462 0.434 0.410 0.388 0.369 0.353 0.339 0.327 0.316 0.307 0.300 0.293 0.288 0.284 0.280 0.278 0.275 0.274 0.273 0.272 0.272 0.271 0.272 0.273 0.275 0.277 0.281 0.286 0.291 0.298 0.305 0.313 0.323 0.334 0.346 0.360 0.374 0.391 0.409 0.427 0.444 0.460 0.475 0.489 0.501 0.513 0.523 0.533 0.542 0.550 0.557 0.563 0.569 0.574 0.578 0.582 0.585 0.588 0.590 0.592 0.593 0.594 0.595 0.596 0.596 0.596 0.596 0.596 0.596 0.596 0.596 0.596 0.595 0.594 0.593 0.592 0.590 0.588 0.585 0.582 0.578 0.573 0.568 0.562 0.555 0.547 0.538 0.529 0.518 0.506 0.494 0.480 0.464 0.448 0.430 0.414 0.399 0.385 0.372 0.360 0.349 0.340 0.331 0.324 0.318 0.312 0.308 0.305 0.302 0.300 0.299 0.298 0.298 0.298 0.297 0.298 0.298 0.298 0.299 0.301 0.303 0.306 0.310 0.315 0.321 0.329 0.338 0.349 0.361 0.375 0.392 0.410 0.430 0.453 0.479 0.507 0.538 0.573 0.610 0.652 0.697 0.746 0.800 0.859 0.923 0.993 1.069 1.152 1.242 1.339 1.430 1.500 1.544 1.566 1.566 0.000 
0.000 0.993 0.993 0.927 0.872 0.808 0.737 0.672 0.615 0.566 0.524 0.486 0.454 0.424 0.399 0.376 0.356 0.339 0.324 0.311 0.299 0.290 0.281 0.274 0.268 0.264 0.260 0.256 0.254 0.252 0.250 0.249 0.248 0.248 0.247 0.248 0.248 0.250 0.252 0.255 0.258 0.263 0.268 0.275 0.283 0.293 0.303 0.315 0.328 0.342 0.358 0.375 0.391 0.406 0.420 0.433 0.446 0.457 0.467 0.476 0.485 0.492 0.499 0.505 0.511 0.516 0.520 0.524 0.527 0.529 0.531 0.533 0.535 0.536 0.537 0.537 0.538 0.538 0.538 0.538 0.538 0.538 0.538 0.538 0.537 0.537 0.536 0.534 0.533 0.531 0.529 0.526 0.522 0.518 0.514 0.508 0.502 0.495 0.488 0.479 0.469 0.459 0.447 0.434 0.420 0.405 0.389 0.372 0.357 0.344 0.331 0.319 0.309 0.299 0.291 0.284 0.279 0.274 0.270 0.267 0.265 0.263 0.262 0.261 0.261 0.261 0.261 0.261 0.261 0.262 0.263 0.264 0.266 0.269 0.272 0.277 0.283 0.290 0.298 0.309 0.321 0.336 0.352 0.371 0.391 0.414 0.440 0.469 0.500 0.535 0.573 0.615 0.662 0.712 0.768 0.829 0.895 0.968 1.047 1.135 1.232 1.339 1.450 1.544 1.610 1.636 1.636 0.000 
0.000 1.031 1.031 0.996 0.934 0.852 0.761 0.683 0.618 0.564 0.518 0.478 0.443 0.412 0.385 0.361 0.340 0.322 0.306 0.292 0.280 0.270 0.261 0.253 0.247 0.241 0.237 0.233 0.230 0.227 0.225 0.224 0.223 0.222 0.221 0.221 0.221 0.221 0.222 0.223 0.226 0.229 0.234 0.239 0.246 0.254 0.263 0.273 0.285 0.297 0.311 0.325 0.339 0.353 0.365 0.377 0.388 0.398 0.408 0.416 0.424 0.431 0.438 0.444 0.449 0.453 0.458 0.461 0.464 0.467 0.469 0.471 0.472 0.473 0.474 0.475 0.475 0.475 0.476 0.476 0.476 0.476 0.476 0.475 0.475 0.475 0.474 0.473 0.472 0.470 0.468 0.466 0.463 0.460 0.456 0.451 0.446 0.440 0.433 0.425 0.417 0.407 0.397 0.385 0.373 0.359 0.344 0.328 0.313 0.300 0.288 0.278 0.268 0.260 0.253 0.247 0.242 0.238 0.235 0.232 0.230 0.229 0.228 0.227 0.227 0.227 0.227 0.227 0.227 0.227 0.228 0.229 0.231 0.233 0.237 0.241 0.246 0.252 0.260 0.270 0.281 0.295 0.311 0.329 0.350 0.373 0.399 0.427 0.459 0.494 0.532 0.575 0.621 0.673 0.730 0.792 0.860 0.935 1.018 1.111 1.214 1.330 1.455 1.564 1.644 1.685 1.685 0.000 
0.000 1.067 1.067 1.036 0.971 0.878 0.774 0.687 0.617 0.559 0.509 0.466 0.429 0.397 0.368 0.343 0.322 0.303 0.286 0.271 0.259 0.248 0.238 0.230 0.223 0.217 0.212 0.208 0.204 0.201 0.198 0.196 0.195 0.194 0.193 0.192 0.192 0.192 0.192 0.193 0.195 0.197 0.201 0.206 0.211 0.218 0.226 0.234 0.244 0.255 0.266 0.279 0.291 0.303 0.314 0.324 0.334 0.342 0.350 0.358 0.365 0.371 0.377 0.382 0.386 0.390 0.394 0.397 0.400 0.402 0.404 0.406 0.407 0.408 0.409 0.409 0.410 0.410 0.410 0.410 0.410 0.410 0.410 0.410 0.410 0.410 0.409 0.408 0.407 0.406 0.404 0.402 0.400 0.397 0.394 0.390 0.386 0.380 0.375 0.368 0.361 0.352 0.343 0.333 0.322 0.310 0.296 0.282 0.270 0.258 0.248 0.239 0.231 0.224 0.218 0.212 0.208 0.204 0.201 0.199 0.197 0.196 0.195 0.195 0.195 0.194 0.194 0.194 0.195 0.195 0.196 0.197 0.198 0.201 0.203 0.207 0.212 0.217 0.224 0.233 0.243 0.255 0.269 0.286 0.306 0.329 0.354 0.382 0.414 0.449 0.487 0.529 0.576 0.628 0.685 0.748 0.817 0.895 0.981 1.077 1.186 1.311 1.448 1.567 1.654 1.700 1.700 0.000 
0.000 1.070 1.070 1.052 0.987 0.889 0.777 0.686 0.611 0.549 0.496 0.450 0.411 0.377 0.348 0.322 0.300 0.280 0.263 0.248 0.235 0.223 0.213 0.205 0.197 0.191 0.185 0.180 0.176 0.172 0.170 0.168 0.166 0.165 0.164 0.163 0.163 0.163 0.164 0.164 0.166 0.168 0.170 0.174 0.179 0.184 0.191 0.198 0.206 0.215 0.225 0.236 0.247 0.257 0.266 0.275 0.283 0.290 0.297 0.304 0.309 0.315 0.320 0.324 0.328 0.331 0.334 0.337 0.339 0.341 0.343 0.344 0.345 0.346 0.347 0.347 0.348 0.348 0.348 0.348 0.348 0.348 0.348 0.348 0.348 0.348 0.347 0.346 0.346 0.345 0.343 0.342 0.339 0.337 0.334 0.331 0.327 0.323 0.318 0.312 0.306 0.299 0.291 0.283 0.273 0.263 0.251 0.239 0.229 0.219 0.210 0.202 0.196 0.190 0.184 0.180 0.176 0.173 0.171 0.169 0.167 0.166 0.165 0.165 0.165 0.165 0.165 0.165 0.165 0.165 0.166 0.167 0.168 0.170 0.172 0.176 0.180 0.185 0.191 0.198 0.207 0.217 0.230 0.245 0.262 0.283 0.307 0.335 0.365 0.399 0.437 0.479 0.525 0.576 0.633 0.696 0.766 0.844 0.932 1.031 1.145 1.276 1.427 1.560 1.654 1.700 1.700 0.000 
0.000 1.072 1.072 1.055 0.992 0.890 0.774 0.678 0.599 0.533 0.477 0.430 0.389 0.354 0.324 0.297 0.275 0.255 0.237 0.222 0.208 0.196 0.186 0.177 0.169 0.162 0.156 0.151 0.147 0.144 0.142 0.140 0.139 0.138 0.137 0.137 0.137 0.137 0.137 0.137 0.138 0.140 0.142 0.145 0.149 0.154 0.159 0.165 0.172 0.179 0.188 0.196 0.205 0.214 0.222 0.229 0.236 0.242 0.248 0.253 0.258 0.263 0.267 0.270 0.274 0.277 0.279 0.281 0.283 0.285 0.286 0.287 0.288 0.289 0.290 0.290 0.290 0.290 0.291 0.291 0.291 0.291 0.291 0.291 0.290 0.290 0.290 0.289 0.289 0.288 0.287 0.285 0.283 0.281 0.279 0.276 0.273 0.269 0.265 0.261 0.255 0.249 0.243 0.236 0.228 0.219 0.210 0.200 0.191 0.183 0.175 0.169 0.163 0.158 0.154 0.150 0.147 0.144 0.142 0.141 0.139 0.138 0.138 0.137 0.137 0.137 0.137 0.137 0.137 0.138 0.138 0.139 0.140 0.142 0.144 0.147 0.150 0.154 0.159 0.166 0.173 0.182 0.193 0.205 0.221 0.238 0.259 0.284 0.313 0.346 0.382 0.423 0.468 0.518 0.574 0.636 0.705 0.783 0.871 0.971 1.087 1.222 1.380 1.534 1.646 1.700 1.700 0.000 
0.000 1.075 1.075 1.057 0.990 0.883 0.761 0.660 0.577 0.509 0.451 0.402 0.361 0.326 0.295 0.268 0.245 0.225 0.208 0.192 0.179 0.166 0.156 0.147 0.139 0.133 0.128 0.124 0.121 0.118 0.116 0.115 0.114 0.113 0.112 0.112 0.112 0.112 0.112 0.113 0.114 0.115 0.117 0.119 0.122 0.126 0.130 0.135 0.140 0.146 0.153 0.160 0.168 0.175 0.181 0.187 0.193 0.198 0.203 0.207 0.211 0.215 0.218 0.221 0.224 0.226 0.229 0.230 0.232 0.233 0.234 0.235 0.236 0.237 0.237 0.238 0.238 0.238 0.238 0.238 0.238 0.238 0.238 0.238 0.238 0.238 0.237 0.237 0.236 0.236 0.235 0.234 0.232 0.230 0.228 0.226 0.224 0.221 0.217 0.213 0.209 0.204 0.199 0.193 0.186 0.179 0.172 0.164 0.156 0.150 0.144 0.138 0.133 0.129 0.126 0.123 0.120 0.118 0.116 0.115 0.114 0.113 0.113 0.112 0.112 0.112 0.112 0.112 0.112 0.113 0.113 0.114 0.115 0.116 0.118 0.120 0.123 0.126 0.131 0.136 0.142 0.150 0.158 0.169 0.182 0.197 0.214 0.235 0.260 0.289 0.323 0.361 0.404 0.452 0.506 0.566 0.633 0.709 0.795 0.893 1.007 1.140 1.298 1.474 1.623 1.700 1.700 0.000 
0.000 1.078 1.078 1.057 0.978 0.855 0.730 0.627 0.544 0.474 0.416 0.368 0.326 0.291 0.261 0.235 0.212 0.192 0.175 0.159 0.146 0.135 0.126 0.118 0.112 0.107 0.103 0.099 0.097 0.095 0.093 0.092 0.091 0.090 0.090 0.090 0.090 0.090 0.090 0.090 0.091 0.092 0.093 0.095 0.097 0.100 0.104 0.108 0.112 0.117 0.122 0.128 0.134 0.140 0.145 0.150 0.154 0.158 0.162 0.166 0.169 0.172 0.175 0.177 0.179 0.181 0.183 0.184 0.186 0.187 0.187 0.188 0.189 0.189 0.190 0.190 0.190 0.190 0.190 0.190 0.190 0.190 0.190 0.190 0.190 0.190 0.190 0.189 0.189 0.188 0.188 0.187 0.186 0.184 0.183 0.181 0.179 0.176 0.174 0.171 0.167 0.163 0.159 0.154 0.149 0.143 0.137 0.131 0.125 0.120 0.115 0.110 0.107 0.103 0.100 0.098 0.096 0.094 0.093 0.092 0.091 0.090 0.090 0.090 0.090 0.090 0.090 0.090 0.090 0.090 0.090 0.091 0.092 0.093 0.094 0.096 0.098 0.101 0.104 0.109 0.114 0.120 0.127 0.136 0.146 0.158 0.172 0.189 0.209 0.233 0.261 0.295 0.334 0.378 0.429 0.485 0.548 0.620 0.701 0.794 0.901 1.024 1.172 1.355 1.563 1.700 1.700 0.000 
0.000 1.080 1.080 1.050 0.940 0.797 0.674 0.575 0.494 0.427 0.371 0.324 0.284 0.250 0.221 0.196 0.174 0.155 0.139 0.125 0.115 0.106 0.098 0.092 0.087 0.083 0.080 0.077 0.075 0.074 0.072 0.071 0.071 0.070 0.070 0.070 0.070 0.070 0.070 0.070 0.071 0.071 0.072 0.074 0.076 0.078 0.080 0.083 0.087 0.091 0.095 0.099 0.104 0.108 0.113 0.116 0.120 0.123 0.126 0.129 0.131 0.134 0.136 0.138 0.139 0.141 0.142 0.143 0.144 0.145 0.146 0.146 0.147 0.147 0.147 0.148 0.148 0.148 0.148 0.148 0.148 0.148 0.148 0.148 0.148 0.148 0.147 0.147 0.147 0.146 0.146 0.145 0.144 0.143 0.142 0.141 0.139 0.137 0.135 0.133 0.130 0.127 0.124 0.120 0.116 0.111 0.106 0.102 0.097 0.093 0.089 0.086 0.083 0.080 0.078 0.076 0.074 0.073 0.072 0.071 0.071 0.070 0.070 0.070 0.070 0.070 0.070 0.070 0.070 0.070 0.070 0.070 0.071 0.072 0.073 0.074 0.076 0.078 0.081 0.085 0.089 0.093 0.099 0.106 0.114 0.123 0.135 0.148 0.164 0.182 0.205 0.231 0.262 0.299 0.342 0.393 0.450 0.515 0.589 0.671 0.764 0.868 0.990 1.148 1.377 1.700 1.700 0.000 
0.000 1.024 1.024 1.008 0.843 0.697 0.587 0.499 0.426 0.364 0.313 0.269 0.233 0.201 0.174 0.152 0.133 0.117 0.105 0.095 0.086 0.079 0.074 0.069 0.065 0.062 0.060 0.058 0.056 0.055 0.054 0.053 0.053 0.053 0.052 0.052 0.052 0.052 0.052 0.053 0.053 0.053 0.054 0.055 0.057 0.058 0.060 0.062 0.065 0.068 0.071 0.074 0.078 0.081 0.084 0.087 0.090 0.092 0.094 0.096 0.098 0.100 0.101 0.103 0.104 0.105 0.106 0.107 0.108 0.108 0.109 0.109 0.110 0.110 0.110 0.110 0.110 0.111 0.111 0.111 0.111 0.111 0.111 0.111 0.111 0.110 0.110 0.110 0.110 0.109 0.109 0.109 0.108 0.107 0.106 0.105 0.104 0.102 0.101 0.099 0.097 0.095 0.092 0.090 0.087 0.083 0.080 0.076 0.072 0.069 0.067 0.064 0.062 0.060 0.058 0.057 0.056 0.055 0.054 0.053 0.053 0.052 0.052 0.052 0.052 0.052 0.052 0.052 0.052 0.052 0.052 0.053 0.053 0.054 0.055 0.056 0.057 0.059 0.061 0.063 0.066 0.070 0.074 0.079 0.085 0.093 0.101 0.111 0.123 0.137 0.154 0.174 0.197 0.225 0.258 0.297 0.343 0.396 0.457 0.524 0.593 0.662 0.732 0.811 0.919 1.059 1.059 0.000 
0.000 0.477 0.477 0.759 0.638 0.537 0.461 0.396 0.337 0.285 0.241 0.204 0.172 0.147 0.126 0.109 0.095 0.084 0.075 0.068 0.062 0.057 0.053 0.049 0.047 0.044 0.043 0.041 0.040 0.039 0.038 0.038 0.038 0.037 0.037 0.037 0.037 0.037 0.037 0.037 0.038 0.038 0.039 0.039 0.040 0.041 0.043 0.044 0.046 0.048 0.050 0.053 0.055 0.058 0.060 0.062 0.064 0.065 0.067 0.068 0.070 0.071 0.072 0.073 0.074 0.075 0.075 0.076 0.077 0.077 0.077 0.078 0.078 0.078 0.078 0.078 0.079 0.079 0.079 0.079 0.079 0.079 0.079 0.079 0.079 0.079 0.078 0.078 0.078 0.078 0.078 0.077 0.077 0.076 0.075 0.075 0.074 0.073 0.072 0.070 0.069 0.067 0.066 0.064 0.062 0.059 0.057 0.054 0.052 0.049 0.047 0.046 0.044 0.043 0.041 0.040 0.040 0.039 0.038 0.038 0.037 0.037 0.037 0.037 0.037 0.037 0.037 0.037 0.037 0.037 0.037 0.037 0.038 0.038 0.039 0.040 0.041 0.042 0.043 0.045 0.047 0.050 0.053 0.056 0.061 0.066 0.072 0.079 0.088 0.098 0.110 0.124 0.141 0.161 0.185 0.213 0.246 0.285 0.329 0.374 0.414 0.444 0.461 0.456 0.382 0.199 0.199 0.000 
0.000 0.000 0.000 0.245 0.331 0.323 0.301 0.269 0.231 0.194 0.162 0.136 0.115 0.098 0.084 0.072 0.063 0.056 0.050 0.045 0.041 0.038 0.035 0.033 0.031 0.029 0.028 0.027 0.026 0.026 0.025 0.025 0.025 0.025 0.025 0.025 0.025 0.025 0.025 0.025 0.025 0.025 0.026 0.026 0.027 0.027 0.028 0.029 0.030 0.032 0.033 0.035 0.037 0.038 0.040 0.041 0.042 0.043 0.044 0.045 0.046 0.047 0.048 0.048 0.049 0.049 0.050 0.050 0.051 0.051 0.051 0.051 0.052 0.052 0.052 0.052 0.052 0.052 0.052 0.052 0.052 0.052 0.052 0.052 0.052 0.052 0.052 0.052 0.052 0.052 0.051 0.051 0.051 0.050 0.050 0.049 0.049 0.048 0.047 0.047 0.046 0.045 0.043 0.042 0.041 0.039 0.037 0.036 0.034 0.033 0.031 0.030 0.029 0.028 0.027 0.027 0.026 0.026 0.025 0.025 0.025 0.025 0.025 0.024 0.024 0.024 0.024 0.024 0.024 0.025 0.025 0.025 0.025 0.025 0.026 0.026 0.027 0.028 0.029 0.030 0.031 0.033 0.035 0.037 0.040 0.044 0.048 0.053 0.058 0.065 0.073 0.082 0.094 0.107 0.123 0.142 0.164 0.191 0.221 0.248 0.267 0.275 0.271 0.242 0.143 0.000 0.000 0.000 
0.000 0.000 0.000 0.052 0.145 0.168 0.169 0.159 0.139 0.117 0.097 0.081 0.068 0.058 0.050 0.043 0.038 0.033 0.030 0.027 0.024 0.022 0.021 0.019 0.018 0.017 0.017 0.016 0.016 0.015 0.015 0.015 0.015 0.015 0.015 0.015 0.015 0.015 0.015 0.015 0.015 0.015 0.015 0.015 0.016 0.016 0.017 0.017 0.018 0.019 0.020 0.021 0.022 0.023 0.023 0.024 0.025 0.026 0.026 0.027 0.027 0.028 0.028 0.029 0.029 0.029 0.030 0.030 0.030 0.030 0.030 0.031 0.031 0.031 0.031 0.031 0.031 0.031 0.031 0.031 0.031 0.031 0.031 0.031 0.031 0.031 0.031 0.031 0.031 0.031 0.030 0.030 0.030 0.030 0.030 0.029 0.029 0.029 0.028 0.028 0.027 0.026 0.026 0.025 0.024 0.023 0.022 0.021 0.020 0.019 0.019 0.018 0.017 0.017 0.016 0.016 0.015 0.015 0.015 0.015 0.015 0.015 0.015 0.015 0.014 0.014 0.014 0.014 0.014 0.015 0.015 0.015 0.015 0.015 0.015 0.016 0.016 0.016 0.017 0.018 0.018 0.020 0.021 0.022 0.024 0.026 0.028 0.031 0.035 0.039 0.043 0.049 0.056 0.063 0.073 0.084 0.098 0.115 0.133 0.147 0.154 0.155 0.149 0.124 0.061 0.000 0.000 0.000 
0.000 0.000 0.000 0.016 0.059 0.076 0.079 0.077 0.069 0.058 0.048 0.040 0.034 0.029 0.024 0.021 0.018 0.016 0.015 0.013 0.012 0.011 0.010 0.010 0.009 0.009 0.008 0.008 0.008 0.008 0.007 0.007 0.007 0.007 0.007 0.007 0.007 0.007 0.007 0.007 0.007 0.007 0.007 0.008 0.008 0.008 0.008 0.008 0.009 0.009 0.010 0.010 0.011 0.011 0.012 0.012 0.012 0.013 0.013 0.013 0.013 0.014 0.014 0.014 0.014 0.014 0.015 0.015 0.015 0.015 0.015 0.015 0.015 0.015 0.015 0.015 0.015 0.015 0.015 0.015 0.015 0.015 0.015 0.015 0.015 0.015 0.015 0.015 0.015 0.015 0.015 0.015 0.015 0.015 0.015 0.014 0.014 0.014 0.014 0.014 0.013 0.013 0.013 0.012 0.012 0.011 0.011 0.010 0.010 0.009 0.009 0.009 0.008 0.008 0.008 0.008 0.008 0.007 0.007 0.007 0.007 0.007 0.007 0.007 0.007 0.007 0.007 0.007 0.007 0.007 0.007 0.007 0.007 0.007 0.007 0.008 0.008 0.008 0.008 0.009 0.009 0.010 0.010 0.011 0.012 0.013 0.014 0.015 0.017 0.019 0.021 0.024 0.027 0.031 0.036 0.041 0.048 0.057 0.066 0.072 0.074 0.074 0.070 0.056 0.025 0.000 0.000 0.000 
0.000 0.000 0.000 0.004 0.018 0.024 0.025 0.025 0.023 0.019 0.015 0.013 0.011 0.009 0.008 0.007 0.006 0.005 0.005 0.004 0.004 0.004 0.003 0.003 0.003 0.003 0.003 0.003 0.002 0.002 0.002 0.002 0.002 0.002 0.002 0.002 0.002 0.002 0.002 0.002 0.002 0.002 0.002 0.002 0.002 0.003 0.003 0.003 0.003 0.003 0.003 0.003 0.003 0.004 0.004 0.004 0.004 0.004 0.004 0.004 0.004 0.004 0.004 0.005 0.005 0.005 0.005 0.005 0.005 0.005 0.005 0.005 0.005 0.005 0.005 0.005 0.005 0.005 0.005 0.005 0.005 0.005 0.005 0.005 0.005 0.005 0.005 0.005 0.005 0.005 0.005 0.005 0.005 0.005 0.005 0.005 0.005 0.005 0.004 0.004 0.004 0.004 0.004 0.004 0.004 0.004 0.004 0.003 0.003 0.003 0.003 0.003 0.003 0.003 0.003 0.002 0.002 0.002 0.002 0.002 0.002 0.002 0.002 0.002 0.002 0.002 0.002 0.002 0.002 0.002 0.002 0.002 0.002 0.002 0.002 0.002 0.003 0.003 0.003 0.003 0.003 0.003 0.003 0.003 0.004 0.004 0.004 0.005 0.005 0.006 0.007 0.008 0.009 0.010 0.012 0.013 0.016 0.018 0.021 0.023 0.024 0.023 0.022 0.017 0.007 0.000 0.000 0.000 
0.000 0.000 0.000 0.000 0.000 0.000 0.000 0.000 0.000 0.000 0.000 0.000 0.000 0.000 0.000 0.000 0.000 0.000 0.000 0.000 0.000 0.000 0.000 0.000 0.000 0.000 0.000 0.000 0.000 0.000 0.000 0.000 0.000 0.000 0.000 0.000 0.000 0.000 0.000 0.000 0.000 0.000 0.000 0.000 0.000 0.000 0.000 0.000 0.000 0.000 0.000 0.000 0.000 0.000 0.000 0.000 0.000 0.000 0.000 0.000 0.000 0.000 0.000 0.000 0.000 0.000 0.000 0.000 0.000 0.000 0.000 0.000 0.000 0.000 0.000 0.000 0.000 0.000 0.000 0.000 0.000 0.000 0.000 0.000 0.000 0.000 0.000 0.000 0.000 0.000 0.000 0.000 0.000 0.000 0.000 0.000 0.000 0.000 0.000 0.000 0.000 0.000 0.000 0.000 0.000 0.000 0.000 0.000 0.000 0.000 0.000 0.000 0.000 0.000 0.000 0.000 0.000 0.000 0.000 0.000 0.000 0.000 0.000 0.000 0.000 0.000 0.000 0.000 0.000 0.000 0.000 0.000 0.000 0.000 0.000 0.000 0.000 0.000 0.000 0.000 0.000 0.000 0.000 0.000 0.000 0.000 0.000 0.000 0.000 0.000 0.000 0.000 0.000 0.000 0.000 0.000 0.000 0.000 0.000 0.000 0.000 0.000 0.000 0.000 0.000 0.000 0.000 0.000 
0.000 0.089 0.089 0.077 0.065 0.049 0.049 0.029 0.010 0.010 0.001 0.003 0.005 0.005 0.005 0.005 0.005 0.005 0.004 0.002 0.002 0.001 0.000 0.001 0.001 0.001 0.001 0.001 0.001 0.001 0.001 0.001 0.001 0.001 0.001 0.001 0.001 0.001 0.001 0.001 0.000 0.000 0.000 0.001 0.004 0.008 0.008 0.021 0.046 0.046 0.070 0.087 0.098 0.098 0.108 0.116 0.122 0.122 0.127 0.122 0.122 0.106 0.089 0.081 0.081 0.081 0.080 0.079 0.079 0.078 0.077 0.077 0.076 0.077 0.077 0.077 0.077 0.076 0.074 0.074 0.073 0.071 0.071 0.069 0.069 0.073 0.073 0.076 0.062 0.031 0.031 0.001 0.000 0.000 0.007 0.022 0.025 0.025 0.018 0.011 0.017 0.017 0.035 0.053 0.053 0.059 0.055 0.051 0.051 0.046 0.039 0.033 0.033 0.025 0.015 0.015 0.006 0.001 0.002 0.002 0.002 0.002 0.002 0.002 0.001 0.001 0.001 0.001 0.001 0.001 0.001 0.001 0.000 0.000 0.001 0.003 0.004 0.004 0.007 0.012 0.016 0.016 0.018 0.017 0.017 0.016 0.015 0.014 0.014 0.013 0.011 0.009 0.009 0.007 0.005 0.005 0.003 0.002 0.000 0.000 0.000 0.000 0.000 0.000 0.007 0.014 0.014 0.000 
0.000 0.000 0.000 0.000 0.000 0.000 0.000 0.000 0.000 0.000 0.000 0.000 0.000 0.000 0.000 0.000 0.000 0.000 0.000 0.000 0.000 0.000 0.000 0.000 0.000 0.000 0.000 0.000 0.000 0.000 0.000 0.000 0.000 0.000 0.000 0.000 0.000 0.000 0.000 0.000 0.000 0.000 0.000 0.000 0.000 0.000 0.000 0.000 0.000 0.000 0.000 0.000 0.000 0.000 0.000 0.000 0.000 0.000 0.000 0.000 0.000 0.000 0.000 0.000 0.000 0.000 0.000 0.000 0.000 0.000 0.000 0.000 0.000 0.000 0.000 0.000 0.000 0.000 0.000 0.000 0.000 0.000 0.000 0.000 0.000 0.000 0.000 0.000 0.000 0.000 0.000 0.000 0.000 0.000 0.000 0.000 0.000 0.000 0.000 0.000 0.000 0.000 0.000 0.000 0.000 0.000 0.000 0.000 0.000 0.000 0.000 0.000 0.000 0.000 0.000 0.000 0.000 0.000 0.000 0.000 0.000 0.000 0.000 0.000 0.000 0.000 0.000 0.000 0.000 0.000 0.000 0.000 0.000 0.000 0.000 0.000 0.000 0.000 0.000 0.000 0.000 0.000 0.000 0.000 0.000 0.000 0.000 0.000 0.000 0.000 0.000 0.000 0.000 0.000 0.000 0.000 0.000 0.000 0.000 0.000 0.000 0.000 0.000 0.000 0.000 0.000 0.000 0.000 
