ncols 168
nrows 121
xllcenter 640304.69
yllcenter 1081277.12
cellsize 46.59
NODATA_value -9999.000
0.000 0.000 0.000 0.000 0.000 0.000 0.000 0.000 0.000 0.000 0.000 0.000 0.000 0.000 0.000 0.000 0.000 0.000 0.000 0.000 0.000 0.000 0.000 0.000 0.000 0.000 0.000 0.000 0.000 0.000 0.000 0.000 0.000 0.000 0.000 0.000 0.000 0.000 0.000 0.000 0.000 0.000 0.000 0.000 0.000 0.000 0.000 0.000 0.000 0.000 0.000 0.000 0.000 0.000 0.000 0.000 0.000 0.000 0.000 0.000 0.000 0.000 0.000 0.000 0.000 0.000 0.000 0.000 0.000 0.000 0.000 0.000 0.000 0.000 0.000 0.000 0.000 0.000 0.000 0.000 0.000 0.000 0.000 0.000 0.000 0.000 0.000 0.000 0.000 0.000 0.000 0.000 0.000 0.000 0.000 0.000 0.000 0.000 0.000 0.000 0.000 0.000 0.000 0.000 0.000 0.000 0.000 0.000 0.000 0.000 0.000 0.000 0.000 0.000 0.000 0.000 0.000 0.000 0.000 0.000 0.000 0.000 0.000 0.000 0.000 0.000 0.000 0.000 0.000 0.000 0.000 0.000 0.000 0.000 0.000 0.000 0.000 0.000 0.000 0.000 0.000 0.000 0.000 0.000 0.000 0.000 0.000 0.000 0.000 0.000 0.000 0.000 0.000 0.000 0.000 0.000 0.000 0.000 0.000 0.000 0.000 0.000 0.000 0.000 0.000 0.000 0.000 0.000 
0.000 0.397 0.397 0.397 0.296 0.018 0.018 0.000 0.000 0.000 0.024 0.303 0.397 0.397 0.397 0.397 0.397 0.397 0.397 0.397 0.397 0.397 0.397 0.397 0.397 0.397 0.397 0.397 0.397 0.397 0.397 0.397 0.397 0.397 0.481 0.481 0.614 0.784 0.955 0.955 1.032 1.061 1.061 1.061 1.061 1.054 1.054 1.036 1.033 1.033 1.012 0.958 0.784 0.784 0.609 0.498 0.519 0.519 0.678 0.853 0.853 0.986 0.311 0.501 0.501 1.060 1.047 0.944 0.944 0.815 0.686 0.686 0.644 0.691 0.821 0.821 0.950 0.580 0.251 0.251 0.931 1.064 1.064 1.064 1.064 1.064 1.064 1.068 1.081 1.131 1.131 1.181 1.199 1.199 1.127 0.921 0.684 0.684 0.439 0.472 0.334 0.334 0.188 0.856 0.856 0.930 0.757 0.571 0.571 0.460 0.485 0.671 0.671 0.857 1.018 1.018 1.156 1.258 0.760 0.760 0.516 1.272 1.263 1.263 1.162 1.067 1.067 1.067 1.067 1.067 1.067 1.067 1.067 1.067 1.068 1.068 1.068 1.068 1.068 1.068 1.068 1.068 1.068 1.068 1.068 1.068 1.068 1.069 1.069 1.069 1.069 1.069 1.069 1.013 0.445 0.445 0.644 1.038 0.914 0.914 0.730 0.531 0.328 0.328 0.101 0.000 0.000 0.000 
0.000 0.234 0.234 0.233 0.174 0.011 0.011 0.000 0.000 0.000 0.013 0.164 0.220 0.220 0.225 0.224 0.223 0.223 0.222 0.221 0.221 0.220 0.219 0.218 0.218 0.217 0.216 0.212 0.212 0.202 0.200 0.200 0.203 0.211 0.339 0.339 0.521 0.744 0.968 0.968 1.056 1.080 1.080 1.080 1.080 0.900 0.900 0.500 0.497 0.497 0.687 0.918 0.691 0.691 0.464 0.330 0.397 0.397 0.608 0.835 0.835 1.038 0.730 0.820 0.820 1.075 1.045 0.909 0.909 0.741 0.573 0.573 0.543 0.618 0.786 0.786 0.954 0.845 0.718 0.718 1.023 1.082 1.082 1.083 1.083 1.083 1.083 1.091 1.112 1.176 1.176 1.240 1.257 1.257 1.136 0.866 0.544 0.544 0.191 0.199 0.308 0.308 0.525 0.939 0.939 0.896 0.663 0.424 0.424 0.312 0.363 0.602 0.602 0.841 1.044 1.044 1.214 1.345 1.240 1.240 1.186 1.415 1.324 1.324 1.199 1.086 1.086 1.086 1.086 1.086 1.086 1.086 1.086 1.086 1.086 1.086 1.087 1.087 1.087 1.087 1.087 1.087 1.087 1.087 1.087 1.087 1.087 1.087 1.087 1.087 1.088 1.088 1.088 1.069 0.877 0.877 0.945 1.045 0.869 0.869 0.633 0.377 0.112 0.112 0.033 0.000 0.000 0.000 
0.000 0.046 0.046 0.140 0.146 0.075 0.021 0.011 0.007 0.007 0.017 0.083 0.178 0.207 0.217 0.222 0.223 0.223 0.223 0.222 0.222 0.221 0.221 0.220 0.219 0.219 0.218 0.216 0.215 0.211 0.206 0.206 0.208 0.218 0.276 0.344 0.430 0.630 0.852 0.946 0.998 1.051 1.063 1.063 1.057 0.982 0.871 0.689 0.543 0.534 0.596 0.771 0.768 0.689 0.583 0.422 0.398 0.422 0.502 0.720 0.824 0.901 0.882 0.820 0.847 0.947 1.022 0.967 0.901 0.826 0.663 0.598 0.583 0.597 0.700 0.785 0.860 0.889 0.812 0.792 0.889 1.033 1.069 1.077 1.079 1.080 1.082 1.085 1.099 1.138 1.167 1.195 1.228 1.231 1.182 1.007 0.708 0.546 0.378 0.249 0.283 0.334 0.435 0.733 0.880 0.875 0.777 0.551 0.452 0.399 0.376 0.482 0.597 0.712 0.933 1.036 1.126 1.262 1.272 1.241 1.232 1.297 1.342 1.314 1.263 1.146 1.103 1.094 1.090 1.088 1.087 1.086 1.086 1.086 1.086 1.086 1.086 1.086 1.086 1.086 1.086 1.087 1.087 1.087 1.087 1.087 1.087 1.087 1.087 1.086 1.086 1.085 1.082 1.067 0.986 0.918 0.923 0.975 0.944 0.864 0.761 0.529 0.278 0.182 0.158 0.171 0.171 0.000 
0.000 0.014 0.014 0.047 0.072 0.064 0.043 0.033 0.031 0.035 0.055 0.103 0.163 0.197 0.213 0.221 0.224 0.225 0.226 0.226 0.226 0.226 0.225 0.225 0.225 0.225 0.225 0.225 0.225 0.224 0.225 0.228 0.238 0.262 0.306 0.379 0.484 0.641 0.796 0.892 0.952 0.985 0.998 0.998 0.982 0.938 0.849 0.723 0.653 0.639 0.660 0.708 0.718 0.687 0.605 0.534 0.510 0.518 0.576 0.694 0.801 0.846 0.855 0.857 0.873 0.917 0.936 0.930 0.889 0.814 0.727 0.679 0.667 0.675 0.715 0.787 0.838 0.855 0.857 0.868 0.914 0.990 1.033 1.054 1.065 1.071 1.076 1.082 1.093 1.113 1.134 1.148 1.151 1.137 1.085 0.961 0.759 0.581 0.465 0.415 0.404 0.437 0.532 0.680 0.753 0.760 0.721 0.616 0.534 0.503 0.504 0.531 0.611 0.730 0.880 1.010 1.115 1.186 1.221 1.231 1.236 1.259 1.276 1.269 1.229 1.163 1.122 1.104 1.095 1.090 1.088 1.086 1.086 1.085 1.085 1.085 1.085 1.085 1.085 1.085 1.085 1.085 1.085 1.085 1.085 1.085 1.085 1.084 1.083 1.082 1.079 1.074 1.063 1.040 0.994 0.956 0.943 0.935 0.915 0.861 0.760 0.606 0.480 0.433 0.441 0.493 0.493 0.000 
0.000 0.001 0.001 0.017 0.046 0.059 0.061 0.061 0.064 0.074 0.094 0.127 0.168 0.196 0.213 0.222 0.226 0.229 0.231 0.232 0.232 0.233 0.233 0.234 0.235 0.236 0.237 0.239 0.241 0.246 0.253 0.264 0.284 0.317 0.364 0.435 0.534 0.660 0.772 0.849 0.897 0.922 0.930 0.930 0.921 0.892 0.835 0.759 0.715 0.698 0.697 0.705 0.704 0.686 0.642 0.611 0.603 0.609 0.641 0.711 0.785 0.827 0.848 0.865 0.881 0.897 0.902 0.897 0.875 0.826 0.773 0.746 0.739 0.740 0.754 0.792 0.830 0.853 0.873 0.896 0.931 0.979 1.012 1.032 1.047 1.057 1.065 1.071 1.078 1.085 1.090 1.089 1.081 1.058 1.007 0.915 0.773 0.644 0.569 0.537 0.532 0.545 0.594 0.668 0.702 0.707 0.692 0.646 0.604 0.590 0.591 0.605 0.650 0.736 0.855 0.976 1.065 1.125 1.167 1.195 1.209 1.215 1.215 1.210 1.192 1.157 1.125 1.107 1.097 1.091 1.088 1.086 1.085 1.084 1.084 1.084 1.084 1.084 1.083 1.083 1.083 1.083 1.083 1.083 1.082 1.082 1.081 1.080 1.078 1.075 1.069 1.061 1.047 1.026 0.996 0.968 0.947 0.927 0.902 0.858 0.784 0.706 0.665 0.655 0.670 0.707 0.707 0.000 
0.000 0.000 0.000 0.009 0.039 0.064 0.080 0.091 0.101 0.114 0.131 0.154 0.180 0.201 0.216 0.225 0.231 0.235 0.238 0.240 0.241 0.243 0.244 0.246 0.248 0.250 0.254 0.258 0.264 0.274 0.287 0.308 0.336 0.373 0.422 0.487 0.573 0.675 0.761 0.822 0.860 0.881 0.888 0.889 0.884 0.868 0.834 0.786 0.752 0.733 0.722 0.714 0.707 0.695 0.676 0.665 0.664 0.670 0.691 0.732 0.785 0.824 0.849 0.867 0.881 0.888 0.889 0.886 0.871 0.840 0.808 0.792 0.787 0.787 0.792 0.807 0.832 0.857 0.882 0.910 0.943 0.977 1.001 1.018 1.031 1.040 1.048 1.052 1.054 1.055 1.053 1.048 1.034 1.007 0.961 0.887 0.783 0.694 0.640 0.616 0.610 0.614 0.635 0.670 0.689 0.692 0.685 0.665 0.647 0.643 0.645 0.659 0.692 0.751 0.838 0.935 1.011 1.069 1.113 1.144 1.160 1.166 1.167 1.165 1.158 1.143 1.123 1.107 1.097 1.091 1.087 1.085 1.083 1.082 1.082 1.082 1.081 1.081 1.081 1.081 1.081 1.080 1.080 1.080 1.079 1.078 1.076 1.074 1.071 1.066 1.059 1.049 1.036 1.018 0.995 0.971 0.949 0.926 0.901 0.867 0.828 0.802 0.793 0.797 0.817 0.833 0.833 0.000 
0.000 0.000 0.000 0.009 0.042 0.077 0.103 0.123 0.139 0.153 0.167 0.182 0.199 0.213 0.224 0.233 0.239 0.244 0.248 0.251 0.253 0.256 0.259 0.261 0.265 0.269 0.275 0.282 0.292 0.307 0.326 0.351 0.381 0.419 0.466 0.527 0.602 0.686 0.755 0.805 0.837 0.856 0.864 0.866 0.864 0.855 0.836 0.806 0.779 0.759 0.743 0.731 0.722 0.715 0.710 0.709 0.711 0.718 0.733 0.757 0.792 0.826 0.851 0.870 0.881 0.885 0.886 0.883 0.874 0.855 0.836 0.827 0.823 0.823 0.825 0.830 0.843 0.865 0.891 0.921 0.951 0.977 0.996 1.009 1.019 1.026 1.030 1.032 1.033 1.031 1.027 1.018 1.001 0.974 0.932 0.872 0.792 0.728 0.688 0.666 0.658 0.658 0.664 0.678 0.687 0.690 0.687 0.680 0.675 0.675 0.681 0.694 0.720 0.764 0.826 0.902 0.969 1.021 1.061 1.090 1.108 1.119 1.126 1.128 1.128 1.124 1.115 1.103 1.095 1.089 1.085 1.083 1.081 1.080 1.079 1.079 1.078 1.078 1.078 1.077 1.077 1.077 1.076 1.075 1.074 1.073 1.071 1.067 1.063 1.057 1.049 1.039 1.026 1.011 0.993 0.971 0.950 0.928 0.908 0.889 0.876 0.872 0.875 0.890 0.922 0.934 0.934 0.000 
0.000 0.034 0.034 0.022 0.056 0.101 0.135 0.159 0.178 0.192 0.203 0.213 0.222 0.231 0.239 0.246 0.252 0.257 0.261 0.264 0.268 0.272 0.276 0.280 0.285 0.291 0.299 0.310 0.324 0.341 0.362 0.388 0.419 0.456 0.502 0.558 0.626 0.696 0.752 0.794 0.823 0.841 0.851 0.854 0.854 0.850 0.840 0.822 0.800 0.782 0.767 0.755 0.748 0.745 0.746 0.749 0.753 0.761 0.771 0.786 0.808 0.834 0.857 0.872 0.882 0.886 0.886 0.885 0.880 0.870 0.861 0.856 0.854 0.854 0.855 0.858 0.865 0.880 0.902 0.930 0.957 0.978 0.993 1.004 1.011 1.015 1.017 1.018 1.017 1.014 1.008 0.997 0.979 0.952 0.914 0.862 0.801 0.752 0.720 0.701 0.691 0.687 0.687 0.689 0.692 0.693 0.693 0.693 0.695 0.698 0.705 0.718 0.739 0.772 0.818 0.876 0.934 0.980 1.017 1.044 1.065 1.079 1.089 1.096 1.101 1.102 1.101 1.096 1.090 1.085 1.082 1.079 1.078 1.076 1.076 1.075 1.074 1.074 1.074 1.073 1.073 1.072 1.071 1.070 1.069 1.067 1.064 1.060 1.055 1.048 1.040 1.030 1.019 1.004 0.988 0.970 0.952 0.935 0.924 0.918 0.916 0.917 0.926 0.948 0.988 1.015 1.015 0.000 
0.000 0.071 0.071 0.060 0.094 0.141 0.177 0.202 0.220 0.233 0.241 0.246 0.251 0.255 0.259 0.264 0.269 0.273 0.277 0.281 0.286 0.290 0.295 0.301 0.308 0.316 0.327 0.339 0.355 0.373 0.394 0.420 0.451 0.487 0.531 0.583 0.644 0.704 0.752 0.789 0.815 0.833 0.844 0.849 0.851 0.849 0.844 0.834 0.820 0.805 0.793 0.785 0.782 0.782 0.784 0.788 0.794 0.800 0.808 0.817 0.830 0.848 0.865 0.878 0.885 0.889 0.890 0.890 0.889 0.886 0.883 0.882 0.881 0.882 0.884 0.887 0.892 0.901 0.917 0.940 0.963 0.980 0.993 1.001 1.006 1.008 1.009 1.009 1.007 1.002 0.994 0.981 0.963 0.937 0.902 0.857 0.808 0.770 0.743 0.725 0.715 0.709 0.705 0.703 0.702 0.702 0.704 0.706 0.710 0.715 0.722 0.733 0.751 0.777 0.812 0.856 0.904 0.946 0.979 1.006 1.027 1.044 1.057 1.067 1.075 1.081 1.084 1.084 1.082 1.079 1.076 1.074 1.073 1.072 1.071 1.070 1.070 1.069 1.069 1.068 1.068 1.067 1.066 1.065 1.063 1.060 1.057 1.053 1.047 1.041 1.033 1.023 1.012 0.999 0.984 0.969 0.956 0.947 0.943 0.941 0.942 0.946 0.957 0.980 1.018 1.047 1.047 0.000 
0.000 0.210 0.210 0.137 0.165 0.202 0.232 0.254 0.268 0.276 0.281 0.283 0.283 0.284 0.285 0.287 0.290 0.294 0.297 0.301 0.306 0.311 0.317 0.324 0.333 0.342 0.353 0.366 0.382 0.401 0.422 0.448 0.478 0.514 0.555 0.603 0.659 0.710 0.753 0.786 0.811 0.829 0.841 0.848 0.851 0.851 0.850 0.846 0.839 0.829 0.823 0.820 0.820 0.821 0.824 0.828 0.832 0.837 0.843 0.848 0.856 0.866 0.878 0.886 0.892 0.896 0.898 0.900 0.903 0.904 0.905 0.906 0.907 0.909 0.911 0.915 0.919 0.926 0.936 0.951 0.970 0.984 0.994 1.000 1.004 1.005 1.004 1.003 1.000 0.994 0.984 0.970 0.951 0.926 0.894 0.854 0.814 0.782 0.759 0.743 0.732 0.725 0.721 0.718 0.716 0.716 0.717 0.719 0.723 0.727 0.734 0.744 0.758 0.779 0.806 0.840 0.879 0.916 0.947 0.973 0.994 1.012 1.027 1.040 1.050 1.059 1.065 1.069 1.070 1.070 1.069 1.068 1.067 1.066 1.065 1.065 1.064 1.064 1.063 1.063 1.062 1.061 1.060 1.058 1.056 1.054 1.050 1.046 1.040 1.034 1.026 1.017 1.006 0.993 0.981 0.970 0.963 0.958 0.956 0.956 0.958 0.964 0.976 0.997 1.027 1.044 1.044 0.000 
0.000 0.354 0.354 0.278 0.274 0.289 0.305 0.315 0.320 0.322 0.322 0.320 0.318 0.317 0.316 0.316 0.317 0.318 0.321 0.325 0.329 0.335 0.341 0.348 0.356 0.366 0.377 0.391 0.407 0.426 0.448 0.473 0.502 0.536 0.576 0.621 0.670 0.716 0.754 0.785 0.809 0.827 0.840 0.848 0.852 0.856 0.858 0.859 0.857 0.855 0.854 0.854 0.856 0.859 0.862 0.866 0.870 0.873 0.876 0.880 0.883 0.888 0.894 0.900 0.904 0.908 0.911 0.915 0.919 0.924 0.928 0.930 0.933 0.935 0.938 0.941 0.945 0.950 0.956 0.966 0.979 0.989 0.996 1.001 1.003 1.003 1.002 1.000 0.995 0.987 0.977 0.962 0.943 0.919 0.888 0.852 0.818 0.792 0.771 0.756 0.745 0.738 0.733 0.731 0.729 0.729 0.729 0.731 0.733 0.737 0.743 0.751 0.763 0.779 0.801 0.827 0.858 0.890 0.919 0.944 0.965 0.984 1.000 1.014 1.026 1.037 1.045 1.052 1.056 1.058 1.059 1.059 1.059 1.059 1.058 1.058 1.058 1.057 1.057 1.056 1.056 1.055 1.053 1.052 1.050 1.047 1.043 1.039 1.034 1.028 1.020 1.011 1.001 0.990 0.979 0.972 0.967 0.965 0.964 0.965 0.967 0.974 0.986 1.006 1.029 1.042 1.042 0.000 
0.000 0.479 0.479 0.414 0.402 0.388 0.380 0.374 0.368 0.362 0.357 0.353 0.349 0.347 0.345 0.345 0.345 0.346 0.347 0.349 0.353 0.357 0.363 0.370 0.378 0.388 0.399 0.413 0.430 0.449 0.470 0.495 0.524 0.556 0.593 0.635 0.680 0.721 0.756 0.786 0.809 0.826 0.840 0.849 0.857 0.863 0.869 0.874 0.877 0.880 0.883 0.887 0.890 0.894 0.898 0.902 0.905 0.907 0.909 0.911 0.912 0.914 0.916 0.918 0.921 0.925 0.929 0.933 0.939 0.946 0.951 0.955 0.958 0.961 0.964 0.966 0.969 0.973 0.977 0.982 0.990 0.996 1.000 1.003 1.003 1.003 1.001 0.998 0.992 0.983 0.971 0.956 0.937 0.913 0.884 0.852 0.822 0.798 0.780 0.766 0.755 0.748 0.743 0.741 0.739 0.739 0.739 0.740 0.741 0.744 0.749 0.756 0.766 0.779 0.796 0.817 0.841 0.868 0.894 0.918 0.939 0.958 0.975 0.990 1.003 1.015 1.025 1.033 1.040 1.044 1.047 1.049 1.050 1.050 1.050 1.050 1.050 1.050 1.050 1.049 1.049 1.048 1.046 1.045 1.043 1.040 1.037 1.033 1.028 1.022 1.015 1.006 0.997 0.987 0.979 0.973 0.970 0.968 0.968 0.969 0.972 0.979 0.990 1.009 1.029 1.039 1.039 0.000 
0.000 0.603 0.603 0.537 0.496 0.462 0.438 0.420 0.406 0.395 0.387 0.380 0.376 0.372 0.370 0.370 0.369 0.370 0.370 0.372 0.374 0.378 0.383 0.390 0.398 0.408 0.420 0.434 0.451 0.469 0.491 0.516 0.543 0.574 0.609 0.648 0.689 0.727 0.759 0.786 0.809 0.827 0.841 0.853 0.864 0.874 0.883 0.891 0.899 0.905 0.911 0.917 0.922 0.927 0.931 0.935 0.938 0.940 0.941 0.942 0.942 0.941 0.941 0.942 0.944 0.946 0.950 0.956 0.962 0.969 0.975 0.980 0.983 0.986 0.988 0.991 0.992 0.995 0.997 0.999 1.002 1.005 1.006 1.006 1.005 1.004 1.001 0.997 0.990 0.980 0.968 0.952 0.932 0.909 0.882 0.852 0.825 0.804 0.787 0.773 0.763 0.756 0.751 0.748 0.747 0.746 0.746 0.747 0.748 0.750 0.754 0.759 0.767 0.778 0.792 0.808 0.828 0.850 0.873 0.895 0.915 0.934 0.952 0.967 0.981 0.994 1.005 1.014 1.022 1.029 1.033 1.037 1.039 1.040 1.041 1.042 1.042 1.042 1.042 1.042 1.041 1.040 1.039 1.037 1.035 1.033 1.030 1.026 1.022 1.016 1.010 1.002 0.993 0.985 0.978 0.973 0.971 0.970 0.970 0.971 0.974 0.980 0.992 1.010 1.028 1.036 1.036 0.000 
0.000 0.640 0.640 0.609 0.560 0.512 0.478 0.454 0.435 0.421 0.411 0.403 0.397 0.394 0.391 0.390 0.390 0.390 0.390 0.391 0.393 0.397 0.401 0.408 0.416 0.426 0.439 0.453 0.470 0.489 0.510 0.534 0.560 0.590 0.623 0.659 0.697 0.732 0.762 0.788 0.810 0.829 0.845 0.860 0.874 0.887 0.899 0.911 0.921 0.931 0.939 0.946 0.952 0.957 0.962 0.966 0.969 0.971 0.972 0.973 0.972 0.971 0.971 0.970 0.971 0.973 0.976 0.981 0.988 0.995 1.001 1.005 1.009 1.011 1.013 1.014 1.015 1.016 1.017 1.017 1.017 1.016 1.014 1.012 1.010 1.006 1.002 0.996 0.989 0.978 0.965 0.949 0.929 0.906 0.879 0.852 0.828 0.808 0.792 0.779 0.770 0.762 0.758 0.754 0.753 0.752 0.752 0.752 0.753 0.754 0.757 0.762 0.768 0.777 0.788 0.801 0.817 0.835 0.855 0.875 0.894 0.913 0.930 0.946 0.961 0.974 0.985 0.996 1.005 1.012 1.018 1.023 1.027 1.029 1.031 1.032 1.033 1.033 1.033 1.033 1.033 1.032 1.031 1.030 1.028 1.026 1.023 1.020 1.016 1.011 1.005 0.998 0.990 0.983 0.977 0.973 0.971 0.970 0.970 0.971 0.974 0.980 0.992 1.009 1.026 1.034 1.034 0.000 
0.000 0.675 0.675 0.647 0.595 0.542 0.504 0.477 0.456 0.441 0.429 0.421 0.415 0.411 0.409 0.408 0.407 0.407 0.407 0.408 0.410 0.413 0.418 0.424 0.433 0.444 0.456 0.471 0.488 0.506 0.527 0.551 0.576 0.604 0.635 0.669 0.704 0.737 0.765 0.791 0.813 0.833 0.852 0.870 0.887 0.903 0.918 0.932 0.944 0.955 0.965 0.973 0.980 0.986 0.991 0.995 0.999 1.001 1.002 1.003 1.003 1.003 1.002 1.002 1.002 1.003 1.006 1.010 1.016 1.022 1.027 1.031 1.034 1.035 1.037 1.037 1.038 1.037 1.037 1.035 1.033 1.029 1.025 1.020 1.016 1.010 1.004 0.997 0.988 0.977 0.963 0.947 0.927 0.904 0.878 0.852 0.830 0.812 0.796 0.784 0.775 0.767 0.762 0.759 0.757 0.756 0.756 0.756 0.756 0.758 0.760 0.763 0.768 0.775 0.784 0.795 0.808 0.823 0.839 0.857 0.875 0.893 0.910 0.926 0.941 0.955 0.967 0.978 0.988 0.996 1.003 1.009 1.013 1.017 1.020 1.022 1.023 1.024 1.024 1.024 1.024 1.024 1.023 1.022 1.021 1.019 1.017 1.014 1.010 1.006 1.001 0.995 0.988 0.981 0.976 0.972 0.970 0.969 0.969 0.970 0.973 0.979 0.990 1.007 1.023 1.031 1.031 0.000 
0.000 0.650 0.650 0.652 0.607 0.557 0.519 0.491 0.470 0.455 0.443 0.435 0.429 0.425 0.423 0.422 0.421 0.421 0.421 0.422 0.424 0.428 0.433 0.440 0.449 0.460 0.473 0.488 0.504 0.523 0.543 0.566 0.591 0.618 0.647 0.678 0.711 0.742 0.770 0.795 0.819 0.841 0.862 0.883 0.902 0.921 0.938 0.954 0.967 0.979 0.989 0.998 1.006 1.012 1.018 1.023 1.026 1.029 1.031 1.032 1.033 1.033 1.034 1.034 1.035 1.036 1.038 1.041 1.045 1.050 1.054 1.056 1.058 1.059 1.059 1.060 1.059 1.059 1.057 1.054 1.049 1.044 1.038 1.031 1.024 1.016 1.008 0.999 0.989 0.977 0.962 0.945 0.925 0.902 0.877 0.853 0.832 0.815 0.800 0.788 0.779 0.771 0.766 0.763 0.761 0.759 0.759 0.759 0.759 0.760 0.761 0.764 0.768 0.773 0.781 0.790 0.800 0.813 0.827 0.842 0.858 0.875 0.892 0.908 0.923 0.937 0.950 0.962 0.972 0.981 0.988 0.995 1.000 1.004 1.008 1.010 1.012 1.013 1.014 1.015 1.015 1.015 1.014 1.014 1.013 1.012 1.010 1.008 1.005 1.001 0.996 0.991 0.985 0.979 0.975 0.971 0.969 0.967 0.967 0.967 0.969 0.975 0.984 1.001 1.019 1.029 1.029 0.000 
0.000 0.624 0.624 0.632 0.607 0.563 0.526 0.498 0.478 0.464 0.453 0.445 0.440 0.437 0.435 0.433 0.433 0.433 0.433 0.434 0.437 0.441 0.447 0.454 0.464 0.475 0.488 0.503 0.519 0.538 0.558 0.580 0.604 0.630 0.658 0.687 0.718 0.748 0.775 0.802 0.827 0.851 0.875 0.898 0.920 0.940 0.958 0.974 0.989 1.001 1.012 1.022 1.030 1.037 1.043 1.048 1.052 1.055 1.058 1.059 1.061 1.062 1.063 1.064 1.065 1.066 1.068 1.070 1.073 1.076 1.079 1.080 1.081 1.082 1.082 1.081 1.081 1.079 1.076 1.072 1.067 1.060 1.052 1.043 1.034 1.024 1.013 1.002 0.990 0.977 0.962 0.944 0.924 0.901 0.877 0.854 0.834 0.817 0.803 0.791 0.782 0.775 0.769 0.766 0.763 0.762 0.761 0.761 0.761 0.761 0.762 0.764 0.768 0.772 0.778 0.785 0.794 0.804 0.816 0.830 0.844 0.859 0.875 0.891 0.907 0.921 0.934 0.946 0.957 0.967 0.975 0.982 0.988 0.993 0.997 1.000 1.002 1.004 1.005 1.006 1.006 1.006 1.006 1.006 1.005 1.004 1.003 1.001 0.999 0.996 0.992 0.988 0.982 0.977 0.973 0.969 0.966 0.964 0.962 0.961 0.962 0.966 0.974 0.991 1.013 1.026 1.026 0.000 
0.000 0.598 0.598 0.608 0.594 0.564 0.528 0.501 0.482 0.469 0.459 0.452 0.448 0.445 0.443 0.443 0.442 0.442 0.443 0.445 0.448 0.453 0.459 0.468 0.477 0.489 0.502 0.517 0.534 0.552 0.572 0.593 0.617 0.642 0.668 0.696 0.726 0.755 0.783 0.811 0.838 0.865 0.891 0.915 0.938 0.959 0.977 0.994 1.009 1.022 1.034 1.044 1.053 1.060 1.067 1.072 1.076 1.080 1.083 1.085 1.087 1.088 1.089 1.091 1.092 1.093 1.095 1.097 1.099 1.101 1.102 1.103 1.103 1.103 1.103 1.102 1.101 1.099 1.095 1.091 1.085 1.077 1.068 1.057 1.045 1.033 1.020 1.007 0.993 0.978 0.962 0.944 0.923 0.900 0.877 0.855 0.836 0.820 0.806 0.794 0.785 0.778 0.772 0.768 0.765 0.763 0.763 0.762 0.762 0.762 0.763 0.765 0.767 0.770 0.775 0.781 0.788 0.797 0.807 0.819 0.831 0.845 0.860 0.875 0.891 0.906 0.920 0.932 0.944 0.954 0.962 0.970 0.976 0.982 0.986 0.990 0.992 0.994 0.996 0.997 0.998 0.998 0.998 0.998 0.998 0.997 0.996 0.995 0.993 0.991 0.988 0.984 0.980 0.975 0.971 0.967 0.963 0.958 0.954 0.950 0.949 0.950 0.957 0.973 1.005 1.023 1.023 0.000 
0.000 0.572 0.572 0.583 0.575 0.556 0.527 0.501 0.483 0.471 0.463 0.457 0.453 0.451 0.450 0.450 0.450 0.450 0.452 0.454 0.459 0.464 0.471 0.480 0.490 0.502 0.515 0.530 0.546 0.564 0.584 0.605 0.628 0.652 0.678 0.705 0.734 0.763 0.792 0.822 0.851 0.880 0.906 0.931 0.955 0.976 0.995 1.012 1.028 1.041 1.053 1.064 1.074 1.082 1.089 1.094 1.099 1.103 1.106 1.109 1.111 1.113 1.114 1.116 1.117 1.118 1.120 1.121 1.122 1.123 1.124 1.124 1.125 1.124 1.124 1.122 1.120 1.118 1.114 1.108 1.102 1.093 1.083 1.072 1.059 1.044 1.029 1.014 0.997 0.980 0.963 0.944 0.923 0.900 0.877 0.856 0.838 0.822 0.808 0.797 0.787 0.780 0.774 0.770 0.767 0.765 0.764 0.763 0.763 0.763 0.763 0.764 0.766 0.769 0.773 0.777 0.784 0.791 0.800 0.810 0.821 0.833 0.847 0.861 0.876 0.892 0.906 0.919 0.931 0.941 0.951 0.959 0.966 0.971 0.976 0.980 0.983 0.986 0.988 0.989 0.990 0.990 0.990 0.990 0.990 0.990 0.990 0.989 0.987 0.986 0.983 0.980 0.977 0.973 0.968 0.964 0.958 0.952 0.944 0.936 0.928 0.924 0.926 0.939 0.985 1.042 1.042 0.000 
0.000 0.546 0.546 0.558 0.553 0.542 0.522 0.500 0.483 0.471 0.464 0.460 0.457 0.456 0.455 0.455 0.455 0.457 0.459 0.463 0.468 0.474 0.482 0.491 0.501 0.513 0.527 0.542 0.558 0.576 0.595 0.616 0.638 0.662 0.688 0.714 0.742 0.772 0.802 0.834 0.864 0.893 0.921 0.946 0.970 0.991 1.011 1.029 1.045 1.059 1.072 1.083 1.093 1.102 1.109 1.115 1.120 1.125 1.128 1.131 1.133 1.135 1.137 1.139 1.140 1.141 1.142 1.143 1.144 1.144 1.145 1.145 1.145 1.144 1.143 1.141 1.139 1.135 1.131 1.125 1.118 1.109 1.099 1.086 1.072 1.057 1.040 1.022 1.003 0.984 0.965 0.944 0.922 0.900 0.878 0.858 0.840 0.824 0.811 0.799 0.790 0.782 0.776 0.771 0.768 0.766 0.764 0.764 0.763 0.763 0.764 0.764 0.765 0.768 0.770 0.774 0.779 0.786 0.793 0.802 0.812 0.823 0.835 0.849 0.863 0.879 0.893 0.907 0.919 0.930 0.940 0.949 0.956 0.962 0.967 0.972 0.975 0.978 0.980 0.981 0.982 0.983 0.983 0.983 0.983 0.983 0.983 0.982 0.982 0.980 0.978 0.976 0.973 0.969 0.965 0.960 0.953 0.946 0.936 0.925 0.911 0.895 0.878 0.867 0.910 1.069 1.069 0.000 
0.000 0.520 0.520 0.533 0.530 0.523 0.512 0.495 0.481 0.471 0.464 0.461 0.459 0.458 0.458 0.459 0.460 0.463 0.466 0.471 0.476 0.483 0.492 0.501 0.512 0.524 0.537 0.552 0.568 0.586 0.605 0.625 0.647 0.671 0.696 0.723 0.751 0.780 0.811 0.844 0.875 0.905 0.933 0.959 0.983 1.005 1.026 1.044 1.061 1.076 1.089 1.101 1.111 1.120 1.128 1.134 1.140 1.145 1.148 1.152 1.154 1.156 1.158 1.160 1.161 1.162 1.163 1.163 1.164 1.164 1.164 1.164 1.164 1.163 1.161 1.159 1.156 1.152 1.147 1.141 1.133 1.124 1.113 1.101 1.086 1.070 1.051 1.032 1.011 0.990 0.968 0.945 0.923 0.900 0.879 0.860 0.842 0.827 0.813 0.802 0.792 0.784 0.778 0.773 0.769 0.767 0.765 0.764 0.763 0.763 0.763 0.764 0.765 0.766 0.768 0.772 0.776 0.781 0.787 0.795 0.804 0.814 0.826 0.838 0.852 0.867 0.882 0.896 0.909 0.920 0.930 0.939 0.947 0.954 0.959 0.964 0.967 0.970 0.972 0.974 0.975 0.976 0.976 0.977 0.977 0.977 0.976 0.976 0.976 0.975 0.973 0.971 0.969 0.965 0.961 0.955 0.949 0.941 0.931 0.919 0.903 0.880 0.843 0.775 0.682 0.679 0.679 0.000 
0.000 0.495 0.495 0.507 0.506 0.502 0.497 0.487 0.476 0.468 0.463 0.461 0.460 0.460 0.461 0.462 0.464 0.468 0.472 0.478 0.484 0.492 0.500 0.510 0.521 0.533 0.547 0.562 0.578 0.595 0.614 0.634 0.655 0.679 0.704 0.730 0.758 0.788 0.819 0.852 0.885 0.915 0.944 0.971 0.995 1.018 1.039 1.058 1.075 1.091 1.104 1.117 1.128 1.137 1.145 1.152 1.158 1.163 1.167 1.171 1.173 1.176 1.177 1.179 1.180 1.181 1.182 1.182 1.182 1.182 1.182 1.182 1.181 1.180 1.179 1.176 1.173 1.169 1.163 1.156 1.148 1.139 1.127 1.114 1.099 1.082 1.063 1.042 1.020 0.996 0.972 0.948 0.924 0.901 0.881 0.862 0.844 0.829 0.816 0.804 0.794 0.786 0.779 0.774 0.770 0.767 0.765 0.764 0.763 0.763 0.763 0.763 0.764 0.765 0.767 0.769 0.773 0.777 0.783 0.789 0.797 0.807 0.817 0.829 0.842 0.856 0.871 0.886 0.899 0.911 0.921 0.931 0.939 0.946 0.952 0.956 0.960 0.963 0.966 0.967 0.969 0.969 0.970 0.970 0.970 0.970 0.970 0.970 0.970 0.969 0.968 0.966 0.964 0.961 0.956 0.951 0.944 0.936 0.927 0.916 0.901 0.877 0.836 0.754 0.557 0.134 0.134 0.000 
0.000 0.469 0.469 0.482 0.481 0.480 0.478 0.474 0.468 0.464 0.461 0.460 0.460 0.461 0.462 0.465 0.468 0.473 0.478 0.484 0.491 0.499 0.508 0.518 0.530 0.542 0.555 0.570 0.586 0.603 0.621 0.641 0.663 0.686 0.710 0.737 0.765 0.795 0.826 0.860 0.893 0.924 0.953 0.981 1.006 1.029 1.051 1.071 1.088 1.104 1.119 1.131 1.143 1.153 1.161 1.169 1.175 1.180 1.184 1.188 1.191 1.193 1.195 1.197 1.198 1.198 1.199 1.199 1.199 1.199 1.199 1.199 1.198 1.197 1.195 1.192 1.188 1.184 1.178 1.171 1.162 1.152 1.141 1.127 1.111 1.094 1.074 1.053 1.029 1.004 0.977 0.951 0.927 0.904 0.883 0.864 0.847 0.832 0.818 0.806 0.796 0.788 0.781 0.775 0.771 0.768 0.766 0.764 0.763 0.763 0.763 0.763 0.763 0.764 0.765 0.767 0.770 0.774 0.779 0.784 0.792 0.800 0.810 0.821 0.833 0.846 0.861 0.876 0.890 0.902 0.913 0.923 0.932 0.939 0.945 0.950 0.954 0.957 0.959 0.961 0.962 0.963 0.964 0.964 0.964 0.964 0.964 0.964 0.964 0.963 0.962 0.961 0.958 0.955 0.951 0.946 0.940 0.933 0.925 0.915 0.902 0.881 0.846 0.780 0.643 0.435 0.435 0.000 
0.000 0.443 0.443 0.456 0.456 0.457 0.457 0.457 0.457 0.456 0.456 0.457 0.459 0.461 0.464 0.467 0.472 0.477 0.483 0.490 0.497 0.506 0.515 0.526 0.537 0.549 0.562 0.577 0.593 0.609 0.628 0.647 0.669 0.692 0.716 0.743 0.771 0.801 0.832 0.866 0.900 0.932 0.962 0.990 1.016 1.040 1.062 1.082 1.100 1.117 1.132 1.145 1.157 1.167 1.176 1.184 1.190 1.196 1.200 1.204 1.207 1.210 1.211 1.213 1.214 1.214 1.215 1.215 1.215 1.215 1.215 1.214 1.213 1.212 1.210 1.207 1.203 1.198 1.192 1.185 1.176 1.165 1.153 1.139 1.123 1.105 1.085 1.063 1.039 1.012 0.983 0.956 0.931 0.908 0.887 0.867 0.850 0.834 0.821 0.809 0.798 0.790 0.782 0.777 0.772 0.768 0.766 0.764 0.763 0.763 0.762 0.762 0.763 0.763 0.764 0.765 0.768 0.771 0.775 0.780 0.787 0.795 0.803 0.814 0.825 0.838 0.852 0.867 0.882 0.895 0.906 0.916 0.925 0.932 0.939 0.944 0.948 0.951 0.954 0.955 0.957 0.958 0.958 0.958 0.958 0.958 0.958 0.958 0.958 0.957 0.956 0.955 0.952 0.949 0.945 0.941 0.935 0.929 0.923 0.916 0.908 0.898 0.886 0.879 0.905 1.014 1.014 0.000 
0.000 0.417 0.417 0.430 0.432 0.433 0.436 0.438 0.442 0.445 0.449 0.453 0.457 0.460 0.464 0.469 0.475 0.481 0.487 0.495 0.503 0.512 0.521 0.532 0.543 0.555 0.569 0.583 0.598 0.615 0.633 0.653 0.674 0.697 0.721 0.748 0.776 0.806 0.838 0.871 0.906 0.938 0.969 0.997 1.024 1.049 1.071 1.092 1.111 1.128 1.143 1.157 1.169 1.180 1.189 1.197 1.204 1.210 1.215 1.219 1.222 1.224 1.226 1.228 1.229 1.229 1.229 1.230 1.230 1.229 1.229 1.229 1.227 1.226 1.224 1.220 1.216 1.211 1.205 1.198 1.188 1.178 1.165 1.151 1.135 1.117 1.096 1.073 1.048 1.021 0.991 0.962 0.936 0.912 0.891 0.871 0.853 0.838 0.823 0.811 0.800 0.791 0.784 0.778 0.773 0.769 0.766 0.764 0.763 0.762 0.762 0.762 0.762 0.762 0.763 0.764 0.766 0.769 0.772 0.777 0.783 0.790 0.798 0.808 0.819 0.831 0.845 0.860 0.874 0.888 0.899 0.910 0.919 0.927 0.933 0.938 0.943 0.946 0.948 0.950 0.952 0.952 0.953 0.953 0.953 0.953 0.953 0.953 0.952 0.951 0.950 0.948 0.946 0.943 0.939 0.935 0.930 0.925 0.922 0.920 0.919 0.921 0.932 0.961 1.034 1.132 1.132 0.000 
0.000 0.391 0.391 0.405 0.408 0.411 0.415 0.420 0.427 0.434 0.441 0.448 0.454 0.459 0.465 0.471 0.477 0.484 0.491 0.499 0.508 0.517 0.527 0.537 0.549 0.561 0.574 0.588 0.603 0.620 0.638 0.657 0.678 0.701 0.726 0.752 0.780 0.810 0.842 0.876 0.911 0.944 0.975 1.004 1.031 1.057 1.080 1.101 1.121 1.138 1.154 1.168 1.181 1.192 1.201 1.210 1.217 1.223 1.228 1.232 1.235 1.238 1.240 1.241 1.242 1.243 1.243 1.243 1.243 1.243 1.242 1.242 1.241 1.239 1.237 1.233 1.229 1.224 1.218 1.210 1.201 1.190 1.177 1.163 1.146 1.128 1.107 1.084 1.058 1.030 0.999 0.969 0.942 0.918 0.896 0.875 0.857 0.841 0.826 0.814 0.803 0.793 0.785 0.779 0.774 0.770 0.766 0.764 0.763 0.762 0.761 0.761 0.761 0.761 0.762 0.763 0.764 0.767 0.770 0.774 0.779 0.786 0.793 0.803 0.813 0.825 0.838 0.853 0.868 0.881 0.893 0.904 0.913 0.921 0.928 0.933 0.938 0.941 0.944 0.946 0.947 0.948 0.948 0.948 0.948 0.948 0.948 0.947 0.947 0.945 0.944 0.942 0.939 0.936 0.932 0.928 0.924 0.921 0.920 0.921 0.924 0.933 0.954 0.995 1.064 1.116 1.116 0.000 
0.000 0.365 0.365 0.380 0.384 0.390 0.397 0.405 0.416 0.426 0.435 0.444 0.451 0.458 0.465 0.472 0.480 0.487 0.495 0.503 0.512 0.521 0.531 0.542 0.553 0.565 0.578 0.592 0.607 0.624 0.642 0.661 0.682 0.705 0.729 0.756 0.784 0.814 0.845 0.879 0.914 0.948 0.980 1.010 1.038 1.064 1.087 1.109 1.129 1.147 1.164 1.178 1.191 1.203 1.212 1.221 1.229 1.235 1.240 1.244 1.248 1.250 1.252 1.254 1.254 1.255 1.255 1.255 1.255 1.255 1.255 1.254 1.253 1.251 1.249 1.245 1.241 1.236 1.229 1.221 1.212 1.201 1.188 1.174 1.157 1.138 1.117 1.094 1.068 1.039 1.008 0.978 0.950 0.924 0.901 0.880 0.861 0.844 0.830 0.816 0.805 0.795 0.787 0.780 0.775 0.770 0.767 0.764 0.763 0.761 0.761 0.761 0.761 0.761 0.761 0.762 0.763 0.765 0.768 0.772 0.776 0.782 0.790 0.798 0.808 0.819 0.832 0.846 0.862 0.876 0.888 0.899 0.909 0.917 0.924 0.929 0.934 0.937 0.940 0.942 0.943 0.943 0.944 0.944 0.944 0.944 0.943 0.943 0.942 0.940 0.938 0.935 0.932 0.928 0.924 0.920 0.918 0.917 0.917 0.919 0.924 0.936 0.961 1.006 1.069 1.107 1.107 0.000 
0.000 0.339 0.339 0.354 0.362 0.370 0.381 0.394 0.408 0.421 0.432 0.441 0.450 0.458 0.466 0.474 0.481 0.489 0.498 0.506 0.515 0.525 0.535 0.545 0.556 0.568 0.581 0.595 0.610 0.627 0.645 0.664 0.685 0.708 0.732 0.759 0.787 0.817 0.848 0.882 0.918 0.952 0.985 1.015 1.043 1.070 1.094 1.116 1.137 1.155 1.172 1.187 1.200 1.212 1.222 1.231 1.239 1.245 1.251 1.255 1.259 1.261 1.263 1.265 1.266 1.266 1.266 1.267 1.267 1.266 1.266 1.265 1.264 1.262 1.260 1.256 1.252 1.247 1.240 1.232 1.223 1.212 1.199 1.184 1.167 1.149 1.128 1.104 1.078 1.049 1.018 0.987 0.958 0.931 0.907 0.885 0.866 0.848 0.833 0.819 0.807 0.797 0.788 0.781 0.775 0.771 0.767 0.764 0.763 0.761 0.761 0.760 0.760 0.760 0.760 0.761 0.762 0.764 0.766 0.770 0.774 0.780 0.786 0.794 0.804 0.815 0.827 0.841 0.856 0.870 0.883 0.895 0.904 0.913 0.920 0.925 0.930 0.934 0.936 0.938 0.939 0.940 0.940 0.940 0.940 0.940 0.940 0.939 0.937 0.935 0.933 0.929 0.925 0.920 0.915 0.912 0.911 0.911 0.912 0.915 0.921 0.935 0.961 1.007 1.067 1.099 1.099 0.000 
0.000 0.314 0.314 0.330 0.340 0.352 0.368 0.386 0.403 0.417 0.430 0.440 0.450 0.458 0.467 0.475 0.483 0.492 0.500 0.509 0.518 0.528 0.538 0.548 0.559 0.571 0.584 0.598 0.613 0.629 0.647 0.667 0.688 0.710 0.735 0.761 0.789 0.819 0.851 0.884 0.920 0.955 0.988 1.019 1.048 1.075 1.100 1.122 1.143 1.162 1.179 1.195 1.209 1.221 1.231 1.241 1.248 1.255 1.261 1.265 1.269 1.272 1.274 1.275 1.276 1.277 1.277 1.277 1.277 1.277 1.276 1.276 1.274 1.272 1.270 1.267 1.262 1.257 1.250 1.242 1.233 1.222 1.209 1.194 1.177 1.159 1.138 1.114 1.088 1.060 1.028 0.996 0.966 0.939 0.914 0.891 0.871 0.853 0.836 0.822 0.810 0.799 0.790 0.783 0.776 0.771 0.767 0.765 0.763 0.761 0.760 0.760 0.760 0.760 0.760 0.760 0.761 0.763 0.765 0.768 0.772 0.777 0.784 0.791 0.800 0.811 0.823 0.836 0.851 0.866 0.879 0.891 0.901 0.909 0.916 0.922 0.927 0.930 0.933 0.935 0.936 0.937 0.937 0.937 0.937 0.937 0.936 0.935 0.933 0.931 0.928 0.924 0.918 0.912 0.907 0.904 0.902 0.902 0.902 0.905 0.912 0.926 0.952 0.999 1.061 1.095 1.095 0.000 
0.000 0.288 0.288 0.305 0.319 0.336 0.358 0.381 0.400 0.416 0.429 0.440 0.449 0.459 0.467 0.476 0.485 0.493 0.502 0.511 0.520 0.530 0.540 0.550 0.561 0.573 0.586 0.600 0.615 0.631 0.649 0.669 0.690 0.712 0.737 0.763 0.791 0.821 0.853 0.886 0.922 0.957 0.991 1.022 1.052 1.079 1.104 1.128 1.149 1.168 1.186 1.202 1.216 1.228 1.239 1.249 1.257 1.264 1.269 1.274 1.278 1.281 1.283 1.284 1.285 1.286 1.286 1.286 1.286 1.286 1.286 1.285 1.284 1.282 1.279 1.276 1.272 1.266 1.260 1.252 1.242 1.231 1.218 1.204 1.187 1.168 1.147 1.124 1.098 1.070 1.039 1.006 0.975 0.946 0.921 0.897 0.876 0.857 0.840 0.825 0.812 0.801 0.792 0.784 0.777 0.772 0.768 0.765 0.763 0.761 0.760 0.760 0.760 0.760 0.760 0.760 0.761 0.762 0.764 0.767 0.771 0.775 0.781 0.789 0.797 0.808 0.819 0.832 0.847 0.862 0.875 0.887 0.897 0.906 0.914 0.919 0.924 0.928 0.931 0.932 0.934 0.934 0.934 0.934 0.934 0.934 0.933 0.932 0.930 0.927 0.924 0.919 0.913 0.906 0.899 0.894 0.890 0.888 0.887 0.888 0.893 0.904 0.929 0.974 1.045 1.092 1.092 0.000 
0.000 0.262 0.262 0.280 0.299 0.324 0.353 0.379 0.399 0.415 0.429 0.440 0.450 0.459 0.468 0.477 0.486 0.495 0.504 0.513 0.522 0.532 0.541 0.551 0.562 0.574 0.587 0.601 0.616 0.633 0.651 0.670 0.691 0.714 0.738 0.765 0.792 0.822 0.854 0.887 0.923 0.959 0.993 1.025 1.055 1.083 1.108 1.132 1.154 1.174 1.192 1.208 1.222 1.235 1.246 1.256 1.264 1.271 1.277 1.282 1.286 1.289 1.291 1.293 1.294 1.294 1.295 1.295 1.295 1.295 1.294 1.293 1.292 1.290 1.288 1.285 1.280 1.275 1.268 1.260 1.251 1.240 1.227 1.213 1.196 1.178 1.157 1.134 1.108 1.080 1.049 1.016 0.984 0.955 0.928 0.903 0.881 0.862 0.844 0.829 0.815 0.804 0.794 0.785 0.778 0.773 0.768 0.765 0.763 0.761 0.760 0.760 0.760 0.759 0.760 0.760 0.760 0.762 0.763 0.766 0.769 0.774 0.780 0.787 0.795 0.805 0.816 0.829 0.843 0.858 0.872 0.884 0.895 0.903 0.911 0.917 0.922 0.926 0.928 0.930 0.931 0.932 0.932 0.932 0.932 0.932 0.931 0.930 0.927 0.924 0.920 0.915 0.908 0.900 0.891 0.883 0.876 0.869 0.864 0.861 0.859 0.864 0.880 0.919 1.004 1.090 1.090 0.000 
0.000 0.236 0.236 0.256 0.281 0.316 0.352 0.379 0.400 0.416 0.429 0.441 0.451 0.461 0.470 0.479 0.488 0.497 0.506 0.514 0.523 0.533 0.542 0.552 0.563 0.575 0.588 0.602 0.618 0.634 0.652 0.672 0.693 0.715 0.740 0.766 0.793 0.823 0.855 0.888 0.924 0.960 0.995 1.027 1.057 1.086 1.112 1.136 1.158 1.178 1.197 1.213 1.228 1.241 1.252 1.262 1.271 1.278 1.284 1.289 1.293 1.296 1.299 1.300 1.301 1.302 1.302 1.302 1.302 1.302 1.302 1.301 1.300 1.298 1.296 1.293 1.288 1.283 1.276 1.269 1.259 1.248 1.236 1.221 1.205 1.186 1.166 1.143 1.117 1.090 1.059 1.026 0.993 0.963 0.935 0.910 0.887 0.867 0.848 0.832 0.818 0.806 0.796 0.787 0.780 0.774 0.769 0.766 0.763 0.761 0.760 0.760 0.759 0.759 0.759 0.760 0.760 0.761 0.763 0.765 0.769 0.773 0.778 0.785 0.793 0.802 0.813 0.826 0.840 0.855 0.869 0.881 0.892 0.901 0.909 0.915 0.920 0.924 0.927 0.929 0.930 0.930 0.931 0.931 0.931 0.930 0.929 0.928 0.925 0.922 0.917 0.911 0.904 0.894 0.884 0.872 0.860 0.847 0.834 0.822 0.809 0.798 0.794 0.812 0.886 1.087 1.087 0.000 
0.000 0.210 0.210 0.232 0.267 0.314 0.352 0.380 0.401 0.418 0.431 0.443 0.453 0.463 0.472 0.481 0.489 0.498 0.507 0.515 0.524 0.533 0.543 0.553 0.564 0.576 0.589 0.603 0.618 0.635 0.653 0.673 0.694 0.716 0.740 0.766 0.794 0.824 0.855 0.889 0.925 0.961 0.996 1.029 1.059 1.088 1.115 1.139 1.162 1.182 1.201 1.218 1.233 1.246 1.258 1.268 1.277 1.284 1.291 1.296 1.300 1.303 1.305 1.307 1.308 1.309 1.309 1.309 1.309 1.309 1.309 1.308 1.307 1.305 1.303 1.300 1.296 1.290 1.284 1.276 1.267 1.256 1.244 1.229 1.213 1.195 1.174 1.152 1.126 1.099 1.069 1.036 1.003 0.971 0.943 0.917 0.893 0.872 0.853 0.836 0.821 0.809 0.798 0.788 0.781 0.775 0.770 0.766 0.763 0.762 0.760 0.760 0.759 0.759 0.759 0.760 0.760 0.761 0.763 0.765 0.768 0.772 0.777 0.784 0.791 0.800 0.811 0.823 0.837 0.852 0.866 0.879 0.890 0.899 0.907 0.913 0.919 0.923 0.925 0.927 0.929 0.929 0.929 0.929 0.929 0.929 0.928 0.926 0.924 0.920 0.915 0.909 0.900 0.890 0.878 0.863 0.847 0.828 0.807 0.782 0.753 0.717 0.673 0.624 0.579 0.612 0.612 0.000 
0.000 0.184 0.184 0.210 0.263 0.318 0.357 0.385 0.406 0.422 0.435 0.447 0.457 0.466 0.475 0.483 0.491 0.500 0.508 0.516 0.524 0.533 0.543 0.553 0.564 0.576 0.589 0.604 0.619 0.636 0.654 0.673 0.694 0.717 0.741 0.767 0.795 0.824 0.856 0.889 0.925 0.962 0.997 1.030 1.061 1.090 1.117 1.142 1.164 1.185 1.204 1.221 1.237 1.250 1.262 1.273 1.282 1.290 1.296 1.301 1.306 1.309 1.311 1.313 1.314 1.315 1.315 1.316 1.316 1.316 1.315 1.315 1.314 1.312 1.310 1.306 1.302 1.297 1.291 1.283 1.274 1.263 1.251 1.237 1.221 1.203 1.183 1.160 1.135 1.108 1.078 1.046 1.012 0.980 0.950 0.923 0.899 0.877 0.857 0.840 0.824 0.811 0.800 0.790 0.782 0.776 0.771 0.767 0.764 0.762 0.761 0.760 0.760 0.759 0.759 0.760 0.760 0.761 0.762 0.765 0.767 0.771 0.776 0.783 0.790 0.799 0.809 0.821 0.835 0.850 0.864 0.877 0.888 0.898 0.906 0.912 0.917 0.921 0.924 0.926 0.928 0.928 0.929 0.929 0.929 0.928 0.927 0.925 0.923 0.919 0.914 0.907 0.898 0.887 0.873 0.857 0.837 0.814 0.786 0.754 0.713 0.662 0.590 0.480 0.284 0.063 0.063 0.000 
0.000 0.193 0.193 0.206 0.272 0.330 0.369 0.396 0.416 0.431 0.443 0.453 0.462 0.470 0.478 0.486 0.493 0.501 0.508 0.516 0.524 0.533 0.543 0.553 0.564 0.576 0.590 0.604 0.619 0.636 0.654 0.674 0.694 0.717 0.741 0.767 0.795 0.825 0.856 0.890 0.925 0.962 0.997 1.031 1.062 1.091 1.118 1.144 1.167 1.188 1.207 1.224 1.240 1.254 1.266 1.277 1.286 1.294 1.301 1.306 1.311 1.314 1.317 1.319 1.320 1.321 1.321 1.321 1.321 1.321 1.321 1.320 1.319 1.318 1.315 1.312 1.308 1.303 1.297 1.290 1.281 1.270 1.258 1.244 1.228 1.210 1.190 1.168 1.144 1.117 1.087 1.055 1.021 0.988 0.958 0.930 0.905 0.882 0.862 0.844 0.828 0.814 0.802 0.792 0.784 0.777 0.772 0.768 0.764 0.762 0.761 0.760 0.760 0.760 0.760 0.760 0.760 0.761 0.762 0.764 0.767 0.771 0.776 0.782 0.789 0.798 0.808 0.819 0.833 0.847 0.862 0.875 0.886 0.896 0.904 0.911 0.916 0.921 0.924 0.926 0.927 0.928 0.928 0.928 0.928 0.928 0.927 0.925 0.922 0.918 0.913 0.906 0.896 0.885 0.870 0.852 0.831 0.805 0.773 0.735 0.688 0.629 0.553 0.438 0.218 0.000 0.000 0.000 
0.000 0.306 0.306 0.251 0.303 0.357 0.392 0.416 0.432 0.444 0.454 0.462 0.469 0.476 0.482 0.489 0.495 0.502 0.509 0.516 0.524 0.533 0.543 0.553 0.564 0.577 0.590 0.604 0.620 0.636 0.654 0.674 0.695 0.717 0.741 0.767 0.795 0.825 0.856 0.890 0.925 0.962 0.998 1.031 1.063 1.092 1.120 1.145 1.168 1.190 1.209 1.227 1.243 1.257 1.270 1.281 1.290 1.298 1.305 1.311 1.315 1.319 1.321 1.323 1.325 1.326 1.326 1.326 1.326 1.326 1.326 1.325 1.324 1.323 1.321 1.318 1.314 1.309 1.303 1.296 1.287 1.277 1.265 1.251 1.235 1.218 1.198 1.176 1.152 1.125 1.096 1.065 1.031 0.997 0.966 0.937 0.911 0.888 0.867 0.848 0.832 0.817 0.805 0.794 0.786 0.779 0.773 0.769 0.765 0.763 0.761 0.760 0.760 0.760 0.760 0.760 0.760 0.761 0.762 0.764 0.767 0.771 0.775 0.781 0.788 0.797 0.807 0.818 0.831 0.846 0.860 0.873 0.885 0.895 0.903 0.910 0.916 0.920 0.923 0.925 0.927 0.927 0.928 0.928 0.928 0.927 0.926 0.925 0.922 0.918 0.912 0.905 0.896 0.884 0.869 0.850 0.827 0.800 0.765 0.723 0.672 0.611 0.543 0.450 0.278 0.000 0.000 0.000 
0.000 0.436 0.436 0.368 0.380 0.410 0.433 0.447 0.457 0.464 0.469 0.473 0.478 0.482 0.487 0.491 0.497 0.502 0.509 0.516 0.524 0.533 0.543 0.553 0.564 0.577 0.590 0.604 0.620 0.636 0.654 0.674 0.695 0.717 0.741 0.767 0.795 0.825 0.856 0.890 0.925 0.962 0.998 1.031 1.063 1.093 1.120 1.146 1.170 1.191 1.211 1.229 1.245 1.260 1.272 1.283 1.293 1.301 1.308 1.314 1.319 1.323 1.325 1.328 1.329 1.330 1.330 1.331 1.331 1.331 1.330 1.330 1.329 1.328 1.325 1.323 1.319 1.314 1.308 1.301 1.293 1.282 1.271 1.257 1.242 1.225 1.205 1.184 1.160 1.133 1.105 1.073 1.040 1.005 0.974 0.944 0.918 0.893 0.872 0.852 0.835 0.820 0.808 0.797 0.788 0.780 0.774 0.770 0.766 0.764 0.762 0.761 0.760 0.760 0.760 0.760 0.760 0.761 0.762 0.764 0.767 0.771 0.775 0.781 0.788 0.796 0.806 0.817 0.829 0.844 0.859 0.872 0.884 0.894 0.902 0.909 0.915 0.920 0.923 0.925 0.927 0.927 0.928 0.928 0.928 0.927 0.926 0.925 0.922 0.918 0.912 0.905 0.895 0.883 0.868 0.849 0.826 0.797 0.762 0.718 0.662 0.599 0.549 0.521 0.521 0.492 0.492 0.000 
0.000 0.611 0.611 0.515 0.506 0.498 0.493 0.488 0.484 0.483 0.483 0.484 0.485 0.487 0.490 0.493 0.498 0.503 0.509 0.516 0.524 0.533 0.543 0.553 0.564 0.577 0.590 0.604 0.620 0.636 0.654 0.674 0.695 0.717 0.741 0.767 0.795 0.825 0.856 0.890 0.925 0.962 0.998 1.031 1.063 1.093 1.121 1.147 1.171 1.193 1.213 1.231 1.247 1.262 1.275 1.286 1.296 1.304 1.311 1.317 1.322 1.326 1.329 1.331 1.333 1.334 1.334 1.334 1.334 1.334 1.334 1.334 1.333 1.332 1.330 1.327 1.323 1.319 1.313 1.306 1.298 1.288 1.276 1.263 1.248 1.231 1.212 1.191 1.167 1.141 1.113 1.082 1.049 1.014 0.981 0.951 0.924 0.899 0.877 0.857 0.839 0.824 0.811 0.799 0.790 0.782 0.776 0.771 0.767 0.764 0.763 0.761 0.761 0.760 0.760 0.760 0.761 0.761 0.763 0.764 0.767 0.771 0.775 0.781 0.787 0.795 0.805 0.816 0.828 0.842 0.857 0.871 0.883 0.893 0.902 0.909 0.915 0.919 0.923 0.925 0.927 0.927 0.928 0.928 0.928 0.927 0.926 0.925 0.922 0.918 0.912 0.905 0.896 0.883 0.868 0.849 0.826 0.797 0.761 0.717 0.660 0.595 0.552 0.547 0.629 1.033 1.033 0.000 
0.000 0.785 0.785 0.688 0.638 0.580 0.540 0.516 0.502 0.495 0.491 0.490 0.490 0.491 0.492 0.495 0.499 0.503 0.509 0.516 0.524 0.533 0.542 0.553 0.564 0.577 0.590 0.604 0.620 0.636 0.654 0.674 0.695 0.717 0.741 0.767 0.795 0.825 0.856 0.889 0.925 0.962 0.998 1.031 1.063 1.093 1.121 1.147 1.171 1.193 1.213 1.232 1.248 1.263 1.276 1.288 1.298 1.307 1.314 1.320 1.325 1.329 1.332 1.334 1.336 1.337 1.337 1.338 1.338 1.338 1.338 1.337 1.337 1.335 1.333 1.331 1.327 1.323 1.317 1.311 1.302 1.293 1.282 1.269 1.254 1.237 1.219 1.198 1.175 1.149 1.121 1.091 1.058 1.023 0.989 0.959 0.931 0.905 0.882 0.862 0.844 0.828 0.814 0.802 0.792 0.784 0.778 0.772 0.768 0.765 0.763 0.762 0.761 0.761 0.761 0.761 0.761 0.762 0.763 0.765 0.767 0.771 0.775 0.780 0.787 0.795 0.804 0.815 0.827 0.841 0.856 0.870 0.882 0.892 0.901 0.908 0.914 0.919 0.923 0.925 0.927 0.927 0.928 0.928 0.928 0.927 0.926 0.925 0.922 0.918 0.913 0.905 0.896 0.884 0.868 0.850 0.826 0.797 0.762 0.718 0.662 0.599 0.547 0.515 0.504 0.568 0.568 0.000 
0.000 0.955 0.955 0.846 0.721 0.622 0.564 0.529 0.510 0.500 0.495 0.493 0.493 0.493 0.494 0.496 0.499 0.504 0.510 0.516 0.524 0.533 0.542 0.553 0.564 0.577 0.590 0.604 0.620 0.636 0.654 0.674 0.695 0.717 0.741 0.767 0.795 0.824 0.856 0.889 0.924 0.961 0.997 1.031 1.063 1.093 1.121 1.147 1.172 1.194 1.214 1.233 1.249 1.264 1.278 1.289 1.300 1.308 1.316 1.322 1.327 1.331 1.334 1.337 1.339 1.340 1.340 1.341 1.341 1.341 1.341 1.340 1.340 1.338 1.337 1.334 1.331 1.327 1.321 1.315 1.307 1.297 1.287 1.274 1.260 1.243 1.225 1.204 1.182 1.156 1.129 1.099 1.066 1.031 0.997 0.966 0.937 0.911 0.888 0.867 0.848 0.832 0.818 0.805 0.795 0.787 0.780 0.774 0.770 0.767 0.765 0.763 0.762 0.762 0.762 0.762 0.762 0.762 0.763 0.765 0.767 0.771 0.775 0.780 0.787 0.795 0.804 0.814 0.826 0.840 0.855 0.869 0.881 0.891 0.900 0.908 0.914 0.919 0.923 0.925 0.927 0.928 0.928 0.928 0.928 0.928 0.927 0.925 0.922 0.919 0.913 0.906 0.897 0.885 0.870 0.851 0.828 0.800 0.765 0.722 0.670 0.609 0.539 0.444 0.266 0.026 0.026 0.000 
0.000 1.004 1.004 0.925 0.746 0.634 0.569 0.533 0.513 0.502 0.496 0.494 0.494 0.494 0.495 0.497 0.500 0.505 0.510 0.517 0.524 0.533 0.543 0.553 0.564 0.576 0.590 0.604 0.619 0.636 0.654 0.673 0.694 0.717 0.741 0.767 0.794 0.824 0.855 0.889 0.924 0.961 0.997 1.031 1.063 1.093 1.121 1.147 1.172 1.194 1.215 1.233 1.250 1.265 1.279 1.291 1.301 1.310 1.317 1.324 1.329 1.333 1.337 1.339 1.341 1.342 1.343 1.343 1.343 1.343 1.343 1.343 1.342 1.341 1.339 1.337 1.334 1.330 1.325 1.318 1.311 1.302 1.291 1.279 1.265 1.249 1.231 1.211 1.188 1.164 1.136 1.107 1.075 1.040 1.005 0.973 0.944 0.917 0.893 0.872 0.853 0.836 0.821 0.809 0.798 0.789 0.782 0.776 0.772 0.768 0.766 0.764 0.763 0.763 0.763 0.763 0.763 0.763 0.764 0.766 0.768 0.771 0.775 0.780 0.787 0.794 0.803 0.814 0.826 0.839 0.854 0.868 0.880 0.891 0.900 0.908 0.914 0.919 0.923 0.925 0.927 0.928 0.928 0.928 0.928 0.928 0.927 0.926 0.923 0.920 0.914 0.907 0.898 0.887 0.872 0.854 0.832 0.805 0.773 0.733 0.685 0.626 0.548 0.433 0.215 0.000 0.000 0.000 
0.000 0.785 0.785 0.875 0.740 0.629 0.567 0.531 0.512 0.501 0.496 0.494 0.494 0.494 0.496 0.498 0.501 0.506 0.511 0.517 0.525 0.533 0.543 0.553 0.564 0.576 0.589 0.604 0.619 0.636 0.653 0.673 0.694 0.716 0.740 0.766 0.794 0.823 0.855 0.888 0.923 0.960 0.997 1.031 1.063 1.093 1.121 1.147 1.172 1.194 1.215 1.233 1.250 1.266 1.279 1.291 1.302 1.311 1.319 1.325 1.331 1.335 1.338 1.341 1.343 1.344 1.345 1.345 1.345 1.345 1.345 1.345 1.344 1.343 1.342 1.340 1.337 1.333 1.328 1.322 1.314 1.305 1.295 1.283 1.269 1.254 1.236 1.216 1.194 1.170 1.144 1.115 1.083 1.049 1.014 0.981 0.951 0.924 0.899 0.877 0.858 0.840 0.825 0.812 0.801 0.792 0.784 0.778 0.774 0.770 0.767 0.766 0.765 0.764 0.764 0.764 0.764 0.764 0.765 0.766 0.768 0.771 0.775 0.781 0.787 0.794 0.803 0.813 0.825 0.838 0.853 0.867 0.879 0.890 0.900 0.907 0.914 0.919 0.923 0.926 0.927 0.928 0.929 0.929 0.929 0.929 0.928 0.927 0.925 0.921 0.916 0.910 0.901 0.890 0.877 0.860 0.839 0.815 0.785 0.751 0.708 0.655 0.584 0.476 0.286 0.000 0.000 0.000 
0.000 0.571 0.571 0.683 0.661 0.598 0.549 0.521 0.506 0.498 0.495 0.493 0.494 0.494 0.496 0.499 0.502 0.507 0.512 0.519 0.526 0.534 0.543 0.553 0.564 0.576 0.589 0.603 0.618 0.635 0.653 0.672 0.693 0.715 0.739 0.765 0.793 0.822 0.854 0.887 0.922 0.960 0.996 1.030 1.063 1.093 1.121 1.147 1.172 1.194 1.215 1.234 1.251 1.266 1.280 1.292 1.303 1.312 1.320 1.326 1.332 1.336 1.340 1.342 1.344 1.346 1.346 1.347 1.347 1.347 1.347 1.347 1.346 1.345 1.344 1.342 1.339 1.335 1.330 1.324 1.317 1.309 1.299 1.287 1.274 1.258 1.241 1.222 1.200 1.177 1.151 1.122 1.091 1.057 1.022 0.989 0.958 0.931 0.905 0.883 0.863 0.845 0.830 0.816 0.805 0.795 0.787 0.781 0.776 0.772 0.769 0.767 0.766 0.766 0.765 0.765 0.765 0.766 0.766 0.767 0.769 0.772 0.776 0.781 0.787 0.794 0.803 0.813 0.825 0.838 0.852 0.866 0.879 0.890 0.899 0.907 0.914 0.919 0.923 0.926 0.928 0.929 0.930 0.930 0.930 0.930 0.930 0.929 0.927 0.923 0.919 0.913 0.905 0.895 0.883 0.868 0.850 0.829 0.805 0.777 0.744 0.707 0.665 0.620 0.574 0.520 0.520 0.000 
0.000 0.366 0.366 0.474 0.506 0.517 0.506 0.497 0.492 0.490 0.490 0.490 0.492 0.494 0.496 0.500 0.504 0.508 0.514 0.520 0.527 0.535 0.544 0.553 0.564 0.576 0.588 0.602 0.617 0.634 0.652 0.671 0.692 0.714 0.738 0.764 0.792 0.821 0.852 0.886 0.921 0.958 0.995 1.030 1.062 1.092 1.121 1.147 1.172 1.194 1.215 1.234 1.251 1.266 1.280 1.292 1.303 1.312 1.320 1.327 1.333 1.337 1.341 1.344 1.346 1.347 1.348 1.348 1.349 1.349 1.349 1.348 1.348 1.347 1.346 1.344 1.341 1.337 1.333 1.327 1.320 1.312 1.302 1.291 1.278 1.263 1.246 1.227 1.206 1.183 1.157 1.129 1.099 1.066 1.031 0.997 0.966 0.938 0.912 0.889 0.868 0.850 0.834 0.820 0.808 0.799 0.790 0.784 0.778 0.774 0.771 0.769 0.768 0.767 0.767 0.767 0.767 0.767 0.768 0.769 0.771 0.773 0.777 0.782 0.787 0.795 0.803 0.813 0.824 0.837 0.851 0.865 0.878 0.889 0.899 0.907 0.914 0.919 0.924 0.927 0.929 0.931 0.932 0.932 0.932 0.932 0.932 0.931 0.929 0.927 0.923 0.918 0.911 0.903 0.892 0.879 0.865 0.848 0.830 0.812 0.797 0.785 0.781 0.798 0.870 1.054 1.054 0.000 
0.000 0.213 0.213 0.304 0.375 0.419 0.444 0.459 0.469 0.476 0.481 0.485 0.489 0.493 0.497 0.501 0.505 0.510 0.516 0.522 0.528 0.536 0.544 0.553 0.564 0.575 0.588 0.601 0.616 0.633 0.650 0.670 0.690 0.713 0.737 0.762 0.790 0.819 0.851 0.884 0.920 0.957 0.994 1.028 1.061 1.092 1.120 1.147 1.171 1.194 1.215 1.234 1.251 1.266 1.280 1.292 1.303 1.313 1.321 1.328 1.333 1.338 1.342 1.344 1.346 1.348 1.349 1.349 1.350 1.350 1.350 1.350 1.349 1.348 1.347 1.345 1.343 1.339 1.335 1.329 1.322 1.314 1.305 1.294 1.281 1.267 1.250 1.232 1.211 1.189 1.164 1.136 1.106 1.074 1.039 1.005 0.973 0.945 0.918 0.895 0.874 0.855 0.839 0.825 0.813 0.802 0.794 0.787 0.781 0.777 0.774 0.772 0.770 0.769 0.769 0.769 0.769 0.769 0.770 0.771 0.772 0.775 0.778 0.782 0.788 0.795 0.803 0.813 0.824 0.836 0.850 0.865 0.877 0.889 0.899 0.907 0.914 0.920 0.924 0.928 0.931 0.932 0.934 0.934 0.935 0.935 0.934 0.934 0.933 0.931 0.928 0.924 0.918 0.912 0.903 0.894 0.883 0.872 0.863 0.857 0.853 0.856 0.867 0.899 0.975 1.054 1.054 0.000 
0.000 0.154 0.154 0.208 0.287 0.356 0.402 0.432 0.452 0.465 0.474 0.481 0.487 0.492 0.497 0.502 0.507 0.512 0.517 0.523 0.530 0.537 0.545 0.553 0.563 0.574 0.587 0.600 0.615 0.631 0.649 0.668 0.688 0.711 0.735 0.760 0.788 0.817 0.849 0.882 0.918 0.955 0.992 1.027 1.060 1.091 1.120 1.146 1.171 1.194 1.215 1.233 1.251 1.266 1.280 1.292 1.303 1.313 1.321 1.328 1.334 1.338 1.342 1.345 1.347 1.349 1.350 1.350 1.351 1.351 1.351 1.350 1.350 1.349 1.348 1.346 1.344 1.341 1.336 1.331 1.324 1.317 1.307 1.297 1.284 1.270 1.254 1.236 1.216 1.194 1.169 1.143 1.113 1.082 1.048 1.013 0.981 0.952 0.925 0.901 0.880 0.861 0.844 0.829 0.817 0.806 0.798 0.790 0.785 0.780 0.777 0.774 0.773 0.772 0.771 0.771 0.771 0.771 0.772 0.772 0.774 0.776 0.779 0.784 0.789 0.796 0.804 0.813 0.824 0.836 0.850 0.864 0.877 0.888 0.898 0.907 0.914 0.920 0.925 0.929 0.932 0.935 0.936 0.937 0.938 0.938 0.938 0.938 0.937 0.936 0.934 0.931 0.927 0.923 0.917 0.911 0.904 0.899 0.896 0.895 0.896 0.904 0.920 0.954 1.011 1.051 1.051 0.000 
0.000 0.096 0.096 0.148 0.237 0.326 0.382 0.419 0.443 0.459 0.471 0.480 0.486 0.492 0.497 0.503 0.508 0.513 0.518 0.524 0.531 0.537 0.545 0.553 0.563 0.573 0.585 0.599 0.613 0.629 0.647 0.666 0.686 0.708 0.732 0.758 0.785 0.815 0.846 0.880 0.915 0.953 0.990 1.025 1.058 1.090 1.119 1.145 1.170 1.193 1.214 1.233 1.251 1.266 1.280 1.292 1.303 1.313 1.321 1.328 1.334 1.339 1.342 1.345 1.348 1.349 1.350 1.351 1.351 1.351 1.351 1.351 1.351 1.350 1.349 1.347 1.345 1.342 1.338 1.332 1.326 1.319 1.310 1.299 1.287 1.273 1.258 1.240 1.221 1.199 1.175 1.149 1.120 1.089 1.056 1.021 0.989 0.959 0.932 0.908 0.886 0.867 0.850 0.835 0.822 0.811 0.802 0.794 0.788 0.783 0.780 0.777 0.776 0.774 0.774 0.774 0.774 0.774 0.774 0.775 0.776 0.778 0.781 0.785 0.790 0.796 0.804 0.813 0.824 0.836 0.849 0.863 0.876 0.888 0.898 0.907 0.915 0.921 0.926 0.931 0.934 0.937 0.939 0.940 0.941 0.942 0.942 0.943 0.942 0.942 0.941 0.940 0.937 0.935 0.931 0.927 0.924 0.922 0.922 0.923 0.927 0.937 0.955 0.985 1.026 1.048 1.048 0.000 
0.000 0.036 0.036 0.100 0.226 0.319 0.377 0.414 0.440 0.458 0.470 0.479 0.486 0.492 0.498 0.503 0.509 0.514 0.519 0.525 0.531 0.538 0.545 0.553 0.562 0.572 0.584 0.597 0.611 0.627 0.644 0.663 0.683 0.706 0.729 0.755 0.782 0.812 0.843 0.877 0.912 0.950 0.987 1.023 1.057 1.088 1.117 1.144 1.169 1.193 1.214 1.233 1.250 1.266 1.280 1.292 1.303 1.313 1.321 1.328 1.334 1.339 1.343 1.346 1.348 1.350 1.351 1.351 1.352 1.352 1.352 1.352 1.351 1.351 1.350 1.348 1.346 1.343 1.339 1.334 1.328 1.320 1.312 1.301 1.290 1.276 1.261 1.244 1.225 1.203 1.180 1.154 1.126 1.096 1.063 1.029 0.997 0.967 0.940 0.915 0.893 0.873 0.855 0.840 0.827 0.816 0.806 0.798 0.792 0.787 0.783 0.781 0.779 0.778 0.777 0.777 0.777 0.777 0.777 0.778 0.779 0.781 0.783 0.787 0.792 0.798 0.805 0.814 0.824 0.836 0.849 0.863 0.876 0.888 0.898 0.907 0.915 0.922 0.928 0.932 0.936 0.939 0.942 0.943 0.945 0.946 0.947 0.948 0.948 0.948 0.948 0.947 0.946 0.945 0.943 0.942 0.941 0.941 0.942 0.945 0.950 0.961 0.977 1.003 1.031 1.046 1.046 0.000 
0.000 0.134 0.134 0.118 0.242 0.323 0.377 0.414 0.440 0.458 0.470 0.480 0.487 0.493 0.499 0.504 0.510 0.515 0.520 0.526 0.531 0.538 0.544 0.552 0.561 0.571 0.582 0.595 0.609 0.624 0.641 0.660 0.680 0.702 0.726 0.751 0.779 0.808 0.840 0.873 0.909 0.946 0.984 1.021 1.054 1.086 1.116 1.143 1.168 1.192 1.213 1.232 1.250 1.266 1.280 1.292 1.303 1.313 1.321 1.328 1.334 1.339 1.343 1.346 1.348 1.350 1.351 1.352 1.352 1.352 1.352 1.352 1.352 1.351 1.350 1.348 1.346 1.343 1.340 1.335 1.329 1.322 1.313 1.303 1.292 1.279 1.264 1.247 1.228 1.208 1.185 1.159 1.132 1.102 1.070 1.036 1.004 0.974 0.947 0.922 0.899 0.879 0.861 0.846 0.832 0.821 0.811 0.803 0.796 0.791 0.787 0.784 0.782 0.781 0.780 0.780 0.780 0.780 0.780 0.781 0.782 0.783 0.786 0.789 0.794 0.799 0.806 0.815 0.824 0.836 0.848 0.862 0.876 0.888 0.898 0.907 0.916 0.923 0.928 0.933 0.938 0.941 0.944 0.946 0.948 0.949 0.951 0.952 0.952 0.953 0.953 0.954 0.954 0.954 0.953 0.953 0.954 0.955 0.957 0.961 0.968 0.978 0.993 1.014 1.033 1.043 1.043 0.000 
0.000 0.471 0.471 0.301 0.316 0.345 0.383 0.418 0.442 0.460 0.472 0.481 0.489 0.495 0.500 0.506 0.511 0.516 0.521 0.526 0.531 0.537 0.544 0.552 0.560 0.570 0.581 0.593 0.606 0.622 0.638 0.657 0.677 0.698 0.722 0.747 0.775 0.804 0.836 0.869 0.905 0.943 0.981 1.017 1.052 1.084 1.114 1.141 1.167 1.190 1.212 1.231 1.249 1.265 1.279 1.292 1.303 1.313 1.321 1.328 1.334 1.339 1.343 1.346 1.348 1.350 1.351 1.352 1.352 1.352 1.352 1.352 1.352 1.351 1.350 1.349 1.347 1.344 1.340 1.335 1.330 1.323 1.315 1.305 1.294 1.281 1.266 1.250 1.232 1.211 1.189 1.164 1.137 1.108 1.077 1.043 1.011 0.981 0.954 0.929 0.906 0.886 0.868 0.852 0.838 0.826 0.816 0.808 0.801 0.796 0.792 0.788 0.786 0.785 0.784 0.784 0.783 0.783 0.784 0.784 0.785 0.786 0.789 0.792 0.796 0.801 0.808 0.816 0.825 0.836 0.848 0.862 0.875 0.887 0.898 0.908 0.916 0.923 0.929 0.934 0.939 0.942 0.945 0.948 0.950 0.952 0.953 0.955 0.956 0.957 0.958 0.959 0.960 0.960 0.961 0.962 0.964 0.966 0.969 0.974 0.981 0.990 1.003 1.020 1.034 1.041 1.041 0.000 
0.000 0.524 0.524 0.445 0.378 0.378 0.399 0.428 0.450 0.465 0.476 0.485 0.492 0.498 0.503 0.508 0.512 0.517 0.521 0.526 0.531 0.537 0.543 0.550 0.559 0.568 0.579 0.590 0.604 0.618 0.635 0.653 0.673 0.694 0.718 0.743 0.770 0.800 0.831 0.864 0.900 0.938 0.977 1.014 1.048 1.081 1.111 1.139 1.165 1.189 1.211 1.230 1.248 1.264 1.279 1.292 1.303 1.313 1.321 1.328 1.334 1.339 1.343 1.346 1.348 1.350 1.351 1.352 1.352 1.352 1.352 1.352 1.352 1.351 1.350 1.349 1.347 1.344 1.341 1.336 1.330 1.324 1.316 1.306 1.295 1.283 1.268 1.252 1.234 1.215 1.193 1.168 1.142 1.113 1.083 1.049 1.017 0.988 0.960 0.935 0.913 0.892 0.874 0.858 0.844 0.832 0.822 0.813 0.806 0.801 0.796 0.793 0.791 0.789 0.788 0.788 0.787 0.787 0.788 0.788 0.789 0.790 0.792 0.795 0.799 0.803 0.810 0.817 0.826 0.836 0.848 0.861 0.875 0.887 0.898 0.908 0.916 0.923 0.930 0.935 0.940 0.944 0.947 0.950 0.952 0.954 0.956 0.957 0.959 0.960 0.962 0.963 0.964 0.966 0.967 0.969 0.971 0.975 0.979 0.984 0.991 1.000 1.011 1.024 1.033 1.038 1.038 0.000 
0.000 0.187 0.187 0.362 0.391 0.411 0.429 0.449 0.465 0.476 0.485 0.492 0.497 0.502 0.506 0.510 0.514 0.518 0.522 0.526 0.530 0.536 0.542 0.549 0.557 0.566 0.576 0.588 0.601 0.615 0.631 0.649 0.668 0.690 0.713 0.738 0.765 0.794 0.826 0.859 0.895 0.933 0.972 1.010 1.045 1.078 1.108 1.137 1.163 1.187 1.209 1.229 1.247 1.263 1.278 1.291 1.302 1.312 1.321 1.328 1.334 1.339 1.343 1.346 1.348 1.350 1.351 1.352 1.352 1.352 1.352 1.352 1.352 1.351 1.351 1.349 1.347 1.344 1.341 1.336 1.331 1.324 1.316 1.307 1.296 1.284 1.270 1.255 1.237 1.218 1.196 1.172 1.146 1.118 1.088 1.055 1.023 0.994 0.966 0.941 0.919 0.898 0.880 0.864 0.850 0.838 0.827 0.819 0.811 0.806 0.801 0.798 0.795 0.794 0.792 0.792 0.792 0.792 0.792 0.792 0.793 0.794 0.796 0.798 0.802 0.806 0.812 0.819 0.827 0.837 0.848 0.861 0.875 0.887 0.898 0.908 0.916 0.924 0.930 0.936 0.940 0.944 0.948 0.951 0.953 0.955 0.957 0.959 0.961 0.963 0.964 0.966 0.968 0.969 0.971 0.974 0.977 0.981 0.986 0.992 0.999 1.008 1.017 1.025 1.032 1.035 1.035 0.000 
0.000 0.200 0.200 0.269 0.407 0.452 0.471 0.482 0.489 0.494 0.498 0.502 0.505 0.508 0.511 0.513 0.516 0.518 0.521 0.525 0.529 0.534 0.540 0.547 0.555 0.563 0.573 0.585 0.597 0.611 0.627 0.644 0.663 0.684 0.707 0.732 0.759 0.789 0.820 0.854 0.890 0.928 0.967 1.005 1.041 1.074 1.105 1.134 1.160 1.185 1.207 1.227 1.246 1.262 1.277 1.290 1.302 1.312 1.320 1.327 1.334 1.339 1.343 1.346 1.348 1.350 1.351 1.352 1.352 1.352 1.352 1.352 1.352 1.351 1.351 1.349 1.347 1.344 1.341 1.337 1.331 1.325 1.317 1.308 1.298 1.285 1.272 1.256 1.239 1.220 1.199 1.176 1.150 1.123 1.093 1.061 1.029 0.999 0.972 0.947 0.924 0.904 0.885 0.869 0.855 0.843 0.832 0.823 0.816 0.810 0.806 0.802 0.799 0.798 0.797 0.796 0.796 0.796 0.796 0.796 0.796 0.797 0.799 0.801 0.805 0.809 0.814 0.821 0.829 0.838 0.849 0.861 0.874 0.887 0.898 0.908 0.916 0.924 0.931 0.936 0.941 0.945 0.949 0.952 0.954 0.956 0.959 0.961 0.962 0.964 0.966 0.968 0.970 0.972 0.974 0.977 0.980 0.985 0.990 0.997 1.006 1.014 1.021 1.027 1.031 1.033 1.033 0.000 
0.000 0.650 0.650 0.420 0.488 0.519 0.528 0.527 0.522 0.518 0.515 0.514 0.513 0.514 0.514 0.515 0.517 0.518 0.521 0.524 0.528 0.533 0.538 0.545 0.552 0.561 0.570 0.581 0.593 0.607 0.622 0.639 0.658 0.679 0.702 0.726 0.753 0.782 0.814 0.847 0.884 0.922 0.962 1.000 1.036 1.070 1.101 1.130 1.157 1.182 1.205 1.225 1.244 1.261 1.276 1.289 1.301 1.311 1.319 1.327 1.333 1.338 1.342 1.346 1.348 1.350 1.351 1.352 1.352 1.352 1.352 1.352 1.352 1.351 1.351 1.349 1.347 1.345 1.341 1.337 1.331 1.325 1.317 1.309 1.298 1.286 1.273 1.258 1.241 1.222 1.202 1.179 1.154 1.127 1.098 1.066 1.034 1.004 0.977 0.952 0.929 0.909 0.890 0.874 0.860 0.847 0.837 0.828 0.820 0.814 0.810 0.806 0.803 0.801 0.800 0.799 0.799 0.799 0.799 0.799 0.800 0.801 0.802 0.804 0.807 0.812 0.817 0.823 0.831 0.839 0.850 0.861 0.874 0.887 0.898 0.908 0.917 0.924 0.931 0.936 0.941 0.945 0.949 0.952 0.955 0.957 0.959 0.961 0.963 0.965 0.967 0.969 0.971 0.973 0.976 0.979 0.983 0.987 0.993 1.001 1.011 1.019 1.025 1.028 1.030 1.030 1.030 0.000 
0.000 0.925 0.925 0.762 0.667 0.623 0.593 0.569 0.551 0.537 0.528 0.522 0.519 0.517 0.517 0.517 0.517 0.518 0.520 0.523 0.526 0.531 0.536 0.542 0.549 0.557 0.567 0.577 0.589 0.603 0.618 0.634 0.653 0.673 0.695 0.720 0.746 0.776 0.807 0.841 0.877 0.916 0.956 0.995 1.031 1.065 1.097 1.126 1.154 1.179 1.202 1.223 1.242 1.259 1.274 1.287 1.299 1.310 1.319 1.326 1.332 1.338 1.342 1.345 1.348 1.349 1.351 1.351 1.352 1.352 1.352 1.352 1.352 1.351 1.350 1.349 1.347 1.345 1.341 1.337 1.332 1.325 1.318 1.309 1.299 1.287 1.274 1.259 1.243 1.224 1.204 1.181 1.157 1.130 1.102 1.071 1.039 1.009 0.982 0.957 0.934 0.913 0.895 0.878 0.864 0.852 0.841 0.832 0.824 0.818 0.813 0.809 0.807 0.805 0.803 0.802 0.802 0.802 0.802 0.802 0.803 0.803 0.805 0.807 0.810 0.814 0.819 0.825 0.832 0.841 0.850 0.862 0.874 0.887 0.898 0.908 0.917 0.924 0.931 0.937 0.942 0.946 0.949 0.952 0.955 0.958 0.960 0.962 0.964 0.966 0.968 0.970 0.972 0.974 0.977 0.980 0.984 0.988 0.995 1.003 1.013 1.023 1.029 1.032 1.031 1.028 1.028 0.000 
0.000 0.999 0.999 0.924 0.788 0.695 0.636 0.596 0.569 0.549 0.536 0.528 0.522 0.519 0.518 0.517 0.517 0.518 0.519 0.521 0.524 0.528 0.533 0.539 0.546 0.554 0.563 0.573 0.585 0.598 0.612 0.629 0.647 0.667 0.689 0.713 0.740 0.769 0.800 0.834 0.870 0.909 0.949 0.989 1.025 1.060 1.092 1.122 1.150 1.175 1.199 1.220 1.239 1.256 1.272 1.286 1.298 1.308 1.317 1.325 1.332 1.337 1.341 1.345 1.347 1.349 1.350 1.351 1.352 1.352 1.352 1.352 1.352 1.351 1.350 1.349 1.347 1.344 1.341 1.337 1.332 1.325 1.318 1.309 1.299 1.288 1.275 1.260 1.244 1.226 1.206 1.184 1.160 1.134 1.105 1.075 1.043 1.013 0.986 0.961 0.938 0.917 0.899 0.882 0.868 0.855 0.844 0.835 0.827 0.821 0.816 0.812 0.809 0.807 0.806 0.805 0.805 0.805 0.805 0.805 0.805 0.806 0.807 0.809 0.812 0.816 0.820 0.826 0.833 0.841 0.851 0.862 0.874 0.887 0.898 0.908 0.917 0.924 0.931 0.937 0.942 0.946 0.950 0.953 0.955 0.958 0.960 0.962 0.964 0.966 0.968 0.970 0.972 0.974 0.977 0.980 0.984 0.989 0.995 1.003 1.014 1.026 1.035 1.039 1.038 1.030 1.030 0.000 
0.000 0.994 0.994 0.960 0.833 0.727 0.657 0.610 0.578 0.555 0.540 0.530 0.523 0.520 0.518 0.517 0.517 0.517 0.518 0.520 0.522 0.526 0.530 0.535 0.542 0.549 0.558 0.568 0.580 0.592 0.607 0.623 0.641 0.661 0.683 0.707 0.733 0.762 0.794 0.827 0.863 0.902 0.942 0.982 1.019 1.055 1.087 1.118 1.146 1.171 1.195 1.217 1.236 1.254 1.270 1.284 1.296 1.307 1.316 1.324 1.330 1.336 1.340 1.344 1.347 1.348 1.350 1.351 1.351 1.351 1.351 1.351 1.351 1.351 1.350 1.349 1.347 1.344 1.341 1.337 1.332 1.325 1.318 1.309 1.299 1.288 1.275 1.261 1.245 1.227 1.207 1.186 1.162 1.136 1.108 1.078 1.047 1.017 0.990 0.965 0.942 0.921 0.902 0.886 0.871 0.858 0.848 0.838 0.830 0.824 0.819 0.815 0.812 0.810 0.808 0.807 0.807 0.807 0.807 0.807 0.807 0.808 0.809 0.811 0.814 0.817 0.822 0.827 0.834 0.842 0.851 0.862 0.874 0.886 0.898 0.908 0.916 0.924 0.931 0.937 0.942 0.946 0.950 0.953 0.956 0.958 0.960 0.962 0.964 0.966 0.968 0.970 0.972 0.975 0.977 0.980 0.984 0.989 0.995 1.003 1.014 1.028 1.042 1.053 1.059 1.064 1.064 0.000 
0.000 0.908 0.908 0.935 0.840 0.734 0.663 0.615 0.581 0.558 0.541 0.531 0.524 0.520 0.518 0.517 0.516 0.516 0.517 0.518 0.520 0.522 0.526 0.532 0.538 0.545 0.554 0.563 0.574 0.587 0.601 0.617 0.635 0.655 0.677 0.701 0.728 0.756 0.787 0.821 0.856 0.894 0.935 0.975 1.013 1.049 1.082 1.112 1.141 1.167 1.191 1.213 1.233 1.251 1.267 1.281 1.294 1.305 1.314 1.322 1.329 1.335 1.339 1.343 1.346 1.348 1.349 1.350 1.351 1.351 1.351 1.351 1.351 1.350 1.349 1.348 1.346 1.344 1.341 1.337 1.331 1.325 1.318 1.309 1.300 1.288 1.276 1.262 1.246 1.228 1.209 1.187 1.164 1.139 1.111 1.081 1.050 1.021 0.993 0.968 0.945 0.924 0.906 0.889 0.874 0.861 0.850 0.841 0.833 0.826 0.821 0.817 0.814 0.812 0.810 0.809 0.809 0.809 0.809 0.809 0.809 0.810 0.811 0.813 0.815 0.818 0.823 0.828 0.835 0.843 0.852 0.862 0.874 0.886 0.898 0.908 0.916 0.924 0.931 0.937 0.942 0.946 0.950 0.953 0.956 0.958 0.960 0.962 0.964 0.966 0.968 0.970 0.972 0.974 0.977 0.980 0.983 0.988 0.994 1.002 1.013 1.027 1.046 1.070 1.089 1.098 1.098 0.000 
0.000 0.809 0.809 0.854 0.812 0.731 0.662 0.615 0.581 0.558 0.541 0.530 0.523 0.519 0.517 0.515 0.515 0.515 0.515 0.515 0.517 0.519 0.523 0.527 0.533 0.540 0.549 0.558 0.569 0.582 0.596 0.612 0.630 0.650 0.672 0.696 0.722 0.750 0.781 0.814 0.849 0.887 0.927 0.968 1.006 1.042 1.076 1.107 1.136 1.162 1.187 1.209 1.229 1.248 1.264 1.278 1.291 1.302 1.312 1.320 1.327 1.333 1.338 1.342 1.344 1.347 1.348 1.349 1.350 1.350 1.350 1.350 1.350 1.349 1.349 1.348 1.346 1.343 1.340 1.336 1.331 1.325 1.318 1.309 1.300 1.289 1.276 1.262 1.246 1.229 1.210 1.188 1.165 1.140 1.113 1.084 1.053 1.024 0.996 0.971 0.948 0.927 0.908 0.891 0.877 0.864 0.852 0.843 0.835 0.828 0.823 0.819 0.816 0.813 0.812 0.811 0.810 0.810 0.810 0.810 0.810 0.811 0.812 0.814 0.816 0.819 0.824 0.829 0.835 0.843 0.852 0.862 0.874 0.886 0.897 0.907 0.916 0.924 0.931 0.937 0.942 0.946 0.950 0.953 0.956 0.958 0.960 0.962 0.964 0.966 0.968 0.970 0.972 0.974 0.976 0.979 0.982 0.986 0.992 0.999 1.010 1.024 1.046 1.078 1.111 1.123 1.123 0.000 
0.000 0.698 0.698 0.753 0.742 0.705 0.654 0.611 0.579 0.556 0.540 0.529 0.522 0.517 0.514 0.513 0.512 0.512 0.512 0.512 0.513 0.516 0.519 0.523 0.529 0.536 0.544 0.553 0.564 0.577 0.591 0.607 0.625 0.645 0.667 0.691 0.717 0.745 0.775 0.808 0.843 0.880 0.920 0.960 0.999 1.036 1.069 1.101 1.130 1.157 1.182 1.205 1.225 1.244 1.260 1.275 1.288 1.300 1.310 1.318 1.325 1.331 1.336 1.340 1.343 1.345 1.347 1.348 1.349 1.349 1.349 1.349 1.349 1.348 1.348 1.347 1.345 1.343 1.340 1.336 1.331 1.325 1.318 1.309 1.300 1.289 1.276 1.262 1.247 1.229 1.210 1.189 1.167 1.142 1.115 1.086 1.056 1.026 0.999 0.973 0.950 0.929 0.910 0.894 0.879 0.866 0.854 0.845 0.837 0.830 0.825 0.820 0.817 0.815 0.813 0.812 0.811 0.811 0.811 0.811 0.811 0.812 0.813 0.815 0.817 0.820 0.824 0.829 0.836 0.843 0.852 0.862 0.874 0.886 0.897 0.907 0.916 0.924 0.931 0.937 0.942 0.946 0.950 0.953 0.955 0.958 0.960 0.962 0.964 0.966 0.967 0.969 0.971 0.972 0.974 0.977 0.979 0.983 0.988 0.994 1.004 1.019 1.041 1.076 1.121 1.146 1.146 0.000 
0.000 0.594 0.594 0.646 0.651 0.648 0.629 0.600 0.572 0.551 0.536 0.525 0.518 0.513 0.511 0.509 0.508 0.508 0.508 0.508 0.510 0.511 0.514 0.519 0.524 0.531 0.539 0.549 0.560 0.573 0.587 0.603 0.621 0.641 0.663 0.686 0.712 0.740 0.770 0.802 0.836 0.873 0.912 0.953 0.992 1.029 1.063 1.095 1.124 1.152 1.177 1.200 1.221 1.240 1.257 1.272 1.285 1.297 1.307 1.316 1.323 1.329 1.334 1.338 1.341 1.344 1.345 1.346 1.347 1.347 1.348 1.348 1.348 1.347 1.347 1.346 1.344 1.342 1.339 1.335 1.330 1.324 1.317 1.309 1.299 1.289 1.276 1.262 1.247 1.230 1.211 1.190 1.168 1.143 1.117 1.088 1.058 1.028 1.001 0.976 0.952 0.931 0.912 0.895 0.880 0.867 0.856 0.846 0.838 0.831 0.826 0.821 0.818 0.816 0.814 0.813 0.812 0.812 0.812 0.812 0.812 0.813 0.814 0.815 0.817 0.821 0.825 0.830 0.836 0.843 0.852 0.862 0.873 0.886 0.897 0.907 0.916 0.924 0.930 0.936 0.941 0.946 0.949 0.952 0.955 0.958 0.960 0.961 0.963 0.965 0.966 0.968 0.969 0.970 0.972 0.973 0.975 0.977 0.981 0.985 0.993 1.006 1.028 1.065 1.119 1.154 1.154 0.000 
0.000 0.494 0.494 0.547 0.570 0.582 0.585 0.577 0.559 0.541 0.528 0.518 0.512 0.508 0.505 0.503 0.503 0.503 0.503 0.504 0.505 0.507 0.510 0.514 0.520 0.526 0.535 0.544 0.556 0.569 0.583 0.599 0.617 0.637 0.658 0.682 0.707 0.734 0.764 0.796 0.829 0.866 0.904 0.945 0.984 1.021 1.056 1.088 1.118 1.146 1.171 1.195 1.216 1.235 1.252 1.268 1.281 1.293 1.304 1.313 1.320 1.327 1.332 1.336 1.339 1.342 1.343 1.345 1.345 1.346 1.346 1.346 1.346 1.346 1.345 1.344 1.343 1.341 1.338 1.334 1.329 1.324 1.317 1.309 1.299 1.288 1.276 1.262 1.247 1.230 1.211 1.191 1.168 1.144 1.118 1.090 1.060 1.030 1.003 0.977 0.954 0.933 0.914 0.897 0.882 0.869 0.857 0.847 0.839 0.832 0.827 0.822 0.819 0.816 0.815 0.813 0.813 0.813 0.812 0.812 0.813 0.813 0.814 0.816 0.818 0.821 0.825 0.830 0.836 0.843 0.852 0.862 0.873 0.885 0.897 0.907 0.916 0.923 0.930 0.936 0.941 0.945 0.949 0.952 0.955 0.957 0.959 0.961 0.962 0.963 0.965 0.966 0.966 0.967 0.968 0.968 0.969 0.969 0.970 0.971 0.975 0.983 1.000 1.034 1.099 1.158 1.158 0.000 
0.000 0.436 0.436 0.475 0.508 0.528 0.538 0.541 0.537 0.526 0.515 0.508 0.502 0.499 0.497 0.496 0.496 0.496 0.496 0.497 0.499 0.502 0.505 0.509 0.515 0.522 0.531 0.541 0.552 0.565 0.579 0.596 0.613 0.633 0.654 0.677 0.702 0.729 0.758 0.790 0.823 0.859 0.896 0.937 0.976 1.014 1.049 1.081 1.112 1.140 1.165 1.189 1.211 1.230 1.248 1.263 1.277 1.289 1.300 1.309 1.317 1.324 1.329 1.333 1.337 1.339 1.341 1.343 1.343 1.344 1.344 1.344 1.344 1.344 1.343 1.342 1.341 1.339 1.336 1.333 1.328 1.323 1.316 1.308 1.299 1.288 1.276 1.262 1.247 1.230 1.211 1.191 1.169 1.145 1.119 1.091 1.061 1.032 1.004 0.979 0.955 0.934 0.915 0.898 0.883 0.870 0.858 0.848 0.840 0.833 0.827 0.823 0.819 0.817 0.815 0.814 0.813 0.813 0.813 0.813 0.813 0.813 0.814 0.816 0.818 0.821 0.825 0.830 0.836 0.843 0.852 0.862 0.873 0.885 0.896 0.906 0.915 0.923 0.930 0.935 0.940 0.945 0.948 0.951 0.954 0.956 0.958 0.959 0.961 0.961 0.962 0.963 0.963 0.963 0.962 0.961 0.960 0.958 0.955 0.951 0.946 0.943 0.947 0.969 1.034 1.142 1.142 0.000 
0.000 0.410 0.410 0.433 0.462 0.481 0.494 0.502 0.505 0.503 0.498 0.492 0.489 0.487 0.486 0.486 0.486 0.487 0.488 0.490 0.493 0.496 0.500 0.505 0.511 0.518 0.527 0.537 0.548 0.562 0.576 0.592 0.610 0.629 0.650 0.673 0.698 0.724 0.753 0.784 0.816 0.852 0.889 0.928 0.968 1.006 1.041 1.074 1.105 1.133 1.159 1.183 1.205 1.225 1.243 1.258 1.273 1.285 1.296 1.305 1.313 1.320 1.326 1.330 1.334 1.337 1.339 1.340 1.341 1.341 1.342 1.342 1.342 1.341 1.341 1.340 1.339 1.337 1.334 1.331 1.327 1.321 1.315 1.307 1.298 1.287 1.275 1.262 1.247 1.230 1.211 1.191 1.169 1.146 1.120 1.092 1.062 1.033 1.005 0.980 0.956 0.935 0.916 0.899 0.884 0.870 0.859 0.849 0.840 0.833 0.828 0.823 0.820 0.817 0.815 0.814 0.813 0.813 0.813 0.813 0.813 0.814 0.815 0.816 0.818 0.821 0.825 0.830 0.836 0.843 0.852 0.861 0.872 0.884 0.896 0.906 0.915 0.922 0.929 0.935 0.940 0.944 0.947 0.950 0.953 0.955 0.956 0.957 0.958 0.959 0.959 0.959 0.959 0.957 0.956 0.953 0.949 0.943 0.935 0.924 0.910 0.891 0.868 0.847 0.867 1.006 1.006 0.000 
0.000 0.384 0.384 0.403 0.424 0.440 0.453 0.462 0.469 0.473 0.474 0.473 0.472 0.472 0.472 0.473 0.475 0.476 0.479 0.482 0.485 0.489 0.494 0.500 0.506 0.514 0.523 0.533 0.545 0.558 0.573 0.589 0.607 0.626 0.646 0.669 0.693 0.719 0.748 0.778 0.810 0.844 0.881 0.920 0.960 0.998 1.033 1.067 1.098 1.126 1.153 1.177 1.199 1.219 1.237 1.253 1.268 1.280 1.292 1.301 1.310 1.316 1.322 1.327 1.331 1.334 1.336 1.337 1.338 1.339 1.339 1.339 1.339 1.339 1.338 1.338 1.336 1.335 1.332 1.329 1.325 1.319 1.313 1.306 1.297 1.287 1.275 1.261 1.247 1.230 1.211 1.191 1.170 1.146 1.120 1.093 1.063 1.034 1.006 0.981 0.957 0.936 0.917 0.900 0.884 0.871 0.859 0.849 0.841 0.834 0.828 0.823 0.820 0.817 0.815 0.814 0.813 0.813 0.813 0.813 0.813 0.814 0.815 0.816 0.818 0.821 0.825 0.830 0.836 0.843 0.851 0.861 0.872 0.884 0.895 0.905 0.914 0.921 0.928 0.934 0.939 0.943 0.946 0.949 0.951 0.953 0.954 0.955 0.955 0.955 0.955 0.954 0.953 0.951 0.948 0.943 0.936 0.926 0.915 0.900 0.881 0.855 0.815 0.746 0.596 0.435 0.435 0.000 
0.000 0.358 0.358 0.376 0.390 0.404 0.415 0.424 0.433 0.439 0.444 0.448 0.450 0.452 0.455 0.458 0.461 0.464 0.468 0.472 0.476 0.482 0.488 0.494 0.502 0.510 0.519 0.530 0.542 0.555 0.570 0.586 0.603 0.622 0.643 0.665 0.689 0.714 0.742 0.772 0.804 0.837 0.874 0.912 0.952 0.990 1.025 1.059 1.090 1.119 1.146 1.170 1.192 1.213 1.231 1.248 1.262 1.275 1.287 1.297 1.305 1.312 1.318 1.323 1.327 1.330 1.332 1.334 1.335 1.335 1.336 1.336 1.336 1.336 1.335 1.335 1.334 1.332 1.330 1.326 1.322 1.317 1.311 1.304 1.295 1.285 1.274 1.261 1.246 1.230 1.211 1.191 1.170 1.146 1.121 1.093 1.064 1.034 1.007 0.981 0.958 0.937 0.917 0.900 0.885 0.871 0.859 0.849 0.841 0.834 0.828 0.823 0.820 0.817 0.815 0.814 0.813 0.813 0.813 0.813 0.813 0.814 0.815 0.816 0.818 0.821 0.825 0.830 0.836 0.843 0.851 0.860 0.871 0.883 0.894 0.904 0.913 0.920 0.927 0.933 0.937 0.941 0.944 0.947 0.949 0.950 0.951 0.951 0.952 0.951 0.951 0.949 0.947 0.944 0.939 0.932 0.923 0.912 0.898 0.881 0.860 0.835 0.799 0.729 0.543 0.132 0.132 0.000 
0.000 0.332 0.332 0.349 0.359 0.370 0.380 0.389 0.397 0.405 0.412 0.418 0.424 0.429 0.434 0.439 0.444 0.450 0.455 0.461 0.467 0.474 0.481 0.488 0.497 0.506 0.516 0.527 0.539 0.553 0.567 0.583 0.600 0.619 0.639 0.661 0.684 0.709 0.737 0.766 0.797 0.830 0.866 0.904 0.943 0.981 1.017 1.051 1.082 1.111 1.138 1.163 1.186 1.206 1.225 1.242 1.257 1.270 1.281 1.292 1.300 1.308 1.314 1.319 1.323 1.326 1.328 1.330 1.331 1.332 1.332 1.332 1.332 1.332 1.332 1.331 1.330 1.329 1.327 1.324 1.320 1.315 1.309 1.302 1.293 1.284 1.272 1.260 1.245 1.229 1.211 1.191 1.170 1.146 1.121 1.094 1.064 1.035 1.007 0.982 0.958 0.937 0.917 0.900 0.885 0.871 0.859 0.849 0.841 0.834 0.828 0.823 0.820 0.817 0.815 0.814 0.813 0.813 0.813 0.813 0.813 0.814 0.815 0.816 0.818 0.821 0.825 0.829 0.835 0.842 0.850 0.860 0.870 0.882 0.893 0.903 0.911 0.919 0.925 0.931 0.935 0.939 0.942 0.944 0.946 0.947 0.947 0.947 0.947 0.947 0.946 0.944 0.941 0.936 0.930 0.922 0.912 0.900 0.884 0.866 0.845 0.825 0.801 0.768 0.716 0.686 0.686 0.000 
0.000 0.307 0.307 0.322 0.330 0.339 0.348 0.357 0.365 0.373 0.381 0.390 0.398 0.406 0.413 0.421 0.428 0.435 0.442 0.450 0.458 0.466 0.474 0.483 0.492 0.502 0.513 0.524 0.536 0.550 0.564 0.580 0.597 0.615 0.635 0.657 0.680 0.705 0.731 0.760 0.791 0.823 0.858 0.895 0.935 0.973 1.009 1.043 1.074 1.104 1.131 1.156 1.178 1.199 1.218 1.235 1.250 1.264 1.276 1.286 1.295 1.303 1.309 1.314 1.318 1.322 1.324 1.326 1.327 1.328 1.328 1.328 1.328 1.328 1.328 1.328 1.327 1.325 1.323 1.320 1.317 1.312 1.306 1.299 1.291 1.282 1.271 1.258 1.244 1.228 1.210 1.191 1.169 1.146 1.121 1.094 1.065 1.035 1.008 0.982 0.958 0.937 0.918 0.900 0.885 0.871 0.859 0.849 0.841 0.834 0.828 0.823 0.820 0.817 0.815 0.814 0.813 0.813 0.813 0.813 0.813 0.814 0.814 0.816 0.818 0.821 0.824 0.829 0.835 0.841 0.849 0.859 0.869 0.881 0.892 0.901 0.910 0.917 0.924 0.929 0.933 0.937 0.939 0.941 0.942 0.943 0.943 0.943 0.942 0.942 0.940 0.938 0.934 0.929 0.922 0.914 0.903 0.890 0.874 0.855 0.834 0.819 0.812 0.823 0.900 1.094 1.094 0.000 
0.000 0.281 0.281 0.296 0.303 0.310 0.319 0.327 0.336 0.345 0.355 0.365 0.376 0.386 0.395 0.405 0.413 0.422 0.431 0.440 0.449 0.458 0.468 0.477 0.488 0.498 0.509 0.521 0.534 0.547 0.561 0.577 0.594 0.612 0.631 0.652 0.675 0.700 0.726 0.754 0.784 0.816 0.851 0.887 0.926 0.964 1.000 1.034 1.066 1.095 1.123 1.148 1.171 1.192 1.211 1.228 1.244 1.257 1.270 1.280 1.289 1.297 1.303 1.309 1.313 1.317 1.319 1.321 1.322 1.323 1.324 1.324 1.324 1.324 1.324 1.323 1.322 1.321 1.319 1.316 1.313 1.308 1.303 1.296 1.288 1.279 1.269 1.256 1.242 1.227 1.209 1.190 1.169 1.146 1.121 1.094 1.065 1.035 1.008 0.982 0.959 0.937 0.918 0.900 0.885 0.871 0.859 0.849 0.841 0.834 0.828 0.823 0.820 0.817 0.815 0.814 0.813 0.813 0.813 0.813 0.813 0.813 0.814 0.815 0.817 0.820 0.824 0.828 0.834 0.841 0.848 0.858 0.868 0.879 0.890 0.900 0.908 0.915 0.921 0.926 0.930 0.933 0.936 0.937 0.938 0.938 0.938 0.938 0.937 0.936 0.934 0.931 0.927 0.921 0.914 0.906 0.895 0.882 0.867 0.848 0.827 0.815 0.812 0.827 0.911 1.092 1.092 0.000 
0.000 0.255 0.255 0.270 0.276 0.283 0.291 0.300 0.310 0.320 0.332 0.345 0.357 0.369 0.380 0.391 0.401 0.411 0.421 0.431 0.442 0.452 0.462 0.472 0.483 0.494 0.506 0.518 0.531 0.544 0.559 0.574 0.591 0.608 0.628 0.648 0.671 0.695 0.720 0.748 0.778 0.809 0.843 0.879 0.917 0.955 0.992 1.026 1.057 1.087 1.114 1.140 1.163 1.184 1.204 1.221 1.237 1.251 1.263 1.274 1.283 1.291 1.298 1.303 1.308 1.311 1.314 1.316 1.317 1.318 1.319 1.319 1.319 1.319 1.319 1.318 1.318 1.316 1.315 1.312 1.309 1.304 1.299 1.293 1.285 1.276 1.266 1.254 1.240 1.225 1.208 1.189 1.168 1.146 1.121 1.094 1.065 1.036 1.008 0.982 0.959 0.937 0.918 0.900 0.885 0.871 0.859 0.849 0.841 0.833 0.828 0.823 0.819 0.817 0.815 0.813 0.813 0.812 0.812 0.812 0.812 0.813 0.814 0.815 0.817 0.819 0.823 0.827 0.833 0.839 0.847 0.856 0.866 0.877 0.888 0.897 0.906 0.913 0.918 0.923 0.927 0.930 0.931 0.932 0.933 0.933 0.933 0.933 0.932 0.930 0.928 0.925 0.920 0.914 0.907 0.899 0.888 0.876 0.861 0.844 0.825 0.808 0.794 0.783 0.800 0.934 0.934 0.000 
0.000 0.229 0.229 0.244 0.250 0.258 0.266 0.275 0.286 0.299 0.313 0.328 0.343 0.356 0.368 0.380 0.391 0.402 0.413 0.424 0.435 0.446 0.457 0.468 0.479 0.491 0.503 0.515 0.528 0.541 0.556 0.571 0.587 0.605 0.624 0.644 0.666 0.690 0.715 0.742 0.771 0.802 0.835 0.871 0.908 0.946 0.983 1.017 1.049 1.078 1.106 1.131 1.155 1.176 1.196 1.213 1.229 1.243 1.256 1.267 1.276 1.284 1.291 1.297 1.301 1.305 1.308 1.310 1.312 1.313 1.313 1.313 1.313 1.313 1.313 1.313 1.312 1.311 1.309 1.307 1.304 1.300 1.295 1.289 1.281 1.273 1.263 1.251 1.238 1.223 1.206 1.188 1.167 1.145 1.120 1.094 1.065 1.036 1.008 0.982 0.959 0.937 0.918 0.900 0.885 0.871 0.859 0.849 0.840 0.833 0.827 0.823 0.819 0.816 0.814 0.813 0.812 0.812 0.812 0.812 0.812 0.812 0.813 0.814 0.816 0.818 0.822 0.826 0.831 0.838 0.845 0.854 0.864 0.875 0.886 0.895 0.903 0.910 0.915 0.920 0.923 0.925 0.927 0.927 0.927 0.927 0.927 0.927 0.926 0.924 0.922 0.918 0.913 0.908 0.900 0.892 0.882 0.870 0.857 0.841 0.824 0.804 0.774 0.716 0.567 0.383 0.383 0.000 
0.000 0.203 0.203 0.218 0.225 0.233 0.242 0.253 0.266 0.281 0.299 0.316 0.331 0.345 0.358 0.371 0.383 0.395 0.406 0.418 0.429 0.441 0.452 0.464 0.475 0.487 0.499 0.512 0.525 0.538 0.553 0.568 0.584 0.601 0.620 0.640 0.662 0.685 0.709 0.736 0.765 0.795 0.828 0.862 0.899 0.937 0.973 1.007 1.039 1.069 1.097 1.123 1.146 1.168 1.187 1.205 1.221 1.235 1.248 1.259 1.269 1.277 1.284 1.290 1.295 1.299 1.302 1.304 1.305 1.306 1.307 1.307 1.307 1.307 1.307 1.307 1.306 1.305 1.304 1.302 1.299 1.295 1.290 1.284 1.277 1.269 1.259 1.248 1.235 1.220 1.204 1.186 1.166 1.144 1.120 1.093 1.065 1.036 1.008 0.982 0.958 0.937 0.918 0.900 0.885 0.871 0.859 0.849 0.840 0.833 0.827 0.822 0.818 0.815 0.813 0.812 0.811 0.811 0.811 0.811 0.811 0.811 0.812 0.813 0.815 0.817 0.820 0.824 0.830 0.836 0.843 0.852 0.862 0.873 0.883 0.892 0.899 0.906 0.911 0.915 0.918 0.920 0.921 0.922 0.922 0.922 0.921 0.921 0.920 0.918 0.915 0.912 0.907 0.901 0.894 0.886 0.876 0.865 0.853 0.840 0.825 0.805 0.774 0.709 0.536 0.166 0.166 0.000 
0.000 0.178 0.178 0.193 0.201 0.210 0.220 0.233 0.249 0.268 0.288 0.306 0.322 0.337 0.351 0.364 0.376 0.389 0.401 0.412 0.424 0.436 0.448 0.460 0.472 0.484 0.496 0.509 0.522 0.535 0.550 0.565 0.581 0.598 0.616 0.636 0.657 0.680 0.704 0.730 0.758 0.788 0.820 0.854 0.890 0.928 0.964 0.998 1.030 1.060 1.088 1.113 1.137 1.159 1.179 1.196 1.213 1.227 1.240 1.251 1.261 1.269 1.277 1.283 1.287 1.291 1.295 1.297 1.299 1.300 1.300 1.301 1.301 1.301 1.301 1.301 1.300 1.299 1.298 1.296 1.293 1.289 1.284 1.279 1.272 1.264 1.255 1.244 1.231 1.217 1.201 1.183 1.164 1.142 1.119 1.093 1.065 1.036 1.008 0.982 0.958 0.937 0.917 0.900 0.884 0.870 0.858 0.848 0.839 0.832 0.826 0.821 0.817 0.814 0.812 0.811 0.810 0.809 0.809 0.809 0.809 0.810 0.810 0.811 0.813 0.815 0.818 0.822 0.827 0.834 0.841 0.849 0.859 0.869 0.879 0.888 0.895 0.902 0.906 0.910 0.913 0.914 0.915 0.915 0.916 0.916 0.915 0.915 0.913 0.911 0.909 0.905 0.901 0.895 0.888 0.880 0.871 0.860 0.850 0.839 0.828 0.814 0.793 0.762 0.720 0.712 0.712 0.000 
0.000 0.152 0.152 0.168 0.177 0.187 0.200 0.216 0.237 0.260 0.281 0.299 0.316 0.331 0.345 0.359 0.371 0.384 0.396 0.408 0.420 0.432 0.444 0.456 0.468 0.480 0.493 0.506 0.519 0.532 0.546 0.561 0.577 0.594 0.612 0.631 0.652 0.674 0.698 0.724 0.751 0.781 0.812 0.845 0.881 0.918 0.954 0.988 1.020 1.050 1.078 1.104 1.128 1.149 1.169 1.187 1.204 1.218 1.231 1.243 1.252 1.261 1.268 1.275 1.280 1.284 1.287 1.289 1.291 1.292 1.293 1.294 1.294 1.294 1.294 1.293 1.293 1.292 1.291 1.289 1.286 1.283 1.278 1.273 1.266 1.259 1.250 1.239 1.227 1.213 1.198 1.181 1.161 1.140 1.117 1.092 1.064 1.035 1.007 0.982 0.958 0.936 0.917 0.899 0.883 0.870 0.858 0.847 0.838 0.831 0.825 0.820 0.816 0.813 0.811 0.809 0.808 0.808 0.808 0.808 0.808 0.808 0.808 0.809 0.811 0.813 0.816 0.820 0.825 0.831 0.838 0.846 0.855 0.866 0.875 0.884 0.891 0.897 0.901 0.904 0.907 0.908 0.909 0.909 0.909 0.909 0.909 0.908 0.907 0.905 0.902 0.899 0.895 0.889 0.883 0.875 0.866 0.856 0.847 0.840 0.835 0.832 0.834 0.854 0.927 1.079 1.079 0.000 
0.000 0.126 0.126 0.142 0.153 0.166 0.182 0.204 0.229 0.254 0.276 0.295 0.312 0.327 0.342 0.355 0.368 0.380 0.392 0.405 0.417 0.429 0.441 0.453 0.465 0.477 0.490 0.502 0.515 0.529 0.543 0.558 0.573 0.590 0.608 0.627 0.647 0.669 0.692 0.718 0.744 0.773 0.804 0.837 0.872 0.908 0.944 0.978 1.010 1.040 1.068 1.094 1.118 1.140 1.160 1.178 1.194 1.209 1.222 1.233 1.243 1.252 1.260 1.266 1.271 1.275 1.279 1.281 1.283 1.284 1.285 1.286 1.286 1.286 1.286 1.286 1.285 1.285 1.283 1.281 1.279 1.276 1.272 1.266 1.260 1.253 1.244 1.234 1.222 1.209 1.194 1.177 1.158 1.138 1.115 1.090 1.064 1.035 1.007 0.981 0.957 0.936 0.916 0.898 0.883 0.869 0.856 0.846 0.837 0.829 0.823 0.818 0.814 0.811 0.809 0.807 0.806 0.806 0.805 0.805 0.805 0.806 0.806 0.807 0.808 0.811 0.813 0.817 0.822 0.827 0.834 0.842 0.851 0.861 0.871 0.879 0.885 0.891 0.895 0.898 0.900 0.902 0.902 0.903 0.903 0.902 0.902 0.901 0.900 0.898 0.896 0.893 0.889 0.884 0.878 0.871 0.862 0.853 0.845 0.840 0.838 0.840 0.851 0.888 0.980 1.076 1.076 0.000 
0.000 0.100 0.100 0.117 0.130 0.146 0.168 0.196 0.225 0.251 0.273 0.293 0.310 0.325 0.339 0.353 0.365 0.378 0.390 0.402 0.414 0.426 0.438 0.450 0.462 0.474 0.486 0.499 0.512 0.525 0.539 0.554 0.569 0.586 0.603 0.622 0.642 0.664 0.686 0.711 0.738 0.766 0.796 0.828 0.862 0.898 0.934 0.968 1.000 1.030 1.058 1.083 1.107 1.129 1.149 1.168 1.184 1.199 1.212 1.224 1.234 1.243 1.250 1.257 1.262 1.266 1.270 1.272 1.274 1.276 1.277 1.277 1.277 1.277 1.277 1.277 1.277 1.276 1.275 1.273 1.271 1.268 1.264 1.259 1.253 1.246 1.238 1.228 1.217 1.204 1.189 1.173 1.155 1.135 1.113 1.088 1.062 1.034 1.006 0.980 0.956 0.935 0.915 0.897 0.881 0.867 0.855 0.844 0.835 0.827 0.821 0.816 0.812 0.809 0.806 0.805 0.804 0.803 0.803 0.803 0.803 0.803 0.803 0.804 0.805 0.807 0.810 0.813 0.818 0.823 0.830 0.837 0.846 0.856 0.865 0.873 0.879 0.884 0.888 0.891 0.893 0.895 0.895 0.896 0.896 0.896 0.895 0.895 0.894 0.892 0.890 0.887 0.884 0.879 0.874 0.867 0.859 0.851 0.844 0.840 0.838 0.840 0.852 0.889 0.981 1.073 1.073 0.000 
0.000 0.075 0.075 0.092 0.107 0.129 0.159 0.193 0.224 0.250 0.272 0.292 0.309 0.324 0.338 0.351 0.364 0.376 0.388 0.399 0.411 0.423 0.435 0.447 0.459 0.471 0.483 0.495 0.508 0.521 0.535 0.550 0.565 0.581 0.599 0.617 0.637 0.658 0.680 0.704 0.730 0.758 0.788 0.819 0.852 0.888 0.924 0.957 0.989 1.019 1.047 1.073 1.096 1.118 1.138 1.157 1.173 1.188 1.202 1.213 1.224 1.233 1.240 1.247 1.252 1.257 1.260 1.263 1.265 1.266 1.267 1.268 1.268 1.268 1.268 1.268 1.268 1.267 1.266 1.265 1.263 1.260 1.256 1.251 1.246 1.239 1.231 1.221 1.210 1.198 1.184 1.168 1.150 1.131 1.109 1.086 1.060 1.033 1.005 0.979 0.955 0.933 0.914 0.896 0.880 0.865 0.853 0.842 0.833 0.825 0.819 0.813 0.809 0.806 0.803 0.801 0.800 0.800 0.799 0.799 0.799 0.799 0.800 0.800 0.802 0.803 0.806 0.809 0.813 0.819 0.825 0.832 0.841 0.850 0.858 0.866 0.872 0.877 0.881 0.884 0.886 0.888 0.888 0.889 0.889 0.889 0.889 0.888 0.887 0.886 0.884 0.882 0.879 0.875 0.870 0.864 0.857 0.849 0.843 0.838 0.835 0.834 0.839 0.863 0.936 1.071 1.071 0.000 
0.000 0.049 0.049 0.067 0.087 0.117 0.156 0.192 0.223 0.249 0.272 0.291 0.309 0.324 0.338 0.351 0.363 0.375 0.386 0.398 0.409 0.421 0.432 0.444 0.455 0.467 0.479 0.492 0.504 0.517 0.531 0.545 0.561 0.577 0.594 0.612 0.631 0.652 0.674 0.698 0.723 0.750 0.779 0.810 0.843 0.877 0.913 0.946 0.978 1.008 1.035 1.061 1.085 1.107 1.127 1.145 1.162 1.177 1.190 1.202 1.213 1.222 1.230 1.236 1.242 1.246 1.250 1.253 1.255 1.256 1.257 1.258 1.258 1.258 1.258 1.258 1.258 1.258 1.257 1.255 1.253 1.251 1.247 1.243 1.237 1.231 1.223 1.214 1.203 1.191 1.178 1.162 1.145 1.126 1.106 1.083 1.058 1.031 1.004 0.978 0.954 0.932 0.912 0.894 0.878 0.863 0.851 0.840 0.830 0.822 0.815 0.810 0.806 0.802 0.800 0.798 0.796 0.796 0.795 0.795 0.795 0.795 0.796 0.796 0.797 0.799 0.801 0.804 0.808 0.813 0.819 0.826 0.834 0.843 0.851 0.858 0.864 0.869 0.873 0.876 0.878 0.880 0.881 0.882 0.883 0.883 0.883 0.882 0.882 0.880 0.879 0.877 0.874 0.871 0.866 0.861 0.855 0.849 0.842 0.835 0.827 0.817 0.803 0.782 0.769 0.869 0.869 0.000 
0.000 0.028 0.028 0.045 0.072 0.112 0.156 0.192 0.223 0.250 0.272 0.292 0.309 0.324 0.338 0.351 0.363 0.374 0.385 0.396 0.408 0.419 0.430 0.441 0.452 0.464 0.476 0.488 0.500 0.513 0.526 0.541 0.556 0.571 0.588 0.606 0.625 0.645 0.667 0.690 0.715 0.742 0.770 0.800 0.832 0.866 0.902 0.935 0.967 0.996 1.024 1.049 1.073 1.095 1.115 1.134 1.150 1.165 1.179 1.191 1.201 1.210 1.218 1.225 1.230 1.235 1.239 1.242 1.244 1.246 1.247 1.247 1.248 1.248 1.248 1.248 1.248 1.247 1.246 1.245 1.243 1.241 1.237 1.233 1.228 1.222 1.214 1.205 1.195 1.184 1.171 1.156 1.139 1.121 1.101 1.079 1.055 1.029 1.001 0.975 0.951 0.929 0.909 0.891 0.875 0.860 0.848 0.836 0.827 0.819 0.812 0.806 0.802 0.798 0.795 0.793 0.792 0.791 0.791 0.791 0.790 0.791 0.791 0.791 0.792 0.794 0.796 0.799 0.802 0.807 0.812 0.819 0.826 0.835 0.842 0.849 0.855 0.860 0.864 0.867 0.870 0.872 0.874 0.875 0.876 0.876 0.877 0.876 0.876 0.875 0.874 0.872 0.870 0.867 0.863 0.859 0.854 0.848 0.841 0.833 0.824 0.809 0.781 0.718 0.559 0.328 0.328 0.000 
0.000 0.010 0.010 0.028 0.066 0.113 0.157 0.194 0.225 0.251 0.273 0.292 0.309 0.325 0.338 0.351 0.363 0.374 0.385 0.395 0.406 0.417 0.428 0.439 0.449 0.461 0.472 0.484 0.496 0.508 0.522 0.535 0.550 0.566 0.582 0.600 0.618 0.638 0.660 0.683 0.707 0.733 0.761 0.790 0.822 0.855 0.890 0.923 0.955 0.984 1.011 1.037 1.061 1.083 1.103 1.121 1.138 1.153 1.166 1.178 1.189 1.198 1.206 1.213 1.218 1.223 1.227 1.230 1.232 1.234 1.235 1.236 1.236 1.236 1.236 1.236 1.236 1.236 1.235 1.234 1.232 1.230 1.227 1.223 1.218 1.212 1.205 1.196 1.187 1.176 1.163 1.149 1.133 1.115 1.096 1.074 1.051 1.026 0.999 0.973 0.949 0.927 0.906 0.888 0.872 0.857 0.844 0.833 0.823 0.814 0.807 0.802 0.797 0.793 0.790 0.788 0.787 0.786 0.785 0.785 0.785 0.785 0.785 0.786 0.786 0.788 0.790 0.792 0.796 0.800 0.805 0.811 0.818 0.826 0.833 0.840 0.845 0.850 0.855 0.858 0.862 0.864 0.866 0.868 0.870 0.870 0.871 0.871 0.871 0.870 0.869 0.868 0.866 0.864 0.861 0.857 0.853 0.847 0.841 0.833 0.823 0.808 0.779 0.715 0.549 0.210 0.210 0.000 
0.000 0.030 0.030 0.029 0.067 0.118 0.162 0.198 0.228 0.254 0.276 0.295 0.311 0.326 0.339 0.352 0.363 0.374 0.385 0.395 0.405 0.415 0.426 0.436 0.446 0.457 0.468 0.479 0.491 0.503 0.516 0.530 0.544 0.560 0.576 0.593 0.612 0.631 0.652 0.675 0.698 0.724 0.751 0.780 0.811 0.844 0.878 0.911 0.942 0.971 0.998 1.024 1.048 1.069 1.089 1.108 1.124 1.139 1.153 1.165 1.176 1.185 1.193 1.200 1.206 1.210 1.214 1.217 1.220 1.222 1.223 1.224 1.224 1.224 1.224 1.224 1.224 1.224 1.223 1.222 1.220 1.218 1.215 1.211 1.207 1.201 1.194 1.186 1.177 1.166 1.154 1.141 1.125 1.108 1.089 1.069 1.046 1.022 0.995 0.969 0.945 0.923 0.903 0.884 0.868 0.853 0.840 0.828 0.818 0.810 0.802 0.796 0.791 0.788 0.784 0.782 0.781 0.780 0.779 0.779 0.779 0.779 0.779 0.779 0.780 0.781 0.783 0.785 0.788 0.792 0.796 0.802 0.808 0.815 0.822 0.829 0.835 0.840 0.845 0.849 0.852 0.856 0.859 0.861 0.863 0.864 0.865 0.866 0.866 0.866 0.865 0.864 0.863 0.861 0.859 0.855 0.852 0.847 0.841 0.834 0.826 0.815 0.797 0.769 0.735 0.746 0.746 0.000 
0.000 0.062 0.062 0.052 0.085 0.131 0.171 0.206 0.235 0.259 0.280 0.298 0.314 0.328 0.341 0.353 0.364 0.375 0.385 0.395 0.404 0.414 0.424 0.434 0.443 0.454 0.464 0.475 0.486 0.498 0.511 0.524 0.538 0.553 0.569 0.586 0.604 0.623 0.644 0.666 0.689 0.714 0.741 0.770 0.800 0.832 0.865 0.898 0.929 0.958 0.985 1.010 1.034 1.055 1.075 1.094 1.110 1.125 1.139 1.151 1.162 1.171 1.179 1.186 1.192 1.197 1.201 1.204 1.206 1.208 1.209 1.210 1.211 1.211 1.211 1.211 1.211 1.211 1.210 1.209 1.208 1.206 1.203 1.199 1.195 1.189 1.183 1.175 1.167 1.156 1.145 1.132 1.117 1.100 1.082 1.062 1.041 1.017 0.991 0.965 0.941 0.919 0.898 0.880 0.863 0.848 0.835 0.823 0.813 0.804 0.797 0.790 0.785 0.781 0.778 0.775 0.774 0.772 0.772 0.771 0.771 0.771 0.771 0.772 0.772 0.773 0.775 0.777 0.779 0.783 0.787 0.792 0.798 0.804 0.811 0.817 0.823 0.829 0.834 0.838 0.843 0.847 0.850 0.853 0.856 0.858 0.860 0.861 0.862 0.862 0.862 0.861 0.860 0.859 0.857 0.854 0.851 0.847 0.841 0.836 0.832 0.830 0.833 0.852 0.921 1.058 1.058 0.000 
0.000 0.157 0.157 0.110 0.133 0.157 0.186 0.218 0.246 0.269 0.288 0.305 0.319 0.332 0.344 0.355 0.366 0.376 0.385 0.394 0.404 0.413 0.422 0.431 0.440 0.450 0.460 0.470 0.481 0.493 0.505 0.518 0.531 0.546 0.562 0.578 0.596 0.615 0.635 0.657 0.680 0.704 0.731 0.758 0.788 0.819 0.852 0.884 0.915 0.944 0.971 0.996 1.019 1.041 1.061 1.079 1.095 1.110 1.124 1.136 1.147 1.156 1.164 1.171 1.177 1.182 1.186 1.189 1.192 1.194 1.195 1.196 1.197 1.197 1.197 1.197 1.197 1.197 1.196 1.195 1.194 1.192 1.189 1.186 1.182 1.177 1.171 1.163 1.155 1.145 1.134 1.121 1.107 1.092 1.074 1.055 1.034 1.011 0.986 0.961 0.936 0.914 0.893 0.875 0.858 0.842 0.829 0.817 0.807 0.797 0.790 0.783 0.778 0.774 0.770 0.768 0.766 0.764 0.764 0.763 0.763 0.763 0.763 0.763 0.764 0.764 0.766 0.767 0.770 0.773 0.777 0.781 0.786 0.792 0.798 0.805 0.811 0.817 0.822 0.827 0.832 0.837 0.841 0.845 0.848 0.851 0.854 0.856 0.857 0.858 0.859 0.858 0.858 0.857 0.856 0.854 0.851 0.847 0.842 0.838 0.837 0.838 0.848 0.880 0.966 1.055 1.055 0.000 
0.000 0.270 0.270 0.208 0.188 0.191 0.210 0.237 0.262 0.282 0.299 0.314 0.327 0.338 0.349 0.359 0.368 0.377 0.386 0.395 0.403 0.412 0.420 0.428 0.437 0.446 0.455 0.465 0.476 0.487 0.498 0.511 0.524 0.538 0.554 0.570 0.587 0.606 0.626 0.647 0.670 0.694 0.719 0.746 0.775 0.806 0.838 0.870 0.901 0.929 0.956 0.981 1.004 1.025 1.045 1.063 1.080 1.095 1.108 1.120 1.131 1.140 1.149 1.156 1.162 1.167 1.171 1.174 1.177 1.179 1.180 1.181 1.182 1.182 1.182 1.182 1.182 1.182 1.181 1.180 1.179 1.177 1.175 1.172 1.168 1.163 1.157 1.150 1.142 1.133 1.122 1.110 1.097 1.082 1.065 1.046 1.026 1.004 0.980 0.955 0.931 0.908 0.887 0.869 0.851 0.836 0.822 0.810 0.799 0.790 0.782 0.775 0.770 0.765 0.762 0.759 0.757 0.755 0.754 0.754 0.754 0.753 0.754 0.754 0.754 0.755 0.756 0.757 0.759 0.762 0.765 0.769 0.774 0.779 0.785 0.791 0.797 0.803 0.809 0.815 0.821 0.826 0.831 0.836 0.840 0.844 0.848 0.851 0.853 0.855 0.856 0.856 0.856 0.856 0.855 0.854 0.851 0.847 0.842 0.839 0.837 0.838 0.848 0.880 0.964 1.053 1.053 0.000 
0.000 0.175 0.175 0.219 0.214 0.228 0.244 0.265 0.285 0.301 0.314 0.326 0.337 0.347 0.356 0.364 0.372 0.380 0.388 0.395 0.403 0.411 0.418 0.426 0.434 0.442 0.451 0.460 0.470 0.480 0.492 0.504 0.517 0.530 0.545 0.561 0.578 0.596 0.616 0.637 0.659 0.682 0.707 0.734 0.762 0.792 0.824 0.855 0.885 0.914 0.940 0.965 0.988 1.009 1.029 1.047 1.063 1.078 1.091 1.103 1.114 1.124 1.132 1.139 1.145 1.150 1.154 1.158 1.160 1.162 1.164 1.165 1.165 1.166 1.166 1.166 1.166 1.166 1.165 1.164 1.163 1.162 1.159 1.157 1.153 1.148 1.143 1.136 1.129 1.120 1.110 1.098 1.085 1.071 1.054 1.037 1.017 0.996 0.973 0.948 0.924 0.901 0.881 0.861 0.844 0.829 0.815 0.802 0.791 0.782 0.774 0.767 0.761 0.756 0.752 0.749 0.747 0.745 0.744 0.744 0.743 0.743 0.743 0.743 0.743 0.744 0.744 0.746 0.747 0.750 0.753 0.756 0.760 0.765 0.770 0.776 0.783 0.789 0.796 0.802 0.808 0.815 0.821 0.826 0.832 0.837 0.841 0.845 0.849 0.852 0.853 0.855 0.855 0.855 0.855 0.854 0.852 0.849 0.844 0.839 0.835 0.833 0.834 0.851 0.912 1.050 1.050 0.000 
0.000 0.027 0.027 0.143 0.237 0.271 0.289 0.303 0.315 0.326 0.335 0.343 0.350 0.357 0.364 0.371 0.377 0.384 0.390 0.397 0.403 0.409 0.416 0.423 0.430 0.438 0.446 0.454 0.464 0.474 0.484 0.496 0.508 0.522 0.536 0.552 0.568 0.586 0.605 0.625 0.647 0.670 0.695 0.721 0.748 0.778 0.809 0.840 0.869 0.897 0.923 0.948 0.970 0.992 1.011 1.029 1.045 1.060 1.074 1.086 1.096 1.106 1.114 1.121 1.127 1.132 1.137 1.140 1.143 1.145 1.146 1.147 1.148 1.148 1.149 1.149 1.149 1.148 1.148 1.147 1.146 1.145 1.143 1.140 1.137 1.132 1.127 1.121 1.114 1.105 1.096 1.085 1.072 1.058 1.043 1.026 1.007 0.987 0.964 0.941 0.916 0.894 0.873 0.853 0.836 0.820 0.806 0.793 0.782 0.772 0.764 0.757 0.751 0.746 0.742 0.738 0.736 0.734 0.733 0.732 0.731 0.731 0.731 0.731 0.731 0.732 0.732 0.733 0.735 0.737 0.739 0.742 0.746 0.750 0.755 0.761 0.767 0.774 0.781 0.788 0.795 0.802 0.809 0.816 0.822 0.828 0.834 0.839 0.844 0.848 0.851 0.853 0.855 0.855 0.855 0.854 0.853 0.850 0.846 0.841 0.833 0.820 0.799 0.767 0.729 0.805 0.805 0.000 
0.000 0.312 0.312 0.190 0.293 0.332 0.346 0.352 0.355 0.357 0.360 0.363 0.367 0.371 0.375 0.379 0.384 0.388 0.393 0.398 0.403 0.408 0.414 0.420 0.426 0.433 0.440 0.448 0.457 0.467 0.477 0.488 0.500 0.513 0.527 0.542 0.558 0.575 0.594 0.613 0.635 0.657 0.681 0.707 0.734 0.762 0.792 0.823 0.852 0.880 0.906 0.930 0.952 0.973 0.992 1.010 1.026 1.041 1.055 1.067 1.077 1.087 1.095 1.102 1.108 1.113 1.118 1.121 1.124 1.126 1.128 1.129 1.129 1.130 1.130 1.130 1.130 1.130 1.130 1.129 1.128 1.127 1.125 1.122 1.119 1.115 1.110 1.104 1.097 1.089 1.080 1.070 1.058 1.045 1.030 1.013 0.996 0.976 0.955 0.932 0.908 0.885 0.864 0.844 0.827 0.811 0.796 0.783 0.772 0.762 0.753 0.746 0.739 0.734 0.730 0.726 0.724 0.722 0.720 0.719 0.719 0.718 0.718 0.718 0.718 0.718 0.719 0.720 0.721 0.722 0.725 0.727 0.731 0.735 0.739 0.745 0.751 0.757 0.765 0.772 0.780 0.788 0.796 0.804 0.811 0.819 0.826 0.833 0.839 0.844 0.849 0.852 0.854 0.855 0.856 0.856 0.855 0.853 0.849 0.843 0.833 0.815 0.783 0.714 0.548 0.275 0.275 0.000 
0.000 0.692 0.692 0.493 0.440 0.428 0.418 0.409 0.400 0.394 0.390 0.387 0.386 0.386 0.387 0.389 0.391 0.394 0.397 0.400 0.403 0.407 0.412 0.417 0.422 0.428 0.435 0.442 0.450 0.459 0.469 0.479 0.490 0.503 0.516 0.531 0.546 0.563 0.581 0.601 0.621 0.643 0.667 0.692 0.718 0.746 0.775 0.805 0.834 0.861 0.887 0.911 0.933 0.954 0.973 0.990 1.006 1.021 1.034 1.046 1.057 1.066 1.075 1.082 1.088 1.093 1.097 1.101 1.104 1.106 1.108 1.109 1.110 1.110 1.110 1.110 1.110 1.110 1.110 1.109 1.109 1.107 1.106 1.103 1.100 1.097 1.092 1.086 1.080 1.072 1.064 1.054 1.042 1.030 1.015 1.000 0.983 0.964 0.943 0.921 0.898 0.875 0.854 0.834 0.816 0.800 0.785 0.772 0.760 0.750 0.741 0.733 0.727 0.721 0.717 0.713 0.710 0.708 0.706 0.705 0.704 0.704 0.704 0.704 0.704 0.704 0.704 0.705 0.706 0.707 0.709 0.711 0.714 0.718 0.722 0.728 0.733 0.740 0.747 0.755 0.764 0.772 0.781 0.790 0.799 0.808 0.817 0.825 0.833 0.840 0.846 0.851 0.854 0.856 0.858 0.858 0.858 0.856 0.853 0.847 0.836 0.817 0.784 0.715 0.557 0.253 0.253 0.000 
0.000 0.746 0.746 0.682 0.579 0.520 0.484 0.458 0.439 0.425 0.415 0.408 0.403 0.400 0.398 0.397 0.397 0.398 0.399 0.401 0.403 0.406 0.409 0.413 0.418 0.423 0.429 0.436 0.443 0.451 0.460 0.470 0.481 0.492 0.505 0.519 0.534 0.551 0.568 0.587 0.607 0.628 0.651 0.676 0.701 0.728 0.757 0.787 0.815 0.842 0.867 0.890 0.912 0.933 0.952 0.969 0.985 1.000 1.013 1.025 1.035 1.045 1.053 1.060 1.066 1.072 1.076 1.080 1.082 1.085 1.086 1.088 1.088 1.089 1.089 1.089 1.089 1.089 1.089 1.089 1.088 1.087 1.085 1.083 1.080 1.077 1.072 1.067 1.061 1.054 1.045 1.036 1.025 1.013 0.999 0.985 0.968 0.950 0.930 0.909 0.886 0.863 0.842 0.822 0.804 0.788 0.773 0.760 0.748 0.737 0.728 0.720 0.713 0.707 0.702 0.698 0.695 0.693 0.691 0.690 0.689 0.688 0.688 0.688 0.688 0.688 0.688 0.689 0.689 0.691 0.692 0.694 0.697 0.701 0.705 0.710 0.715 0.722 0.729 0.738 0.746 0.756 0.766 0.776 0.786 0.796 0.806 0.816 0.826 0.834 0.842 0.849 0.854 0.858 0.861 0.862 0.863 0.862 0.860 0.854 0.845 0.828 0.803 0.771 0.745 0.778 0.778 0.000 
0.000 0.737 0.737 0.720 0.643 0.575 0.529 0.495 0.470 0.451 0.436 0.426 0.417 0.411 0.407 0.404 0.402 0.401 0.401 0.402 0.402 0.404 0.406 0.409 0.413 0.418 0.423 0.429 0.435 0.443 0.451 0.460 0.470 0.481 0.494 0.507 0.522 0.537 0.554 0.572 0.592 0.613 0.635 0.658 0.683 0.710 0.738 0.767 0.795 0.821 0.846 0.869 0.891 0.911 0.930 0.947 0.963 0.977 0.990 1.002 1.012 1.022 1.030 1.037 1.043 1.049 1.053 1.057 1.060 1.062 1.064 1.065 1.066 1.066 1.066 1.067 1.067 1.067 1.066 1.066 1.065 1.064 1.063 1.061 1.058 1.055 1.051 1.046 1.040 1.033 1.026 1.017 1.006 0.995 0.982 0.968 0.952 0.935 0.916 0.896 0.874 0.851 0.829 0.810 0.791 0.775 0.759 0.746 0.733 0.723 0.713 0.705 0.698 0.692 0.687 0.683 0.679 0.677 0.675 0.673 0.672 0.671 0.671 0.671 0.671 0.671 0.671 0.671 0.672 0.673 0.674 0.676 0.679 0.682 0.686 0.691 0.696 0.703 0.710 0.719 0.728 0.738 0.748 0.759 0.771 0.783 0.794 0.806 0.817 0.828 0.838 0.847 0.855 0.861 0.865 0.868 0.870 0.871 0.870 0.868 0.862 0.855 0.852 0.868 0.925 1.037 1.037 0.000 
0.000 0.714 0.714 0.714 0.666 0.605 0.558 0.521 0.493 0.471 0.454 0.440 0.430 0.421 0.415 0.410 0.406 0.404 0.402 0.402 0.402 0.402 0.404 0.406 0.408 0.412 0.416 0.421 0.427 0.434 0.441 0.450 0.459 0.470 0.481 0.494 0.508 0.523 0.539 0.557 0.576 0.596 0.617 0.640 0.664 0.690 0.717 0.746 0.773 0.799 0.823 0.846 0.867 0.887 0.906 0.923 0.938 0.953 0.966 0.977 0.988 0.997 1.005 1.012 1.019 1.024 1.028 1.032 1.035 1.037 1.039 1.040 1.041 1.042 1.042 1.042 1.042 1.042 1.042 1.042 1.041 1.040 1.039 1.037 1.035 1.032 1.028 1.023 1.018 1.012 1.004 0.996 0.986 0.975 0.963 0.949 0.934 0.918 0.900 0.880 0.859 0.837 0.815 0.795 0.777 0.760 0.744 0.731 0.718 0.707 0.697 0.689 0.681 0.675 0.670 0.665 0.662 0.659 0.657 0.655 0.654 0.653 0.653 0.652 0.652 0.652 0.652 0.653 0.653 0.654 0.655 0.657 0.659 0.662 0.666 0.671 0.676 0.683 0.690 0.699 0.708 0.718 0.730 0.742 0.754 0.767 0.781 0.794 0.807 0.820 0.833 0.845 0.855 0.864 0.871 0.877 0.881 0.884 0.886 0.888 0.889 0.894 0.908 0.936 0.988 1.035 1.035 0.000 
0.000 0.688 0.688 0.695 0.667 0.619 0.575 0.539 0.511 0.487 0.468 0.453 0.440 0.429 0.421 0.414 0.409 0.405 0.402 0.401 0.400 0.400 0.401 0.402 0.403 0.406 0.409 0.413 0.419 0.424 0.431 0.439 0.448 0.458 0.468 0.480 0.494 0.508 0.523 0.540 0.558 0.578 0.599 0.621 0.644 0.669 0.695 0.723 0.750 0.775 0.799 0.822 0.843 0.862 0.881 0.897 0.913 0.927 0.940 0.951 0.962 0.971 0.979 0.986 0.992 0.998 1.002 1.006 1.009 1.011 1.013 1.014 1.015 1.016 1.016 1.016 1.017 1.017 1.016 1.016 1.016 1.015 1.014 1.012 1.010 1.007 1.003 0.999 0.994 0.988 0.981 0.973 0.964 0.953 0.942 0.929 0.915 0.899 0.882 0.863 0.843 0.821 0.799 0.779 0.761 0.744 0.728 0.714 0.701 0.690 0.680 0.671 0.663 0.657 0.651 0.646 0.643 0.639 0.637 0.635 0.634 0.633 0.633 0.632 0.632 0.632 0.632 0.632 0.633 0.633 0.635 0.636 0.638 0.641 0.645 0.649 0.655 0.661 0.669 0.677 0.687 0.698 0.710 0.722 0.736 0.750 0.765 0.780 0.795 0.811 0.826 0.841 0.855 0.868 0.879 0.888 0.895 0.902 0.908 0.915 0.924 0.937 0.956 0.983 1.015 1.035 1.035 0.000 
0.000 0.662 0.662 0.672 0.656 0.623 0.584 0.552 0.524 0.501 0.481 0.463 0.449 0.436 0.426 0.417 0.410 0.405 0.402 0.400 0.398 0.398 0.397 0.398 0.398 0.400 0.402 0.405 0.410 0.415 0.421 0.428 0.436 0.445 0.455 0.466 0.478 0.492 0.507 0.523 0.540 0.559 0.579 0.600 0.623 0.647 0.672 0.699 0.725 0.750 0.774 0.796 0.816 0.836 0.854 0.870 0.885 0.899 0.912 0.923 0.934 0.943 0.951 0.958 0.964 0.970 0.974 0.978 0.981 0.983 0.985 0.987 0.988 0.988 0.989 0.989 0.989 0.989 0.989 0.989 0.988 0.987 0.986 0.985 0.983 0.980 0.977 0.973 0.968 0.962 0.956 0.948 0.940 0.930 0.919 0.906 0.893 0.878 0.862 0.844 0.824 0.803 0.782 0.762 0.743 0.726 0.710 0.696 0.683 0.671 0.661 0.651 0.643 0.637 0.631 0.626 0.622 0.619 0.616 0.614 0.613 0.612 0.611 0.611 0.611 0.611 0.611 0.611 0.611 0.612 0.613 0.614 0.616 0.619 0.622 0.627 0.632 0.639 0.646 0.655 0.665 0.676 0.688 0.702 0.716 0.732 0.748 0.764 0.782 0.799 0.817 0.835 0.852 0.870 0.887 0.901 0.913 0.924 0.936 0.948 0.962 0.979 0.999 1.019 1.034 1.038 1.038 0.000 
0.000 0.636 0.636 0.647 0.638 0.617 0.587 0.560 0.535 0.513 0.492 0.473 0.456 0.442 0.429 0.419 0.411 0.405 0.401 0.398 0.396 0.394 0.393 0.393 0.393 0.393 0.395 0.397 0.400 0.404 0.409 0.416 0.423 0.431 0.440 0.451 0.462 0.475 0.489 0.504 0.521 0.538 0.558 0.578 0.600 0.623 0.647 0.673 0.699 0.723 0.746 0.768 0.788 0.807 0.825 0.841 0.856 0.870 0.882 0.894 0.904 0.913 0.921 0.928 0.934 0.940 0.944 0.948 0.951 0.953 0.955 0.957 0.958 0.958 0.959 0.959 0.959 0.959 0.959 0.959 0.959 0.958 0.957 0.956 0.954 0.951 0.948 0.945 0.940 0.935 0.929 0.921 0.913 0.904 0.894 0.882 0.869 0.855 0.839 0.822 0.804 0.784 0.763 0.743 0.724 0.706 0.690 0.676 0.662 0.650 0.640 0.630 0.622 0.615 0.609 0.604 0.600 0.596 0.593 0.591 0.590 0.589 0.588 0.588 0.587 0.587 0.587 0.587 0.588 0.588 0.589 0.591 0.593 0.595 0.599 0.603 0.609 0.615 0.623 0.632 0.642 0.653 0.666 0.680 0.695 0.711 0.729 0.747 0.766 0.786 0.806 0.827 0.848 0.869 0.892 0.915 0.935 0.952 0.968 0.984 1.002 1.019 1.037 1.051 1.058 1.059 1.059 0.000 
0.000 0.611 0.611 0.622 0.615 0.602 0.585 0.564 0.544 0.524 0.503 0.482 0.463 0.446 0.432 0.421 0.412 0.405 0.399 0.395 0.392 0.390 0.388 0.387 0.387 0.387 0.387 0.388 0.391 0.394 0.398 0.403 0.409 0.417 0.425 0.434 0.445 0.457 0.470 0.485 0.500 0.517 0.535 0.555 0.575 0.597 0.621 0.645 0.670 0.694 0.717 0.738 0.758 0.777 0.794 0.810 0.825 0.838 0.851 0.862 0.872 0.881 0.889 0.896 0.902 0.907 0.912 0.916 0.919 0.921 0.923 0.925 0.926 0.927 0.927 0.927 0.927 0.927 0.927 0.927 0.927 0.926 0.925 0.924 0.923 0.920 0.918 0.914 0.910 0.905 0.899 0.893 0.885 0.876 0.866 0.855 0.843 0.830 0.815 0.799 0.781 0.762 0.742 0.721 0.702 0.685 0.669 0.654 0.640 0.628 0.617 0.608 0.599 0.592 0.586 0.580 0.576 0.572 0.569 0.567 0.565 0.564 0.563 0.563 0.563 0.563 0.563 0.563 0.563 0.563 0.564 0.566 0.568 0.570 0.574 0.578 0.584 0.590 0.598 0.607 0.617 0.629 0.642 0.656 0.672 0.690 0.708 0.728 0.749 0.771 0.793 0.817 0.841 0.867 0.894 0.923 0.954 0.981 1.003 1.023 1.041 1.058 1.072 1.082 1.091 1.097 1.097 0.000 
0.000 0.585 0.585 0.596 0.592 0.587 0.579 0.567 0.551 0.533 0.513 0.490 0.468 0.449 0.434 0.421 0.411 0.403 0.397 0.391 0.387 0.384 0.382 0.380 0.379 0.379 0.379 0.379 0.380 0.382 0.386 0.390 0.395 0.401 0.409 0.417 0.427 0.438 0.450 0.464 0.478 0.494 0.511 0.530 0.549 0.570 0.592 0.616 0.640 0.664 0.686 0.707 0.726 0.744 0.761 0.777 0.792 0.805 0.817 0.828 0.838 0.847 0.855 0.862 0.868 0.873 0.878 0.881 0.885 0.887 0.889 0.891 0.892 0.892 0.893 0.893 0.893 0.893 0.893 0.893 0.893 0.893 0.892 0.891 0.889 0.887 0.885 0.881 0.878 0.873 0.868 0.861 0.854 0.846 0.837 0.826 0.815 0.802 0.788 0.773 0.756 0.738 0.719 0.698 0.679 0.662 0.645 0.630 0.617 0.604 0.593 0.583 0.574 0.567 0.560 0.555 0.550 0.546 0.543 0.541 0.539 0.538 0.537 0.536 0.536 0.536 0.536 0.536 0.536 0.537 0.538 0.539 0.541 0.544 0.547 0.552 0.557 0.564 0.571 0.581 0.591 0.603 0.617 0.632 0.648 0.666 0.686 0.707 0.729 0.753 0.779 0.805 0.833 0.862 0.893 0.927 0.966 1.004 1.035 1.059 1.079 1.095 1.107 1.117 1.124 1.129 1.129 0.000 
0.000 0.559 0.559 0.573 0.576 0.578 0.576 0.569 0.558 0.541 0.520 0.496 0.472 0.451 0.434 0.421 0.410 0.401 0.393 0.387 0.381 0.378 0.374 0.372 0.371 0.370 0.369 0.369 0.370 0.371 0.373 0.376 0.380 0.385 0.392 0.400 0.408 0.418 0.429 0.442 0.455 0.470 0.486 0.503 0.522 0.542 0.563 0.585 0.608 0.631 0.652 0.673 0.692 0.710 0.727 0.742 0.756 0.769 0.781 0.792 0.802 0.811 0.818 0.825 0.831 0.836 0.841 0.845 0.848 0.850 0.852 0.854 0.855 0.856 0.856 0.857 0.857 0.857 0.857 0.857 0.857 0.856 0.856 0.855 0.853 0.851 0.849 0.846 0.843 0.838 0.833 0.828 0.821 0.813 0.805 0.795 0.784 0.772 0.759 0.744 0.729 0.711 0.693 0.673 0.654 0.636 0.620 0.605 0.591 0.578 0.567 0.557 0.548 0.540 0.533 0.528 0.523 0.519 0.515 0.513 0.511 0.510 0.509 0.508 0.508 0.508 0.508 0.508 0.508 0.509 0.510 0.511 0.513 0.516 0.519 0.524 0.529 0.536 0.544 0.553 0.564 0.576 0.590 0.605 0.623 0.641 0.662 0.684 0.708 0.734 0.762 0.791 0.822 0.855 0.890 0.928 0.972 1.020 1.062 1.093 1.116 1.132 1.144 1.152 1.156 1.157 1.157 0.000 
0.000 0.533 0.533 0.551 0.570 0.576 0.576 0.572 0.563 0.548 0.526 0.500 0.474 0.452 0.434 0.420 0.407 0.397 0.388 0.381 0.375 0.370 0.366 0.363 0.361 0.359 0.358 0.358 0.358 0.358 0.359 0.361 0.365 0.369 0.374 0.381 0.388 0.397 0.407 0.419 0.431 0.445 0.459 0.475 0.493 0.511 0.531 0.551 0.574 0.596 0.617 0.637 0.655 0.673 0.689 0.704 0.718 0.731 0.743 0.753 0.763 0.772 0.779 0.786 0.792 0.797 0.802 0.805 0.809 0.811 0.813 0.815 0.816 0.817 0.817 0.818 0.818 0.818 0.818 0.818 0.818 0.817 0.817 0.816 0.815 0.813 0.811 0.808 0.805 0.801 0.797 0.791 0.785 0.778 0.770 0.761 0.751 0.739 0.727 0.713 0.699 0.682 0.665 0.646 0.627 0.609 0.592 0.577 0.563 0.550 0.539 0.529 0.519 0.511 0.504 0.498 0.493 0.489 0.486 0.483 0.481 0.480 0.479 0.478 0.478 0.478 0.478 0.478 0.478 0.479 0.480 0.481 0.483 0.486 0.489 0.494 0.500 0.506 0.514 0.524 0.535 0.547 0.562 0.578 0.595 0.615 0.637 0.660 0.686 0.713 0.743 0.774 0.809 0.845 0.884 0.926 0.973 1.027 1.081 1.123 1.152 1.171 1.183 1.188 1.189 1.187 1.187 0.000 
0.000 0.550 0.550 0.549 0.570 0.578 0.580 0.577 0.569 0.553 0.530 0.501 0.474 0.452 0.433 0.417 0.403 0.392 0.382 0.373 0.366 0.361 0.356 0.352 0.350 0.348 0.346 0.345 0.345 0.345 0.345 0.346 0.348 0.351 0.356 0.361 0.367 0.375 0.384 0.394 0.405 0.418 0.431 0.446 0.462 0.479 0.497 0.516 0.537 0.558 0.579 0.598 0.616 0.634 0.649 0.664 0.678 0.690 0.702 0.712 0.722 0.730 0.738 0.744 0.750 0.755 0.760 0.763 0.767 0.769 0.771 0.773 0.774 0.775 0.776 0.776 0.776 0.776 0.776 0.776 0.776 0.776 0.775 0.775 0.774 0.772 0.770 0.768 0.765 0.761 0.757 0.752 0.746 0.740 0.732 0.724 0.715 0.704 0.692 0.680 0.666 0.650 0.634 0.616 0.597 0.579 0.563 0.547 0.533 0.520 0.509 0.498 0.489 0.481 0.474 0.467 0.462 0.458 0.454 0.452 0.450 0.448 0.447 0.446 0.446 0.446 0.446 0.446 0.446 0.447 0.448 0.449 0.452 0.454 0.458 0.463 0.468 0.475 0.483 0.493 0.504 0.517 0.532 0.548 0.566 0.587 0.609 0.634 0.661 0.690 0.721 0.756 0.792 0.832 0.875 0.921 0.971 1.028 1.091 1.148 1.187 1.212 1.224 1.229 1.228 1.219 1.219 0.000 
0.000 0.570 0.570 0.566 0.583 0.590 0.591 0.587 0.576 0.558 0.532 0.502 0.474 0.451 0.430 0.413 0.398 0.385 0.374 0.364 0.357 0.350 0.345 0.340 0.337 0.334 0.332 0.331 0.330 0.330 0.330 0.330 0.331 0.333 0.336 0.340 0.346 0.352 0.360 0.368 0.378 0.389 0.401 0.415 0.429 0.444 0.461 0.479 0.498 0.518 0.538 0.557 0.575 0.592 0.607 0.621 0.635 0.647 0.658 0.668 0.677 0.686 0.693 0.700 0.705 0.710 0.715 0.719 0.722 0.724 0.726 0.728 0.729 0.730 0.731 0.731 0.731 0.732 0.732 0.732 0.731 0.731 0.731 0.730 0.729 0.728 0.726 0.724 0.722 0.718 0.715 0.710 0.705 0.699 0.692 0.684 0.675 0.666 0.655 0.643 0.630 0.615 0.600 0.583 0.565 0.547 0.531 0.515 0.501 0.488 0.476 0.466 0.456 0.448 0.441 0.434 0.429 0.425 0.421 0.418 0.416 0.414 0.413 0.413 0.412 0.412 0.412 0.412 0.413 0.413 0.414 0.416 0.418 0.421 0.425 0.429 0.435 0.442 0.451 0.461 0.472 0.485 0.500 0.517 0.536 0.557 0.580 0.606 0.634 0.664 0.698 0.734 0.773 0.816 0.862 0.912 0.966 1.026 1.092 1.162 1.218 1.254 1.272 1.279 1.280 1.278 1.278 0.000 
0.000 0.664 0.664 0.612 0.619 0.619 0.614 0.603 0.586 0.562 0.533 0.501 0.472 0.448 0.426 0.407 0.391 0.377 0.364 0.354 0.345 0.338 0.332 0.327 0.323 0.319 0.317 0.315 0.314 0.313 0.312 0.312 0.313 0.314 0.316 0.319 0.323 0.328 0.334 0.342 0.350 0.359 0.370 0.381 0.394 0.408 0.423 0.439 0.457 0.475 0.495 0.513 0.530 0.547 0.562 0.576 0.589 0.600 0.611 0.621 0.630 0.638 0.645 0.652 0.658 0.663 0.667 0.671 0.674 0.676 0.678 0.680 0.681 0.682 0.683 0.683 0.684 0.684 0.684 0.684 0.684 0.684 0.683 0.683 0.682 0.681 0.679 0.677 0.675 0.672 0.669 0.665 0.660 0.654 0.648 0.641 0.633 0.624 0.614 0.603 0.591 0.578 0.563 0.547 0.530 0.513 0.496 0.481 0.467 0.454 0.442 0.431 0.422 0.413 0.406 0.399 0.394 0.389 0.386 0.383 0.380 0.379 0.378 0.377 0.377 0.377 0.377 0.377 0.377 0.378 0.379 0.380 0.383 0.386 0.390 0.394 0.401 0.408 0.416 0.427 0.438 0.452 0.467 0.484 0.504 0.525 0.549 0.575 0.604 0.636 0.671 0.709 0.751 0.796 0.845 0.898 0.956 1.019 1.089 1.165 1.238 1.296 1.330 1.347 1.352 1.353 1.353 0.000 
0.000 0.760 0.760 0.704 0.686 0.670 0.651 0.627 0.598 0.565 0.531 0.498 0.469 0.443 0.420 0.400 0.382 0.367 0.353 0.342 0.332 0.324 0.317 0.311 0.307 0.303 0.300 0.297 0.296 0.294 0.293 0.293 0.293 0.293 0.294 0.296 0.299 0.303 0.307 0.313 0.320 0.328 0.337 0.346 0.357 0.369 0.383 0.397 0.413 0.430 0.448 0.466 0.483 0.499 0.514 0.527 0.540 0.551 0.562 0.571 0.580 0.588 0.595 0.601 0.607 0.611 0.616 0.619 0.622 0.625 0.627 0.629 0.630 0.631 0.632 0.632 0.632 0.633 0.633 0.633 0.633 0.632 0.632 0.632 0.631 0.630 0.629 0.627 0.625 0.623 0.620 0.616 0.612 0.607 0.601 0.595 0.587 0.579 0.570 0.560 0.549 0.537 0.523 0.509 0.493 0.476 0.460 0.444 0.430 0.417 0.405 0.394 0.385 0.376 0.369 0.362 0.356 0.352 0.348 0.345 0.343 0.341 0.340 0.339 0.339 0.339 0.339 0.339 0.339 0.340 0.341 0.343 0.345 0.348 0.352 0.358 0.364 0.371 0.380 0.391 0.403 0.416 0.432 0.449 0.469 0.491 0.516 0.543 0.573 0.605 0.642 0.681 0.724 0.772 0.823 0.879 0.941 1.007 1.080 1.160 1.245 1.325 1.389 1.429 1.449 1.452 1.452 0.000 
0.000 0.878 0.878 0.810 0.783 0.744 0.699 0.654 0.609 0.567 0.529 0.494 0.463 0.436 0.411 0.390 0.371 0.354 0.340 0.328 0.317 0.308 0.301 0.294 0.289 0.284 0.281 0.278 0.276 0.274 0.273 0.272 0.271 0.271 0.271 0.272 0.274 0.276 0.280 0.284 0.289 0.295 0.302 0.309 0.318 0.329 0.340 0.353 0.367 0.382 0.399 0.416 0.433 0.448 0.462 0.475 0.487 0.498 0.509 0.518 0.526 0.534 0.541 0.547 0.552 0.557 0.561 0.564 0.567 0.570 0.572 0.574 0.575 0.576 0.577 0.577 0.578 0.578 0.578 0.578 0.578 0.578 0.578 0.577 0.577 0.576 0.575 0.574 0.572 0.570 0.567 0.564 0.560 0.556 0.551 0.545 0.538 0.531 0.523 0.513 0.503 0.492 0.480 0.466 0.452 0.436 0.420 0.405 0.391 0.378 0.366 0.355 0.346 0.337 0.329 0.323 0.317 0.313 0.309 0.306 0.304 0.302 0.301 0.301 0.300 0.300 0.300 0.300 0.301 0.301 0.302 0.304 0.306 0.309 0.314 0.319 0.325 0.333 0.342 0.353 0.365 0.379 0.395 0.413 0.433 0.455 0.480 0.508 0.538 0.572 0.609 0.649 0.694 0.743 0.797 0.855 0.919 0.989 1.066 1.149 1.241 1.338 1.429 1.500 1.544 1.566 1.566 0.000 
0.000 0.993 0.993 0.927 0.872 0.808 0.737 0.673 0.616 0.567 0.525 0.488 0.455 0.426 0.400 0.377 0.357 0.340 0.325 0.312 0.300 0.291 0.282 0.275 0.269 0.264 0.260 0.256 0.254 0.251 0.250 0.249 0.248 0.247 0.247 0.247 0.247 0.249 0.251 0.253 0.256 0.260 0.266 0.272 0.279 0.288 0.298 0.309 0.321 0.335 0.349 0.365 0.380 0.395 0.408 0.420 0.432 0.442 0.452 0.461 0.469 0.476 0.483 0.489 0.494 0.498 0.502 0.506 0.509 0.511 0.513 0.515 0.516 0.517 0.518 0.519 0.519 0.519 0.519 0.519 0.519 0.519 0.519 0.519 0.519 0.518 0.517 0.516 0.515 0.513 0.511 0.508 0.505 0.501 0.496 0.491 0.486 0.479 0.472 0.463 0.454 0.444 0.433 0.421 0.407 0.393 0.377 0.363 0.349 0.336 0.324 0.314 0.305 0.296 0.289 0.283 0.278 0.274 0.271 0.268 0.266 0.265 0.264 0.264 0.263 0.263 0.263 0.263 0.264 0.264 0.265 0.267 0.269 0.272 0.276 0.280 0.286 0.294 0.302 0.313 0.325 0.340 0.356 0.374 0.394 0.417 0.442 0.470 0.501 0.535 0.572 0.614 0.660 0.710 0.765 0.825 0.892 0.965 1.045 1.133 1.230 1.338 1.449 1.544 1.610 1.636 1.636 0.000 
0.000 1.031 1.031 0.996 0.934 0.852 0.762 0.683 0.619 0.565 0.519 0.479 0.444 0.413 0.386 0.362 0.342 0.323 0.307 0.293 0.281 0.271 0.262 0.254 0.247 0.242 0.237 0.233 0.230 0.227 0.225 0.223 0.222 0.221 0.220 0.220 0.220 0.220 0.220 0.222 0.224 0.227 0.231 0.236 0.243 0.250 0.258 0.268 0.279 0.290 0.303 0.317 0.330 0.343 0.354 0.365 0.376 0.385 0.394 0.402 0.409 0.416 0.422 0.427 0.432 0.436 0.440 0.443 0.446 0.449 0.451 0.452 0.454 0.455 0.456 0.456 0.456 0.457 0.457 0.457 0.457 0.457 0.457 0.457 0.456 0.456 0.455 0.455 0.453 0.452 0.450 0.448 0.445 0.442 0.438 0.434 0.429 0.423 0.417 0.410 0.402 0.393 0.383 0.372 0.360 0.346 0.332 0.318 0.305 0.293 0.282 0.273 0.265 0.258 0.251 0.246 0.242 0.238 0.235 0.233 0.231 0.230 0.229 0.229 0.229 0.229 0.229 0.229 0.229 0.229 0.230 0.232 0.234 0.236 0.240 0.244 0.249 0.256 0.264 0.273 0.285 0.299 0.314 0.333 0.353 0.376 0.401 0.429 0.460 0.494 0.532 0.574 0.620 0.671 0.727 0.789 0.857 0.933 1.016 1.108 1.212 1.329 1.454 1.563 1.644 1.685 1.685 0.000 
0.000 1.067 1.067 1.036 0.971 0.878 0.774 0.687 0.618 0.560 0.510 0.467 0.430 0.398 0.369 0.345 0.323 0.304 0.287 0.272 0.260 0.249 0.239 0.231 0.223 0.217 0.212 0.207 0.204 0.201 0.198 0.196 0.194 0.193 0.192 0.191 0.191 0.191 0.191 0.191 0.193 0.195 0.199 0.203 0.208 0.214 0.222 0.230 0.239 0.249 0.260 0.271 0.283 0.294 0.304 0.314 0.323 0.331 0.338 0.345 0.352 0.357 0.363 0.367 0.372 0.375 0.379 0.381 0.384 0.386 0.388 0.389 0.390 0.391 0.392 0.393 0.393 0.393 0.393 0.393 0.393 0.393 0.393 0.393 0.393 0.393 0.392 0.391 0.390 0.389 0.388 0.386 0.383 0.381 0.378 0.374 0.370 0.365 0.359 0.353 0.346 0.338 0.330 0.320 0.310 0.298 0.286 0.273 0.262 0.252 0.243 0.235 0.227 0.221 0.216 0.211 0.207 0.204 0.202 0.200 0.198 0.197 0.197 0.196 0.196 0.196 0.196 0.196 0.196 0.197 0.198 0.199 0.201 0.203 0.206 0.210 0.214 0.220 0.227 0.236 0.246 0.258 0.273 0.290 0.310 0.332 0.357 0.385 0.416 0.450 0.488 0.529 0.576 0.627 0.683 0.746 0.815 0.892 0.978 1.075 1.184 1.309 1.448 1.567 1.654 1.700 1.700 0.000 
0.000 1.070 1.070 1.052 0.987 0.889 0.777 0.686 0.612 0.550 0.497 0.451 0.412 0.378 0.349 0.323 0.301 0.281 0.264 0.249 0.236 0.224 0.214 0.205 0.197 0.191 0.185 0.180 0.176 0.172 0.169 0.167 0.165 0.164 0.163 0.162 0.162 0.162 0.162 0.163 0.164 0.166 0.169 0.172 0.176 0.182 0.188 0.194 0.202 0.210 0.220 0.230 0.240 0.249 0.258 0.266 0.274 0.280 0.287 0.293 0.298 0.303 0.308 0.312 0.315 0.318 0.321 0.324 0.326 0.327 0.329 0.330 0.331 0.332 0.333 0.333 0.333 0.334 0.334 0.334 0.334 0.334 0.334 0.334 0.333 0.333 0.333 0.332 0.331 0.330 0.329 0.327 0.325 0.323 0.320 0.317 0.313 0.309 0.305 0.299 0.293 0.287 0.280 0.271 0.263 0.253 0.242 0.232 0.222 0.213 0.206 0.199 0.193 0.187 0.183 0.179 0.176 0.173 0.171 0.169 0.168 0.167 0.167 0.166 0.166 0.166 0.166 0.166 0.166 0.167 0.167 0.168 0.170 0.172 0.175 0.178 0.182 0.187 0.193 0.201 0.209 0.220 0.233 0.248 0.265 0.286 0.310 0.337 0.368 0.401 0.439 0.480 0.525 0.576 0.632 0.695 0.765 0.843 0.930 1.030 1.143 1.275 1.426 1.559 1.654 1.700 1.700 0.000 
0.000 1.072 1.072 1.055 0.992 0.890 0.775 0.679 0.600 0.534 0.478 0.430 0.390 0.355 0.325 0.298 0.275 0.255 0.238 0.222 0.209 0.197 0.186 0.177 0.169 0.162 0.156 0.151 0.147 0.144 0.141 0.139 0.138 0.137 0.136 0.136 0.136 0.136 0.136 0.136 0.137 0.139 0.141 0.144 0.147 0.151 0.156 0.162 0.168 0.175 0.183 0.191 0.200 0.208 0.215 0.222 0.228 0.234 0.239 0.244 0.249 0.253 0.257 0.260 0.263 0.266 0.268 0.270 0.272 0.273 0.275 0.276 0.276 0.277 0.278 0.278 0.278 0.278 0.279 0.279 0.279 0.279 0.279 0.278 0.278 0.278 0.278 0.277 0.276 0.276 0.274 0.273 0.271 0.270 0.267 0.265 0.262 0.258 0.254 0.250 0.245 0.239 0.233 0.226 0.219 0.211 0.202 0.193 0.185 0.178 0.172 0.166 0.161 0.156 0.152 0.149 0.146 0.144 0.142 0.141 0.140 0.139 0.139 0.139 0.138 0.138 0.138 0.138 0.139 0.139 0.140 0.140 0.142 0.143 0.146 0.148 0.152 0.156 0.161 0.168 0.175 0.184 0.195 0.208 0.223 0.241 0.262 0.287 0.316 0.348 0.384 0.425 0.469 0.519 0.574 0.635 0.704 0.782 0.870 0.970 1.085 1.220 1.379 1.534 1.646 1.700 1.700 0.000 
0.000 1.075 1.075 1.057 0.990 0.883 0.761 0.660 0.578 0.509 0.452 0.403 0.362 0.326 0.296 0.269 0.246 0.226 0.208 0.193 0.179 0.167 0.156 0.147 0.139 0.133 0.128 0.124 0.121 0.118 0.116 0.114 0.113 0.112 0.112 0.112 0.111 0.111 0.112 0.112 0.113 0.114 0.115 0.118 0.120 0.124 0.128 0.132 0.137 0.143 0.149 0.156 0.163 0.170 0.176 0.181 0.187 0.191 0.196 0.200 0.204 0.207 0.210 0.213 0.215 0.218 0.219 0.221 0.223 0.224 0.225 0.226 0.226 0.227 0.227 0.228 0.228 0.228 0.228 0.228 0.228 0.228 0.228 0.228 0.228 0.228 0.227 0.227 0.226 0.226 0.225 0.224 0.222 0.221 0.219 0.217 0.214 0.211 0.208 0.204 0.200 0.196 0.191 0.185 0.179 0.173 0.165 0.158 0.152 0.146 0.140 0.136 0.131 0.128 0.125 0.122 0.120 0.118 0.116 0.115 0.114 0.114 0.114 0.113 0.113 0.113 0.113 0.113 0.113 0.114 0.114 0.115 0.116 0.117 0.119 0.121 0.124 0.128 0.132 0.138 0.144 0.152 0.161 0.171 0.184 0.199 0.216 0.237 0.262 0.291 0.325 0.363 0.406 0.453 0.506 0.566 0.633 0.708 0.794 0.892 1.006 1.139 1.297 1.474 1.623 1.700 1.700 0.000 
0.000 1.078 1.078 1.057 0.978 0.856 0.730 0.628 0.544 0.475 0.417 0.368 0.327 0.292 0.262 0.235 0.213 0.193 0.175 0.160 0.147 0.135 0.126 0.118 0.112 0.107 0.103 0.099 0.097 0.094 0.093 0.091 0.090 0.090 0.090 0.089 0.089 0.089 0.089 0.090 0.090 0.091 0.092 0.094 0.096 0.099 0.102 0.106 0.110 0.114 0.119 0.125 0.130 0.136 0.140 0.145 0.149 0.153 0.157 0.160 0.163 0.166 0.168 0.170 0.172 0.174 0.175 0.177 0.178 0.179 0.180 0.180 0.181 0.181 0.182 0.182 0.182 0.182 0.182 0.182 0.182 0.182 0.182 0.182 0.182 0.182 0.182 0.181 0.181 0.180 0.180 0.179 0.178 0.176 0.175 0.173 0.171 0.169 0.166 0.164 0.160 0.157 0.153 0.148 0.143 0.138 0.132 0.126 0.121 0.116 0.112 0.108 0.105 0.102 0.100 0.097 0.096 0.094 0.093 0.092 0.091 0.091 0.091 0.090 0.090 0.090 0.090 0.090 0.091 0.091 0.091 0.092 0.093 0.094 0.095 0.097 0.099 0.102 0.106 0.110 0.115 0.121 0.129 0.137 0.148 0.160 0.174 0.191 0.211 0.235 0.263 0.297 0.336 0.380 0.430 0.486 0.549 0.620 0.701 0.794 0.900 1.024 1.172 1.355 1.563 1.700 1.700 0.000 
0.000 1.080 1.080 1.050 0.940 0.798 0.674 0.575 0.494 0.427 0.371 0.324 0.285 0.251 0.221 0.196 0.174 0.155 0.139 0.126 0.115 0.106 0.098 0.092 0.087 0.083 0.080 0.077 0.075 0.073 0.072 0.071 0.070 0.070 0.070 0.069 0.069 0.069 0.070 0.070 0.070 0.071 0.072 0.073 0.075 0.077 0.079 0.082 0.085 0.089 0.092 0.097 0.101 0.105 0.109 0.113 0.116 0.119 0.122 0.124 0.126 0.129 0.130 0.132 0.134 0.135 0.136 0.137 0.138 0.139 0.140 0.140 0.141 0.141 0.141 0.141 0.142 0.142 0.142 0.142 0.142 0.142 0.142 0.142 0.142 0.141 0.141 0.141 0.141 0.140 0.140 0.139 0.138 0.137 0.136 0.135 0.133 0.131 0.129 0.127 0.124 0.122 0.119 0.115 0.111 0.107 0.103 0.098 0.094 0.090 0.087 0.084 0.082 0.079 0.077 0.076 0.074 0.073 0.072 0.071 0.071 0.071 0.070 0.070 0.070 0.070 0.070 0.070 0.070 0.070 0.071 0.071 0.072 0.073 0.074 0.075 0.077 0.079 0.082 0.086 0.090 0.095 0.100 0.107 0.115 0.125 0.136 0.149 0.165 0.184 0.206 0.232 0.264 0.300 0.344 0.394 0.451 0.516 0.589 0.671 0.763 0.867 0.990 1.147 1.377 1.700 1.700 0.000 
0.000 1.024 1.024 1.008 0.843 0.697 0.587 0.499 0.426 0.365 0.313 0.270 0.233 0.202 0.175 0.152 0.133 0.118 0.105 0.095 0.086 0.080 0.074 0.069 0.066 0.062 0.060 0.058 0.056 0.055 0.054 0.053 0.053 0.052 0.052 0.052 0.052 0.052 0.052 0.052 0.052 0.053 0.054 0.055 0.056 0.057 0.059 0.061 0.063 0.066 0.069 0.072 0.076 0.079 0.081 0.084 0.087 0.089 0.091 0.093 0.095 0.096 0.098 0.099 0.100 0.101 0.102 0.103 0.103 0.104 0.104 0.105 0.105 0.105 0.106 0.106 0.106 0.106 0.106 0.106 0.106 0.106 0.106 0.106 0.106 0.106 0.106 0.105 0.105 0.105 0.104 0.104 0.103 0.102 0.102 0.101 0.099 0.098 0.097 0.095 0.093 0.091 0.089 0.086 0.083 0.080 0.077 0.073 0.070 0.068 0.065 0.063 0.061 0.059 0.058 0.057 0.055 0.055 0.054 0.053 0.053 0.053 0.053 0.052 0.052 0.052 0.052 0.052 0.052 0.053 0.053 0.053 0.054 0.054 0.055 0.056 0.058 0.059 0.062 0.064 0.067 0.071 0.075 0.080 0.086 0.094 0.102 0.112 0.124 0.138 0.155 0.175 0.198 0.226 0.259 0.298 0.344 0.397 0.457 0.524 0.593 0.661 0.731 0.811 0.919 1.059 1.059 0.000 
0.000 0.477 0.477 0.759 0.638 0.537 0.461 0.396 0.337 0.285 0.241 0.204 0.173 0.147 0.126 0.109 0.095 0.084 0.075 0.068 0.062 0.057 0.053 0.049 0.047 0.044 0.043 0.041 0.040 0.039 0.038 0.038 0.037 0.037 0.037 0.037 0.037 0.037 0.037 0.037 0.037 0.038 0.038 0.039 0.040 0.041 0.042 0.043 0.045 0.047 0.049 0.051 0.054 0.056 0.058 0.060 0.062 0.063 0.065 0.066 0.067 0.068 0.069 0.070 0.071 0.072 0.072 0.073 0.073 0.074 0.074 0.075 0.075 0.075 0.075 0.075 0.075 0.075 0.075 0.075 0.075 0.075 0.075 0.075 0.075 0.075 0.075 0.075 0.075 0.075 0.074 0.074 0.073 0.073 0.072 0.072 0.071 0.070 0.069 0.068 0.066 0.065 0.063 0.061 0.059 0.057 0.055 0.052 0.050 0.048 0.046 0.045 0.043 0.042 0.041 0.040 0.039 0.039 0.038 0.038 0.038 0.037 0.037 0.037 0.037 0.037 0.037 0.037 0.037 0.037 0.038 0.038 0.038 0.039 0.039 0.040 0.041 0.042 0.044 0.046 0.048 0.050 0.053 0.057 0.061 0.067 0.073 0.080 0.089 0.099 0.111 0.125 0.142 0.162 0.185 0.213 0.246 0.285 0.329 0.375 0.414 0.444 0.461 0.456 0.382 0.199 0.199 0.000 
0.000 0.000 0.000 0.245 0.331 0.323 0.301 0.269 0.231 0.194 0.162 0.136 0.115 0.098 0.084 0.073 0.063 0.056 0.050 0.045 0.041 0.038 0.035 0.033 0.031 0.029 0.028 0.027 0.026 0.026 0.025 0.025 0.025 0.025 0.025 0.024 0.024 0.024 0.025 0.025 0.025 0.025 0.025 0.026 0.026 0.027 0.028 0.029 0.030 0.031 0.032 0.034 0.036 0.037 0.038 0.040 0.041 0.042 0.043 0.044 0.044 0.045 0.046 0.047 0.047 0.048 0.048 0.048 0.049 0.049 0.049 0.049 0.049 0.050 0.050 0.050 0.050 0.050 0.050 0.050 0.050 0.050 0.050 0.050 0.050 0.050 0.050 0.050 0.049 0.049 0.049 0.049 0.049 0.048 0.048 0.047 0.047 0.046 0.045 0.045 0.044 0.043 0.042 0.040 0.039 0.038 0.036 0.035 0.033 0.032 0.031 0.030 0.029 0.028 0.027 0.027 0.026 0.026 0.025 0.025 0.025 0.025 0.025 0.025 0.025 0.025 0.025 0.025 0.025 0.025 0.025 0.025 0.025 0.026 0.026 0.026 0.027 0.028 0.029 0.030 0.032 0.033 0.035 0.038 0.041 0.044 0.048 0.053 0.059 0.065 0.073 0.083 0.094 0.107 0.123 0.142 0.164 0.191 0.221 0.248 0.267 0.275 0.271 0.242 0.143 0.000 0.000 0.000 
0.000 0.000 0.000 0.052 0.145 0.168 0.169 0.159 0.139 0.117 0.097 0.081 0.069 0.058 0.050 0.043 0.038 0.033 0.030 0.027 0.024 0.022 0.021 0.019 0.018 0.017 0.017 0.016 0.016 0.015 0.015 0.015 0.015 0.015 0.015 0.015 0.015 0.015 0.015 0.015 0.015 0.015 0.015 0.015 0.016 0.016 0.016 0.017 0.018 0.018 0.019 0.020 0.021 0.022 0.023 0.023 0.024 0.025 0.025 0.026 0.026 0.027 0.027 0.028 0.028 0.028 0.028 0.029 0.029 0.029 0.029 0.029 0.029 0.029 0.029 0.030 0.030 0.030 0.030 0.030 0.030 0.030 0.030 0.030 0.030 0.030 0.029 0.029 0.029 0.029 0.029 0.029 0.029 0.029 0.028 0.028 0.028 0.027 0.027 0.026 0.026 0.025 0.025 0.024 0.023 0.022 0.021 0.020 0.020 0.019 0.018 0.018 0.017 0.016 0.016 0.016 0.015 0.015 0.015 0.015 0.015 0.015 0.015 0.015 0.015 0.015 0.015 0.015 0.015 0.015 0.015 0.015 0.015 0.015 0.015 0.016 0.016 0.017 0.017 0.018 0.019 0.020 0.021 0.022 0.024 0.026 0.029 0.031 0.035 0.039 0.044 0.049 0.056 0.064 0.073 0.085 0.098 0.115 0.133 0.147 0.154 0.155 0.149 0.124 0.061 0.000 0.000 0.000 
0.000 0.000 0.000 0.016 0.059 0.076 0.079 0.077 0.069 0.058 0.048 0.040 0.034 0.029 0.025 0.021 0.019 0.016 0.015 0.013 0.012 0.011 0.010 0.010 0.009 0.009 0.008 0.008 0.008 0.008 0.007 0.007 0.007 0.007 0.007 0.007 0.007 0.007 0.007 0.007 0.007 0.007 0.007 0.007 0.008 0.008 0.008 0.008 0.009 0.009 0.009 0.010 0.010 0.011 0.011 0.012 0.012 0.012 0.012 0.013 0.013 0.013 0.013 0.014 0.014 0.014 0.014 0.014 0.014 0.014 0.014 0.014 0.014 0.014 0.014 0.014 0.014 0.014 0.014 0.014 0.014 0.014 0.014 0.014 0.014 0.014 0.014 0.014 0.014 0.014 0.014 0.014 0.014 0.014 0.014 0.014 0.014 0.013 0.013 0.013 0.013 0.012 0.012 0.012 0.011 0.011 0.010 0.010 0.010 0.009 0.009 0.009 0.008 0.008 0.008 0.008 0.008 0.007 0.007 0.007 0.007 0.007 0.007 0.007 0.007 0.007 0.007 0.007 0.007 0.007 0.007 0.007 0.007 0.007 0.008 0.008 0.008 0.008 0.008 0.009 0.009 0.010 0.010 0.011 0.012 0.013 0.014 0.015 0.017 0.019 0.021 0.024 0.027 0.031 0.036 0.042 0.048 0.057 0.066 0.072 0.074 0.074 0.070 0.056 0.025 0.000 0.000 0.000 
0.000 0.000 0.000 0.004 0.018 0.024 0.025 0.025 0.023 0.019 0.015 0.013 0.011 0.009 0.008 0.007 0.006 0.005 0.005 0.004 0.004 0.004 0.003 0.003 0.003 0.003 0.003 0.003 0.002 0.002 0.002 0.002 0.002 0.002 0.002 0.002 0.002 0.002 0.002 0.002 0.002 0.002 0.002 0.002 0.002 0.003 0.003 0.003 0.003 0.003 0.003 0.003 0.003 0.003 0.004 0.004 0.004 0.004 0.004 0.004 0.004 0.004 0.004 0.004 0.004 0.004 0.004 0.005 0.005 0.005 0.005 0.005 0.005 0.005 0.005 0.005 0.005 0.005 0.005 0.005 0.005 0.005 0.005 0.005 0.005 0.005 0.005 0.005 0.005 0.005 0.005 0.005 0.005 0.005 0.004 0.004 0.004 0.004 0.004 0.004 0.004 0.004 0.004 0.004 0.004 0.004 0.003 0.003 0.003 0.003 0.003 0.003 0.003 0.003 0.003 0.002 0.002 0.002 0.002 0.002 0.002 0.002 0.002 0.002 0.002 0.002 0.002 0.002 0.002 0.002 0.002 0.002 0.002 0.002 0.002 0.002 0.003 0.003 0.003 0.003 0.003 0.003 0.003 0.004 0.004 0.004 0.005 0.005 0.005 0.006 0.007 0.008 0.009 0.010 0.012 0.013 0.016 0.018 0.021 0.023 0.024 0.023 0.022 0.017 0.007 0.000 0.000 0.000 
0.000 0.000 0.000 0.000 0.000 0.000 0.000 0.000 0.000 0.000 0.000 0.000 0.000 0.000 0.000 0.000 0.000 0.000 0.000 0.000 0.000 0.000 0.000 0.000 0.000 0.000 0.000 0.000 0.000 0.000 0.000 0.000 0.000 0.000 0.000 0.000 0.000 0.000 0.000 0.000 0.000 0.000 0.000 0.000 0.000 0.000 0.000 0.000 0.000 0.000 0.000 0.000 0.000 0.000 0.000 0.000 0.000 0.000 0.000 0.000 0.000 0.000 0.000 0.000 0.000 0.000 0.000 0.000 0.000 0.000 0.000 0.000 0.000 0.000 0.000 0.000 0.000 0.000 0.000 0.000 0.000 0.000 0.000 0.000 0.000 0.000 0.000 0.000 0.000 0.000 0.000 0.000 0.000 0.000 0.000 0.000 0.000 0.000 0.000 0.000 0.000 0.000 0.000 0.000 0.000 0.000 0.000 0.000 0.000 0.000 0.000 0.000 0.000 0.000 0.000 0.000 0.000 0.000 0.000 0.000 0.000 0.000 0.000 0.000 0.000 0.000 0.000 0.000 0.000 0.000 0.000 0.000 0.000 0.000 0.000 0.000 0.000 0.000 0.000 0.000 0.000 0.000 0.000 0.000 0.000 0.000 0.000 0.000 0.000 0.000 0.000 0.000 0.000 0.000 0.000 0.000 0.000 0.000 0.000 0.000 0.000 0.000 0.000 0.000 0.000 0.000 0.000 0.000 
0.000 0.089 0.089 0.077 0.065 0.049 0.049 0.029 0.010 0.010 0.001 0.003 0.005 0.005 0.005 0.005 0.005 0.005 0.004 0.002 0.002 0.001 0.000 0.001 0.001 0.001 0.001 0.001 0.001 0.001 0.001 0.001 0.001 0.001 0.001 0.001 0.001 0.001 0.001 0.001 0.000 0.000 0.000 0.001 0.004 0.008 0.008 0.021 0.046 0.046 0.070 0.087 0.098 0.098 0.108 0.116 0.122 0.122 0.127 0.122 0.122 0.106 0.089 0.081 0.081 0.081 0.080 0.079 0.079 0.078 0.077 0.077 0.076 0.077 0.077 0.077 0.077 0.076 0.074 0.074 0.073 0.071 0.071 0.069 0.069 0.073 0.073 0.076 0.062 0.031 0.031 0.001 0.000 0.000 0.007 0.022 0.025 0.025 0.018 0.011 0.017 0.017 0.035 0.053 0.053 0.059 0.055 0.051 0.051 0.046 0.039 0.033 0.033 0.025 0.015 0.015 0.006 0.001 0.002 0.002 0.002 0.002 0.002 0.002 0.001 0.001 0.001 0.001 0.001 0.001 0.001 0.001 0.000 0.000 0.001 0.003 0.004 0.004 0.007 0.012 0.016 0.016 0.018 0.017 0.017 0.016 0.015 0.014 0.014 0.013 0.011 0.009 0.009 0.007 0.005 0.005 0.003 0.002 0.000 0.000 0.000 0.000 0.000 0.000 0.007 0.014 0.014 0.000 
0.000 0.000 0.000 0.000 0.000 0.000 0.000 0.000 0.000 0.000 0.000 0.000 0.000 0.000 0.000 0.000 0.000 0.000 0.000 0.000 0.000 0.000 0.000 0.000 0.000 0.000 0.000 0.000 0.000 0.000 0.000 0.000 0.000 0.000 0.000 0.000 0.000 0.000 0.000 0.000 0.000 0.000 0.000 0.000 0.000 0.000 0.000 0.000 0.000 0.000 0.000 0.000 0.000 0.000 0.000 0.000 0.000 0.000 0.000 0.000 0.000 0.000 0.000 0.000 0.000 0.000 0.000 0.000 0.000 0.000 0.000 0.000 0.000 0.000 0.000 0.000 0.000 0.000 0.000 0.000 0.000 0.000 0.000 0.000 0.000 0.000 0.000 0.000 0.000 0.000 0.000 0.000 0.000 0.000 0.000 0.000 0.000 0.000 0.000 0.000 0.000 0.000 0.000 0.000 0.000 0.000 0.000 0.000 0.000 0.000 0.000 0.000 0.000 0.000 0.000 0.000 0.000 0.000 0.000 0.000 0.000 0.000 0.000 0.000 0.000 0.000 0.000 0.000 0.000 0.000 0.000 0.000 0.000 0.000 0.000 0.000 0.000 0.000 0.000 0.000 0.000 0.000 0.000 0.000 0.000 0.000 0.000 0.000 0.000 0.000 0.000 0.000 0.000 0.000 0.000 0.000 0.000 0.000 0.000 0.000 0.000 0.000 0.000 0.000 0.000 0.000 0.000 0.000 
