ncols 168
nrows 121
xllcenter 640304.69
yllcenter 1081277.12
cellsize 46.59
NODATA_value -9999.000
-9999.000 4.137 4.137 2.889 1.642 0.870 0.870 0.575 0.279 0.279 1.132 3.133 5.135 5.135 5.632 4.625 3.619 3.619 3.287 3.630 3.630 3.973 4.768 6.014 6.014 7.261 6.500 3.732 3.732 0.964 -0.545 -0.545 -0.796 -1.046 0.320 0.320 3.302 6.285 8.000 8.000 9.000 10.000 10.000 10.000 10.000 10.000 10.000 11.000 12.000 12.000 12.000 11.000 10.000 10.000 8.000 6.000 4.000 4.000 6.000 8.000 8.000 10.000 9.000 9.000 9.000 10.000 10.000 9.000 9.000 9.000 11.000 11.000 10.000 10.000 10.000 10.000 10.000 10.000 11.000 11.000 10.000 9.000 9.000 7.000 5.000 6.000 6.000 7.000 6.000 8.000 8.000 7.000 5.000 5.000 4.000 4.000 4.000 4.000 0.701 -1.756 -1.109 -1.109 2.000 6.000 6.000 8.000 9.000 9.000 9.000 7.000 8.000 11.000 11.000 12.000 11.000 11.000 8.000 2.000 2.000 2.000 3.000 8.000 9.000 9.000 10.000 10.000 10.000 9.000 8.000 7.000 7.000 9.000 8.000 8.000 8.000 9.000 9.000 9.000 8.000 5.000 5.000 5.000 6.000 7.000 7.000 9.000 10.000 11.000 11.000 11.000 10.000 9.000 9.000 9.000 10.000 10.000 10.000 9.000 9.000 9.000 10.000 8.000 2.000 2.000 -0.120 -4.101 -4.101 -9999.000 
-9999.000 5.000 5.000 3.000 1.000 1.000 1.000 1.000 1.000 1.000 1.000 1.000 3.000 3.000 5.000 4.000 3.000 3.000 3.000 5.000 5.000 4.000 4.000 5.000 5.000 4.000 4.000 3.000 3.000 0.000 0.000 0.000 -1.000 -2.000 2.000 2.000 5.000 6.000 8.000 8.000 9.000 10.000 10.000 10.000 10.000 10.000 10.000 11.000 12.000 12.000 12.000 11.000 10.000 10.000 8.000 5.000 4.000 4.000 6.000 8.000 8.000 10.000 9.000 9.000 9.000 10.000 10.000 9.000 9.000 10.000 11.000 11.000 10.000 10.000 10.000 10.000 10.000 10.000 11.000 11.000 10.000 9.000 9.000 7.000 5.000 6.000 6.000 7.000 6.000 8.000 8.000 7.000 5.000 5.000 4.000 4.000 4.000 4.000 1.246 -0.050 0.808 0.808 3.000 6.000 6.000 8.000 9.000 8.000 8.000 7.000 7.000 11.000 11.000 12.000 11.000 11.000 8.000 3.000 2.000 2.000 3.000 7.000 8.000 8.000 9.000 9.000 9.000 9.000 8.000 7.000 7.000 9.000 8.000 8.000 8.000 9.000 9.000 9.000 7.000 5.000 5.000 5.000 6.000 8.000 8.000 8.000 10.000 11.000 11.000 11.000 9.000 9.000 9.000 9.000 10.000 10.000 10.000 9.000 9.000 9.000 10.000 8.000 4.000 4.000 2.680 -0.573 -0.573 -9999.000 
-9999.000 5.000 5.000 3.000 1.000 1.000 1.000 1.000 1.000 1.000 1.000 1.000 2.000 2.000 3.000 3.000 3.000 3.000 4.000 6.000 6.000 5.000 4.000 3.000 3.000 2.000 2.000 2.000 2.000 0.000 0.000 0.000 0.000 -1.000 2.000 2.000 5.000 6.000 8.000 8.000 10.000 11.000 11.000 11.000 11.000 11.000 11.000 10.000 11.000 11.000 11.000 10.000 10.000 10.000 7.000 4.000 2.000 2.000 4.000 7.000 7.000 9.000 9.000 9.000 9.000 10.000 10.000 10.000 10.000 10.000 10.000 10.000 9.000 9.000 9.000 9.000 10.000 10.000 11.000 11.000 10.000 10.000 10.000 8.000 3.000 6.000 6.000 8.000 7.000 8.000 8.000 7.000 5.000 5.000 3.000 3.000 3.000 3.000 1.791 1.656 2.725 2.725 4.997 7.000 7.000 7.000 7.000 6.000 6.000 5.000 6.000 10.000 10.000 12.000 11.000 11.000 9.000 3.000 4.934 4.934 4.112 5.000 6.000 6.000 7.000 7.000 7.000 8.000 7.000 7.000 7.000 9.000 8.000 8.000 8.000 10.000 9.000 9.000 7.000 4.000 5.000 5.000 7.000 8.000 8.000 8.000 9.000 10.000 10.000 10.000 9.000 9.000 9.000 10.000 10.000 10.000 10.000 10.000 10.000 10.000 10.000 10.000 8.000 8.000 5.481 2.954 2.954 -9999.000 
-9999.000 6.000 6.000 3.000 1.000 1.000 1.000 1.000 1.000 1.000 1.000 1.000 1.000 1.000 1.000 1.000 3.000 3.000 5.000 7.000 7.000 6.000 4.000 0.000 0.000 0.000 0.000 0.000 0.000 0.000 0.000 0.000 0.000 0.000 3.000 3.000 4.000 5.000 8.000 8.000 11.000 13.000 13.000 11.000 11.000 11.000 11.000 10.000 11.000 11.000 11.000 10.000 9.000 9.000 6.000 3.000 1.000 1.000 3.000 6.000 6.000 9.000 9.000 9.000 9.000 10.000 10.000 10.000 10.000 10.000 10.000 10.000 9.000 8.000 9.000 9.000 10.000 10.000 11.000 11.000 10.000 11.000 11.000 8.000 2.000 6.000 6.000 8.000 7.000 9.000 9.000 7.000 5.000 5.000 2.000 2.000 2.000 2.000 2.131 2.559 3.719 3.719 5.612 7.000 7.000 7.000 6.000 5.000 5.000 3.000 4.000 9.000 9.000 11.000 10.000 10.000 8.000 4.000 4.839 4.839 3.800 4.000 4.000 4.000 5.000 5.000 5.000 7.000 7.000 7.000 7.000 8.000 8.000 8.000 8.000 10.000 9.000 9.000 7.000 5.000 5.000 5.000 7.000 8.000 8.000 7.000 9.000 10.000 10.000 9.000 9.000 9.000 9.000 10.000 10.000 10.000 10.000 11.000 10.000 10.000 10.000 10.000 10.000 10.000 7.334 5.642 5.642 -9999.000 
-9999.000 6.000 6.000 3.000 1.000 1.000 1.000 1.000 1.000 1.000 1.000 1.000 1.000 1.000 1.000 1.000 2.000 2.000 4.000 5.000 5.000 7.000 5.000 0.000 0.000 0.000 0.000 0.000 0.000 0.000 0.000 0.000 0.000 0.000 3.000 3.000 4.000 4.000 7.000 7.000 10.000 12.000 12.000 12.000 12.000 11.000 11.000 11.000 11.000 11.000 11.000 10.000 8.000 8.000 6.000 4.000 3.000 3.000 5.000 7.000 7.000 9.000 9.000 10.000 10.000 11.000 11.000 11.000 11.000 10.000 9.000 9.000 8.000 8.000 8.000 8.000 9.000 10.000 10.000 10.000 11.000 11.000 11.000 9.000 3.000 7.000 7.000 8.000 8.000 9.000 9.000 8.000 6.000 6.000 3.000 2.000 3.000 3.000 2.268 2.658 3.791 3.791 5.665 8.000 8.000 7.000 5.000 3.000 3.000 2.000 3.000 7.000 7.000 9.000 8.000 8.000 6.000 5.343 4.294 4.294 3.244 3.000 3.000 3.000 3.000 4.000 4.000 6.000 7.000 8.000 8.000 8.000 8.000 8.000 8.000 10.000 9.000 9.000 7.000 6.000 7.000 7.000 7.000 7.000 7.000 7.000 8.000 10.000 10.000 10.000 10.000 9.000 9.000 8.000 8.000 8.000 9.000 10.000 10.000 10.000 9.000 9.000 9.000 9.000 8.000 8.000 8.000 -9999.000 
-9999.000 5.000 5.000 3.000 1.000 1.000 1.000 1.000 1.000 1.000 1.000 1.000 1.000 1.000 1.000 2.000 2.000 2.000 2.000 3.000 3.000 7.000 6.000 0.000 0.000 0.000 0.000 0.000 0.000 0.000 0.000 0.000 0.000 0.000 3.000 3.000 4.000 3.000 6.000 6.000 9.000 11.000 11.000 12.000 12.000 12.000 12.000 11.000 12.000 12.000 11.000 10.000 7.000 7.000 6.000 5.000 5.000 5.000 6.000 8.000 8.000 9.000 9.000 10.000 10.000 11.000 12.000 11.000 11.000 10.000 9.000 9.000 8.000 7.000 7.000 7.000 9.000 10.000 10.000 10.000 11.000 11.000 11.000 10.000 5.000 8.000 8.000 9.000 8.000 9.000 9.000 8.000 6.000 6.000 3.000 3.000 3.000 3.000 2.404 2.758 3.862 3.862 5.717 8.000 8.000 7.000 4.000 1.000 1.000 1.000 3.000 6.000 6.000 7.000 7.000 7.000 5.000 4.808 3.749 3.749 2.689 3.000 2.000 2.000 2.000 3.000 3.000 6.000 7.000 8.000 8.000 8.000 8.000 8.000 8.000 10.000 9.000 9.000 7.000 7.000 7.000 7.000 7.000 7.000 7.000 7.000 8.000 10.000 10.000 10.000 10.000 9.000 9.000 8.000 8.000 8.000 9.000 10.000 10.000 10.000 9.000 9.000 9.000 9.000 9.000 9.000 9.000 -9999.000 
-9999.000 5.000 5.000 3.000 1.000 1.000 1.000 1.000 1.000 1.000 1.000 1.000 1.000 1.000 1.000 3.000 3.000 3.000 3.000 3.000 3.000 8.000 6.000 0.000 0.000 0.000 0.000 0.000 0.000 0.000 0.000 0.000 0.000 0.000 2.000 2.000 2.000 3.000 5.000 5.000 8.000 11.000 11.000 11.000 11.000 11.000 11.000 11.000 12.000 12.000 12.000 10.000 8.000 8.000 7.000 6.000 7.000 7.000 7.000 7.000 7.000 7.000 8.000 9.000 9.000 10.000 11.000 11.000 11.000 10.000 10.000 10.000 9.000 8.000 8.000 8.000 9.000 10.000 11.000 11.000 11.000 12.000 12.000 11.000 8.000 9.000 9.000 9.000 9.000 10.000 10.000 10.000 8.000 8.000 5.000 4.000 4.000 4.000 2.000 2.953 3.559 3.559 4.662 5.766 5.766 5.221 3.028 1.000 1.000 2.000 3.000 5.000 5.000 6.000 6.000 6.000 5.000 4.285 3.025 3.025 1.765 1.418 2.000 2.000 3.000 4.000 4.000 7.000 7.000 7.000 7.000 8.000 8.000 8.000 8.000 10.000 8.000 8.000 7.000 6.000 6.000 6.000 7.000 7.000 7.000 7.000 9.000 10.000 10.000 10.000 10.000 10.000 10.000 8.000 8.000 8.000 9.000 11.000 9.000 9.000 9.000 9.000 10.000 10.000 10.000 10.000 10.000 -9999.000 
-9999.000 4.000 4.000 2.000 1.000 1.000 1.000 1.000 1.000 1.000 1.000 1.000 1.000 1.000 1.000 4.000 4.000 4.000 4.000 4.000 4.000 8.000 6.000 0.000 0.000 0.000 0.000 0.000 0.000 0.000 0.000 0.000 0.000 0.000 0.000 0.000 1.000 2.000 4.000 4.000 8.000 11.000 11.000 11.000 10.000 10.000 10.000 11.000 12.000 12.000 12.000 10.000 9.000 9.000 8.000 8.000 9.000 9.000 8.000 7.000 7.000 6.000 7.000 8.000 8.000 9.000 11.000 10.000 10.000 10.000 10.000 10.000 9.000 9.000 8.000 8.000 9.000 10.000 11.000 11.000 11.000 12.000 12.000 12.000 10.000 10.000 10.000 10.000 9.000 11.000 11.000 11.000 9.000 9.000 7.000 6.000 4.000 4.000 3.000 3.245 2.882 2.882 2.501 2.119 2.119 1.785 1.497 0.000 0.000 2.000 4.000 5.000 5.000 6.000 5.000 5.000 5.000 3.775 2.123 2.123 0.472 0.275 2.000 2.000 3.000 5.000 5.000 7.000 8.000 7.000 7.000 8.000 8.000 8.000 8.000 9.000 8.000 8.000 7.000 7.000 6.000 6.000 6.000 7.000 7.000 7.000 8.000 9.000 9.000 9.000 10.000 9.000 9.000 8.000 8.000 8.000 9.000 10.000 9.000 9.000 9.000 9.000 10.000 10.000 10.000 10.000 10.000 -9999.000 
-9999.000 4.000 4.000 2.000 1.000 1.000 1.000 1.000 1.000 1.000 1.000 1.000 1.000 1.000 1.000 2.000 2.000 2.000 2.000 2.000 2.000 6.000 5.000 0.000 0.000 0.000 0.000 0.000 0.000 0.000 0.000 0.000 0.000 0.000 0.000 0.000 1.000 4.000 5.000 5.000 8.000 10.000 10.000 10.000 10.000 10.000 10.000 12.000 12.000 12.000 12.000 10.000 10.000 10.000 10.000 11.000 11.000 11.000 10.000 8.000 8.000 8.000 7.000 7.000 7.000 9.000 10.000 9.000 9.000 9.000 8.000 8.000 9.000 9.000 9.000 9.000 10.000 11.000 12.000 12.000 11.000 11.000 11.000 11.000 9.000 10.000 10.000 10.000 10.000 12.000 12.000 11.000 9.000 9.000 8.000 6.000 5.000 5.000 4.000 3.537 2.205 2.205 0.339 -1.527 -1.527 -1.651 -0.033 1.585 1.585 2.838 3.727 4.000 4.000 5.000 5.000 5.000 4.000 3.264 1.222 1.222 -0.821 -0.869 1.000 1.000 2.000 5.000 5.000 7.000 8.000 8.000 8.000 7.000 7.000 7.000 7.000 8.000 8.000 8.000 8.000 8.000 7.000 7.000 6.000 6.000 6.000 6.000 7.000 8.000 8.000 8.000 8.000 8.000 8.000 9.000 9.000 9.000 9.000 10.000 9.000 9.000 9.000 10.000 9.000 9.000 10.000 10.000 10.000 -9999.000 
-9999.000 3.000 3.000 2.000 1.000 1.000 1.000 1.000 1.000 1.000 1.000 1.000 1.000 1.000 1.000 1.000 0.000 0.000 0.000 1.000 1.000 4.000 4.000 0.000 0.000 0.000 0.000 0.000 0.000 0.000 0.000 0.000 0.000 0.000 0.000 0.000 2.000 5.000 6.000 6.000 8.000 10.000 10.000 10.000 9.000 10.000 10.000 12.000 12.000 12.000 12.000 11.000 11.000 11.000 12.000 14.000 13.000 13.000 11.000 10.000 10.000 9.000 6.000 7.000 7.000 9.000 9.000 9.000 9.000 8.000 7.000 7.000 8.000 9.000 10.000 10.000 11.000 12.000 12.000 12.000 11.000 11.000 11.000 10.000 9.000 10.000 10.000 10.000 11.000 12.000 12.000 11.000 9.000 9.000 9.000 7.000 5.000 5.000 6.000 4.429 2.799 2.799 0.334 -2.131 -2.131 -2.124 0.355 2.834 2.834 4.382 5.002 4.000 4.000 6.000 6.000 6.000 4.000 3.291 1.203 1.203 -0.885 -0.852 1.000 1.000 3.000 5.000 5.000 7.000 9.000 9.000 9.000 8.000 7.000 7.000 7.000 7.000 8.000 8.000 9.000 9.000 7.000 7.000 6.000 6.000 6.000 6.000 6.000 7.000 7.000 8.000 7.000 8.000 8.000 9.000 9.000 9.000 9.000 9.000 9.000 9.000 10.000 10.000 9.000 9.000 9.000 9.000 9.000 -9999.000 
-9999.000 4.000 4.000 4.000 3.000 1.000 1.000 1.000 1.000 1.000 1.000 1.000 1.000 1.000 1.000 1.000 1.000 1.000 1.000 1.000 1.000 5.000 4.000 0.000 0.000 0.000 0.000 0.000 0.000 0.000 0.000 0.000 0.000 0.000 0.000 0.000 1.000 4.000 6.000 6.000 9.000 10.000 10.000 11.000 10.000 10.000 10.000 11.000 12.000 12.000 12.000 11.000 11.000 11.000 12.000 13.000 12.000 12.000 10.000 9.000 9.000 9.000 7.000 8.000 8.000 10.000 9.000 9.000 9.000 9.000 8.000 8.000 9.000 10.000 10.000 10.000 10.000 11.000 11.000 11.000 10.000 10.000 10.000 10.000 8.000 10.000 10.000 11.000 11.000 12.000 12.000 11.000 10.000 10.000 10.000 8.000 7.000 7.000 7.000 5.920 4.664 4.664 2.486 -1.000 -1.000 1.000 4.000 4.956 4.956 6.459 7.169 7.879 7.879 8.000 7.000 7.000 5.000 3.856 2.068 2.068 0.279 0.327 2.210 2.210 4.094 6.000 6.000 8.000 9.000 10.000 10.000 9.000 7.000 7.000 6.000 6.000 8.000 8.000 9.000 9.000 6.000 6.000 6.000 6.000 6.000 5.000 5.000 6.000 6.000 7.000 8.000 8.000 8.000 8.000 8.000 8.000 8.000 9.000 9.000 9.000 10.000 10.000 9.000 9.000 9.000 8.000 8.000 -9999.000 
-9999.000 5.000 5.000 6.000 5.000 1.000 1.000 1.000 1.000 1.000 1.000 1.000 1.000 1.000 1.000 1.000 2.000 2.000 2.000 2.000 2.000 6.000 5.000 0.000 0.000 0.000 0.000 0.000 0.000 0.000 0.000 0.000 0.000 0.000 0.000 0.000 1.000 3.000 7.000 7.000 9.000 10.000 10.000 12.000 11.000 10.000 10.000 10.000 11.000 11.000 12.000 11.000 11.000 11.000 12.000 12.000 11.000 11.000 9.000 8.000 8.000 9.000 7.000 8.000 8.000 10.000 9.000 9.000 9.000 9.000 9.000 9.000 10.000 10.000 10.000 10.000 9.000 10.000 11.000 11.000 9.000 9.000 9.000 9.000 7.000 9.000 9.000 11.000 11.000 12.000 12.000 12.000 11.000 11.000 11.000 9.000 8.000 8.000 8.000 7.411 6.528 6.528 4.637 0.000 0.000 3.000 5.000 7.079 7.079 8.536 9.336 10.136 10.136 10.000 8.000 8.000 6.000 4.421 2.932 2.932 1.444 1.506 3.118 3.118 4.731 6.000 6.000 9.000 10.000 11.000 11.000 9.000 7.000 7.000 6.000 6.000 7.000 7.000 9.000 9.000 6.000 6.000 6.000 6.000 6.000 5.000 5.000 6.000 6.000 7.000 8.000 8.000 8.000 9.000 7.000 7.000 7.000 8.000 9.000 9.000 10.000 10.000 9.000 9.000 8.000 7.000 7.000 -9999.000 
-9999.000 5.000 5.000 5.000 4.000 1.000 1.000 1.000 1.000 1.000 1.000 2.000 2.000 2.000 1.000 1.000 1.000 1.000 2.000 2.000 2.000 5.000 6.000 6.000 6.000 2.000 0.000 0.000 0.000 0.000 0.000 0.000 0.000 0.000 0.000 0.000 1.000 3.000 7.000 7.000 9.000 10.000 10.000 11.000 10.000 9.000 9.000 9.000 11.000 11.000 12.000 11.000 11.000 11.000 11.000 12.000 11.000 11.000 9.000 8.000 8.000 7.000 7.000 8.000 8.000 9.000 9.000 9.000 9.000 9.000 11.000 11.000 11.000 10.000 9.000 9.000 9.000 10.000 10.000 10.000 9.000 9.000 9.000 9.000 7.000 9.000 9.000 10.000 10.000 13.000 13.000 13.000 11.000 11.000 9.000 7.000 6.000 6.000 8.000 8.098 7.572 7.572 6.098 4.000 4.000 6.000 7.000 6.000 6.000 8.755 9.405 10.055 10.055 9.487 7.702 7.702 5.916 4.475 3.377 3.377 2.279 2.455 3.905 3.905 5.355 7.000 7.000 10.000 11.000 11.000 11.000 8.000 7.000 7.000 6.000 5.000 7.000 7.000 8.000 9.000 7.000 7.000 6.000 5.000 5.000 4.000 5.000 6.000 6.000 8.000 9.000 9.000 9.000 9.000 8.000 8.000 7.000 8.000 8.000 8.000 10.000 10.000 8.000 8.000 7.000 6.000 6.000 -9999.000 
-9999.000 5.000 5.000 5.000 4.000 1.000 1.000 1.000 1.000 1.000 1.000 2.000 3.000 3.000 2.000 1.000 1.000 1.000 1.000 2.000 2.000 4.000 7.000 11.000 11.000 3.000 0.000 0.000 0.000 0.000 0.000 0.000 0.000 0.000 0.000 0.000 1.000 3.000 7.000 7.000 9.000 10.000 10.000 11.000 9.000 8.000 8.000 9.000 11.000 11.000 12.000 11.000 10.000 10.000 11.000 11.000 10.000 10.000 9.000 8.000 8.000 7.000 7.000 8.000 8.000 9.000 9.000 9.000 9.000 10.000 12.000 12.000 11.000 10.000 9.000 9.000 9.000 10.000 10.000 10.000 10.000 9.000 9.000 9.000 7.000 9.000 9.000 10.000 10.000 13.000 13.000 13.000 11.000 11.000 9.000 7.000 6.000 6.000 8.000 7.982 7.793 7.793 6.867 6.000 6.000 7.000 8.000 6.000 6.000 7.116 7.375 7.634 7.634 7.191 6.045 6.045 4.899 4.018 3.401 3.401 2.785 3.174 4.571 4.571 5.967 7.000 7.000 11.000 12.000 10.000 10.000 8.000 7.000 7.000 7.000 6.000 6.000 6.000 8.000 9.000 8.000 8.000 6.000 5.000 5.000 4.000 4.000 6.000 6.000 8.000 8.000 9.000 9.000 10.000 8.000 8.000 8.000 9.000 8.000 8.000 9.000 10.000 8.000 8.000 7.000 6.000 6.000 -9999.000 
-9999.000 7.000 7.000 6.000 5.000 4.000 4.000 3.000 2.000 2.000 2.000 2.000 2.000 2.000 2.000 1.000 2.000 2.000 3.000 3.000 3.000 4.000 6.000 8.000 8.000 2.000 0.000 0.000 0.000 0.000 0.000 0.000 0.000 0.000 0.000 0.000 0.000 2.000 5.000 5.000 7.000 9.000 9.000 11.000 10.000 9.000 9.000 9.000 11.000 11.000 11.000 10.000 11.000 11.000 11.000 11.000 10.000 10.000 9.000 9.000 9.000 9.000 8.000 8.000 8.000 8.000 8.000 8.000 8.000 9.000 11.000 11.000 11.000 10.000 8.000 8.000 9.000 10.000 11.000 11.000 11.000 11.000 11.000 10.000 9.000 10.000 10.000 10.000 11.000 12.000 12.000 12.000 11.000 11.000 8.000 7.000 7.000 7.000 7.000 7.866 8.015 8.015 7.637 7.000 7.000 7.000 8.000 6.000 6.000 5.478 5.346 5.213 5.213 4.000 4.000 4.000 3.881 3.561 3.426 3.426 3.290 3.894 5.236 5.236 6.578 7.000 7.000 11.000 12.000 10.000 10.000 8.000 7.000 7.000 7.000 7.000 6.000 6.000 7.000 10.000 8.000 8.000 6.000 4.000 4.000 3.000 4.000 6.000 6.000 7.000 7.000 8.000 8.000 10.000 9.000 9.000 9.000 10.000 9.000 9.000 9.000 9.000 8.000 8.000 7.000 7.000 7.000 -9999.000 
-9999.000 9.000 9.000 7.000 5.000 6.000 6.000 5.000 4.000 4.000 3.000 2.000 2.000 2.000 2.000 1.000 3.000 3.000 4.000 4.000 4.000 4.000 4.000 6.000 6.000 1.000 0.000 0.000 0.000 0.000 0.000 0.000 0.000 0.000 0.000 0.000 0.000 0.000 3.000 3.000 6.000 8.000 8.000 11.000 10.000 9.000 9.000 9.000 11.000 11.000 11.000 10.000 11.000 11.000 11.000 10.000 9.000 9.000 9.000 10.000 10.000 11.000 9.000 8.000 8.000 7.000 8.000 8.000 8.000 9.000 10.000 10.000 11.000 10.000 7.000 7.000 9.000 10.000 12.000 12.000 12.000 11.000 11.000 11.000 11.000 10.000 10.000 10.000 11.000 12.000 12.000 11.000 10.000 10.000 8.000 8.000 7.000 7.000 7.000 7.496 7.768 7.768 7.805 7.000 7.000 7.000 7.000 5.000 5.000 4.381 4.240 4.099 4.099 4.000 4.000 4.000 3.817 3.754 3.713 3.713 3.671 4.212 5.336 5.336 6.459 7.000 7.000 10.000 11.000 10.000 10.000 8.000 7.000 7.000 6.000 7.000 7.000 7.000 7.000 9.000 8.000 8.000 7.000 5.000 5.000 4.000 4.000 5.000 5.000 7.000 7.000 8.000 8.000 9.000 9.000 9.000 9.000 10.000 9.000 9.000 8.000 8.000 9.000 9.000 8.000 8.000 8.000 -9999.000 
-9999.000 8.000 8.000 6.000 4.000 5.000 5.000 5.000 4.000 4.000 4.000 3.000 2.000 2.000 1.000 2.000 3.000 3.000 5.000 6.000 6.000 7.000 7.000 6.000 6.000 1.000 0.000 0.000 0.000 0.000 0.000 0.000 0.000 0.000 0.000 0.000 0.000 0.000 4.000 4.000 6.000 9.000 9.000 11.000 9.000 7.000 7.000 7.000 8.000 8.000 9.000 9.000 10.000 10.000 10.000 10.000 10.000 10.000 10.000 10.000 10.000 11.000 9.000 8.000 8.000 7.000 8.000 9.000 9.000 10.000 10.000 10.000 10.000 9.000 8.000 8.000 8.000 9.000 11.000 11.000 11.000 11.000 11.000 11.000 10.000 10.000 10.000 9.000 10.000 11.000 11.000 11.000 9.000 9.000 8.000 8.000 8.000 8.000 7.000 6.871 7.050 7.050 7.370 7.000 7.000 6.000 5.000 3.000 3.000 3.000 4.000 5.000 5.000 5.000 5.000 5.000 5.000 4.598 4.262 4.262 3.927 4.130 4.870 4.870 5.610 6.000 6.000 9.000 10.000 9.000 9.000 8.000 6.000 6.000 5.000 7.000 7.000 7.000 8.000 8.000 8.000 8.000 7.000 6.000 6.000 4.000 4.000 5.000 5.000 7.000 7.000 7.000 7.000 8.000 8.000 8.000 8.000 9.000 8.000 8.000 7.000 7.000 10.000 10.000 9.000 9.000 9.000 -9999.000 
-9999.000 7.000 7.000 5.000 3.000 4.000 4.000 5.000 5.000 5.000 4.000 4.000 3.000 3.000 1.000 2.000 4.000 4.000 6.000 8.000 8.000 9.000 8.000 6.000 6.000 2.000 0.000 0.000 0.000 0.000 0.000 0.000 0.000 0.000 0.000 0.000 0.000 1.000 4.000 4.000 7.000 9.000 9.000 11.000 8.000 6.000 6.000 6.000 7.000 7.000 8.000 9.000 10.000 10.000 9.000 9.000 10.000 10.000 10.000 11.000 11.000 11.000 9.000 8.000 8.000 6.000 8.000 9.000 9.000 10.000 10.000 10.000 10.000 9.000 8.000 8.000 7.000 8.000 10.000 10.000 11.000 11.000 11.000 11.000 10.000 10.000 10.000 9.000 9.000 10.000 10.000 10.000 9.000 9.000 9.000 8.000 7.000 7.000 7.000 6.246 6.333 6.333 6.935 7.000 7.000 7.000 5.000 3.000 3.000 3.000 4.000 5.000 5.000 5.000 5.000 5.000 5.000 5.441 4.812 4.812 4.183 4.047 4.404 4.404 4.761 6.000 6.000 7.000 8.000 9.000 9.000 8.000 6.000 6.000 5.000 8.000 8.000 8.000 8.000 8.000 9.000 9.000 8.000 8.000 8.000 5.000 5.000 5.000 5.000 6.000 7.000 7.000 7.000 8.000 8.000 8.000 8.000 9.000 8.000 8.000 7.000 8.000 10.000 10.000 9.000 9.000 9.000 -9999.000 
-9999.000 5.000 5.000 6.000 5.000 5.000 5.000 5.000 4.000 4.000 2.000 2.000 1.000 1.000 -1.000 0.000 3.000 3.000 6.000 8.000 8.000 9.000 7.000 5.000 5.000 2.000 2.000 3.000 3.000 3.000 3.000 3.000 2.000 1.000 1.000 1.000 1.000 1.000 3.000 3.000 6.000 9.000 9.000 10.000 8.000 6.000 6.000 6.000 7.000 7.000 8.000 8.000 9.000 9.000 8.000 8.000 10.000 10.000 9.000 9.000 9.000 10.000 8.000 7.000 7.000 6.000 7.000 9.000 9.000 9.000 11.000 11.000 10.000 10.000 9.000 9.000 8.000 8.000 9.000 9.000 10.000 11.000 11.000 11.000 11.000 10.000 10.000 9.000 9.000 10.000 10.000 10.000 10.000 10.000 9.000 7.000 6.000 6.000 6.000 6.000 5.000 5.000 6.600 8.000 8.000 7.000 7.000 5.000 5.000 3.000 3.000 4.000 4.000 5.000 6.000 6.000 6.108 5.930 5.049 5.049 4.169 3.689 3.608 3.608 3.528 4.313 4.313 6.000 7.000 8.000 8.000 7.000 5.000 5.000 5.000 10.000 9.000 9.000 9.000 8.000 10.000 10.000 10.000 9.000 9.000 6.000 5.000 5.000 5.000 5.000 6.000 7.000 7.000 8.000 8.000 8.000 8.000 8.000 8.000 8.000 8.000 9.000 10.000 10.000 9.000 9.000 9.000 -9999.000 
-9999.000 4.000 4.000 6.000 7.000 5.000 5.000 5.000 4.000 4.000 1.000 1.000 -1.000 -1.000 -3.000 -1.000 3.000 3.000 6.000 8.000 8.000 8.000 7.000 4.000 4.000 2.000 3.000 6.000 6.000 6.000 4.000 4.000 3.000 2.000 2.000 2.000 2.000 2.000 2.000 2.000 5.000 8.000 8.000 10.000 8.000 7.000 7.000 6.000 7.000 7.000 7.000 8.000 8.000 8.000 8.000 8.000 9.000 9.000 9.000 9.000 9.000 10.000 8.000 6.000 6.000 5.000 7.000 8.000 8.000 9.000 11.000 11.000 10.000 10.000 10.000 10.000 8.000 8.000 9.000 9.000 10.000 11.000 11.000 11.000 11.000 10.000 10.000 10.000 9.000 10.000 10.000 10.000 10.000 10.000 10.000 7.000 5.000 5.000 6.000 5.000 5.000 5.000 6.364 8.000 8.000 8.000 8.000 6.000 6.000 4.000 3.000 4.000 4.000 5.000 6.000 6.000 6.247 6.062 4.974 4.974 3.885 3.055 2.482 2.482 1.910 2.784 2.784 5.000 6.000 8.000 8.000 7.000 5.000 5.000 4.000 9.000 10.000 10.000 9.000 8.000 10.000 10.000 10.000 10.000 10.000 7.000 6.000 5.000 5.000 5.000 7.000 8.000 8.000 8.000 9.000 9.000 9.000 8.000 8.000 8.000 9.000 10.000 10.000 10.000 9.000 9.000 9.000 -9999.000 
-9999.000 5.000 5.000 5.000 5.000 4.000 4.000 4.000 3.000 3.000 2.000 1.000 0.000 0.000 -1.000 1.000 4.000 4.000 7.000 7.000 7.000 7.000 7.000 5.000 5.000 3.000 3.000 4.000 4.000 4.000 3.000 3.000 2.000 2.000 2.000 2.000 2.000 2.000 2.000 2.000 4.000 7.000 7.000 9.000 9.000 8.000 8.000 7.000 6.000 6.000 7.000 8.000 8.000 8.000 8.000 9.000 8.000 8.000 8.000 8.000 8.000 9.000 7.000 6.000 6.000 5.000 7.000 8.000 8.000 10.000 11.000 11.000 10.000 10.000 10.000 10.000 9.000 9.000 10.000 10.000 11.000 10.000 10.000 10.000 10.000 9.000 9.000 9.000 10.000 11.000 11.000 11.000 11.000 11.000 10.000 7.000 5.000 5.000 5.000 4.000 4.000 4.000 6.128 7.000 7.000 8.000 8.000 5.000 5.000 4.000 4.000 5.000 5.000 4.561 5.474 5.474 6.386 6.195 4.898 4.898 3.601 2.421 1.356 1.356 0.292 1.256 1.256 5.000 6.000 8.000 8.000 8.000 5.000 5.000 3.000 8.000 9.000 9.000 10.000 9.000 10.000 10.000 10.000 10.000 10.000 9.000 6.000 5.000 5.000 6.000 8.000 8.000 8.000 8.000 9.000 9.000 9.000 9.000 7.000 7.000 9.000 10.000 10.000 10.000 9.000 9.000 9.000 -9999.000 
-9999.000 5.000 5.000 4.000 4.000 3.000 3.000 2.000 2.000 2.000 2.000 1.000 1.000 1.000 1.000 3.000 5.000 5.000 7.000 6.000 6.000 7.000 7.000 6.000 6.000 4.000 3.000 2.000 2.000 2.000 2.000 2.000 2.000 2.000 2.000 2.000 2.000 2.000 2.000 2.000 4.000 6.000 6.000 9.000 9.000 9.000 9.000 7.000 6.000 6.000 7.000 8.000 8.000 8.000 9.000 9.000 8.000 8.000 8.000 8.000 8.000 8.000 7.000 5.000 5.000 5.000 6.000 9.000 9.000 10.000 11.000 11.000 10.000 9.000 10.000 10.000 10.000 10.000 10.000 10.000 11.000 10.000 10.000 10.000 10.000 9.000 9.000 9.000 11.000 12.000 12.000 12.000 11.000 11.000 9.000 6.000 4.000 4.000 5.000 4.000 3.000 3.000 5.619 6.000 6.000 7.000 8.000 4.000 4.000 4.000 4.000 5.000 5.000 4.488 4.975 4.975 5.462 5.179 4.124 4.124 3.069 1.908 0.643 0.643 -0.622 0.373 0.373 4.000 6.000 8.000 8.000 7.000 4.000 4.000 3.000 6.000 8.000 8.000 9.000 9.000 10.000 10.000 11.000 10.000 10.000 10.000 7.000 5.000 5.000 5.000 7.000 8.000 8.000 8.000 9.000 9.000 9.000 9.000 8.000 8.000 9.000 10.000 10.000 10.000 10.000 9.000 9.000 -9999.000 
-9999.000 4.000 4.000 4.000 4.000 4.000 4.000 3.000 3.000 3.000 2.000 1.000 2.000 2.000 3.000 3.000 4.000 4.000 5.000 5.000 5.000 7.000 8.000 6.000 6.000 3.000 2.000 2.000 2.000 2.000 2.000 2.000 2.000 2.000 2.000 2.000 2.000 2.000 2.000 2.000 4.000 6.000 6.000 9.000 9.000 9.000 9.000 8.000 7.000 7.000 8.000 9.000 8.000 8.000 8.000 9.000 8.000 8.000 8.000 7.000 7.000 5.000 6.000 6.000 6.000 6.000 7.000 9.000 9.000 11.000 11.000 11.000 9.000 8.000 9.000 9.000 9.000 9.000 9.000 9.000 11.000 10.000 10.000 10.000 11.000 9.000 9.000 9.000 10.000 11.000 11.000 11.000 10.000 10.000 9.000 6.000 4.000 4.000 4.000 4.000 4.000 4.000 4.836 5.000 5.000 6.000 6.000 4.000 4.000 3.000 3.000 5.000 5.000 4.594 4.035 4.035 3.475 3.014 2.650 2.650 2.287 1.518 0.343 0.343 -0.832 0.136 0.136 3.000 5.000 8.000 8.000 6.000 3.000 3.000 2.000 4.000 7.000 7.000 9.000 8.000 11.000 11.000 11.000 11.000 11.000 11.000 9.000 7.000 7.000 5.000 6.000 8.000 8.000 8.000 9.000 9.000 10.000 10.000 9.000 9.000 9.000 9.000 10.000 10.000 10.000 10.000 10.000 -9999.000 
-9999.000 4.000 4.000 4.000 4.000 4.000 4.000 4.000 3.000 3.000 2.000 1.000 3.000 3.000 5.000 4.000 4.000 4.000 4.000 5.000 5.000 8.000 8.000 7.000 7.000 4.000 2.000 2.000 2.000 2.000 2.000 2.000 2.000 2.000 2.000 2.000 2.000 2.000 2.000 2.000 3.000 6.000 6.000 8.000 9.000 9.000 9.000 8.000 8.000 8.000 9.000 10.000 9.000 9.000 8.000 8.000 9.000 9.000 8.000 6.000 6.000 4.000 6.000 7.000 7.000 6.000 7.000 9.000 9.000 11.000 11.000 11.000 9.000 8.000 9.000 9.000 9.000 9.000 9.000 9.000 11.000 11.000 11.000 10.000 11.000 9.000 9.000 9.000 10.000 11.000 11.000 11.000 11.000 11.000 10.000 6.000 3.000 3.000 3.000 4.000 4.000 4.000 4.054 4.000 4.000 5.000 5.000 3.000 3.000 3.000 3.000 5.000 5.000 4.700 3.094 3.094 1.488 0.849 1.177 1.177 1.506 1.127 0.043 0.043 -1.042 -0.101 -0.101 3.000 5.000 7.000 7.000 6.000 3.000 3.000 2.000 2.000 5.000 5.000 8.000 8.000 11.000 11.000 11.000 11.000 11.000 11.000 10.000 8.000 8.000 6.000 6.000 7.000 7.000 8.000 8.000 8.000 9.000 10.000 9.000 9.000 8.000 8.000 9.000 9.000 9.000 10.000 10.000 -9999.000 
-9999.000 3.000 3.000 3.000 4.000 4.000 4.000 5.000 4.000 4.000 1.000 2.000 2.000 2.000 3.000 3.000 4.000 4.000 5.000 5.000 5.000 8.000 9.000 8.000 8.000 7.000 4.000 2.000 2.000 2.000 2.000 2.000 2.000 2.000 2.000 2.000 2.000 2.000 2.000 2.000 3.000 5.000 5.000 8.000 9.000 9.000 9.000 9.000 8.000 8.000 9.000 9.000 9.000 9.000 9.000 9.000 10.000 10.000 9.000 8.000 8.000 6.000 8.000 8.000 8.000 7.000 7.000 9.000 9.000 10.000 11.000 11.000 10.000 10.000 10.000 10.000 10.000 10.000 10.000 10.000 12.000 11.000 11.000 10.000 10.000 9.000 9.000 8.000 9.000 10.000 10.000 12.000 12.000 12.000 12.000 7.000 3.000 3.000 3.000 3.000 3.000 3.000 3.628 4.000 4.000 5.000 5.000 3.000 3.000 3.000 5.000 6.000 6.000 4.000 3.000 3.000 1.254 0.643 1.060 1.060 1.478 1.223 0.295 0.295 -0.632 0.286 0.286 4.000 4.000 6.000 6.000 6.000 4.000 4.000 2.000 1.000 4.000 4.000 6.000 8.000 11.000 11.000 11.000 10.000 10.000 10.000 10.000 9.000 9.000 8.000 7.000 7.000 7.000 8.000 7.000 7.000 8.000 8.000 8.000 8.000 7.000 7.000 7.000 7.000 8.000 9.000 9.000 -9999.000 
-9999.000 3.000 3.000 3.000 3.000 5.000 5.000 5.000 4.000 4.000 1.000 3.000 2.000 2.000 2.000 3.000 4.000 4.000 5.000 6.000 6.000 8.000 9.000 8.000 8.000 9.000 6.000 2.000 2.000 2.000 2.000 2.000 2.000 2.000 2.000 2.000 2.000 2.000 2.000 2.000 3.000 5.000 5.000 7.000 9.000 9.000 9.000 9.000 8.000 8.000 8.000 9.000 10.000 10.000 10.000 10.000 10.000 10.000 9.000 8.000 8.000 8.000 8.000 8.000 8.000 8.000 8.000 9.000 9.000 10.000 11.000 11.000 10.000 10.000 11.000 11.000 11.000 11.000 11.000 11.000 12.000 11.000 11.000 10.000 9.000 9.000 9.000 9.000 9.000 10.000 10.000 12.000 13.000 13.000 13.000 8.000 3.000 3.000 1.000 2.000 3.000 3.000 3.557 4.000 4.000 5.000 5.000 3.000 3.000 3.000 4.000 5.000 5.000 4.000 3.000 3.000 2.774 2.394 2.298 2.298 2.202 1.803 1.101 1.101 0.398 1.296 1.296 4.000 5.000 6.000 6.000 6.000 5.000 5.000 2.000 1.000 3.000 3.000 6.000 8.000 10.000 10.000 11.000 10.000 10.000 10.000 10.000 9.000 9.000 8.000 8.000 8.000 8.000 8.000 8.000 8.000 7.000 7.000 7.000 7.000 6.000 6.000 6.000 6.000 8.000 9.000 9.000 -9999.000 
-9999.000 3.000 3.000 3.000 3.000 4.000 4.000 4.000 4.000 4.000 3.000 4.000 4.000 4.000 4.000 5.000 4.000 4.000 4.000 5.000 5.000 7.000 8.000 9.000 9.000 8.000 5.000 2.000 2.000 2.000 2.000 2.000 2.000 2.000 2.000 2.000 2.000 2.000 1.000 1.000 2.000 5.000 5.000 8.000 9.000 10.000 10.000 8.000 9.000 9.000 9.000 8.000 10.000 10.000 10.000 9.000 9.000 9.000 8.000 8.000 8.000 7.000 7.000 8.000 8.000 9.000 9.000 10.000 10.000 10.000 10.000 10.000 10.000 10.000 10.000 10.000 11.000 10.000 10.000 10.000 9.000 9.000 9.000 9.000 9.000 10.000 10.000 10.000 10.000 11.000 11.000 12.000 14.000 14.000 13.000 8.000 3.000 3.000 -1.000 2.000 4.000 4.000 3.487 5.000 5.000 5.000 5.000 4.000 4.000 3.000 3.000 4.000 4.000 3.000 3.000 3.000 4.293 4.146 3.537 3.537 2.927 2.384 1.906 1.906 1.428 2.307 2.307 4.542 6.778 7.000 7.000 7.000 5.000 5.000 2.000 1.000 4.000 4.000 6.000 8.000 10.000 10.000 11.000 11.000 11.000 10.000 10.000 9.000 9.000 8.000 8.000 8.000 8.000 9.000 8.000 8.000 8.000 7.000 5.000 5.000 5.000 6.000 5.000 5.000 8.000 9.000 9.000 -9999.000 
-9999.000 3.000 3.000 3.000 3.000 3.000 3.000 4.000 4.000 4.000 5.000 4.000 4.000 4.000 5.000 6.000 4.000 4.000 3.000 4.000 4.000 7.000 8.000 9.000 9.000 8.000 5.000 2.000 2.000 2.000 2.000 2.000 2.000 2.000 2.000 2.000 2.000 2.000 0.000 0.000 2.000 5.000 5.000 8.000 10.000 10.000 10.000 8.000 9.000 9.000 9.000 8.000 10.000 10.000 10.000 9.000 9.000 9.000 8.000 7.000 7.000 7.000 6.000 7.000 7.000 9.000 9.000 10.000 10.000 10.000 9.000 9.000 9.000 9.000 10.000 10.000 11.000 10.000 9.000 9.000 8.000 8.000 8.000 9.000 10.000 11.000 11.000 11.000 10.000 11.000 11.000 12.000 14.000 14.000 13.000 9.000 3.000 3.000 -2.000 1.000 4.000 4.000 3.158 5.000 5.000 6.000 6.000 4.000 4.000 2.000 2.000 4.000 4.000 3.000 4.000 4.000 4.892 4.895 4.120 4.120 3.346 2.802 2.488 2.488 2.174 2.971 2.971 4.880 6.788 6.000 6.000 7.000 5.000 5.000 2.000 1.000 5.000 5.000 7.000 9.000 10.000 10.000 11.000 11.000 11.000 10.000 10.000 9.000 9.000 9.000 9.000 9.000 9.000 9.000 9.000 9.000 8.000 7.000 6.000 6.000 5.000 6.000 7.000 7.000 8.000 9.000 9.000 -9999.000 
-9999.000 4.000 4.000 4.000 5.000 5.000 5.000 3.000 2.000 2.000 2.000 3.000 3.000 3.000 3.000 5.000 3.000 3.000 2.000 3.000 3.000 6.000 8.000 10.000 10.000 8.000 5.000 2.000 2.000 2.000 2.000 2.000 2.000 2.000 2.000 2.000 2.000 2.000 1.000 1.000 2.000 6.000 6.000 8.000 10.000 10.000 10.000 9.000 8.000 8.000 8.000 8.000 10.000 10.000 10.000 10.000 10.000 10.000 8.000 7.000 7.000 6.000 5.000 6.000 6.000 8.000 8.000 9.000 9.000 9.000 10.000 10.000 9.000 8.000 9.000 9.000 10.000 10.000 9.000 9.000 8.000 8.000 8.000 9.000 11.000 11.000 11.000 11.000 10.000 11.000 11.000 12.000 13.000 13.000 13.000 9.000 4.000 4.000 -1.000 -0.995 -0.971 -0.971 2.569 6.000 6.000 7.000 7.000 3.000 3.000 1.000 1.000 3.000 3.000 4.000 4.000 4.000 6.000 4.640 4.049 4.049 3.459 3.058 2.847 2.847 2.636 3.289 3.289 4.808 6.326 4.000 4.000 6.000 5.000 5.000 2.000 2.000 5.000 5.000 9.000 11.000 11.000 11.000 12.000 12.000 12.000 10.000 10.000 10.000 10.000 10.000 9.000 9.000 9.000 9.000 9.000 9.000 8.000 8.000 7.000 7.000 6.000 6.000 8.000 8.000 9.000 9.000 9.000 -9999.000 
-9999.000 5.000 5.000 5.000 6.000 6.000 6.000 2.000 0.000 0.000 1.000 2.000 2.000 2.000 3.000 4.000 3.000 3.000 1.000 2.000 2.000 5.000 8.000 10.000 10.000 9.000 6.000 2.000 2.000 2.000 2.000 2.000 2.000 2.000 2.000 2.000 2.000 2.000 2.000 2.000 3.000 6.000 6.000 8.000 10.000 10.000 10.000 9.000 9.000 9.000 8.000 8.000 9.000 9.000 10.000 10.000 10.000 10.000 8.000 6.000 6.000 6.000 5.000 5.000 5.000 7.000 7.000 8.000 8.000 10.000 10.000 10.000 8.000 8.000 9.000 9.000 10.000 10.000 9.000 9.000 7.000 8.000 8.000 9.000 11.000 11.000 11.000 11.000 10.000 11.000 11.000 12.000 12.000 12.000 13.000 10.000 6.000 6.000 2.000 -2.181 -2.398 -2.398 1.981 6.000 6.000 7.000 8.000 4.000 4.000 1.000 0.000 3.000 3.000 3.000 4.000 4.000 5.000 4.386 3.978 3.978 3.571 3.313 3.205 3.205 3.097 3.607 3.607 4.736 5.864 4.000 4.000 6.000 5.000 5.000 3.000 3.000 6.000 6.000 9.000 11.000 12.000 12.000 12.000 12.000 12.000 10.000 9.000 9.000 9.000 10.000 9.000 9.000 9.000 8.000 8.000 8.000 8.000 8.000 8.000 8.000 7.000 7.000 9.000 9.000 9.000 9.000 9.000 -9999.000 
-9999.000 4.000 4.000 4.000 4.000 3.000 3.000 -1.000 -2.000 -2.000 3.000 2.000 4.000 4.000 5.000 3.000 1.000 1.000 -1.000 0.000 0.000 4.000 8.000 11.000 11.000 9.000 6.000 3.000 3.000 2.000 2.000 2.000 2.000 2.000 2.000 2.000 2.000 2.000 3.000 3.000 5.000 6.000 6.000 9.000 9.000 10.000 10.000 10.000 9.000 9.000 8.000 7.000 8.000 8.000 9.000 9.000 9.000 9.000 7.000 6.000 6.000 6.000 5.000 5.000 5.000 6.000 7.000 9.000 9.000 10.000 10.000 10.000 9.000 9.000 9.000 9.000 9.000 9.000 8.000 8.000 7.000 8.000 8.000 10.000 10.000 11.000 11.000 11.000 10.000 11.000 11.000 11.000 12.000 12.000 12.000 11.000 8.000 8.000 6.000 -1.150 -1.509 -1.509 2.530 5.000 5.000 7.000 8.000 5.000 5.000 2.000 1.000 3.000 3.000 3.000 2.000 2.000 3.000 4.242 3.947 3.947 3.651 3.469 3.399 3.399 3.330 3.711 3.711 4.544 5.377 6.000 6.000 7.000 6.000 6.000 5.000 5.000 7.000 7.000 9.000 11.000 12.000 12.000 12.000 13.000 13.000 10.000 8.000 7.000 7.000 10.000 9.000 8.000 8.000 7.000 7.000 7.000 7.000 7.000 8.000 8.000 9.000 9.000 9.000 9.000 10.000 10.000 10.000 -9999.000 
-9999.000 4.000 4.000 4.000 3.000 1.000 1.000 -3.000 -3.000 -3.000 5.000 3.000 4.000 4.000 6.000 3.000 0.000 0.000 -1.000 -1.000 -1.000 3.000 7.000 11.000 11.000 10.000 7.000 4.000 4.000 2.000 2.000 2.000 2.000 2.000 2.000 2.000 2.000 2.000 4.000 4.000 5.000 6.000 6.000 8.000 8.000 9.000 9.000 10.000 10.000 10.000 9.000 6.000 8.000 8.000 8.000 8.000 8.000 8.000 7.000 6.000 6.000 6.000 5.000 5.000 5.000 6.000 7.000 9.000 9.000 11.000 11.000 11.000 10.000 10.000 9.000 9.000 9.000 8.000 8.000 8.000 7.000 9.000 9.000 10.000 10.000 11.000 11.000 11.000 10.000 11.000 11.000 11.000 11.000 11.000 12.000 11.000 9.000 9.000 7.000 2.098 1.696 1.696 4.217 5.000 5.000 7.000 8.000 5.000 5.000 3.000 1.000 3.000 3.000 2.000 2.000 2.000 3.000 4.209 3.954 3.954 3.699 3.524 3.428 3.428 3.333 3.601 3.601 4.233 4.864 5.000 5.000 6.000 7.000 7.000 6.000 4.000 6.000 6.000 9.000 11.000 11.000 11.000 12.000 12.000 12.000 10.000 8.000 7.000 7.000 9.000 9.000 8.000 8.000 7.000 7.000 7.000 7.000 7.000 9.000 9.000 9.000 9.000 8.000 8.000 9.000 10.000 10.000 -9999.000 
-9999.000 6.000 6.000 5.000 4.000 2.000 2.000 0.000 1.000 1.000 7.000 3.000 2.000 2.000 3.000 4.000 3.000 3.000 0.000 -2.000 -2.000 2.000 7.000 10.000 10.000 9.000 7.000 5.000 5.000 3.000 2.000 2.000 2.000 2.000 2.000 2.000 2.000 2.000 4.000 4.000 5.000 6.000 6.000 6.000 7.000 8.000 8.000 9.000 9.000 9.000 8.000 7.000 8.000 8.000 9.000 9.000 9.000 9.000 8.000 7.000 7.000 7.000 7.000 8.000 8.000 8.000 9.000 10.000 10.000 11.000 12.000 12.000 12.000 11.000 9.000 9.000 8.000 8.000 8.000 8.000 8.000 9.000 9.000 10.000 11.000 11.000 11.000 10.000 9.000 10.000 10.000 11.000 11.000 11.000 11.000 10.000 9.000 9.000 7.000 5.345 4.901 4.901 5.905 5.000 5.000 7.000 8.000 4.000 4.000 2.000 1.000 2.000 2.000 1.000 2.000 2.000 4.000 4.176 3.962 3.962 3.747 3.579 3.458 3.458 3.337 3.491 3.491 3.921 4.351 4.000 4.000 6.000 6.000 6.000 6.000 2.000 5.000 5.000 8.000 10.000 10.000 10.000 11.000 11.000 11.000 9.000 8.000 7.000 7.000 9.000 9.000 8.000 8.000 6.000 7.000 7.000 7.000 7.000 9.000 9.000 9.000 9.000 7.000 7.000 8.000 9.000 9.000 -9999.000 
-9999.000 8.000 8.000 7.000 5.000 4.000 4.000 3.000 4.000 4.000 7.000 3.000 0.000 0.000 -1.000 4.000 4.000 4.000 1.000 -2.000 -2.000 2.000 6.000 10.000 10.000 9.000 8.000 6.000 6.000 3.000 2.000 2.000 2.000 2.000 2.000 2.000 2.000 3.000 4.000 4.000 5.000 5.000 5.000 5.000 6.000 7.000 7.000 9.000 9.000 9.000 8.000 7.000 8.000 8.000 9.000 10.000 9.000 9.000 9.000 8.000 8.000 7.000 8.000 9.000 9.000 9.000 9.000 9.000 9.000 10.000 11.000 11.000 12.000 11.000 9.000 9.000 8.000 7.000 8.000 8.000 8.000 9.000 9.000 10.000 10.000 11.000 11.000 10.000 10.000 10.000 10.000 11.000 11.000 11.000 10.000 10.000 9.000 9.000 8.000 7.203 6.722 6.722 6.829 5.000 5.000 7.000 8.000 5.000 5.000 2.000 1.000 1.000 1.000 0.000 1.000 1.000 5.000 4.286 4.048 4.048 3.810 3.600 3.418 3.418 3.236 3.256 3.256 3.478 3.700 3.000 3.000 5.000 6.000 6.000 6.000 2.000 5.000 5.000 7.000 10.000 10.000 10.000 10.000 10.000 10.000 10.000 9.000 8.000 8.000 9.000 9.000 9.000 9.000 8.000 8.000 8.000 8.000 8.000 8.000 8.000 9.000 9.000 8.000 8.000 8.000 9.000 9.000 -9999.000 
-9999.000 10.000 10.000 7.000 5.000 5.000 5.000 5.000 4.000 4.000 4.000 -1.000 -3.000 -3.000 -3.000 0.000 1.000 1.000 1.000 0.000 0.000 2.000 5.000 8.000 8.000 10.000 9.000 6.000 6.000 3.000 2.000 2.000 2.000 2.000 2.000 2.000 3.000 5.000 4.000 4.000 3.000 4.000 4.000 6.000 7.000 9.000 9.000 10.000 8.000 8.000 7.000 5.000 7.000 7.000 9.000 10.000 10.000 10.000 9.000 8.000 8.000 7.000 7.000 8.000 8.000 8.000 8.000 8.000 8.000 9.000 9.000 9.000 10.000 10.000 9.000 9.000 8.000 8.000 9.000 9.000 9.000 9.000 9.000 10.000 9.000 10.000 10.000 10.000 11.000 10.000 10.000 10.000 10.000 10.000 10.000 9.000 9.000 9.000 9.000 8.000 8.000 8.000 6.990 6.000 6.000 7.000 9.000 6.000 6.000 3.000 0.000 -1.000 -1.000 0.000 0.000 0.000 3.719 4.538 4.214 4.214 3.889 3.587 3.309 3.309 3.030 2.895 2.895 2.902 2.910 3.000 3.000 5.000 6.000 6.000 6.000 3.000 5.000 5.000 7.000 9.000 10.000 10.000 10.000 9.000 9.000 10.000 10.000 10.000 10.000 10.000 9.000 9.000 9.000 11.000 9.000 9.000 8.000 9.000 8.000 8.000 9.000 10.000 8.000 8.000 8.000 8.000 8.000 -9999.000 
-9999.000 11.000 11.000 8.000 6.000 6.000 6.000 6.000 4.000 4.000 1.000 -3.000 -4.000 -4.000 -3.000 -3.000 -1.000 -1.000 1.000 2.000 2.000 2.000 3.000 7.000 7.000 10.000 9.000 7.000 7.000 3.000 2.000 2.000 2.000 2.000 2.000 2.000 3.000 6.000 4.000 4.000 3.000 3.000 3.000 6.000 8.000 9.000 9.000 10.000 8.000 8.000 6.000 5.000 7.000 7.000 9.000 10.000 10.000 10.000 9.000 8.000 8.000 7.000 7.000 7.000 7.000 7.000 7.000 7.000 7.000 8.000 8.000 8.000 9.000 9.000 9.000 9.000 8.000 8.000 9.000 9.000 8.000 9.000 9.000 9.000 9.000 10.000 10.000 10.000 10.000 10.000 10.000 9.000 9.000 9.000 9.000 9.000 9.000 9.000 9.000 8.000 8.000 8.000 7.151 5.000 5.000 7.000 8.000 6.000 6.000 4.000 1.000 -1.000 -1.000 0.000 1.000 1.000 3.923 4.791 4.379 4.379 3.968 3.575 3.200 3.200 2.825 2.534 2.534 2.327 2.120 2.000 2.000 4.000 5.000 5.000 5.000 4.000 4.000 4.000 5.000 7.000 10.000 10.000 10.000 10.000 10.000 10.000 11.000 12.000 12.000 11.000 10.000 10.000 10.000 10.000 9.000 9.000 9.000 9.000 9.000 9.000 9.000 9.000 9.000 9.000 8.000 8.000 8.000 -9999.000 
-9999.000 9.000 9.000 8.000 7.000 6.000 6.000 6.000 4.000 4.000 0.000 -3.000 -3.000 -3.000 -2.000 -2.000 -1.000 -1.000 1.000 1.000 1.000 1.000 2.000 6.000 6.000 10.000 10.000 7.000 7.000 3.000 2.000 2.000 2.000 2.000 2.000 2.000 3.000 5.000 5.000 5.000 5.000 4.000 4.000 6.000 8.000 9.000 9.000 11.000 9.000 9.000 7.000 6.000 8.000 8.000 9.000 10.000 9.000 9.000 10.000 10.000 10.000 7.000 7.000 6.000 6.000 6.000 6.000 6.000 6.000 7.000 8.000 8.000 9.000 9.000 8.000 8.000 8.000 8.000 8.000 8.000 8.000 8.000 8.000 8.000 9.000 10.000 10.000 10.000 9.000 9.000 9.000 8.000 7.000 7.000 8.000 9.000 10.000 10.000 9.000 8.000 7.000 7.000 6.703 4.000 4.000 6.000 8.000 6.000 6.000 5.000 3.000 1.000 1.000 2.000 3.000 3.000 4.454 5.240 4.660 4.660 4.080 3.551 3.072 3.072 2.594 2.170 2.170 1.801 1.432 2.000 2.000 4.000 5.000 5.000 5.000 4.000 2.000 2.000 2.000 5.000 9.000 9.000 10.000 11.000 11.000 10.000 12.000 13.000 13.000 11.000 10.000 10.000 10.000 9.000 9.000 9.000 9.000 9.000 9.000 9.000 9.000 9.000 9.000 9.000 9.000 9.000 9.000 -9999.000 
-9999.000 8.000 8.000 8.000 8.000 6.000 6.000 5.000 3.000 3.000 0.000 -2.000 -2.000 -2.000 -1.000 -2.000 0.000 0.000 1.000 1.000 1.000 0.000 1.000 5.000 5.000 9.000 10.000 7.000 7.000 4.000 2.000 2.000 2.000 2.000 3.000 3.000 3.000 4.000 5.000 5.000 5.000 4.000 4.000 6.000 8.000 9.000 9.000 11.000 9.000 9.000 8.000 7.000 8.000 8.000 9.000 10.000 9.000 9.000 10.000 10.000 10.000 8.000 7.000 6.000 6.000 6.000 6.000 6.000 6.000 6.000 8.000 8.000 9.000 9.000 8.000 8.000 8.000 7.000 7.000 7.000 7.000 8.000 8.000 8.000 10.000 10.000 10.000 10.000 8.000 7.000 7.000 6.000 5.000 5.000 7.000 9.000 10.000 10.000 8.000 7.000 7.000 7.000 5.645 3.000 3.000 5.000 7.000 6.000 6.000 5.000 3.000 1.000 1.000 3.000 3.000 3.000 5.311 5.887 5.056 5.056 4.225 3.515 2.926 2.926 2.338 1.804 1.804 1.325 0.846 2.000 2.000 3.000 4.000 4.000 5.000 4.000 2.000 2.000 1.000 4.000 8.000 8.000 10.000 11.000 11.000 11.000 12.000 13.000 13.000 11.000 10.000 10.000 10.000 9.000 9.000 9.000 8.000 9.000 9.000 9.000 9.000 9.000 9.000 9.000 9.000 9.000 9.000 -9999.000 
-9999.000 7.000 7.000 7.000 7.000 6.000 6.000 4.000 3.000 3.000 1.000 1.000 1.000 1.000 0.000 -1.000 -1.000 -1.000 0.000 0.000 0.000 0.000 1.000 4.000 4.000 8.000 9.000 8.000 8.000 5.000 3.000 3.000 3.000 3.000 6.000 6.000 6.000 3.000 3.000 3.000 2.000 3.000 3.000 5.000 8.000 9.000 9.000 11.000 10.000 10.000 8.000 8.000 8.000 8.000 9.000 9.000 9.000 9.000 10.000 10.000 10.000 9.000 7.000 6.000 6.000 6.000 6.000 6.000 6.000 6.000 8.000 8.000 9.000 9.000 8.000 8.000 7.000 6.000 7.000 7.000 8.000 9.000 9.000 10.000 11.000 11.000 11.000 10.000 8.000 5.000 5.000 4.000 4.000 4.000 6.000 8.000 9.000 9.000 7.000 6.000 6.000 6.000 4.587 3.551 3.551 3.296 5.000 5.000 5.000 4.000 3.000 2.000 2.000 3.000 4.000 4.000 6.169 6.534 5.452 5.452 4.369 3.479 2.780 2.780 2.082 1.438 1.438 0.849 0.260 0.755 0.755 2.000 3.000 3.000 4.000 4.000 2.000 2.000 1.000 3.000 7.000 7.000 9.000 10.000 10.000 11.000 12.000 12.000 12.000 10.000 10.000 10.000 10.000 10.000 8.000 8.000 8.000 9.000 9.000 9.000 9.000 8.000 8.000 8.000 8.000 8.000 8.000 -9999.000 
-9999.000 6.000 6.000 6.000 7.000 6.000 6.000 4.000 2.000 2.000 2.000 4.000 3.000 3.000 0.000 0.000 0.000 0.000 0.000 0.000 0.000 0.000 1.000 4.000 4.000 7.000 8.000 8.000 8.000 6.000 4.000 4.000 4.000 5.000 9.000 9.000 8.000 2.000 1.000 1.000 1.000 3.000 3.000 5.000 7.000 9.000 9.000 10.000 10.000 10.000 9.000 8.000 8.000 8.000 8.000 9.000 9.000 9.000 9.000 10.000 10.000 9.000 7.000 6.000 6.000 7.000 7.000 7.000 7.000 7.000 9.000 9.000 9.000 9.000 8.000 8.000 7.000 7.000 7.000 7.000 8.000 9.000 9.000 10.000 11.000 11.000 11.000 10.000 8.000 5.000 5.000 4.000 4.000 4.000 6.000 7.000 7.000 7.000 5.000 5.000 5.000 5.000 3.605 2.834 2.834 2.752 3.000 4.000 4.000 4.000 3.000 3.000 3.000 4.000 5.000 5.000 6.450 6.550 5.421 5.421 4.292 3.338 2.560 2.560 1.782 0.997 0.997 0.205 -0.587 -0.019 -0.019 2.000 3.000 3.000 4.000 5.000 3.000 3.000 2.000 3.000 6.000 6.000 9.000 11.000 11.000 11.000 12.000 11.000 11.000 10.000 10.000 10.000 10.000 10.000 8.000 8.000 8.000 8.000 8.000 8.000 8.000 8.000 8.000 8.000 8.000 8.000 8.000 -9999.000 
-9999.000 5.000 5.000 6.000 8.000 7.000 7.000 4.000 2.000 2.000 3.000 4.000 3.000 3.000 0.000 1.000 1.000 1.000 1.000 2.000 2.000 1.000 2.000 4.000 4.000 7.000 8.000 8.000 8.000 6.000 6.000 6.000 7.000 9.000 13.000 13.000 12.000 3.000 2.000 2.000 3.000 5.000 5.000 6.000 6.000 7.000 7.000 8.000 9.000 9.000 9.000 7.000 7.000 7.000 7.000 8.000 8.000 8.000 9.000 9.000 9.000 9.000 7.000 6.000 6.000 7.000 7.000 9.000 9.000 10.000 10.000 10.000 10.000 9.000 7.000 7.000 7.000 8.000 8.000 8.000 8.000 9.000 9.000 9.000 10.000 10.000 10.000 10.000 8.000 6.000 6.000 5.000 6.000 6.000 6.000 6.000 5.000 5.000 4.000 4.000 4.000 4.000 2.699 2.640 2.640 2.927 1.000 4.000 4.000 4.000 4.000 4.000 4.000 5.000 6.000 6.000 6.155 5.936 4.965 4.965 3.993 3.093 2.265 2.265 1.438 0.480 0.480 -0.608 -1.695 -0.954 -0.954 2.000 3.000 3.000 4.000 5.000 4.000 4.000 3.000 2.000 6.000 6.000 9.000 12.000 12.000 11.000 11.000 11.000 11.000 10.000 10.000 10.000 10.000 11.000 8.000 8.000 7.000 8.000 7.000 7.000 7.000 7.000 8.000 8.000 8.000 8.000 8.000 -9999.000 
-9999.000 4.000 4.000 6.000 8.000 8.000 8.000 5.000 3.000 3.000 3.000 4.000 3.000 3.000 1.000 1.000 2.000 2.000 3.000 3.000 3.000 2.000 2.000 4.000 4.000 6.000 8.000 8.000 8.000 7.000 7.000 7.000 7.000 9.000 12.000 12.000 10.000 3.000 1.000 1.000 2.000 5.000 5.000 5.000 6.000 6.000 6.000 6.000 9.000 9.000 9.000 7.000 6.000 6.000 6.000 7.000 8.000 8.000 8.000 9.000 9.000 9.000 7.000 6.000 6.000 7.000 7.000 8.000 8.000 10.000 11.000 11.000 10.000 9.000 8.000 8.000 8.000 9.000 9.000 9.000 8.000 8.000 8.000 9.000 10.000 10.000 10.000 10.000 8.000 7.000 7.000 6.000 6.000 6.000 5.000 5.000 4.000 4.000 3.000 2.000 2.000 2.000 1.793 2.445 2.445 3.102 3.000 4.000 4.000 5.000 5.000 6.000 6.000 6.000 6.000 6.000 5.860 5.322 4.508 4.508 3.694 2.848 1.971 1.971 1.093 -0.037 -0.037 -1.420 -2.803 -1.889 -1.889 2.000 3.000 3.000 4.000 5.000 3.000 3.000 1.000 1.000 5.000 5.000 9.000 12.000 12.000 11.000 10.000 10.000 10.000 10.000 10.000 10.000 10.000 11.000 8.000 8.000 7.000 7.000 6.000 6.000 6.000 7.000 8.000 8.000 8.000 8.000 8.000 -9999.000 
-9999.000 5.000 5.000 6.000 7.000 7.000 7.000 6.000 4.000 4.000 2.000 2.000 2.000 2.000 2.000 3.000 5.000 5.000 6.000 2.000 2.000 2.000 3.000 3.000 3.000 5.000 6.000 7.000 7.000 8.000 7.000 7.000 5.000 4.000 4.000 4.000 3.000 0.000 0.000 0.000 1.000 3.000 3.000 4.000 5.000 5.000 5.000 5.000 8.000 8.000 8.000 7.000 5.000 5.000 6.000 8.000 8.000 8.000 8.000 8.000 8.000 9.000 8.000 7.000 7.000 6.000 6.000 7.000 7.000 8.000 10.000 10.000 10.000 10.000 9.000 9.000 9.000 10.000 10.000 10.000 8.000 8.000 8.000 9.000 10.000 10.000 10.000 10.000 9.000 7.000 7.000 6.000 6.000 6.000 4.000 4.000 4.000 4.000 2.000 0.000 0.000 0.000 1.568 2.000 2.000 4.000 6.000 5.000 5.000 6.000 7.000 8.000 8.000 7.211 6.453 6.453 5.694 4.947 4.212 4.212 3.477 2.667 1.781 1.781 0.895 -0.268 -0.268 -1.709 -3.149 -2.224 -2.224 1.000 3.000 3.000 6.000 5.000 2.000 2.000 0.000 -1.000 3.000 3.000 8.000 12.000 12.000 10.000 9.000 9.000 9.000 10.000 10.000 10.000 10.000 10.000 8.000 8.000 7.000 7.000 6.000 6.000 6.000 7.000 8.000 8.000 8.000 8.000 8.000 -9999.000 
-9999.000 6.000 6.000 6.000 6.000 6.000 6.000 6.000 5.000 5.000 2.000 1.000 2.000 2.000 4.000 6.000 7.000 7.000 7.000 2.000 2.000 2.000 3.000 1.000 1.000 4.000 5.000 6.000 6.000 9.000 7.000 7.000 4.000 2.000 1.000 1.000 1.000 0.000 -2.000 -2.000 0.000 2.000 2.000 3.000 4.000 5.000 5.000 5.000 7.000 7.000 8.000 7.000 5.000 5.000 6.000 8.000 8.000 8.000 8.000 8.000 8.000 9.000 7.000 6.000 6.000 6.000 5.000 6.000 6.000 7.000 9.000 9.000 10.000 10.000 10.000 10.000 10.000 10.000 9.000 9.000 8.000 8.000 8.000 9.000 10.000 10.000 10.000 10.000 10.000 8.000 8.000 6.000 6.000 6.000 4.000 4.000 4.000 4.000 2.000 1.000 0.000 0.000 2.023 2.000 2.000 4.000 7.000 6.000 6.000 7.000 8.000 9.000 9.000 7.570 6.614 6.614 5.657 4.812 4.078 4.078 3.344 2.550 1.696 1.696 0.842 -0.215 -0.215 -1.474 -2.733 -1.958 -1.958 1.000 3.000 3.000 5.000 5.000 3.000 3.000 2.000 0.000 3.000 3.000 6.000 10.000 10.000 10.000 10.000 10.000 10.000 10.000 10.000 10.000 10.000 10.000 9.000 9.000 9.000 8.000 7.000 7.000 6.000 7.000 7.000 7.000 8.000 8.000 8.000 -9999.000 
-9999.000 7.000 7.000 6.000 5.000 5.000 5.000 5.000 4.000 4.000 2.000 2.000 3.000 3.000 5.000 9.000 8.000 8.000 5.000 1.000 1.000 2.000 1.000 -2.000 -2.000 2.000 5.000 6.000 6.000 8.000 8.000 8.000 6.000 4.000 4.000 4.000 3.000 3.000 -3.000 -3.000 -2.000 2.000 2.000 2.000 4.000 6.000 6.000 6.000 7.000 7.000 7.000 7.000 5.000 5.000 6.000 8.000 8.000 8.000 8.000 8.000 8.000 8.000 6.000 6.000 6.000 6.000 6.000 6.000 6.000 7.000 8.000 8.000 8.000 9.000 11.000 11.000 11.000 10.000 8.000 8.000 7.000 8.000 8.000 8.000 10.000 10.000 10.000 10.000 12.000 9.000 9.000 7.000 6.000 6.000 4.000 4.000 4.000 4.000 2.000 2.000 2.000 2.000 2.478 2.000 2.000 4.000 7.000 7.000 7.000 7.000 8.000 8.000 8.000 7.929 6.774 6.774 5.620 4.676 3.944 3.944 3.211 2.433 1.611 1.611 0.789 -0.161 -0.161 -1.238 -2.316 -1.691 -1.691 0.635 2.961 2.961 3.000 5.000 5.000 5.000 4.000 1.000 2.000 2.000 5.000 8.000 8.000 10.000 10.000 11.000 11.000 9.000 9.000 9.000 9.000 10.000 11.000 11.000 11.000 10.000 8.000 8.000 7.000 6.000 7.000 7.000 8.000 8.000 8.000 -9999.000 
-9999.000 7.000 7.000 6.000 5.000 5.000 5.000 5.000 4.000 4.000 1.000 2.000 5.000 5.000 8.000 8.000 6.000 6.000 3.000 1.000 1.000 1.000 0.000 -3.000 -3.000 2.000 4.000 5.000 5.000 8.000 8.000 8.000 8.000 6.000 5.000 5.000 4.000 4.000 -1.000 -1.000 -1.000 2.000 2.000 2.000 4.000 6.000 6.000 6.000 7.000 7.000 8.000 7.000 5.000 5.000 6.000 8.000 8.000 8.000 8.000 8.000 8.000 8.000 6.000 5.000 5.000 6.000 6.000 6.000 6.000 7.000 8.000 8.000 8.000 9.000 11.000 11.000 10.000 10.000 9.000 9.000 8.000 8.000 8.000 9.000 10.000 10.000 10.000 10.000 11.000 10.000 10.000 8.000 7.000 7.000 4.000 4.000 4.000 4.000 3.000 3.000 3.000 3.000 2.841 3.000 3.000 4.000 7.000 6.000 6.000 7.000 8.000 7.000 7.000 7.372 6.331 6.331 5.290 4.429 3.750 3.750 3.071 2.341 1.560 1.560 0.779 -0.080 -0.080 -1.015 -1.950 -1.556 -1.556 0.167 1.891 1.891 2.000 3.000 4.000 4.000 3.000 -1.000 1.000 1.000 4.000 8.000 8.000 10.000 11.000 11.000 11.000 10.000 9.000 9.000 9.000 10.000 10.000 10.000 10.000 9.000 9.000 9.000 8.000 7.000 7.000 7.000 8.000 8.000 8.000 -9999.000 
-9999.000 6.000 6.000 6.000 5.000 5.000 5.000 5.000 3.000 3.000 -1.000 2.000 6.000 6.000 10.000 2.000 2.000 2.000 3.000 1.000 1.000 0.000 0.000 -2.000 -2.000 2.000 4.000 5.000 5.000 8.000 9.000 9.000 8.000 6.000 4.000 4.000 3.000 4.000 2.000 2.000 2.000 3.000 3.000 3.000 4.000 6.000 6.000 7.000 9.000 9.000 9.000 8.000 5.000 5.000 5.000 7.000 8.000 8.000 8.000 7.000 7.000 7.000 5.000 5.000 5.000 5.000 5.000 6.000 6.000 8.000 7.000 7.000 8.000 9.000 10.000 10.000 10.000 10.000 10.000 10.000 9.000 9.000 9.000 9.000 10.000 9.000 9.000 9.000 10.000 10.000 10.000 9.000 8.000 8.000 6.000 5.000 5.000 5.000 3.000 2.000 2.000 2.000 3.112 4.000 4.000 5.000 6.000 5.000 5.000 7.000 8.000 6.000 6.000 5.901 5.284 5.284 4.667 4.071 3.498 3.498 2.925 2.273 1.542 1.542 0.811 0.030 0.030 -0.803 -1.636 -1.552 -1.552 -0.552 0.448 0.448 0.000 2.000 3.000 3.000 2.000 -3.000 0.000 0.000 4.000 7.000 7.000 10.000 11.000 12.000 12.000 11.000 10.000 9.000 9.000 9.000 9.000 9.000 9.000 9.000 10.000 10.000 9.000 8.000 8.000 8.000 8.000 8.000 8.000 -9999.000 
-9999.000 6.000 6.000 6.000 5.000 5.000 5.000 4.000 3.000 3.000 -1.000 2.000 6.000 6.000 10.000 0.000 0.000 0.000 2.000 0.000 0.000 0.000 0.000 0.000 0.000 2.000 3.000 5.000 5.000 8.000 9.000 9.000 8.000 7.000 4.000 4.000 3.000 4.000 3.000 3.000 3.000 3.000 3.000 3.000 4.000 6.000 6.000 8.000 9.000 9.000 9.000 9.000 7.000 7.000 6.000 6.000 7.000 7.000 7.000 7.000 7.000 8.000 6.000 5.000 5.000 5.000 5.000 6.000 6.000 8.000 7.000 7.000 8.000 9.000 9.000 9.000 9.000 9.000 10.000 10.000 9.000 8.000 8.000 8.000 9.000 8.000 8.000 8.000 10.000 10.000 10.000 9.000 8.000 8.000 6.000 5.000 4.000 4.000 3.000 3.000 2.000 2.000 3.382 4.000 4.000 5.000 6.000 5.000 5.000 6.000 6.000 5.000 5.000 4.429 4.236 4.236 4.043 3.713 3.246 3.246 2.778 2.205 1.524 1.524 0.844 0.139 0.139 -0.591 -1.322 -1.548 -1.548 -1.272 -0.995 -0.995 0.000 1.000 2.000 2.000 2.000 -1.000 1.000 1.000 3.000 6.000 6.000 10.000 11.000 11.000 11.000 10.000 9.000 9.000 9.000 10.000 10.000 10.000 10.000 10.000 11.000 11.000 10.000 9.000 9.000 9.000 9.000 9.000 9.000 -9999.000 
-9999.000 6.000 6.000 6.000 5.000 4.000 4.000 5.000 4.000 4.000 2.000 3.000 4.000 4.000 5.000 2.000 2.000 2.000 2.000 0.000 0.000 0.000 0.000 1.000 1.000 0.000 1.000 5.000 5.000 7.000 8.000 8.000 9.000 7.000 5.000 5.000 4.000 4.000 2.000 2.000 2.000 2.000 2.000 3.000 4.000 5.000 5.000 7.000 8.000 8.000 8.000 8.000 9.000 9.000 8.000 7.000 7.000 7.000 8.000 8.000 8.000 9.000 8.000 7.000 7.000 6.000 5.000 6.000 6.000 7.000 8.000 8.000 8.000 9.000 8.000 8.000 8.000 9.000 10.000 10.000 8.000 7.000 7.000 7.000 7.000 7.000 7.000 8.000 10.000 10.000 10.000 9.000 8.000 8.000 6.000 4.000 3.000 3.000 4.000 3.000 3.000 3.000 3.656 4.000 4.000 4.000 5.000 5.000 5.000 5.000 5.000 3.000 3.000 3.655 3.653 3.653 3.651 3.461 3.082 3.082 2.704 2.190 1.541 1.541 0.893 0.497 0.497 0.353 0.209 -0.168 -0.168 -0.779 -1.390 -1.390 -1.075 1.000 2.000 2.000 2.000 1.000 2.000 2.000 3.000 4.000 4.000 9.000 11.000 11.000 11.000 9.000 8.000 9.000 9.000 11.000 11.000 11.000 11.000 10.000 12.000 12.000 11.000 9.000 11.000 11.000 10.000 9.000 9.000 -9999.000 
-9999.000 6.000 6.000 6.000 6.000 4.000 4.000 4.000 4.000 4.000 4.000 3.000 2.000 2.000 2.000 3.000 2.000 2.000 1.000 -1.000 -1.000 -1.000 1.000 4.000 4.000 0.000 1.000 5.000 5.000 6.000 7.000 7.000 8.000 7.000 5.000 5.000 4.000 4.000 2.000 2.000 0.000 0.000 0.000 3.000 4.000 5.000 5.000 7.000 8.000 8.000 8.000 9.000 9.000 9.000 8.000 7.000 8.000 8.000 8.000 9.000 9.000 9.000 8.000 7.000 7.000 6.000 5.000 6.000 6.000 6.000 7.000 7.000 8.000 8.000 8.000 8.000 8.000 9.000 10.000 10.000 9.000 7.000 7.000 7.000 8.000 8.000 8.000 8.000 10.000 10.000 10.000 9.000 7.000 7.000 6.000 4.000 3.000 3.000 4.000 4.000 4.000 4.000 3.932 4.000 4.000 4.000 4.000 4.000 4.000 4.000 4.000 3.000 3.000 3.579 3.534 3.534 3.490 3.314 3.008 3.008 2.701 2.230 1.593 1.593 0.957 1.103 1.103 2.030 2.957 2.589 2.589 0.926 -0.738 -0.738 -0.858 0.000 2.000 2.000 3.000 3.000 3.000 3.000 3.000 4.000 4.000 8.000 10.000 11.000 11.000 9.000 8.000 9.000 9.000 10.000 11.000 11.000 11.000 10.000 11.000 11.000 11.000 10.000 11.000 11.000 10.000 9.000 9.000 -9999.000 
-9999.000 6.000 6.000 6.000 6.000 4.000 4.000 4.000 3.000 3.000 3.000 2.000 1.000 1.000 0.000 2.000 2.000 2.000 1.000 -1.000 -1.000 -2.000 1.000 7.000 7.000 2.000 2.000 5.000 5.000 5.000 6.000 6.000 7.000 6.000 5.000 5.000 4.000 4.000 1.000 1.000 0.000 -1.000 -1.000 1.000 4.000 6.000 6.000 7.000 8.000 8.000 9.000 10.000 8.000 8.000 7.000 7.000 9.000 9.000 9.000 9.000 9.000 10.000 8.000 6.000 6.000 5.000 5.000 5.000 5.000 5.000 6.000 6.000 7.000 8.000 7.000 7.000 7.000 8.000 11.000 11.000 10.000 9.000 9.000 8.000 9.000 9.000 9.000 9.000 10.000 9.000 9.000 8.000 6.000 6.000 7.000 5.000 3.000 3.000 5.000 5.000 5.000 5.000 4.208 3.000 3.000 3.000 2.000 3.000 3.000 3.000 3.000 3.404 3.404 3.503 3.416 3.416 3.329 3.168 2.933 2.933 2.699 2.269 1.645 1.645 1.021 1.709 1.709 3.706 5.704 5.346 5.346 1.000 0.000 0.000 -1.000 -2.000 1.000 1.000 4.000 6.000 5.000 5.000 4.000 3.000 3.000 8.000 10.000 11.000 11.000 8.000 9.000 9.000 9.000 9.000 10.000 10.000 11.000 10.000 11.000 11.000 11.000 10.000 11.000 11.000 10.000 9.000 9.000 -9999.000 
-9999.000 6.000 6.000 6.000 6.000 4.000 4.000 3.000 2.000 2.000 2.000 2.000 0.000 0.000 -1.000 1.000 1.000 1.000 2.000 1.000 1.000 0.000 3.000 9.000 9.000 4.000 3.000 5.000 5.000 5.000 6.000 6.000 6.000 6.000 5.000 5.000 4.000 3.000 1.000 1.000 0.000 -1.000 -1.000 0.000 3.000 5.000 5.000 7.000 7.000 7.000 8.000 10.000 8.000 8.000 7.000 7.000 9.000 9.000 9.000 9.000 9.000 10.000 7.000 6.000 6.000 5.000 6.000 6.000 6.000 6.000 6.000 6.000 7.000 8.000 8.000 8.000 8.000 9.000 10.000 10.000 10.000 10.000 10.000 9.000 10.000 10.000 10.000 9.000 10.000 9.000 9.000 7.000 5.000 5.000 6.000 4.000 3.000 3.000 5.000 5.000 5.000 5.000 4.207 3.000 3.000 3.000 2.000 1.000 1.000 2.000 3.000 3.030 3.030 3.337 3.253 3.253 3.169 3.060 2.926 2.926 2.792 2.447 1.891 1.891 1.335 1.951 1.951 3.739 5.527 5.218 5.218 2.000 2.000 2.000 0.000 0.000 2.000 2.000 4.000 5.000 4.000 4.000 2.000 2.000 2.000 7.000 10.000 11.000 11.000 10.000 10.000 10.000 10.000 8.000 10.000 10.000 11.000 11.000 11.000 11.000 10.000 9.000 9.000 9.000 8.000 6.000 6.000 -9999.000 
-9999.000 5.000 5.000 5.000 5.000 4.000 4.000 3.000 1.000 1.000 1.000 1.000 0.000 0.000 0.000 0.000 1.000 1.000 4.000 5.000 5.000 4.000 5.000 10.000 10.000 5.000 2.000 4.000 4.000 5.000 6.000 6.000 7.000 6.000 6.000 6.000 5.000 2.000 2.000 2.000 1.000 0.000 0.000 0.000 2.000 4.000 4.000 6.000 7.000 7.000 8.000 9.000 8.000 8.000 7.000 7.000 8.000 8.000 9.000 9.000 9.000 10.000 7.000 6.000 6.000 5.000 6.000 7.000 7.000 7.000 6.000 6.000 7.000 8.000 9.000 9.000 9.000 9.000 9.000 9.000 10.000 11.000 11.000 11.000 11.000 10.000 10.000 9.000 10.000 9.000 9.000 6.000 3.000 3.000 5.000 4.000 3.000 3.000 5.000 6.000 6.000 6.000 3.931 2.775 2.775 1.782 0.952 -1.000 -1.000 0.273 1.404 2.536 2.536 3.083 3.047 3.047 3.010 2.990 2.986 2.986 2.981 2.763 2.330 2.330 1.897 1.829 1.829 2.000 2.000 3.000 3.000 4.000 3.000 3.000 2.000 2.000 2.000 2.000 3.000 4.000 3.000 3.000 1.000 0.000 0.000 6.000 10.000 12.000 12.000 11.000 12.000 11.000 11.000 7.000 10.000 10.000 11.000 11.000 11.000 11.000 10.000 9.000 8.000 8.000 6.000 4.000 4.000 -9999.000 
-9999.000 5.000 5.000 5.000 5.000 5.000 5.000 3.000 1.000 1.000 1.000 0.000 0.000 0.000 0.000 -1.000 1.000 1.000 4.000 7.000 7.000 6.000 5.000 8.000 8.000 4.000 2.000 3.000 3.000 5.000 6.000 6.000 7.000 6.000 7.000 7.000 7.000 3.000 3.000 3.000 2.000 1.000 1.000 1.000 2.000 4.000 4.000 7.000 7.000 7.000 8.000 8.000 8.000 8.000 7.000 7.000 7.000 7.000 9.000 9.000 9.000 10.000 7.000 6.000 6.000 5.000 6.000 7.000 7.000 7.000 6.000 6.000 7.000 8.000 9.000 9.000 9.000 9.000 9.000 9.000 10.000 11.000 11.000 11.000 11.000 10.000 10.000 10.000 10.000 9.000 9.000 6.000 3.000 3.000 4.000 4.000 3.000 3.000 4.000 5.000 5.000 5.000 3.655 2.470 2.470 1.253 0.004 -1.000 -1.000 -1.087 0.477 2.041 2.041 2.829 2.840 2.840 2.852 2.920 3.045 3.045 3.171 3.079 2.769 2.769 2.458 1.708 1.708 0.000 0.000 0.000 0.000 1.000 2.000 2.000 2.000 2.000 2.000 2.000 3.000 4.000 2.000 2.000 1.000 0.000 0.000 6.000 10.000 12.000 12.000 11.000 11.000 11.000 11.000 8.000 10.000 10.000 11.000 11.000 11.000 11.000 10.000 10.000 8.000 8.000 6.000 5.000 5.000 -9999.000 
-9999.000 6.000 6.000 6.000 6.000 6.000 6.000 4.000 2.000 2.000 2.000 1.000 0.000 0.000 1.000 0.000 1.000 1.000 4.000 7.000 7.000 5.000 3.000 4.000 4.000 3.000 2.000 2.000 2.000 5.000 6.000 6.000 7.000 6.000 9.000 9.000 9.000 4.000 6.000 6.000 5.000 2.000 2.000 2.000 4.000 5.000 5.000 8.000 8.000 8.000 8.000 7.000 8.000 8.000 7.000 6.000 7.000 7.000 9.000 10.000 10.000 9.000 7.000 6.000 6.000 5.000 6.000 6.000 6.000 5.000 6.000 6.000 7.000 9.000 10.000 10.000 10.000 10.000 10.000 10.000 10.000 11.000 11.000 11.000 11.000 11.000 11.000 11.000 10.000 9.000 9.000 7.000 3.000 3.000 3.000 3.000 4.000 4.000 4.000 4.000 4.000 4.000 3.439 2.299 2.299 1.190 0.114 -0.963 -0.963 -0.883 0.353 1.590 1.590 2.287 2.445 2.445 2.603 2.813 3.074 3.074 3.336 3.279 2.902 2.902 2.526 2.000 2.000 -1.000 -3.000 -3.000 -3.000 -1.000 0.000 0.000 1.000 2.000 2.000 2.000 3.000 5.000 2.000 2.000 0.000 0.000 0.000 5.000 9.000 12.000 12.000 11.000 11.000 11.000 11.000 9.000 10.000 10.000 10.000 11.000 10.000 10.000 10.000 10.000 8.000 8.000 7.000 6.000 6.000 -9999.000 
-9999.000 6.000 6.000 6.000 7.000 7.000 7.000 4.000 2.000 2.000 2.000 1.000 1.000 1.000 1.000 1.000 2.000 2.000 4.000 7.000 7.000 6.000 4.000 3.000 3.000 3.000 2.000 2.000 2.000 4.000 6.000 6.000 7.000 7.000 10.000 10.000 9.000 4.000 6.000 6.000 5.000 3.000 3.000 4.000 4.000 6.000 6.000 9.000 9.000 9.000 9.000 8.000 9.000 9.000 8.000 6.000 7.000 7.000 8.000 9.000 9.000 8.000 7.000 6.000 6.000 6.000 6.000 6.000 6.000 6.000 7.000 7.000 8.000 9.000 10.000 10.000 10.000 11.000 10.000 10.000 10.000 11.000 11.000 11.000 11.000 11.000 11.000 10.000 9.000 9.000 9.000 7.000 5.000 5.000 3.000 3.000 4.000 4.000 5.000 4.000 4.000 4.000 3.283 2.261 2.261 1.594 1.280 0.967 0.967 0.884 1.032 1.180 1.180 1.456 1.860 1.860 2.263 2.668 3.072 3.072 3.477 3.363 2.731 2.731 2.099 2.000 2.000 0.000 -1.000 -2.000 -2.000 -1.000 1.000 1.000 2.000 2.000 2.000 2.000 4.000 6.000 3.000 3.000 2.000 2.000 2.000 5.000 8.000 10.000 10.000 10.000 11.000 11.000 11.000 10.000 10.000 10.000 11.000 11.000 11.000 11.000 11.000 10.000 8.000 8.000 8.000 8.000 8.000 -9999.000 
-9999.000 5.000 5.000 5.000 6.000 6.000 6.000 4.000 3.000 3.000 3.000 2.000 2.000 2.000 3.000 3.000 4.000 4.000 5.000 8.000 8.000 9.000 8.000 4.000 4.000 4.000 3.000 1.000 1.000 4.000 6.000 6.000 7.000 8.000 10.000 10.000 9.000 3.000 5.000 5.000 4.000 3.000 3.000 4.000 5.000 6.000 6.000 9.000 10.000 10.000 10.000 9.000 9.000 9.000 9.000 8.000 8.000 8.000 8.000 8.000 8.000 7.000 6.000 7.000 7.000 8.000 7.000 6.000 6.000 6.000 7.000 7.000 8.000 9.000 10.000 10.000 11.000 11.000 11.000 11.000 11.000 11.000 11.000 11.000 10.000 11.000 11.000 10.000 7.000 8.000 8.000 8.000 6.000 6.000 3.000 3.000 4.000 4.000 6.000 5.000 4.000 4.000 3.000 2.224 2.224 1.997 2.447 2.897 2.897 2.652 1.711 0.771 0.771 0.625 1.275 1.275 1.924 2.523 3.070 3.070 3.618 4.000 2.000 2.000 1.000 2.000 2.000 1.000 0.000 -1.000 -1.000 0.000 1.000 1.000 3.000 1.000 3.000 3.000 5.000 8.000 5.000 5.000 3.000 3.000 3.000 4.000 7.000 9.000 9.000 10.000 11.000 11.000 11.000 10.000 11.000 11.000 11.000 11.000 11.000 11.000 11.000 10.000 8.000 8.000 9.000 9.000 9.000 -9999.000 
-9999.000 3.000 3.000 4.000 5.000 5.000 5.000 4.000 3.000 3.000 2.000 2.000 2.000 2.000 3.000 4.000 4.000 4.000 5.000 6.000 6.000 8.000 9.000 5.000 5.000 4.000 2.000 0.000 0.000 4.000 5.000 5.000 6.000 8.000 8.000 8.000 7.000 3.000 4.000 4.000 4.000 4.000 4.000 4.000 5.000 6.000 6.000 9.000 11.000 11.000 11.000 9.000 9.000 9.000 9.000 8.000 7.000 7.000 7.000 8.000 8.000 8.000 7.000 7.000 7.000 8.000 7.000 7.000 7.000 7.000 8.000 8.000 8.000 9.000 10.000 10.000 11.000 11.000 9.000 9.000 10.000 10.000 10.000 10.000 10.000 10.000 10.000 10.000 9.000 9.000 9.000 8.000 5.000 5.000 2.000 3.000 4.000 4.000 6.000 5.000 4.000 4.000 3.000 2.876 2.876 2.929 4.037 5.145 5.145 4.858 3.176 1.495 1.495 0.929 1.478 1.478 2.028 2.493 2.874 2.874 3.255 3.000 2.000 2.000 1.000 1.000 1.000 1.000 0.000 0.000 0.000 0.000 1.000 1.000 2.000 1.000 2.000 2.000 5.000 7.000 6.000 6.000 4.000 3.000 3.000 4.000 7.000 10.000 10.000 11.000 11.000 11.000 11.000 10.000 10.000 10.000 10.000 10.000 10.000 10.000 10.000 10.000 9.000 9.000 9.000 9.000 9.000 -9999.000 
-9999.000 2.000 2.000 3.000 4.000 4.000 4.000 3.000 2.000 2.000 2.000 2.000 3.000 3.000 2.000 4.000 4.000 4.000 4.000 3.000 3.000 5.000 6.000 4.000 4.000 2.000 0.000 -1.000 -1.000 3.000 5.000 5.000 6.000 8.000 6.000 6.000 4.000 4.000 5.000 5.000 5.000 5.000 5.000 4.000 5.000 6.000 6.000 9.000 11.000 11.000 11.000 10.000 10.000 10.000 9.000 7.000 5.000 5.000 7.000 9.000 9.000 9.000 9.000 8.000 8.000 8.000 7.000 8.000 8.000 8.000 7.000 7.000 8.000 9.000 11.000 11.000 11.000 10.000 7.000 7.000 8.000 8.000 8.000 8.000 9.000 10.000 10.000 10.000 11.000 11.000 11.000 8.000 3.000 3.000 2.000 2.000 4.000 4.000 6.000 6.000 5.000 5.000 4.000 3.000 3.000 6.000 10.000 7.000 7.000 6.000 5.428 3.352 3.352 2.367 2.471 2.471 2.575 2.579 2.484 2.484 2.000 3.000 1.000 1.000 0.000 0.000 0.000 0.000 0.000 1.000 1.000 1.000 1.000 1.000 1.000 0.000 2.000 2.000 5.000 7.000 6.000 6.000 5.000 2.000 2.000 4.000 7.000 10.000 10.000 12.000 11.000 11.000 11.000 10.000 9.000 9.000 9.000 9.000 9.000 9.000 9.000 10.000 10.000 10.000 9.000 9.000 9.000 -9999.000 
-9999.000 2.000 2.000 3.000 4.000 3.000 3.000 3.000 2.000 2.000 2.000 2.000 2.000 2.000 2.000 3.000 4.000 4.000 4.000 2.000 2.000 3.000 4.000 3.000 3.000 1.000 0.000 1.000 1.000 3.000 5.000 5.000 6.000 7.000 4.000 4.000 2.000 3.000 4.000 4.000 5.000 5.000 5.000 5.000 6.000 7.000 7.000 10.000 11.000 11.000 11.000 10.000 10.000 10.000 9.000 7.000 6.000 6.000 7.000 8.000 8.000 9.000 9.000 9.000 9.000 8.000 7.000 6.000 6.000 6.000 7.000 7.000 7.000 9.000 10.000 10.000 11.000 9.000 7.000 7.000 8.000 8.000 8.000 9.000 9.000 10.000 10.000 11.000 11.000 12.000 12.000 9.000 3.000 3.000 1.000 1.000 4.000 4.000 6.000 8.000 8.000 8.000 6.000 5.000 5.000 6.000 10.000 9.000 9.000 9.000 7.679 5.210 5.210 3.805 3.464 3.464 3.122 2.666 2.093 2.093 2.000 2.000 1.000 1.000 1.000 1.000 1.000 1.000 0.000 1.000 1.000 1.000 1.000 1.000 1.000 1.000 2.000 2.000 4.000 5.000 5.000 5.000 3.000 0.000 0.000 2.000 5.000 9.000 9.000 10.000 10.000 10.000 10.000 10.000 9.000 9.000 9.000 10.000 10.000 10.000 9.000 8.000 9.000 9.000 10.000 10.000 10.000 -9999.000 
-9999.000 5.000 5.000 5.000 5.000 4.000 4.000 3.000 3.000 3.000 3.000 3.000 2.000 2.000 1.000 3.000 4.000 4.000 4.000 2.000 2.000 2.000 3.000 2.000 2.000 1.000 2.000 4.000 4.000 3.000 4.000 4.000 7.000 6.000 3.000 3.000 2.000 2.000 4.000 4.000 4.000 4.000 4.000 5.000 7.000 9.000 9.000 10.000 10.000 10.000 10.000 10.000 10.000 10.000 9.000 9.000 8.000 8.000 7.000 8.000 8.000 10.000 9.000 9.000 9.000 9.000 6.000 4.000 4.000 3.000 6.000 6.000 7.000 8.000 10.000 10.000 10.000 9.000 7.000 7.000 8.000 9.000 9.000 9.000 9.000 11.000 11.000 12.000 12.000 13.000 13.000 10.000 4.000 4.000 0.000 1.000 4.000 4.000 7.000 10.000 10.000 10.000 9.000 6.000 6.000 7.000 10.000 11.000 11.000 12.000 8.808 6.347 6.347 4.752 4.022 4.022 3.292 2.459 1.523 1.523 0.586 0.000 1.000 1.000 1.000 3.000 3.000 1.000 0.000 1.000 1.000 0.000 0.000 0.000 1.000 2.000 2.000 2.000 3.000 4.000 4.000 4.000 2.000 -1.000 -1.000 0.000 4.000 7.000 7.000 9.000 9.000 9.000 9.000 10.000 9.000 9.000 10.000 11.000 10.000 10.000 8.000 7.000 9.000 9.000 10.000 10.000 10.000 -9999.000 
-9999.000 5.000 5.000 5.000 5.000 4.000 4.000 4.000 3.000 3.000 3.000 3.000 2.000 2.000 0.000 3.000 4.000 4.000 3.000 1.000 1.000 1.000 2.000 2.000 2.000 1.000 2.000 5.000 5.000 3.000 4.000 4.000 6.000 5.000 3.000 3.000 1.000 0.000 1.000 1.000 3.000 4.000 4.000 5.000 7.000 8.000 8.000 9.000 9.000 9.000 9.000 9.000 10.000 10.000 10.000 9.000 9.000 9.000 8.000 8.000 8.000 10.000 10.000 10.000 10.000 10.000 6.000 3.000 3.000 2.000 5.000 5.000 7.000 9.000 10.000 10.000 10.000 9.000 8.000 8.000 9.000 9.000 9.000 9.000 9.000 11.000 11.000 12.000 12.000 12.000 12.000 10.000 5.000 5.000 1.000 1.000 4.000 4.000 8.000 10.000 10.000 10.000 9.000 7.000 7.000 7.000 10.000 11.000 11.000 11.000 8.814 6.765 6.765 5.209 4.147 4.147 3.085 1.960 0.772 0.772 -0.417 -1.000 2.000 2.000 4.000 5.000 5.000 3.000 1.000 1.000 1.000 1.000 1.000 1.000 2.000 2.000 2.000 2.000 2.000 4.000 4.000 4.000 3.000 -1.000 -1.000 0.000 3.000 7.000 7.000 9.000 10.000 11.000 11.000 10.000 9.000 9.000 10.000 11.000 10.000 10.000 8.000 7.000 8.000 8.000 10.000 12.000 12.000 -9999.000 
-9999.000 4.000 4.000 4.000 4.000 4.000 4.000 4.000 4.000 4.000 4.000 3.000 1.000 1.000 -1.000 2.000 4.000 4.000 3.000 1.000 1.000 0.000 1.000 1.000 1.000 1.000 2.000 3.000 3.000 2.000 3.000 3.000 4.000 5.000 2.000 2.000 -1.000 -2.000 -1.000 -1.000 1.000 3.000 3.000 5.000 6.000 7.000 7.000 7.000 7.000 7.000 8.000 8.000 9.000 9.000 9.000 10.000 11.000 11.000 10.000 9.000 9.000 10.000 10.000 10.000 10.000 11.000 7.000 3.000 3.000 1.000 4.000 4.000 8.000 10.000 10.000 10.000 10.000 10.000 9.000 9.000 10.000 9.000 9.000 8.000 10.000 12.000 12.000 12.000 11.000 11.000 11.000 10.000 7.000 7.000 2.000 1.000 3.000 3.000 8.000 10.000 10.000 10.000 9.000 7.000 7.000 7.000 10.000 10.000 10.000 10.000 11.000 7.183 7.183 5.667 4.272 4.272 2.878 1.461 0.021 0.021 -1.419 -1.000 3.000 3.000 6.000 8.000 8.000 5.000 2.000 1.000 1.000 1.000 1.000 1.000 2.000 2.000 1.000 1.000 1.000 4.000 5.000 5.000 3.000 -1.000 -1.000 0.000 3.000 6.000 6.000 9.000 11.000 12.000 12.000 10.000 9.000 9.000 10.000 11.000 9.000 9.000 8.000 7.000 8.000 8.000 11.000 13.000 13.000 -9999.000 
-9999.000 3.000 3.000 3.000 3.000 4.000 4.000 4.000 5.000 5.000 5.000 4.000 2.000 2.000 0.000 2.000 3.000 3.000 3.000 1.000 1.000 0.000 0.000 0.000 0.000 1.000 1.000 2.000 2.000 2.000 3.000 3.000 3.000 4.000 1.000 1.000 -1.000 -3.000 -2.000 -2.000 -1.000 2.000 2.000 3.000 5.000 6.000 6.000 7.000 7.000 7.000 7.000 7.000 8.000 8.000 10.000 11.000 11.000 11.000 11.000 10.000 10.000 10.000 10.000 10.000 10.000 11.000 7.000 4.000 4.000 2.000 4.000 4.000 7.000 10.000 10.000 10.000 9.000 9.000 9.000 9.000 10.000 9.000 9.000 7.000 8.000 11.000 11.000 12.000 11.000 11.000 11.000 9.000 6.000 6.000 3.000 1.000 2.000 2.000 6.000 9.000 10.000 10.000 10.000 8.000 8.000 8.000 10.000 9.000 9.000 8.000 7.000 5.745 5.745 4.422 3.377 3.377 2.331 1.145 -0.183 -0.183 -1.510 1.000 2.000 2.000 5.000 7.000 7.000 6.000 4.000 0.000 0.000 0.000 1.000 1.000 2.000 2.000 2.000 2.000 1.000 4.000 5.000 5.000 4.000 1.000 1.000 0.000 2.000 5.000 5.000 8.000 11.000 12.000 12.000 11.000 10.000 10.000 10.000 10.000 9.000 9.000 9.000 9.000 9.000 9.000 10.000 11.000 11.000 -9999.000 
-9999.000 2.000 2.000 3.000 3.000 3.000 3.000 4.000 5.000 5.000 7.000 6.000 4.000 4.000 3.000 2.000 1.000 1.000 1.000 1.000 1.000 0.000 0.000 -1.000 -1.000 0.000 1.000 1.000 1.000 3.000 3.000 3.000 3.000 3.000 1.000 1.000 -1.000 -2.000 -3.000 -3.000 -1.000 1.000 1.000 1.000 3.000 5.000 5.000 7.000 8.000 8.000 7.000 6.000 8.000 8.000 10.000 12.000 11.000 11.000 11.000 12.000 12.000 11.000 11.000 11.000 11.000 10.000 7.000 5.000 5.000 4.000 5.000 5.000 7.000 9.000 9.000 9.000 8.000 8.000 9.000 9.000 10.000 9.000 9.000 6.000 7.000 9.000 9.000 11.000 12.000 11.000 11.000 9.000 6.000 6.000 3.000 1.000 1.000 1.000 4.000 8.000 11.000 11.000 12.000 9.000 9.000 9.000 10.000 8.000 8.000 5.000 3.000 2.451 2.451 1.475 1.460 1.460 1.445 1.012 0.161 0.161 -0.690 2.000 2.000 2.000 3.000 7.000 7.000 7.000 5.000 0.000 0.000 0.000 1.000 1.000 2.000 3.000 2.000 2.000 2.000 4.000 5.000 5.000 4.000 2.000 2.000 1.000 2.000 5.000 5.000 7.000 10.000 12.000 12.000 11.000 10.000 10.000 10.000 9.000 9.000 9.000 9.000 10.000 10.000 10.000 10.000 10.000 10.000 -9999.000 
-9999.000 3.000 3.000 3.000 4.000 3.000 3.000 3.000 4.000 4.000 7.000 6.000 5.000 5.000 4.000 2.000 1.000 1.000 1.000 0.000 0.000 0.000 0.000 -1.000 -1.000 0.000 1.000 2.000 2.000 4.000 4.000 4.000 3.000 3.000 1.000 1.000 0.000 -1.000 -2.000 -2.000 -1.000 1.000 1.000 1.000 3.000 5.000 5.000 7.000 8.000 8.000 8.000 7.000 8.000 8.000 9.000 10.000 9.000 9.000 10.000 11.000 11.000 10.000 11.000 10.000 10.000 8.000 7.000 5.000 5.000 5.000 5.000 5.000 7.000 8.000 9.000 9.000 9.000 9.000 9.000 9.000 11.000 9.000 9.000 7.000 8.000 9.000 9.000 10.000 11.000 11.000 11.000 9.000 6.000 6.000 3.000 2.000 3.000 3.000 5.000 7.000 10.000 10.000 11.000 8.000 8.000 7.000 9.000 6.000 6.000 3.000 2.000 -0.844 -0.844 -1.472 -0.456 -0.456 0.560 0.880 0.505 0.505 0.131 2.000 1.000 1.000 2.000 6.000 6.000 7.000 6.000 2.000 2.000 0.000 0.000 0.000 2.000 4.000 3.000 3.000 2.000 3.000 4.000 4.000 3.000 3.000 3.000 2.000 3.000 5.000 5.000 8.000 11.000 12.000 12.000 12.000 11.000 11.000 10.000 9.000 9.000 9.000 9.000 9.000 10.000 10.000 10.000 10.000 10.000 -9999.000 
-9999.000 4.000 4.000 4.000 4.000 3.000 3.000 3.000 4.000 4.000 5.000 5.000 4.000 4.000 5.000 3.000 1.000 1.000 1.000 0.000 0.000 0.000 0.000 0.000 0.000 1.000 2.000 4.000 4.000 4.000 4.000 4.000 3.000 2.000 1.000 1.000 1.000 1.000 -1.000 -1.000 -1.000 2.000 2.000 1.000 3.000 5.000 5.000 7.000 8.000 8.000 8.000 8.000 8.000 8.000 8.000 7.000 7.000 7.000 8.000 10.000 10.000 9.000 10.000 10.000 10.000 6.000 6.000 6.000 6.000 5.000 6.000 6.000 7.000 8.000 10.000 10.000 9.000 9.000 10.000 10.000 11.000 9.000 9.000 7.000 9.000 8.000 8.000 9.000 10.000 10.000 10.000 9.000 7.000 7.000 3.000 4.000 6.000 6.000 5.000 7.000 9.000 9.000 10.000 6.000 6.000 5.000 8.000 3.000 3.000 2.000 1.000 -2.090 -2.090 -2.528 -1.062 -1.062 0.404 1.004 0.740 0.740 0.476 2.000 1.000 1.000 1.000 6.000 6.000 8.000 7.000 4.000 4.000 1.000 0.000 0.000 1.000 4.000 3.000 3.000 2.000 3.000 3.000 3.000 3.000 3.000 3.000 2.000 3.000 6.000 6.000 9.000 11.000 12.000 12.000 13.000 12.000 12.000 10.000 9.000 9.000 9.000 9.000 9.000 10.000 10.000 10.000 10.000 10.000 -9999.000 
-9999.000 4.000 4.000 4.000 4.000 3.000 3.000 3.000 3.000 3.000 4.000 4.000 4.000 4.000 4.000 2.000 1.000 1.000 1.000 0.000 0.000 0.000 1.000 3.000 3.000 2.000 2.000 4.000 4.000 3.000 3.000 3.000 4.000 3.000 2.000 2.000 1.000 1.000 -1.000 -1.000 -1.000 1.000 1.000 1.000 2.000 4.000 4.000 6.000 7.000 7.000 8.000 9.000 9.000 9.000 8.000 6.000 6.000 6.000 8.000 10.000 10.000 9.000 11.000 10.000 10.000 8.000 6.000 6.000 6.000 5.000 6.000 6.000 7.000 9.000 9.000 9.000 9.000 9.000 9.000 9.000 9.000 8.000 8.000 7.000 8.000 8.000 8.000 8.000 10.000 10.000 10.000 9.000 8.000 8.000 5.000 5.000 7.000 7.000 7.000 8.000 9.000 9.000 9.000 7.000 7.000 7.000 9.000 4.000 4.000 2.000 1.000 -1.289 -1.289 -1.693 -0.358 -0.358 0.978 1.386 0.866 0.866 0.346 1.000 0.000 0.000 0.000 4.000 4.000 7.000 8.000 6.000 6.000 1.000 0.000 0.000 1.000 4.000 3.000 3.000 2.000 2.000 3.000 3.000 3.000 2.000 2.000 2.000 3.000 5.000 5.000 9.000 10.000 12.000 12.000 13.000 12.000 12.000 11.000 10.000 10.000 10.000 10.000 9.000 10.000 10.000 10.000 10.000 10.000 -9999.000 
-9999.000 3.000 3.000 3.000 2.000 2.000 2.000 3.000 3.000 3.000 3.000 4.000 3.000 3.000 2.000 1.000 1.000 1.000 2.000 1.000 1.000 2.000 3.000 5.000 5.000 2.000 2.000 4.000 4.000 2.000 3.000 3.000 4.000 3.000 2.000 2.000 2.000 2.000 0.000 0.000 -1.000 -1.000 -1.000 1.000 2.000 3.000 3.000 6.000 7.000 7.000 9.000 11.000 9.000 9.000 8.000 6.000 5.000 5.000 8.000 10.000 10.000 10.000 11.000 11.000 11.000 10.000 7.000 6.000 6.000 5.000 7.000 7.000 8.000 10.000 9.000 9.000 9.000 9.000 8.000 8.000 7.000 7.000 7.000 6.000 8.000 8.000 8.000 8.000 10.000 9.000 9.000 9.000 9.000 9.000 7.000 6.000 7.000 7.000 10.000 9.000 9.000 9.000 8.000 7.000 7.000 8.000 9.000 4.000 4.000 2.000 1.000 -0.488 -0.488 -0.858 0.347 0.347 1.552 1.767 0.991 0.991 0.216 1.000 -1.000 -1.000 -1.000 2.000 2.000 7.000 9.000 7.000 7.000 2.000 1.000 1.000 2.000 4.000 3.000 3.000 1.000 1.000 3.000 3.000 4.000 2.000 2.000 1.000 2.000 4.000 4.000 8.000 10.000 11.000 11.000 13.000 12.000 12.000 11.000 11.000 11.000 11.000 10.000 9.000 11.000 11.000 10.000 10.000 10.000 -9999.000 
-9999.000 3.000 3.000 2.000 2.000 3.000 3.000 3.000 4.000 4.000 4.000 4.000 3.000 3.000 1.000 1.000 1.000 1.000 1.000 1.000 1.000 2.000 3.000 5.000 5.000 2.000 2.000 4.000 4.000 1.000 1.000 1.000 3.000 4.000 3.000 3.000 2.000 2.000 0.000 0.000 0.000 0.000 0.000 0.000 1.000 3.000 3.000 5.000 7.000 7.000 8.000 11.000 10.000 10.000 8.000 6.000 5.000 5.000 7.000 10.000 10.000 10.000 11.000 11.000 11.000 10.000 8.000 6.000 6.000 6.000 7.000 7.000 8.000 9.000 9.000 9.000 9.000 8.000 7.000 7.000 7.000 7.000 7.000 7.000 7.000 8.000 8.000 9.000 11.000 11.000 11.000 10.000 9.000 9.000 8.000 7.000 7.000 7.000 9.000 9.000 9.000 9.000 8.000 7.000 7.000 8.000 9.000 5.000 5.000 3.000 3.000 0.914 0.914 0.622 1.654 1.654 2.686 3.060 2.778 2.778 2.495 1.865 0.888 0.888 -1.000 1.000 1.000 6.000 9.000 8.000 8.000 3.000 1.000 1.000 2.000 6.000 4.000 4.000 2.000 2.000 5.000 5.000 5.000 3.000 3.000 2.000 2.000 3.000 3.000 7.000 10.000 12.000 12.000 12.000 11.000 11.000 10.000 10.000 10.000 10.000 10.000 10.000 10.000 10.000 10.000 9.000 9.000 -9999.000 
-9999.000 2.000 2.000 3.000 3.000 4.000 4.000 4.000 5.000 5.000 5.000 4.000 3.000 3.000 1.000 2.000 1.000 1.000 0.000 1.000 1.000 1.000 2.000 5.000 5.000 2.000 1.000 4.000 4.000 -1.000 -1.000 -1.000 1.000 4.000 4.000 4.000 2.000 1.000 0.000 0.000 0.000 1.000 1.000 0.000 1.000 2.000 2.000 4.000 6.000 6.000 8.000 10.000 10.000 10.000 8.000 6.000 5.000 5.000 7.000 9.000 9.000 11.000 10.000 10.000 10.000 11.000 9.000 7.000 7.000 7.000 8.000 8.000 8.000 7.000 8.000 8.000 9.000 8.000 6.000 6.000 7.000 7.000 7.000 8.000 7.000 8.000 8.000 9.000 12.000 13.000 13.000 12.000 10.000 10.000 9.000 8.000 7.000 7.000 9.000 9.000 8.000 8.000 7.000 7.000 7.000 7.000 8.000 6.000 6.000 5.000 5.000 2.919 2.919 2.746 3.563 3.563 4.380 5.267 6.225 6.225 7.183 6.332 3.670 3.670 -1.000 1.000 1.000 6.000 9.000 9.000 9.000 4.000 2.000 2.000 3.000 7.000 5.000 5.000 2.000 3.000 6.000 6.000 7.000 3.000 3.000 2.000 2.000 2.000 2.000 7.000 10.000 12.000 12.000 11.000 10.000 10.000 10.000 10.000 9.000 9.000 10.000 11.000 10.000 10.000 10.000 9.000 9.000 -9999.000 
-9999.000 2.000 2.000 3.000 4.000 4.000 4.000 5.000 5.000 5.000 5.000 4.000 3.000 3.000 1.000 2.000 1.000 1.000 0.000 1.000 1.000 2.000 3.000 5.000 5.000 2.000 0.000 2.000 2.000 -1.000 -1.000 -1.000 1.000 5.000 4.000 4.000 3.000 1.000 2.000 2.000 2.000 1.000 1.000 1.000 2.000 3.000 3.000 3.000 5.000 5.000 8.000 10.000 10.000 10.000 9.000 7.000 6.000 6.000 7.000 10.000 10.000 10.000 9.000 9.000 9.000 9.000 8.000 7.000 7.000 8.000 8.000 8.000 7.000 7.000 9.000 9.000 10.000 9.000 6.000 6.000 7.000 8.000 8.000 8.000 7.000 8.000 8.000 10.000 12.000 12.000 12.000 11.000 9.000 9.000 8.000 7.000 7.000 7.000 8.000 9.000 9.000 9.000 8.000 8.000 8.000 9.000 8.000 7.000 7.000 6.000 6.000 4.924 4.924 4.871 5.473 5.473 6.074 7.474 9.673 9.673 11.872 10.798 6.451 6.451 2.000 0.000 0.000 5.000 8.000 8.000 8.000 7.000 5.000 5.000 3.000 8.000 6.000 6.000 3.000 4.000 7.000 7.000 8.000 6.000 6.000 3.000 2.000 2.000 2.000 6.000 9.000 11.000 11.000 11.000 10.000 10.000 10.000 9.000 10.000 10.000 10.000 10.000 10.000 10.000 10.000 10.000 10.000 -9999.000 
-9999.000 3.000 3.000 4.000 5.000 5.000 5.000 5.000 5.000 5.000 5.000 4.000 3.000 3.000 1.000 2.000 1.000 1.000 0.000 2.000 2.000 4.000 5.000 5.000 5.000 1.000 -1.000 0.000 0.000 0.000 0.000 0.000 1.000 5.000 4.000 4.000 3.000 2.000 3.000 3.000 3.000 2.000 2.000 3.000 3.000 3.000 3.000 2.000 4.000 4.000 7.000 10.000 9.000 9.000 9.000 8.000 6.000 6.000 8.000 10.000 10.000 9.000 8.000 7.000 7.000 7.000 6.000 7.000 7.000 9.000 7.000 7.000 7.000 8.000 10.000 10.000 11.000 9.000 6.000 6.000 7.000 8.000 8.000 8.000 7.000 9.000 9.000 10.000 12.000 12.000 12.000 11.000 9.000 9.000 7.000 6.000 7.000 7.000 7.000 8.000 9.000 9.000 9.000 10.000 10.000 10.000 9.000 7.000 7.000 6.000 6.000 5.321 5.321 5.380 6.167 6.167 6.954 8.818 11.759 11.759 14.701 13.427 7.937 7.937 5.000 0.000 0.000 4.000 8.000 7.000 7.000 9.000 8.000 8.000 4.000 8.000 7.000 7.000 5.000 5.000 7.000 7.000 9.000 8.000 8.000 4.000 2.000 2.000 2.000 5.000 8.000 10.000 10.000 11.000 10.000 10.000 10.000 9.000 10.000 10.000 9.000 9.000 10.000 10.000 10.000 10.000 10.000 -9999.000 
-9999.000 4.000 4.000 4.000 5.000 5.000 5.000 5.000 4.000 4.000 5.000 4.000 3.000 3.000 2.000 2.000 1.000 1.000 0.000 2.000 2.000 3.000 4.000 2.000 2.000 0.000 -1.000 0.000 0.000 1.000 2.000 2.000 2.000 5.000 4.000 4.000 2.000 1.000 2.000 2.000 2.000 0.000 0.000 2.000 2.000 3.000 3.000 3.000 5.000 5.000 8.000 10.000 8.000 8.000 7.000 7.000 6.000 6.000 8.000 10.000 10.000 9.000 8.000 8.000 8.000 8.000 6.000 6.000 6.000 7.000 8.000 8.000 8.000 9.000 11.000 11.000 11.000 10.000 8.000 8.000 9.000 8.000 8.000 7.000 7.000 8.000 8.000 9.000 11.000 11.000 11.000 10.000 8.000 8.000 7.000 7.000 8.000 8.000 8.000 8.000 9.000 9.000 9.000 9.000 9.000 9.000 9.000 7.000 7.000 6.000 5.000 4.110 4.110 4.271 5.646 5.646 7.020 9.300 12.485 12.485 15.670 14.218 8.128 8.128 4.000 0.000 0.000 3.000 7.000 8.000 8.000 11.000 9.000 9.000 5.000 8.000 8.000 8.000 7.000 6.000 8.000 8.000 9.000 7.000 7.000 4.000 2.000 1.000 1.000 3.000 7.000 10.000 10.000 11.000 11.000 11.000 10.000 9.000 9.000 9.000 9.000 8.000 9.000 9.000 9.000 9.000 9.000 -9999.000 
-9999.000 5.000 5.000 4.000 4.000 6.000 6.000 5.000 3.000 3.000 4.000 4.000 3.000 3.000 4.000 2.000 0.000 0.000 -1.000 1.000 1.000 2.000 2.000 -1.000 -1.000 -2.000 -1.000 0.000 0.000 3.000 4.000 4.000 4.000 4.000 4.000 4.000 2.000 -1.000 1.000 1.000 0.000 -2.000 -2.000 0.000 2.000 3.000 3.000 4.000 7.000 7.000 8.000 9.000 7.000 7.000 6.000 6.000 5.000 5.000 7.000 10.000 10.000 9.000 8.000 9.000 9.000 10.000 6.000 4.000 4.000 5.000 8.000 8.000 9.000 10.000 12.000 12.000 11.000 11.000 10.000 10.000 10.000 9.000 9.000 7.000 7.000 8.000 8.000 8.000 10.000 10.000 10.000 9.000 8.000 8.000 7.000 7.000 8.000 8.000 8.000 8.000 8.000 8.000 10.000 9.000 9.000 9.000 10.000 7.000 7.000 5.000 4.000 2.898 2.898 3.163 5.125 5.125 7.086 9.781 13.210 13.210 16.640 15.009 8.319 8.319 3.000 0.000 0.000 2.000 6.000 9.000 9.000 12.000 10.000 10.000 6.000 7.000 9.000 9.000 9.000 6.000 8.000 8.000 8.000 7.000 7.000 5.000 3.000 1.000 1.000 2.000 6.000 10.000 10.000 11.000 11.000 11.000 10.000 9.000 9.000 9.000 8.000 8.000 8.000 8.000 8.000 8.000 8.000 -9999.000 
-9999.000 4.000 4.000 4.000 3.000 4.000 4.000 3.000 3.000 3.000 4.000 3.000 3.000 3.000 4.000 2.000 1.000 1.000 1.000 1.000 1.000 1.000 1.000 -1.000 -1.000 -1.000 -1.000 1.000 1.000 2.000 3.000 3.000 3.000 4.000 4.000 4.000 3.000 0.000 0.000 0.000 -1.000 -2.000 -2.000 -1.000 1.000 3.000 3.000 6.000 7.000 7.000 8.000 9.000 8.000 8.000 7.000 6.000 5.000 5.000 7.000 10.000 10.000 10.000 9.000 9.000 9.000 10.000 8.000 7.000 7.000 7.000 8.000 8.000 9.000 10.000 12.000 12.000 11.000 10.000 10.000 10.000 10.000 9.000 9.000 8.000 8.000 8.000 8.000 8.000 9.000 9.000 9.000 8.000 7.000 7.000 6.000 6.000 7.000 7.000 6.000 6.000 8.000 8.000 9.000 10.000 10.000 10.000 9.000 7.000 7.000 6.000 4.482 3.169 3.169 3.441 5.299 5.299 7.156 9.585 12.584 12.584 15.584 13.901 7.536 7.536 1.171 0.000 0.000 2.000 6.000 10.000 10.000 11.000 10.000 10.000 8.000 8.000 9.000 9.000 9.000 6.000 8.000 8.000 9.000 9.000 9.000 7.000 4.000 2.000 2.000 4.000 7.000 10.000 10.000 10.000 10.000 10.000 9.000 9.000 9.000 9.000 8.000 8.000 6.000 6.000 6.000 6.000 6.000 -9999.000 
-9999.000 2.000 2.000 2.000 2.000 2.000 2.000 2.000 3.000 3.000 4.000 3.000 3.000 3.000 3.000 3.000 3.000 3.000 2.000 1.000 1.000 0.000 0.000 0.000 0.000 0.000 0.000 1.000 1.000 2.000 2.000 2.000 3.000 4.000 5.000 5.000 5.000 2.000 -1.000 -1.000 -2.000 -2.000 -2.000 -2.000 0.000 4.000 4.000 7.000 7.000 7.000 8.000 9.000 8.000 8.000 8.000 7.000 5.000 5.000 6.000 10.000 10.000 12.000 10.000 10.000 10.000 11.000 10.000 9.000 9.000 9.000 8.000 8.000 10.000 11.000 12.000 12.000 11.000 10.000 10.000 10.000 9.000 9.000 9.000 8.000 8.000 8.000 8.000 8.000 9.000 8.000 8.000 8.000 7.000 7.000 5.000 5.000 6.000 6.000 4.000 5.000 7.000 7.000 9.000 10.000 10.000 10.000 9.000 7.000 7.000 7.000 5.616 4.921 4.921 5.105 6.168 6.168 7.230 8.710 10.606 10.606 12.502 10.894 5.780 5.780 0.666 0.000 0.000 3.000 6.000 10.000 10.000 10.000 10.000 10.000 9.000 9.000 9.000 9.000 9.000 7.000 8.000 8.000 10.000 10.000 10.000 8.000 5.000 3.000 3.000 4.000 7.000 9.000 9.000 10.000 10.000 10.000 9.000 9.000 9.000 9.000 8.000 8.000 5.000 5.000 5.000 5.000 5.000 -9999.000 
-9999.000 2.000 2.000 2.000 2.000 2.000 2.000 2.000 3.000 3.000 4.000 4.000 4.000 4.000 3.000 3.000 3.000 3.000 2.000 1.000 1.000 1.000 1.000 0.000 0.000 -1.000 -1.000 -1.000 -1.000 1.000 1.000 1.000 2.000 4.000 5.000 5.000 4.000 1.000 -2.000 -2.000 -2.000 -2.000 -2.000 -1.000 0.000 3.000 3.000 6.000 7.000 7.000 8.000 9.000 9.000 9.000 9.000 8.000 5.000 5.000 6.000 7.000 7.000 9.000 9.000 9.000 9.000 11.000 8.000 8.000 8.000 8.000 7.000 7.000 7.000 8.000 9.000 9.000 10.000 10.000 10.000 10.000 9.000 9.000 9.000 9.000 9.000 8.000 8.000 7.000 8.000 8.000 8.000 7.000 7.000 7.000 5.000 6.000 7.000 7.000 4.000 4.000 6.000 6.000 8.000 9.000 9.000 9.000 8.000 7.000 7.000 7.000 6.750 6.674 6.674 6.769 7.037 7.037 7.304 7.834 8.628 8.628 9.421 7.886 4.024 4.024 0.161 0.132 0.132 4.000 7.000 11.000 11.000 10.000 10.000 10.000 10.000 9.000 9.000 9.000 10.000 8.000 10.000 10.000 11.000 11.000 11.000 8.000 6.000 4.000 4.000 4.000 6.000 9.000 9.000 10.000 10.000 10.000 10.000 10.000 9.000 9.000 9.000 8.000 5.000 5.000 4.000 4.000 4.000 -9999.000 
-9999.000 2.000 2.000 2.000 3.000 3.000 3.000 4.000 4.000 4.000 5.000 5.000 4.000 4.000 4.000 3.000 3.000 3.000 2.000 3.000 3.000 2.000 1.000 -1.000 -1.000 -1.000 -2.000 -3.000 -3.000 0.000 1.000 1.000 1.000 3.000 4.000 4.000 3.000 -1.000 -2.000 -2.000 -2.000 -1.000 -1.000 0.000 0.000 2.000 2.000 5.000 6.000 6.000 8.000 9.000 10.000 10.000 10.000 9.000 6.000 6.000 5.000 5.000 5.000 6.000 8.000 9.000 9.000 10.000 7.000 7.000 7.000 8.000 6.000 6.000 5.000 5.000 7.000 7.000 9.000 10.000 10.000 10.000 9.000 10.000 10.000 11.000 10.000 8.000 8.000 6.000 8.000 7.000 7.000 7.000 8.000 8.000 6.000 6.000 7.000 7.000 4.000 4.000 5.000 5.000 7.000 8.000 8.000 8.000 8.000 7.000 7.000 7.000 7.177 7.782 7.782 7.906 7.550 7.550 7.194 7.030 7.059 7.059 7.088 5.424 2.065 2.065 -1.293 -0.889 -0.889 5.000 7.000 11.000 11.000 10.000 11.000 11.000 11.000 9.000 9.000 9.000 10.000 9.000 10.000 10.000 11.000 11.000 11.000 8.000 6.000 4.000 4.000 3.000 5.000 9.000 9.000 11.000 10.000 10.000 10.000 10.000 10.000 10.000 9.000 8.000 6.000 6.000 5.000 4.000 4.000 -9999.000 
-9999.000 2.000 2.000 3.000 4.000 4.000 4.000 4.000 4.000 4.000 3.000 4.000 4.000 4.000 4.000 4.000 3.000 3.000 2.000 2.000 2.000 2.000 1.000 -1.000 -1.000 -1.000 -1.000 -1.000 -1.000 1.000 1.000 1.000 1.000 3.000 3.000 3.000 2.000 -2.000 -3.000 -3.000 -2.000 -1.000 -1.000 0.000 1.000 3.000 3.000 4.000 5.000 5.000 7.000 8.000 10.000 10.000 10.000 9.000 7.000 7.000 6.000 5.000 5.000 5.000 6.000 8.000 8.000 9.000 6.000 6.000 6.000 7.000 6.000 6.000 6.000 5.000 6.000 6.000 8.000 9.000 9.000 9.000 10.000 10.000 10.000 11.000 10.000 7.000 7.000 6.000 8.000 8.000 8.000 8.000 8.000 8.000 7.000 6.000 5.000 5.000 2.000 3.000 4.000 4.000 5.000 7.000 7.000 7.000 7.000 5.000 5.000 5.000 6.898 8.246 8.246 8.516 7.708 7.708 6.900 6.297 5.900 5.900 5.503 3.505 -0.095 -0.095 -3.695 -3.093 -3.093 2.000 4.000 10.000 10.000 10.000 11.000 11.000 11.000 8.000 8.000 8.000 9.000 8.000 9.000 9.000 9.000 9.000 9.000 8.000 6.000 4.000 4.000 2.000 5.000 8.000 8.000 11.000 10.000 10.000 9.000 9.000 9.000 9.000 9.000 8.000 6.000 6.000 5.000 5.000 5.000 -9999.000 
-9999.000 3.000 3.000 4.000 5.000 4.000 4.000 4.000 3.000 3.000 2.000 2.000 3.000 3.000 4.000 4.000 3.000 3.000 1.000 2.000 2.000 1.000 0.000 -2.000 -2.000 -1.000 0.000 2.000 2.000 2.000 2.000 2.000 2.000 3.000 3.000 3.000 1.000 -3.000 -3.000 -3.000 -2.000 0.000 0.000 0.000 2.000 5.000 5.000 4.000 5.000 5.000 6.000 8.000 10.000 10.000 10.000 9.000 9.000 9.000 8.000 5.000 5.000 3.000 5.000 6.000 6.000 7.000 5.000 5.000 5.000 6.000 7.000 7.000 6.000 5.000 5.000 5.000 7.000 9.000 9.000 9.000 10.000 10.000 10.000 11.000 9.000 7.000 7.000 6.000 9.000 9.000 9.000 9.000 9.000 9.000 8.000 5.000 3.000 3.000 1.000 2.000 3.000 3.000 4.000 6.000 6.000 7.000 7.000 4.000 4.000 3.000 6.619 8.710 8.710 9.125 7.865 7.865 6.606 5.564 4.741 4.741 3.918 1.586 -2.255 -2.255 -6.096 -5.297 -5.297 0.000 3.000 9.000 9.000 10.000 11.000 11.000 11.000 8.000 8.000 8.000 8.000 8.000 8.000 8.000 8.000 8.000 8.000 7.000 6.000 4.000 4.000 2.000 4.000 7.000 7.000 10.000 9.000 9.000 9.000 8.000 8.000 8.000 8.000 9.000 6.000 6.000 5.000 5.000 5.000 -9999.000 
-9999.000 3.000 3.000 4.000 5.000 5.000 5.000 4.000 3.000 3.000 2.000 2.000 3.000 3.000 4.000 3.000 2.000 2.000 1.000 2.000 2.000 1.000 -1.000 -1.000 -1.000 -1.000 1.000 2.000 2.000 1.000 0.000 0.000 0.000 1.000 1.000 1.000 0.000 -2.000 -2.000 -2.000 -2.000 0.000 0.000 0.000 1.000 3.000 3.000 3.000 4.000 4.000 6.000 7.000 8.000 8.000 9.000 9.000 10.000 10.000 9.000 6.000 6.000 4.000 5.000 5.000 5.000 5.000 6.000 6.000 6.000 6.000 7.000 7.000 7.000 5.000 5.000 5.000 7.000 9.000 10.000 10.000 10.000 10.000 10.000 10.000 9.000 8.000 8.000 8.000 9.000 9.000 9.000 10.000 11.000 11.000 7.000 4.000 2.000 2.000 1.000 1.000 3.000 3.000 5.000 5.000 5.000 5.000 5.000 3.000 3.000 4.000 6.000 8.055 8.055 8.497 7.233 7.233 5.969 4.861 3.909 3.909 2.957 0.740 -2.740 -2.740 -6.221 -5.352 -5.352 -0.134 5.085 10.000 10.000 10.000 10.000 10.000 10.000 8.000 8.000 8.000 8.000 6.000 7.000 7.000 8.000 8.000 8.000 7.000 6.000 4.000 4.000 2.000 3.000 5.000 5.000 9.000 9.000 9.000 8.000 8.000 8.000 8.000 9.000 9.000 6.000 6.000 5.000 4.000 4.000 -9999.000 
-9999.000 3.000 3.000 3.000 4.000 5.000 5.000 5.000 4.000 4.000 4.000 3.000 3.000 3.000 4.000 3.000 1.000 1.000 0.000 2.000 2.000 0.000 -1.000 -1.000 -1.000 0.000 0.000 1.000 1.000 0.000 -2.000 -2.000 -2.000 0.000 0.000 0.000 -1.000 0.000 -1.000 -1.000 -1.000 0.000 0.000 0.000 1.000 1.000 1.000 1.000 4.000 4.000 6.000 5.000 6.000 6.000 8.000 9.000 11.000 11.000 10.000 7.000 7.000 5.000 5.000 5.000 5.000 4.000 6.000 6.000 6.000 5.000 8.000 8.000 7.000 5.000 5.000 5.000 7.000 9.000 11.000 11.000 10.000 10.000 10.000 10.000 9.000 9.000 9.000 9.000 9.000 10.000 10.000 11.000 12.000 12.000 7.000 3.000 1.000 1.000 0.000 1.000 3.000 3.000 7.000 5.000 5.000 4.000 4.000 3.000 3.000 4.000 6.000 6.281 6.281 6.630 5.810 5.810 4.990 4.188 3.403 3.403 2.618 0.967 -1.551 -1.551 -4.069 -3.259 -3.259 0.877 5.014 9.000 9.000 9.000 10.000 10.000 10.000 8.000 9.000 9.000 8.000 5.000 6.000 6.000 8.000 8.000 8.000 7.000 5.000 4.000 4.000 2.000 2.000 4.000 4.000 7.000 7.000 7.000 7.000 8.000 8.000 8.000 8.000 8.000 5.000 5.000 4.000 4.000 4.000 -9999.000 
-9999.000 4.000 4.000 4.000 4.000 5.000 5.000 5.000 4.000 4.000 3.000 3.000 3.000 3.000 4.000 2.000 1.000 1.000 -1.000 1.000 1.000 0.000 0.000 0.000 0.000 0.000 0.000 -1.000 -1.000 -2.000 -2.000 -2.000 -2.000 0.000 0.000 0.000 0.000 1.000 0.000 0.000 -1.000 -2.000 -2.000 -1.000 0.000 2.000 2.000 2.000 4.000 4.000 5.000 6.000 7.000 7.000 8.000 9.000 10.000 10.000 9.000 8.000 8.000 8.000 6.000 5.000 5.000 5.000 7.000 7.000 7.000 6.000 8.000 8.000 7.000 5.000 5.000 5.000 6.000 8.000 10.000 10.000 10.000 10.000 10.000 9.000 10.000 9.000 9.000 8.000 8.000 9.000 9.000 10.000 11.000 11.000 7.000 3.000 0.000 0.000 0.000 2.000 4.000 4.000 7.000 5.000 5.000 4.000 4.000 3.000 3.000 3.000 3.616 4.507 4.507 4.764 4.388 4.388 4.011 3.515 2.897 2.897 2.280 1.193 -0.362 -0.362 -1.917 -1.167 -1.167 1.889 4.944 7.000 7.000 7.000 8.000 8.000 9.000 9.000 9.000 9.000 9.000 6.000 5.000 5.000 6.000 8.000 8.000 7.000 5.000 3.000 3.000 2.000 1.000 2.000 2.000 5.000 5.000 5.000 6.000 7.000 7.000 7.000 7.000 5.000 3.000 3.000 3.000 5.000 5.000 -9999.000 
-9999.000 5.000 5.000 4.000 3.000 4.000 4.000 4.000 3.000 3.000 1.000 2.000 3.000 3.000 3.000 2.000 0.000 0.000 -2.000 0.000 0.000 1.000 1.000 1.000 1.000 1.000 0.000 -3.000 -3.000 -3.000 -2.000 -2.000 -1.000 1.000 1.000 1.000 1.000 2.000 1.000 1.000 -1.000 -4.000 -4.000 -2.000 0.000 3.000 3.000 3.000 4.000 4.000 5.000 7.000 7.000 7.000 8.000 9.000 9.000 9.000 9.000 9.000 9.000 10.000 7.000 5.000 5.000 6.000 9.000 8.000 8.000 6.000 8.000 8.000 7.000 5.000 5.000 5.000 5.000 6.000 9.000 9.000 10.000 10.000 10.000 9.000 10.000 8.000 8.000 7.000 7.000 9.000 9.000 10.000 11.000 11.000 7.000 3.000 0.000 0.000 0.000 3.000 5.000 5.000 7.000 6.000 6.000 5.000 4.000 3.000 3.000 3.000 2.517 2.512 2.512 2.618 2.837 2.837 3.057 2.948 2.512 2.512 2.077 1.381 0.426 0.426 -0.529 0.064 0.064 2.206 4.349 5.000 5.000 6.000 7.000 7.000 8.000 8.000 9.000 9.000 8.000 5.000 4.000 4.000 4.000 7.000 7.000 6.000 5.000 2.000 2.000 1.000 1.000 2.000 2.000 4.000 5.000 5.000 5.000 6.000 7.000 7.000 6.000 4.000 2.000 2.000 3.000 5.000 5.000 -9999.000 
-9999.000 5.000 5.000 4.000 4.000 5.000 5.000 5.000 3.000 3.000 0.000 2.000 4.000 4.000 4.000 3.000 1.000 1.000 -1.000 0.000 0.000 2.000 2.000 0.000 0.000 0.000 0.000 -1.000 -1.000 -1.000 -1.000 -1.000 0.000 2.000 2.000 2.000 1.000 2.000 1.000 1.000 -1.000 -3.000 -3.000 -3.000 -1.000 2.000 2.000 3.000 4.000 4.000 5.000 7.000 8.000 8.000 9.000 10.000 9.000 9.000 8.000 8.000 8.000 8.000 6.000 5.000 5.000 5.000 8.000 9.000 9.000 8.000 9.000 9.000 7.000 5.000 5.000 5.000 5.000 6.000 7.000 7.000 9.000 9.000 9.000 9.000 10.000 8.000 8.000 7.000 7.000 8.000 8.000 10.000 11.000 11.000 7.000 4.000 1.000 1.000 2.000 3.000 5.000 5.000 6.000 5.000 5.000 4.000 4.000 4.000 4.000 2.000 0.000 0.295 0.295 0.194 1.160 1.160 2.126 2.489 2.249 2.249 2.009 1.530 0.811 0.811 0.093 0.433 0.433 1.831 3.228 4.523 4.523 6.000 6.000 6.000 7.000 7.000 6.000 6.000 3.000 2.000 1.000 1.000 2.000 5.000 5.000 5.000 4.000 2.000 2.000 1.000 1.000 2.000 2.000 5.000 6.000 6.000 6.000 7.000 7.000 7.000 6.000 4.000 2.000 2.000 4.000 6.000 6.000 -9999.000 
-9999.000 4.000 4.000 4.000 4.000 6.000 6.000 6.000 4.000 4.000 0.000 2.000 4.000 4.000 5.000 4.000 2.000 2.000 0.000 2.000 2.000 3.000 3.000 -1.000 -1.000 -1.000 0.000 2.000 2.000 0.000 0.000 0.000 1.000 2.000 2.000 2.000 2.000 1.000 1.000 1.000 0.000 -3.000 -3.000 -3.000 -2.000 0.000 0.000 3.000 4.000 4.000 6.000 8.000 9.000 9.000 10.000 11.000 9.000 9.000 8.000 8.000 8.000 7.000 5.000 4.000 4.000 5.000 7.000 9.000 9.000 10.000 9.000 9.000 7.000 5.000 5.000 5.000 5.000 5.000 6.000 6.000 8.000 9.000 9.000 9.000 10.000 8.000 8.000 7.000 7.000 8.000 8.000 10.000 11.000 11.000 7.000 4.000 2.000 2.000 3.000 4.000 5.000 5.000 5.000 4.000 4.000 4.000 4.000 4.000 4.000 3.000 0.000 -1.921 -1.921 -2.231 -0.518 -0.518 1.195 2.030 1.985 1.985 1.941 1.678 1.197 1.197 0.716 0.802 0.802 1.455 2.108 3.214 3.214 6.000 6.000 6.000 6.000 6.000 3.000 3.000 0.000 0.000 0.000 0.000 1.000 3.000 3.000 4.000 3.000 1.000 1.000 1.000 1.000 3.000 3.000 5.000 6.000 6.000 7.000 7.000 7.000 7.000 6.000 5.000 3.000 3.000 4.000 6.000 6.000 -9999.000 
-9999.000 4.000 4.000 4.000 4.000 5.000 5.000 5.000 4.000 4.000 2.000 3.000 4.000 4.000 5.000 3.000 2.000 2.000 1.000 1.000 1.000 2.000 1.000 -2.000 -2.000 -2.000 -1.000 1.000 1.000 1.000 1.000 1.000 1.000 1.000 1.000 1.000 1.000 1.000 1.000 1.000 1.000 -2.000 -2.000 -2.000 -2.000 0.000 0.000 2.000 4.000 4.000 5.000 8.000 9.000 9.000 10.000 11.000 9.000 9.000 9.000 9.000 9.000 8.000 7.000 7.000 7.000 7.000 8.000 9.000 9.000 10.000 9.000 9.000 7.000 5.000 5.000 5.000 5.000 5.000 6.000 6.000 8.000 9.000 9.000 9.000 9.000 8.000 8.000 6.000 6.000 7.000 7.000 9.000 10.000 10.000 8.000 5.000 3.000 3.000 4.000 4.000 5.000 5.000 5.000 4.000 4.000 4.000 4.000 5.000 5.000 4.000 1.000 -1.755 -1.755 -2.195 -0.505 -0.505 1.186 2.036 2.045 2.045 2.054 1.890 1.553 1.553 1.215 1.159 1.159 1.384 1.609 2.485 2.485 4.000 4.000 4.000 5.000 5.000 2.000 2.000 0.000 0.000 0.000 0.000 0.000 1.000 1.000 1.000 1.000 0.000 0.000 0.000 1.000 2.000 2.000 4.000 6.000 6.000 7.000 8.000 8.000 8.000 8.000 7.000 5.000 5.000 5.000 6.000 6.000 -9999.000 
-9999.000 5.000 5.000 4.000 3.000 3.000 3.000 4.000 4.000 4.000 5.000 3.000 3.000 3.000 5.000 3.000 2.000 2.000 2.000 1.000 1.000 1.000 0.000 -2.000 -2.000 -2.000 -1.000 0.000 0.000 1.000 1.000 1.000 1.000 0.000 0.000 0.000 -1.000 0.000 2.000 2.000 2.000 0.000 0.000 -1.000 -1.000 -1.000 -1.000 2.000 4.000 4.000 5.000 8.000 8.000 8.000 9.000 11.000 10.000 10.000 10.000 11.000 11.000 8.000 9.000 9.000 9.000 8.000 8.000 9.000 9.000 10.000 8.000 8.000 7.000 5.000 5.000 5.000 5.000 5.000 6.000 6.000 7.000 8.000 8.000 9.000 8.000 7.000 7.000 6.000 5.000 7.000 7.000 9.000 10.000 10.000 8.000 6.000 4.000 4.000 4.000 4.000 5.000 5.000 5.000 4.000 4.000 4.000 4.000 6.000 6.000 5.000 2.000 0.792 0.792 0.302 1.199 1.199 2.097 2.507 2.427 2.427 2.348 2.165 1.878 1.878 1.592 1.505 1.505 1.618 1.731 2.337 2.337 3.000 4.000 4.000 5.000 3.000 2.000 2.000 0.000 0.000 0.000 0.000 0.000 0.000 0.000 1.000 1.000 0.000 0.000 0.000 1.000 2.000 2.000 3.000 5.000 5.000 6.000 7.000 8.000 8.000 8.000 8.000 7.000 7.000 6.000 6.000 6.000 -9999.000 
-9999.000 5.000 5.000 5.000 4.000 4.000 4.000 4.000 5.000 5.000 5.000 3.000 3.000 3.000 5.000 3.000 2.000 2.000 1.000 1.000 1.000 0.000 -1.000 -2.000 -2.000 -2.000 -2.000 -1.000 -1.000 0.000 0.000 0.000 0.000 0.000 0.000 0.000 0.000 1.000 3.000 3.000 3.000 0.000 0.000 -1.000 -1.000 0.000 0.000 3.000 4.000 4.000 5.000 6.000 7.000 7.000 8.000 10.000 10.000 10.000 10.000 11.000 11.000 9.000 8.000 9.000 9.000 9.000 9.000 9.000 9.000 9.000 8.000 8.000 6.000 5.000 5.000 5.000 5.000 5.000 5.000 5.000 8.000 9.000 9.000 8.000 9.000 8.000 8.000 8.000 7.000 8.000 8.000 9.000 9.000 9.000 7.000 5.000 3.000 3.000 3.000 4.000 4.000 4.000 5.000 4.000 4.000 4.000 5.000 6.000 6.000 5.000 4.000 5.000 5.000 2.798 2.904 2.904 3.009 2.977 2.810 2.810 2.642 2.440 2.204 2.204 1.968 1.851 1.851 1.852 1.854 2.189 2.189 3.000 3.000 3.000 4.000 3.000 2.000 2.000 0.000 0.000 0.000 0.000 0.000 0.000 0.000 2.000 2.000 0.000 0.000 0.000 0.000 1.000 1.000 2.000 3.000 3.000 4.000 6.000 6.000 6.000 7.000 7.000 7.000 7.000 7.000 6.000 6.000 -9999.000 
-9999.000 5.000 5.000 5.000 6.000 5.000 5.000 5.000 5.000 5.000 6.000 4.000 3.000 3.000 5.000 4.000 2.000 2.000 0.000 0.000 0.000 0.000 -1.000 -3.000 -3.000 -3.000 -3.000 -2.000 -2.000 -1.000 0.000 0.000 -1.000 1.000 1.000 1.000 1.000 2.000 3.000 3.000 3.000 1.000 1.000 -1.000 0.000 2.000 2.000 3.000 4.000 4.000 5.000 5.000 6.000 6.000 7.000 10.000 11.000 11.000 11.000 11.000 11.000 9.000 8.000 8.000 8.000 10.000 10.000 9.000 9.000 9.000 8.000 8.000 6.000 5.000 5.000 5.000 5.000 5.000 5.000 5.000 8.000 9.000 9.000 8.000 10.000 9.000 9.000 9.000 9.000 9.000 9.000 9.000 8.000 8.000 7.000 5.000 3.000 3.000 3.000 3.000 3.000 3.000 5.000 4.000 4.000 4.000 5.000 6.000 6.000 6.000 5.000 5.000 5.000 4.448 4.091 4.091 3.734 3.431 3.181 3.181 2.932 2.708 2.509 2.509 2.310 2.207 2.207 2.200 2.192 2.329 2.329 3.000 3.000 3.000 3.000 3.000 2.000 2.000 1.000 1.000 0.000 0.000 0.000 0.000 0.000 3.000 3.000 1.000 1.000 0.000 0.000 0.000 0.000 1.000 2.000 2.000 3.000 5.000 6.000 6.000 7.000 7.000 8.000 8.000 8.000 7.000 7.000 -9999.000 
-9999.000 5.000 5.000 5.000 5.000 4.000 4.000 4.000 4.000 4.000 4.000 3.000 3.000 3.000 5.000 4.000 3.000 3.000 1.000 0.000 0.000 0.000 -1.000 -3.000 -3.000 -3.000 -2.000 -2.000 -2.000 -1.000 -1.000 -1.000 -2.000 0.000 1.000 1.000 1.000 1.000 2.000 2.000 2.000 1.000 1.000 1.000 2.000 2.000 2.000 3.000 4.000 4.000 5.000 5.000 6.000 6.000 7.000 10.000 10.000 10.000 11.000 11.000 11.000 10.000 9.000 8.000 8.000 7.000 8.000 8.000 8.000 9.000 8.000 8.000 7.000 6.000 5.000 5.000 5.000 5.000 4.000 4.000 8.000 9.000 9.000 9.000 9.000 9.000 9.000 9.000 8.000 7.000 7.000 8.000 9.000 9.000 7.000 4.000 2.000 2.000 2.000 2.000 3.000 3.000 4.000 3.000 3.000 3.000 4.000 6.000 6.000 6.000 4.000 5.000 5.000 5.250 4.762 4.762 4.273 3.867 3.542 3.542 3.218 2.968 2.793 2.793 2.618 2.573 2.573 2.661 2.748 2.757 2.757 2.688 2.619 2.619 2.000 3.000 4.000 4.000 4.000 4.000 2.000 2.000 0.000 0.000 0.000 3.000 3.000 2.000 2.000 0.000 0.000 0.000 0.000 2.000 1.000 1.000 2.000 5.000 6.000 6.000 7.000 8.000 9.000 9.000 9.000 9.000 9.000 -9999.000 
-9999.000 6.000 6.000 6.000 5.000 3.000 3.000 2.000 2.000 2.000 2.000 2.000 3.000 3.000 6.000 5.000 4.000 4.000 3.000 1.000 1.000 -1.000 -2.000 -4.000 -4.000 -3.000 -2.000 -1.000 -1.000 -1.000 -2.000 -2.000 -3.000 -1.000 1.000 1.000 1.000 0.000 1.000 1.000 1.000 1.000 1.000 3.000 3.000 2.000 2.000 3.000 4.000 4.000 4.000 5.000 6.000 6.000 7.000 10.000 10.000 10.000 10.000 11.000 11.000 10.000 9.000 8.000 8.000 5.000 6.000 7.000 7.000 9.000 9.000 9.000 8.000 7.000 5.000 5.000 5.000 5.000 4.000 4.000 8.000 9.000 9.000 10.000 9.000 9.000 9.000 9.000 8.000 7.000 7.000 7.000 9.000 9.000 7.000 4.000 1.000 1.000 1.000 2.000 3.000 3.000 4.000 3.000 3.000 2.000 2.000 5.000 5.000 5.000 4.000 5.000 5.000 6.052 5.432 5.432 4.813 4.303 3.904 3.904 3.504 3.229 3.077 3.077 2.925 2.940 2.940 3.122 3.303 3.185 3.185 2.766 2.348 2.348 2.000 4.000 5.000 5.000 5.000 5.000 2.000 2.000 0.000 0.000 0.000 2.000 3.000 3.000 3.000 1.000 0.000 1.000 1.000 3.000 1.000 1.000 1.000 5.000 6.000 6.000 7.000 8.000 9.000 9.000 9.000 10.000 10.000 -9999.000 
-9999.000 6.000 6.000 6.000 5.000 3.000 3.000 2.000 2.000 2.000 2.000 2.000 3.000 3.000 5.000 4.000 3.000 3.000 2.000 1.000 1.000 0.000 -1.000 -4.000 -4.000 -2.000 0.000 -1.000 -1.000 -2.000 -2.000 -2.000 -2.000 0.000 1.000 1.000 1.000 1.000 1.000 1.000 1.000 1.000 1.000 3.000 3.000 3.000 3.000 3.000 3.000 3.000 4.000 5.000 6.000 6.000 8.000 10.000 10.000 10.000 10.000 10.000 10.000 9.000 9.000 8.000 8.000 6.000 5.000 7.000 7.000 9.000 9.000 9.000 8.000 6.000 5.000 5.000 5.000 5.000 6.000 6.000 8.000 9.000 9.000 10.000 9.000 9.000 9.000 10.000 10.000 11.000 11.000 10.000 8.000 8.000 7.000 5.000 3.000 3.000 1.000 2.000 3.000 3.000 5.000 4.000 4.000 2.000 0.000 3.000 3.000 5.000 6.000 7.000 7.000 6.644 5.951 5.951 5.257 4.671 4.193 4.193 3.714 3.408 3.273 3.273 3.139 3.190 3.190 3.427 3.664 3.597 3.597 3.227 2.856 2.856 4.000 5.000 5.000 5.000 4.000 5.000 2.000 2.000 0.000 0.000 0.000 1.000 2.000 3.000 3.000 1.000 0.000 1.000 1.000 4.000 1.000 1.000 1.000 4.000 6.000 6.000 7.000 8.000 8.000 8.000 9.000 10.000 10.000 -9999.000 
-9999.000 7.000 7.000 6.000 5.000 3.000 3.000 2.000 2.000 2.000 2.000 2.000 3.000 3.000 4.000 3.000 3.000 3.000 2.000 1.000 1.000 1.000 0.000 -3.000 -3.000 0.000 1.000 0.000 0.000 -2.000 -2.000 -2.000 -1.000 1.000 1.000 1.000 1.000 2.000 1.000 1.000 1.000 1.000 1.000 2.000 3.000 3.000 3.000 4.000 3.000 3.000 4.000 6.000 7.000 7.000 8.000 10.000 9.000 9.000 9.000 9.000 9.000 8.000 8.000 7.000 7.000 6.000 5.000 7.000 7.000 9.000 9.000 9.000 7.000 5.000 5.000 5.000 5.000 6.000 8.000 8.000 8.000 9.000 9.000 10.000 9.000 9.000 9.000 10.000 11.000 13.000 13.000 12.000 7.000 7.000 6.000 5.000 4.000 4.000 2.000 2.000 3.000 3.000 5.000 4.000 4.000 2.000 0.000 2.000 2.000 4.000 6.000 7.000 7.000 7.026 6.317 6.317 5.608 4.972 4.410 4.410 3.848 3.505 3.382 3.382 3.258 3.323 3.323 3.577 3.830 3.994 3.994 4.069 4.143 4.143 5.000 6.000 5.000 5.000 4.000 5.000 2.000 2.000 0.000 0.000 0.000 0.000 2.000 4.000 4.000 1.000 0.000 1.000 1.000 4.000 1.000 1.000 1.000 4.000 6.000 6.000 7.000 8.000 8.000 8.000 8.000 9.000 9.000 -9999.000 
-9999.000 7.000 7.000 6.000 4.000 3.000 3.000 2.000 2.000 2.000 2.000 2.000 2.000 2.000 3.000 3.000 3.000 3.000 2.000 2.000 2.000 2.000 1.000 -2.000 -2.000 1.000 2.000 2.000 2.000 0.000 0.000 0.000 1.000 2.000 2.000 2.000 3.000 4.000 3.000 3.000 1.000 0.000 0.000 2.000 3.000 2.000 2.000 2.000 3.000 3.000 4.000 5.000 7.000 7.000 9.000 11.000 10.000 10.000 9.000 9.000 9.000 9.000 6.000 4.000 4.000 3.000 5.000 7.000 7.000 10.000 9.000 9.000 8.000 7.000 5.000 5.000 5.000 6.000 8.000 8.000 7.000 8.000 8.000 10.000 10.000 9.000 9.000 9.000 9.000 11.000 11.000 11.000 8.000 8.000 7.000 5.000 3.000 3.000 2.000 2.000 2.000 2.000 3.000 2.000 2.000 2.000 1.000 3.000 3.000 4.000 6.000 7.000 7.000 7.408 6.683 6.683 5.958 5.273 4.628 4.628 3.982 3.603 3.490 3.490 3.377 3.456 3.456 3.726 3.996 4.391 4.391 4.911 5.431 5.431 5.590 5.000 5.000 5.000 4.000 4.000 2.000 2.000 0.000 0.000 0.000 0.000 2.000 5.000 5.000 1.000 0.000 0.000 0.000 2.000 1.000 1.000 1.000 4.000 6.000 6.000 7.000 7.000 7.000 7.000 7.000 8.000 8.000 -9999.000 
-9999.000 6.000 6.000 5.000 4.000 2.000 2.000 2.000 2.000 2.000 2.000 2.000 2.000 2.000 2.000 3.000 3.000 3.000 2.000 3.000 3.000 3.000 2.000 -1.000 -1.000 1.000 3.000 3.000 3.000 2.000 1.000 1.000 2.000 3.000 3.000 3.000 5.000 7.000 5.000 5.000 2.000 -1.000 -1.000 2.000 2.000 1.000 1.000 1.000 2.000 2.000 4.000 5.000 8.000 8.000 10.000 11.000 10.000 10.000 10.000 9.000 9.000 9.000 6.000 2.000 2.000 0.000 4.000 7.000 7.000 10.000 9.000 9.000 9.000 8.000 5.000 5.000 5.000 6.000 8.000 8.000 6.000 7.000 7.000 10.000 10.000 9.000 9.000 8.000 8.000 9.000 9.000 9.000 9.000 9.000 7.000 5.000 3.000 3.000 3.000 2.000 2.000 2.000 1.000 2.000 2.000 3.000 3.000 4.000 4.000 5.000 5.000 6.000 6.000 7.082 6.620 6.620 6.158 5.538 4.762 4.762 3.986 3.556 3.471 3.471 3.387 3.484 3.484 3.764 4.044 4.571 4.571 5.345 6.119 6.119 6.141 5.000 4.000 4.000 4.000 4.000 2.000 2.000 1.000 0.000 0.000 0.000 2.000 4.000 4.000 2.000 1.000 1.000 1.000 2.000 1.000 1.000 2.000 4.000 6.000 6.000 7.000 7.000 6.000 6.000 7.000 7.000 7.000 -9999.000 
-9999.000 6.000 6.000 5.000 4.000 3.000 3.000 2.000 2.000 2.000 2.000 2.000 2.000 2.000 2.000 4.000 4.000 4.000 3.000 3.000 3.000 3.000 3.000 1.000 1.000 1.000 2.000 2.000 2.000 1.000 0.000 0.000 1.000 2.000 2.000 2.000 3.000 6.000 4.000 4.000 2.000 0.000 0.000 1.000 2.000 1.000 1.000 2.000 3.000 3.000 4.000 6.000 8.000 8.000 10.000 10.000 10.000 10.000 10.000 9.000 9.000 9.000 8.000 5.000 5.000 1.000 5.000 7.000 7.000 9.000 9.000 9.000 9.000 8.000 5.000 5.000 5.000 5.000 7.000 7.000 6.000 8.000 8.000 10.000 10.000 10.000 10.000 10.000 8.000 8.000 8.000 9.000 8.000 8.000 7.000 5.000 3.000 3.000 5.000 5.000 4.000 4.000 3.000 4.000 4.000 5.000 5.000 5.000 5.000 5.000 5.000 6.000 6.000 6.050 6.128 6.128 6.206 5.768 4.815 4.815 3.861 3.365 3.325 3.325 3.286 3.407 3.407 3.690 3.972 4.532 4.532 5.370 6.208 6.208 6.111 5.000 4.000 4.000 3.000 3.000 4.000 4.000 3.000 0.000 0.000 0.000 1.000 2.000 2.000 3.000 3.000 2.000 2.000 2.000 2.000 2.000 2.000 5.000 7.000 7.000 8.000 8.000 7.000 7.000 7.000 6.000 6.000 -9999.000 
-9999.000 6.000 6.000 6.000 5.000 3.000 3.000 2.000 2.000 2.000 2.000 2.000 2.000 2.000 2.000 5.000 5.000 5.000 4.000 4.000 4.000 3.000 3.000 2.000 2.000 1.000 0.000 1.000 1.000 0.000 0.000 0.000 -1.000 1.000 0.000 0.000 1.000 5.000 4.000 4.000 3.000 1.000 1.000 1.000 1.000 1.000 1.000 3.000 4.000 4.000 5.000 7.000 9.000 9.000 10.000 9.000 10.000 10.000 10.000 9.000 9.000 10.000 9.000 7.000 7.000 2.000 5.000 7.000 7.000 8.000 10.000 10.000 10.000 8.000 5.000 5.000 5.000 6.000 6.000 6.000 7.000 8.000 8.000 10.000 10.000 11.000 11.000 11.000 8.000 8.000 8.000 8.000 8.000 8.000 7.000 5.000 4.000 4.000 7.000 7.000 6.000 6.000 4.000 6.000 6.000 7.000 8.000 7.000 7.000 6.000 5.000 5.000 5.000 5.017 5.636 5.636 6.254 5.998 4.867 4.867 3.736 3.173 3.179 3.179 3.185 3.330 3.330 3.615 3.901 4.494 4.494 5.396 6.297 6.297 6.081 5.000 4.000 4.000 3.000 3.000 4.000 4.000 4.000 0.000 0.000 0.000 0.000 1.000 1.000 3.000 4.000 3.000 3.000 2.000 2.000 2.000 3.000 5.000 7.000 7.000 8.000 8.000 8.000 8.000 7.000 6.000 6.000 -9999.000 
-9999.000 6.000 6.000 6.000 5.000 3.000 3.000 2.000 2.000 2.000 2.000 2.000 2.000 2.000 2.000 6.000 6.000 6.000 4.000 3.000 3.000 2.000 2.000 2.000 2.000 1.000 0.000 1.000 1.000 0.000 -1.000 -1.000 -1.000 0.000 0.000 0.000 1.000 4.000 4.000 4.000 4.000 3.000 3.000 1.000 1.000 1.000 1.000 3.000 4.000 4.000 4.000 6.000 8.000 8.000 9.000 8.000 10.000 10.000 10.000 10.000 10.000 10.000 10.000 7.000 7.000 2.000 5.000 7.000 7.000 9.000 11.000 11.000 10.000 8.000 6.000 6.000 6.000 7.000 8.000 8.000 9.000 10.000 10.000 10.000 10.000 11.000 11.000 11.000 8.000 8.000 8.000 7.000 7.000 7.000 8.000 7.000 6.000 6.000 8.000 8.000 7.000 7.000 5.000 6.000 6.000 8.000 10.000 9.000 9.000 7.000 6.000 5.000 5.000 5.000 5.000 5.000 6.091 5.885 4.582 4.582 3.279 2.697 2.834 2.834 2.972 3.168 3.168 3.422 3.676 4.195 4.195 4.981 5.767 5.767 5.374 3.803 2.232 2.232 2.000 2.000 3.000 3.000 3.000 0.000 0.000 0.000 0.000 0.000 0.000 3.000 4.000 3.000 3.000 3.000 3.000 3.000 4.000 6.000 8.000 8.000 9.000 9.000 8.000 8.000 7.000 7.000 7.000 -9999.000 
-9999.000 7.000 7.000 7.000 6.000 3.000 3.000 2.000 2.000 2.000 2.000 2.000 2.000 2.000 2.000 7.000 7.000 7.000 5.000 3.000 3.000 2.000 1.000 2.000 2.000 1.000 0.000 1.000 1.000 0.000 -1.000 -1.000 -2.000 -1.000 0.000 0.000 2.000 4.000 4.000 4.000 4.000 4.000 4.000 2.000 1.000 1.000 1.000 3.000 4.000 4.000 4.000 5.000 7.000 7.000 8.000 8.000 9.000 9.000 10.000 10.000 10.000 11.000 10.000 7.000 7.000 3.000 5.000 7.000 7.000 10.000 11.000 11.000 10.000 9.000 7.000 7.000 7.000 7.000 8.000 8.000 10.000 11.000 11.000 10.000 10.000 11.000 11.000 11.000 9.000 8.000 8.000 8.000 7.000 7.000 8.000 8.000 8.000 8.000 9.000 9.000 8.000 8.000 6.000 7.000 7.000 8.000 11.000 10.000 10.000 8.000 7.000 5.000 5.000 5.000 5.000 5.000 5.717 5.429 3.960 3.960 2.491 1.934 2.291 2.291 2.648 2.920 2.920 3.109 3.297 3.636 3.636 4.127 4.618 4.618 3.992 2.250 0.508 0.508 0.000 1.000 3.000 3.000 3.000 0.000 0.000 0.000 0.000 0.000 0.000 3.000 4.000 3.000 3.000 3.000 4.000 4.000 5.000 6.000 8.000 8.000 9.000 9.000 9.000 9.000 8.000 8.000 8.000 -9999.000 
-9999.000 8.000 8.000 8.000 7.000 4.000 4.000 3.000 2.000 2.000 2.000 2.000 2.000 2.000 2.000 6.000 7.000 7.000 5.000 3.000 3.000 2.000 1.000 1.000 1.000 0.000 -1.000 -1.000 -1.000 -1.000 -2.000 -2.000 -1.000 -1.000 0.000 0.000 1.000 3.000 3.000 3.000 2.000 1.000 1.000 2.000 2.000 2.000 2.000 2.000 3.000 3.000 4.000 4.000 5.000 5.000 7.000 8.000 9.000 9.000 10.000 10.000 10.000 10.000 10.000 8.000 8.000 5.000 5.000 7.000 7.000 9.000 10.000 10.000 10.000 9.000 8.000 8.000 6.000 6.000 6.000 6.000 9.000 11.000 11.000 11.000 10.000 10.000 10.000 10.000 9.000 9.000 9.000 9.000 8.000 8.000 9.000 9.000 8.000 8.000 9.000 10.000 9.000 9.000 6.000 7.000 7.000 8.000 10.000 10.000 10.000 9.000 7.000 4.000 4.000 4.000 4.000 4.000 5.000 4.973 3.338 3.338 1.702 1.172 1.748 1.748 2.324 2.673 2.673 2.796 2.918 3.078 3.078 3.273 3.468 3.468 2.610 0.697 -1.215 -1.215 -2.000 1.000 2.000 2.000 2.000 0.000 0.000 0.000 0.000 0.000 0.000 4.000 4.000 3.000 3.000 4.000 4.000 4.000 5.000 5.000 7.000 7.000 8.000 9.000 9.000 9.000 10.000 9.000 9.000 -9999.000 
-9999.000 9.000 9.000 9.000 8.000 6.000 6.000 4.000 2.000 2.000 2.000 2.000 2.000 2.000 2.000 5.000 6.000 6.000 5.000 3.000 3.000 2.000 1.000 0.000 0.000 -1.000 -1.000 -2.000 -2.000 -2.000 -1.000 -1.000 -1.000 -1.000 0.000 0.000 1.000 3.000 2.000 2.000 0.000 -2.000 -2.000 2.000 3.000 1.000 1.000 0.000 1.000 1.000 3.000 3.000 4.000 4.000 6.000 8.000 9.000 9.000 9.000 9.000 9.000 10.000 10.000 9.000 9.000 6.000 6.000 7.000 7.000 9.000 9.000 9.000 9.000 9.000 8.000 8.000 6.000 5.000 5.000 5.000 8.000 10.000 10.000 11.000 10.000 9.000 9.000 9.000 9.000 10.000 10.000 10.000 8.000 8.000 9.000 9.000 9.000 9.000 10.000 10.000 9.000 9.000 6.000 7.000 7.000 9.000 10.000 11.000 11.000 10.000 7.000 4.000 4.000 3.000 4.000 4.000 5.000 4.436 3.160 3.160 1.884 1.464 1.900 1.900 2.336 2.558 2.558 2.567 2.575 2.618 2.618 2.694 2.771 2.771 1.993 0.361 -1.270 -1.270 -2.000 1.000 2.000 2.000 2.000 1.000 1.000 1.000 1.000 2.000 2.000 5.000 5.000 3.000 3.000 4.000 5.000 5.000 6.000 6.000 8.000 8.000 9.000 9.000 10.000 10.000 10.000 10.000 10.000 -9999.000 
-9999.000 10.000 10.000 9.000 8.000 6.000 6.000 4.000 2.000 2.000 2.000 2.000 2.000 2.000 2.000 5.000 6.000 6.000 5.000 3.000 3.000 2.000 0.000 0.000 0.000 0.000 0.000 0.000 0.000 0.000 0.000 0.000 1.000 -1.000 0.000 0.000 1.000 2.000 1.000 1.000 -1.000 -1.000 -1.000 1.000 1.000 -1.000 -1.000 -3.000 -1.000 -1.000 1.000 2.000 3.000 3.000 6.000 9.000 9.000 9.000 9.000 8.000 8.000 11.000 11.000 10.000 10.000 7.000 7.000 7.000 7.000 8.000 9.000 9.000 9.000 8.000 6.000 6.000 4.000 3.000 4.000 4.000 8.000 10.000 10.000 10.000 9.000 9.000 9.000 8.000 9.000 9.000 9.000 9.000 9.000 9.000 8.000 8.000 8.000 8.000 9.000 10.000 9.000 9.000 7.000 8.000 8.000 9.000 10.000 11.000 11.000 10.000 9.000 5.000 5.000 3.000 3.000 3.000 5.000 4.000 3.000 3.000 3.037 2.810 2.747 2.747 2.684 2.576 2.576 2.422 2.268 2.257 2.257 2.391 2.524 2.524 2.141 1.242 0.343 0.343 0.121 2.000 2.000 2.000 2.000 2.000 2.000 3.000 3.000 4.000 4.000 6.000 5.000 2.000 2.000 3.000 5.000 5.000 7.000 7.000 8.000 8.000 9.000 10.000 11.000 11.000 10.000 10.000 10.000 -9999.000 
-9999.000 11.000 11.000 10.000 9.000 6.000 6.000 4.000 2.000 2.000 2.000 2.000 2.000 2.000 2.000 4.000 5.000 5.000 5.000 4.000 4.000 2.000 0.000 0.000 0.000 1.000 1.000 1.000 1.000 1.000 1.000 1.000 2.000 0.000 -1.000 -1.000 0.000 1.000 0.000 0.000 -1.000 -1.000 -1.000 0.000 -1.000 -3.000 -3.000 -4.000 -2.000 -2.000 0.000 1.000 3.000 3.000 6.000 10.000 9.000 9.000 8.000 8.000 8.000 11.000 11.000 10.000 10.000 8.000 8.000 8.000 8.000 8.000 9.000 9.000 9.000 8.000 5.000 5.000 3.000 2.000 4.000 4.000 8.000 9.000 9.000 9.000 9.000 9.000 9.000 8.000 9.000 9.000 9.000 9.000 9.000 9.000 9.000 8.000 8.000 8.000 9.000 10.000 10.000 10.000 8.000 8.000 8.000 9.000 10.000 10.000 10.000 10.000 9.000 6.000 6.000 3.000 2.000 2.000 4.000 3.000 3.000 3.000 4.189 4.157 3.595 3.595 3.033 2.594 2.594 2.277 1.960 1.897 1.897 2.087 2.278 2.278 2.290 2.123 1.957 1.957 1.566 2.000 1.000 1.000 1.000 2.000 2.000 3.000 4.000 5.000 5.000 6.000 4.000 2.000 2.000 4.000 6.000 6.000 8.000 8.000 9.000 9.000 10.000 10.000 11.000 11.000 11.000 10.000 10.000 -9999.000 
-9999.000 10.000 10.000 10.000 9.000 6.000 6.000 5.000 3.000 3.000 2.000 2.000 2.000 2.000 2.000 4.000 5.000 5.000 5.000 4.000 4.000 2.000 1.000 1.000 1.000 0.000 1.000 1.000 1.000 1.000 1.000 1.000 1.000 -1.000 -1.000 -1.000 0.000 1.000 0.000 0.000 -1.000 0.000 0.000 0.000 -1.000 -2.000 -2.000 -3.000 -2.000 -2.000 1.000 2.000 4.000 4.000 7.000 9.000 10.000 10.000 9.000 9.000 9.000 11.000 11.000 9.000 9.000 8.000 9.000 9.000 9.000 7.000 9.000 9.000 10.000 9.000 6.000 6.000 2.000 2.000 5.000 5.000 9.000 10.000 10.000 10.000 10.000 9.000 9.000 9.000 9.000 10.000 10.000 10.000 10.000 10.000 9.000 8.000 8.000 8.000 9.000 10.000 10.000 10.000 8.000 8.000 8.000 9.000 9.000 10.000 10.000 10.000 8.000 5.000 5.000 3.000 2.000 2.000 2.000 3.000 4.000 4.000 5.000 4.000 4.000 4.000 3.256 2.621 2.621 2.073 1.524 1.401 1.401 1.705 2.008 2.008 2.213 2.320 2.428 2.428 2.009 0.000 0.000 0.000 0.000 2.000 2.000 2.000 4.000 6.000 6.000 6.000 4.000 2.000 2.000 5.000 7.000 7.000 8.000 9.000 9.000 9.000 10.000 10.000 11.000 11.000 11.000 11.000 11.000 -9999.000 
-9999.000 10.000 10.000 10.000 9.000 7.000 7.000 6.000 5.000 5.000 2.000 2.000 2.000 2.000 2.000 3.000 5.000 5.000 6.000 5.000 5.000 3.000 1.000 1.000 1.000 0.000 0.000 1.000 1.000 0.000 0.000 0.000 0.000 -1.000 -1.000 -1.000 0.000 2.000 0.000 0.000 0.000 1.000 1.000 -1.000 -2.000 -1.000 -1.000 -2.000 -1.000 -1.000 1.000 2.000 5.000 5.000 8.000 9.000 10.000 10.000 10.000 10.000 10.000 11.000 10.000 9.000 9.000 8.000 9.000 9.000 9.000 7.000 9.000 9.000 10.000 9.000 6.000 6.000 3.000 2.000 6.000 6.000 10.000 11.000 11.000 10.000 10.000 10.000 10.000 9.000 9.000 10.000 10.000 11.000 10.000 10.000 9.000 8.000 8.000 8.000 9.000 10.000 10.000 10.000 9.000 8.000 8.000 9.000 9.000 10.000 10.000 10.000 8.000 5.000 5.000 3.000 2.000 2.000 1.000 2.000 3.000 3.000 5.000 4.000 4.000 4.000 3.354 2.658 2.658 1.809 0.960 0.771 0.771 1.243 1.716 1.716 1.912 1.834 1.756 1.756 1.450 0.000 -1.000 -1.000 0.000 2.000 2.000 2.000 4.000 6.000 6.000 6.000 4.000 3.000 3.000 6.000 7.000 7.000 8.000 9.000 9.000 9.000 9.000 9.000 10.000 10.000 11.000 11.000 11.000 -9999.000 
-9999.000 11.000 11.000 10.000 8.000 7.000 7.000 7.000 5.000 5.000 3.000 2.000 2.000 2.000 2.000 3.000 4.000 4.000 5.000 4.000 4.000 3.000 1.000 1.000 1.000 1.000 1.000 2.000 2.000 1.000 1.000 1.000 0.000 0.000 0.000 0.000 0.000 3.000 1.000 1.000 0.000 0.000 0.000 -2.000 -2.000 1.000 1.000 -1.000 0.000 0.000 2.000 3.000 6.000 6.000 8.000 9.000 9.000 9.000 9.000 10.000 10.000 10.000 10.000 9.000 9.000 6.000 8.000 8.000 8.000 8.000 9.000 9.000 10.000 10.000 7.000 7.000 3.000 2.000 6.000 6.000 10.000 12.000 12.000 11.000 11.000 10.000 10.000 9.000 9.000 10.000 10.000 10.000 9.000 9.000 8.000 7.000 7.000 7.000 8.000 9.000 10.000 10.000 9.000 9.000 9.000 10.000 10.000 11.000 11.000 10.000 9.000 6.000 6.000 4.000 2.000 2.000 1.000 2.000 3.000 3.000 4.000 4.000 4.000 4.000 4.000 2.695 2.695 1.546 0.396 0.141 0.141 0.782 1.423 1.423 1.612 1.347 1.083 1.083 0.892 1.000 0.000 0.000 1.000 3.000 3.000 3.000 4.000 5.000 5.000 6.000 5.000 4.000 4.000 6.000 7.000 7.000 7.000 8.000 8.000 8.000 7.000 7.000 9.000 9.000 11.000 12.000 12.000 -9999.000 
-9999.000 12.000 12.000 11.000 8.000 8.000 8.000 8.000 6.000 6.000 3.000 2.000 2.000 2.000 2.000 3.000 4.000 4.000 5.000 3.000 3.000 2.000 1.000 1.000 1.000 2.000 2.000 2.000 2.000 2.000 1.000 1.000 0.000 1.000 0.000 0.000 0.000 3.000 2.000 2.000 0.000 -1.000 -1.000 -3.000 -2.000 1.000 1.000 0.000 1.000 1.000 2.000 3.000 6.000 6.000 8.000 9.000 9.000 9.000 9.000 9.000 9.000 10.000 10.000 9.000 9.000 5.000 7.000 8.000 8.000 8.000 9.000 9.000 10.000 10.000 8.000 8.000 4.000 3.000 7.000 7.000 11.000 12.000 12.000 11.000 11.000 10.000 10.000 9.000 9.000 10.000 10.000 10.000 9.000 9.000 8.000 7.000 7.000 7.000 8.000 9.000 10.000 10.000 10.000 10.000 10.000 10.000 11.000 11.000 11.000 10.000 9.000 7.000 7.000 4.000 2.000 2.000 1.000 1.000 2.000 2.000 4.000 3.000 3.000 3.000 4.000 2.684 2.684 1.367 0.050 -0.204 -0.204 0.606 1.416 1.416 1.676 1.388 1.099 1.099 1.000 2.000 1.000 1.000 2.000 4.000 4.000 5.000 5.000 5.000 5.000 6.000 5.000 5.000 5.000 6.000 6.000 6.000 7.000 8.000 8.000 8.000 7.000 7.000 9.000 9.000 10.000 12.000 12.000 -9999.000 
-9999.000 11.000 11.000 10.000 9.000 8.000 8.000 7.000 6.000 6.000 6.000 6.000 5.000 5.000 4.000 5.000 5.000 5.000 5.000 3.000 3.000 2.000 1.000 2.000 2.000 2.000 2.000 1.000 1.000 1.000 0.000 0.000 -1.000 0.000 0.000 0.000 0.000 2.000 2.000 2.000 0.000 -1.000 -1.000 -3.000 -3.000 0.000 0.000 1.000 2.000 2.000 3.000 4.000 7.000 7.000 9.000 10.000 9.000 9.000 9.000 10.000 10.000 10.000 11.000 9.000 9.000 5.000 7.000 8.000 8.000 8.000 8.000 8.000 9.000 9.000 7.000 7.000 5.000 4.000 7.000 7.000 10.000 11.000 11.000 10.000 10.000 10.000 10.000 10.000 10.000 10.000 10.000 10.000 8.000 8.000 9.000 9.000 8.000 8.000 8.000 9.000 10.000 10.000 10.000 10.000 10.000 9.000 10.000 11.000 11.000 10.000 8.000 7.000 7.000 5.000 3.000 3.000 1.000 1.000 2.000 2.000 4.000 3.000 3.000 3.000 4.000 2.000 2.000 1.273 -0.078 -0.264 -0.264 0.715 1.694 1.694 2.107 1.955 1.802 1.802 1.000 3.000 3.000 3.000 3.000 6.000 6.000 7.000 7.000 6.000 6.000 5.000 5.000 5.000 5.000 5.000 5.000 5.000 7.000 8.000 8.000 8.000 8.000 7.000 8.000 8.000 10.000 11.000 11.000 -9999.000 
-9999.000 11.000 11.000 10.000 9.000 8.000 8.000 7.000 6.000 6.000 8.000 9.000 8.000 8.000 6.000 6.000 6.000 6.000 5.000 4.000 4.000 2.000 1.000 2.000 2.000 2.000 2.000 1.000 1.000 1.000 0.000 0.000 -2.000 -1.000 -1.000 -1.000 -1.000 1.000 1.000 1.000 0.000 -1.000 -1.000 -3.000 -3.000 -2.000 -2.000 1.000 2.000 2.000 3.000 5.000 7.000 7.000 8.000 10.000 9.000 9.000 9.000 10.000 10.000 11.000 11.000 10.000 10.000 6.000 7.000 8.000 8.000 8.000 8.000 8.000 9.000 9.000 8.000 8.000 6.000 6.000 9.000 9.000 10.000 10.000 10.000 9.000 9.000 10.000 10.000 11.000 10.000 10.000 10.000 9.000 8.000 8.000 9.000 9.000 8.000 8.000 8.000 8.000 10.000 10.000 10.000 10.000 10.000 9.000 9.000 11.000 11.000 10.000 8.000 7.000 7.000 6.000 4.000 4.000 1.000 2.000 3.000 3.000 4.000 3.000 3.000 3.000 4.000 2.000 2.000 1.179 -0.206 -0.325 -0.325 0.824 1.972 1.972 2.538 2.521 2.505 2.505 2.000 3.000 3.000 3.000 4.000 7.000 7.000 8.000 8.000 5.000 5.000 4.000 4.000 5.000 5.000 4.000 5.000 5.000 7.000 8.000 9.000 9.000 8.000 8.000 8.000 8.000 9.000 11.000 11.000 -9999.000 
-9999.000 12.000 12.000 11.000 11.000 9.000 9.000 7.000 6.000 6.000 8.000 6.000 5.000 5.000 6.000 7.000 7.000 7.000 7.000 5.000 5.000 3.000 2.000 2.000 2.000 2.000 1.000 0.000 0.000 0.000 0.000 0.000 -1.000 -2.000 -2.000 -2.000 -1.000 0.000 1.000 1.000 0.000 -1.000 -1.000 -3.000 -3.000 -2.000 -2.000 0.000 2.000 2.000 3.000 4.000 6.000 6.000 8.000 8.000 9.000 9.000 9.000 9.000 9.000 11.000 11.000 9.000 9.000 7.000 7.000 8.000 8.000 9.000 9.000 9.000 9.000 9.000 9.000 9.000 8.000 8.000 11.000 11.000 10.000 10.000 10.000 9.000 8.000 10.000 10.000 11.000 10.000 10.000 10.000 9.000 8.000 8.000 9.000 9.000 7.000 7.000 7.000 8.000 8.000 8.000 9.000 9.000 9.000 9.000 10.000 11.000 11.000 11.000 9.000 8.000 8.000 7.000 5.000 5.000 3.000 3.000 4.000 4.000 3.000 3.000 4.000 4.000 4.000 2.000 2.000 1.775 0.830 0.835 0.835 1.789 2.743 2.743 3.314 3.502 3.690 3.690 4.000 3.000 3.000 3.000 3.000 7.000 7.000 9.000 7.000 4.000 4.000 2.000 2.000 3.000 3.000 4.000 6.000 6.000 7.000 9.000 8.000 8.000 8.000 9.000 8.000 8.000 9.000 11.000 11.000 -9999.000 
-9999.000 12.000 12.000 12.000 13.000 9.000 9.000 7.000 6.000 6.000 7.000 4.000 3.000 3.000 6.000 7.000 8.000 8.000 9.000 6.000 6.000 4.000 2.000 3.000 3.000 2.000 1.000 -1.000 -1.000 0.000 0.000 0.000 0.000 -3.000 -2.000 -2.000 -1.000 -1.000 0.000 0.000 0.000 -1.000 -1.000 -3.000 -3.000 -3.000 -3.000 -1.000 1.000 1.000 2.000 3.000 6.000 6.000 8.000 7.000 9.000 9.000 9.000 8.000 8.000 10.000 10.000 10.000 10.000 8.000 7.000 8.000 8.000 9.000 9.000 9.000 9.000 9.000 10.000 10.000 10.000 10.000 12.000 12.000 11.000 10.000 10.000 9.000 8.000 10.000 10.000 11.000 10.000 9.000 9.000 9.000 8.000 8.000 9.000 9.000 8.000 8.000 7.000 7.000 8.000 8.000 9.000 9.000 9.000 9.000 10.000 11.000 11.000 11.000 9.000 9.000 9.000 7.000 5.000 5.000 3.000 3.000 4.000 4.000 3.000 3.000 4.000 4.000 4.000 3.000 3.000 3.062 3.031 3.214 3.214 3.611 4.007 4.007 4.436 4.896 5.356 5.356 6.000 5.000 4.000 4.000 4.000 8.000 8.000 9.000 9.000 6.000 6.000 3.000 2.000 3.000 3.000 4.000 6.000 6.000 8.000 9.000 8.000 8.000 8.000 9.000 8.000 8.000 9.000 10.000 10.000 -9999.000 
-9999.000 11.000 11.000 11.000 11.000 8.000 8.000 7.000 5.000 5.000 6.000 5.000 4.000 4.000 6.000 7.000 8.000 8.000 9.000 6.000 6.000 4.000 2.000 2.000 2.000 2.000 1.000 -1.000 -1.000 0.000 1.000 1.000 2.000 -1.000 -1.000 -1.000 0.000 -2.000 -2.000 -2.000 -2.000 -3.000 -3.000 -4.000 -5.000 -5.000 -5.000 -5.000 -3.000 -3.000 0.000 1.000 5.000 5.000 8.000 9.000 9.000 9.000 9.000 9.000 9.000 9.000 10.000 10.000 10.000 9.000 8.000 9.000 9.000 9.000 7.000 7.000 8.000 9.000 10.000 10.000 10.000 10.000 12.000 12.000 10.000 9.000 9.000 9.000 9.000 10.000 10.000 10.000 9.000 9.000 9.000 9.000 8.000 8.000 10.000 10.000 9.000 9.000 8.000 8.000 9.000 9.000 10.000 10.000 10.000 10.000 10.000 11.000 11.000 10.000 9.000 9.000 9.000 8.000 5.000 5.000 2.000 2.000 3.000 3.000 3.000 3.000 3.000 3.000 3.000 3.000 3.000 4.000 6.000 5.594 5.594 5.433 5.272 5.272 5.557 6.290 7.022 7.022 7.000 7.000 6.000 6.000 6.000 9.000 9.000 11.000 10.000 8.000 8.000 5.000 4.000 4.000 4.000 4.000 6.000 6.000 8.000 10.000 9.000 9.000 8.000 9.000 8.000 8.000 9.000 9.000 9.000 -9999.000 
-9999.000 10.000 10.000 10.000 10.000 8.000 8.000 6.000 5.000 5.000 5.000 6.000 6.000 6.000 6.000 6.000 7.000 7.000 9.000 7.000 7.000 5.000 3.000 2.000 2.000 2.000 2.000 -2.000 -2.000 0.000 2.000 2.000 3.000 0.000 0.000 0.000 1.000 -2.000 -3.000 -3.000 -3.000 -5.000 -5.000 -5.000 -6.000 -8.000 -8.000 -8.000 -5.000 -5.000 -2.000 0.000 4.000 4.000 8.000 10.000 10.000 10.000 10.000 9.000 9.000 9.000 10.000 10.000 10.000 9.000 9.000 9.000 9.000 9.000 7.000 7.000 7.000 9.000 10.000 10.000 10.000 10.000 11.000 11.000 10.000 9.000 9.000 9.000 10.000 10.000 10.000 10.000 9.000 9.000 9.000 9.000 8.000 8.000 10.000 10.000 9.000 9.000 8.000 8.000 10.000 10.000 10.000 10.000 10.000 10.000 11.000 11.000 11.000 10.000 9.000 10.000 10.000 8.000 6.000 6.000 3.000 2.000 2.000 2.000 3.000 3.000 3.000 3.000 3.000 3.000 3.000 4.000 5.000 5.490 5.490 5.627 5.764 5.764 6.244 7.069 7.894 7.894 7.000 8.000 7.000 7.000 6.000 9.000 9.000 11.000 11.000 9.000 9.000 5.000 5.000 6.000 6.000 5.000 6.000 6.000 7.000 9.000 8.000 8.000 8.000 9.000 9.000 9.000 9.000 9.000 9.000 -9999.000 
-9999.000 11.000 11.000 10.000 8.000 7.000 7.000 6.000 5.000 5.000 5.000 5.000 6.000 6.000 6.000 6.000 6.000 6.000 8.000 6.000 6.000 5.000 4.000 3.000 3.000 3.000 2.000 -1.000 -1.000 0.000 1.000 1.000 1.000 -1.000 0.000 0.000 1.000 -1.000 -2.000 -2.000 -3.000 -7.000 -7.000 -4.000 -6.000 -11.000 -11.000 -10.000 -6.000 -6.000 -3.000 0.000 3.000 3.000 7.000 10.000 11.000 11.000 10.000 9.000 9.000 9.000 10.000 10.000 10.000 10.000 10.000 10.000 10.000 10.000 8.000 8.000 8.000 10.000 10.000 10.000 10.000 9.000 10.000 10.000 10.000 10.000 10.000 10.000 11.000 11.000 11.000 10.000 10.000 9.000 9.000 9.000 9.000 9.000 10.000 9.000 8.000 8.000 6.000 7.000 9.000 9.000 10.000 10.000 10.000 11.000 12.000 11.000 11.000 10.000 8.000 10.000 10.000 9.000 7.000 7.000 5.000 3.000 3.000 3.000 2.000 3.000 4.000 4.000 4.000 3.000 3.000 2.000 3.000 2.902 2.902 4.192 5.483 5.483 6.497 7.234 7.972 7.972 7.000 7.000 6.000 6.000 6.000 9.000 9.000 11.000 10.000 8.000 8.000 5.000 5.000 7.000 7.000 7.000 6.000 6.000 7.000 8.000 8.000 8.000 9.000 10.000 10.000 10.000 10.000 10.000 10.000 -9999.000 
-9999.000 11.000 11.000 10.000 7.000 6.000 6.000 6.000 5.000 5.000 4.000 5.000 6.000 6.000 6.000 5.000 6.000 6.000 7.000 6.000 6.000 5.000 5.000 4.000 4.000 3.000 1.000 0.000 0.000 1.000 0.000 0.000 -1.000 -2.000 -1.000 -1.000 0.000 -1.000 -1.000 -1.000 -3.000 -9.000 -9.000 -4.000 -5.000 -10.000 -10.000 -8.000 -6.000 -6.000 -3.000 -1.000 2.000 2.000 6.000 10.000 11.000 11.000 11.000 9.000 9.000 9.000 10.000 10.000 10.000 10.000 10.000 10.000 10.000 10.000 8.000 8.000 8.000 10.000 11.000 11.000 9.000 8.000 9.000 9.000 10.000 10.000 10.000 11.000 12.000 11.000 11.000 10.000 10.000 9.000 9.000 9.000 9.000 9.000 9.000 9.000 7.000 7.000 5.000 6.000 9.000 9.000 10.000 10.000 10.000 11.000 13.000 12.000 12.000 10.000 9.000 10.000 10.000 9.000 8.000 8.000 5.000 4.000 3.000 3.000 2.000 4.000 4.000 4.000 4.000 1.000 1.000 1.000 1.000 0.315 0.315 2.758 5.202 5.202 6.749 7.400 8.050 8.050 8.000 7.000 6.000 6.000 6.000 9.000 9.000 11.000 10.000 8.000 8.000 6.000 7.000 8.000 8.000 8.000 7.000 7.000 6.000 8.000 8.000 8.000 8.000 9.000 10.000 10.000 10.000 10.000 10.000 -9999.000 
-9999.000 10.000 10.000 9.000 8.000 7.000 7.000 6.000 4.000 4.000 4.000 4.000 5.000 5.000 5.000 5.000 6.000 6.000 6.000 6.000 6.000 4.000 3.000 3.000 3.000 2.000 1.000 1.000 1.000 0.000 0.000 0.000 0.000 -3.000 -2.000 -2.000 -1.000 -1.000 -1.000 -1.000 -2.000 -8.000 -8.000 -2.000 1.000 -1.000 -1.000 -1.000 -1.000 -1.000 -1.000 -1.000 3.000 3.000 6.000 10.000 10.000 10.000 10.000 9.000 9.000 9.000 10.000 10.000 10.000 11.000 10.000 10.000 10.000 10.000 7.000 7.000 8.000 9.000 11.000 11.000 9.000 8.000 9.000 9.000 10.000 11.000 11.000 11.000 12.000 11.000 11.000 11.000 11.000 9.000 9.000 8.000 8.000 8.000 8.000 8.000 8.000 8.000 5.000 6.000 8.000 8.000 9.000 10.000 10.000 11.000 12.000 12.000 12.000 11.000 10.000 10.000 10.000 9.000 8.000 8.000 5.000 3.000 3.000 3.000 2.000 4.000 5.000 5.000 4.000 0.000 0.000 -1.000 -1.000 -2.000 -2.000 1.837 4.885 4.885 6.780 8.000 8.000 8.000 8.000 7.000 5.000 5.000 5.000 9.000 9.000 11.000 11.000 8.000 8.000 8.000 9.000 10.000 10.000 9.000 7.000 7.000 6.000 8.000 8.000 8.000 8.000 8.000 8.000 8.000 9.000 9.000 9.000 -9999.000 
-9999.000 9.000 9.000 9.000 9.000 8.000 8.000 6.000 4.000 4.000 4.000 4.000 4.000 4.000 4.000 5.000 6.000 6.000 6.000 5.000 5.000 4.000 2.000 2.000 2.000 1.000 1.000 1.000 1.000 0.000 0.000 0.000 1.000 -4.000 -3.000 -3.000 -1.000 -2.000 -1.000 -1.000 -2.000 -7.000 -7.000 0.000 4.000 6.000 6.000 4.000 2.000 2.000 0.000 -1.000 3.000 3.000 6.000 10.000 10.000 10.000 10.000 9.000 9.000 9.000 10.000 10.000 10.000 11.000 10.000 9.000 9.000 10.000 7.000 7.000 7.000 9.000 11.000 11.000 9.000 8.000 9.000 9.000 10.000 11.000 11.000 11.000 12.000 12.000 12.000 11.000 11.000 9.000 9.000 8.000 8.000 8.000 8.000 8.000 8.000 8.000 5.000 5.000 7.000 7.000 9.000 10.000 10.000 11.000 12.000 12.000 12.000 11.000 10.000 10.000 10.000 10.000 8.000 8.000 5.000 3.000 3.000 3.000 2.000 4.000 5.000 5.000 3.000 -1.000 -1.000 -2.000 -1.000 -2.000 -2.000 1.428 4.533 4.533 6.589 8.000 8.000 8.000 9.000 7.000 5.000 5.000 5.000 9.000 9.000 11.000 11.000 8.000 8.000 9.000 9.000 10.000 10.000 9.000 7.000 7.000 6.000 8.000 8.000 8.000 8.000 8.000 8.000 8.000 8.000 9.000 9.000 -9999.000 
-9999.000 8.304 8.304 9.073 9.843 9.064 9.064 6.735 4.406 4.406 3.118 2.871 2.624 2.624 3.237 4.710 6.184 6.184 6.007 4.182 4.182 2.356 1.188 0.679 0.679 0.169 0.144 0.605 0.605 1.065 0.423 0.423 -1.322 -3.067 -3.582 -3.582 -2.867 -2.152 -1.678 -1.678 -1.445 -1.212 -1.212 1.931 7.983 14.035 14.035 14.049 8.027 8.027 2.004 0.581 3.757 3.757 6.933 8.599 8.755 8.755 8.911 9.182 9.182 9.568 9.954 10.109 10.109 10.033 9.956 9.337 9.337 8.174 7.011 7.011 7.023 8.210 9.397 9.397 9.878 9.654 9.430 9.430 9.740 10.586 10.586 11.431 11.830 11.781 11.781 11.731 10.898 9.281 9.281 7.664 7.054 7.054 7.451 7.848 7.471 7.471 6.320 5.169 5.637 5.637 7.723 9.809 9.809 10.983 11.245 11.507 11.507 11.488 11.190 10.892 10.892 9.434 6.817 6.817 4.200 3.093 3.494 3.494 3.895 3.541 2.430 2.430 1.320 0.017 0.017 -1.479 -2.974 -2.142 -2.142 1.020 4.181 4.181 6.399 7.671 8.944 8.944 8.693 6.918 5.142 5.142 5.438 7.805 7.805 10.171 11.154 10.752 10.752 10.350 9.798 9.095 9.095 8.392 8.004 8.004 7.931 7.859 7.632 7.632 7.250 6.869 6.869 6.869 7.249 7.630 7.630 -9999.000 
-9999.000 -9999.000 -9999.000 -9999.000 -9999.000 -9999.000 -9999.000 -9999.000 -9999.000 -9999.000 -9999.000 -9999.000 -9999.000 -9999.000 -9999.000 -9999.000 -9999.000 -9999.000 -9999.000 -9999.000 -9999.000 -9999.000 -9999.000 -9999.000 -9999.000 -9999.000 -9999.000 -9999.000 -9999.000 -9999.000 -9999.000 -9999.000 -9999.000 -9999.000 -9999.000 -9999.000 -9999.000 -9999.000 -9999.000 -9999.000 -9999.000 -9999.000 -9999.000 -9999.000 -9999.000 -9999.000 -9999.000 -9999.000 -9999.000 -9999.000 -9999.000 -9999.000 -9999.000 -9999.000 -9999.000 -9999.000 -9999.000 -9999.000 -9999.000 -9999.000 -9999.000 -9999.000 -9999.000 -9999.000 -9999.000 -9999.000 -9999.000 -9999.000 -9999.000 -9999.000 -9999.000 -9999.000 -9999.000 -9999.000 -9999.000 -9999.000 -9999.000 -9999.000 -9999.000 -9999.000 -9999.000 -9999.000 -9999.000 -9999.000 -9999.000 -9999.000 -9999.000 -9999.000 -9999.000 -9999.000 -9999.000 -9999.000 -9999.000 -9999.000 -9999.000 -9999.000 -9999.000 -9999.000 -9999.000 -9999.000 -9999.000 -9999.000 -9999.000 -9999.000 -9999.000 -9999.000 -9999.000 -9999.000 -9999.000 -9999.000 -9999.000 -9999.000 -9999.000 -9999.000 -9999.000 -9999.000 -9999.000 -9999.000 -9999.000 -9999.000 -9999.000 -9999.000 -9999.000 -9999.000 -9999.000 -9999.000 -9999.000 -9999.000 -9999.000 -9999.000 -9999.000 -9999.000 -9999.000 -9999.000 -9999.000 -9999.000 -9999.000 -9999.000 -9999.000 -9999.000 -9999.000 -9999.000 -9999.000 -9999.000 -9999.000 -9999.000 -9999.000 -9999.000 -9999.000 -9999.000 -9999.000 -9999.000 -9999.000 -9999.000 -9999.000 -9999.000 -9999.000 -9999.000 -9999.000 -9999.000 -9999.000 -9999.000 -9999.000 -9999.000 -9999.000 -9999.000 -9999.000 -9999.000 
