ncols 168
nrows 121
xllcenter 640304.69
yllcenter 1081277.12
cellsize 46.59
NODATA_value -9999.000
0.000 0.000 0.000 0.000 0.000 0.000 0.000 0.000 0.000 0.000 0.000 0.000 0.000 0.000 0.000 0.000 0.000 0.000 0.000 0.000 0.000 0.000 0.000 0.000 0.000 0.000 0.000 0.000 0.000 0.000 0.000 0.000 0.000 0.000 0.000 0.000 0.000 0.000 0.000 0.000 0.000 0.000 0.000 0.000 0.000 0.000 0.000 0.000 0.000 0.000 0.000 0.000 0.000 0.000 0.000 0.000 0.000 0.000 0.000 0.000 0.000 0.000 0.000 0.000 0.000 0.000 0.000 0.000 0.000 0.000 0.000 0.000 0.000 0.000 0.000 0.000 0.000 0.000 0.000 0.000 0.000 0.000 0.000 0.000 0.000 0.000 0.000 0.000 0.000 0.000 0.000 0.000 0.000 0.000 0.000 0.000 0.000 0.000 0.000 0.000 0.000 0.000 0.000 0.000 0.000 0.000 0.000 0.000 0.000 0.000 0.000 0.000 0.000 0.000 0.000 0.000 0.000 0.000 0.000 0.000 0.000 0.000 0.000 0.000 0.000 0.000 0.000 0.000 0.000 0.000 0.000 0.000 0.000 0.000 0.000 0.000 0.000 0.000 0.000 0.000 0.000 0.000 0.000 0.000 0.000 0.000 0.000 0.000 0.000 0.000 0.000 0.000 0.000 0.000 0.000 0.000 0.000 0.000 0.000 0.000 0.000 0.000 0.000 0.000 0.000 0.000 0.000 0.000 
0.000 0.397 0.397 0.397 0.296 0.018 0.018 0.000 0.000 0.000 0.024 0.303 0.397 0.397 0.397 0.397 0.397 0.397 0.397 0.397 0.397 0.397 0.397 0.397 0.397 0.397 0.397 0.397 0.397 0.397 0.397 0.397 0.397 0.397 0.481 0.481 0.614 0.784 0.955 0.955 1.032 1.061 1.061 1.061 1.061 1.054 1.054 1.036 1.033 1.033 1.012 0.958 0.784 0.784 0.609 0.498 0.519 0.519 0.678 0.853 0.853 0.986 0.311 0.501 0.501 1.060 1.047 0.944 0.944 0.815 0.686 0.686 0.644 0.691 0.821 0.821 0.950 0.580 0.251 0.251 0.931 1.064 1.064 1.064 1.064 1.064 1.064 1.068 1.081 1.131 1.131 1.181 1.199 1.199 1.127 0.921 0.684 0.684 0.439 0.472 0.334 0.334 0.188 0.856 0.856 0.930 0.757 0.571 0.571 0.460 0.485 0.671 0.671 0.857 1.018 1.018 1.156 1.258 0.760 0.760 0.516 1.272 1.263 1.263 1.162 1.067 1.067 1.067 1.067 1.067 1.067 1.067 1.067 1.067 1.068 1.068 1.068 1.068 1.068 1.068 1.068 1.068 1.068 1.068 1.068 1.068 1.068 1.069 1.069 1.069 1.069 1.069 1.069 1.013 0.445 0.445 0.644 1.038 0.914 0.914 0.730 0.531 0.328 0.328 0.101 0.000 0.000 0.000 
0.000 0.234 0.234 0.233 0.174 0.011 0.011 0.000 0.000 0.000 0.013 0.164 0.220 0.220 0.225 0.224 0.223 0.223 0.222 0.221 0.221 0.220 0.219 0.218 0.218 0.217 0.216 0.212 0.212 0.202 0.200 0.200 0.203 0.211 0.339 0.339 0.521 0.744 0.968 0.968 1.056 1.080 1.080 1.080 1.080 0.900 0.900 0.500 0.497 0.497 0.687 0.918 0.691 0.691 0.464 0.330 0.397 0.397 0.608 0.835 0.835 1.038 0.730 0.820 0.820 1.075 1.045 0.909 0.909 0.741 0.573 0.573 0.543 0.618 0.786 0.786 0.954 0.845 0.718 0.718 1.023 1.082 1.082 1.083 1.083 1.083 1.083 1.091 1.112 1.176 1.176 1.240 1.257 1.257 1.136 0.866 0.544 0.544 0.191 0.199 0.308 0.308 0.525 0.939 0.939 0.896 0.663 0.424 0.424 0.312 0.363 0.602 0.602 0.841 1.044 1.044 1.214 1.345 1.240 1.240 1.186 1.415 1.324 1.324 1.199 1.086 1.086 1.086 1.086 1.086 1.086 1.086 1.086 1.086 1.086 1.086 1.087 1.087 1.087 1.087 1.087 1.087 1.087 1.087 1.087 1.087 1.087 1.087 1.087 1.087 1.088 1.088 1.088 1.069 0.877 0.877 0.945 1.045 0.869 0.869 0.633 0.377 0.112 0.112 0.033 0.000 0.000 0.000 
0.000 0.046 0.046 0.140 0.146 0.075 0.021 0.011 0.007 0.007 0.017 0.083 0.178 0.208 0.218 0.222 0.223 0.223 0.223 0.222 0.222 0.221 0.221 0.220 0.219 0.219 0.218 0.216 0.215 0.211 0.206 0.205 0.208 0.218 0.276 0.344 0.430 0.630 0.853 0.948 1.001 1.054 1.065 1.065 1.058 0.984 0.878 0.694 0.544 0.534 0.599 0.777 0.775 0.696 0.589 0.422 0.398 0.423 0.505 0.726 0.832 0.909 0.889 0.827 0.855 0.955 1.026 0.972 0.907 0.831 0.664 0.598 0.583 0.597 0.702 0.790 0.865 0.894 0.817 0.796 0.893 1.037 1.072 1.079 1.082 1.084 1.086 1.090 1.104 1.141 1.169 1.197 1.229 1.232 1.183 1.008 0.708 0.544 0.376 0.248 0.282 0.333 0.432 0.728 0.878 0.873 0.774 0.546 0.450 0.397 0.375 0.478 0.592 0.709 0.930 1.031 1.120 1.259 1.269 1.237 1.228 1.294 1.341 1.313 1.261 1.143 1.101 1.094 1.090 1.089 1.089 1.089 1.089 1.090 1.091 1.091 1.092 1.092 1.092 1.092 1.093 1.093 1.093 1.093 1.093 1.093 1.093 1.093 1.092 1.092 1.091 1.089 1.085 1.071 0.990 0.921 0.926 0.977 0.947 0.866 0.762 0.529 0.277 0.182 0.158 0.171 0.171 0.000 
0.000 0.014 0.014 0.047 0.072 0.064 0.043 0.033 0.031 0.035 0.055 0.103 0.164 0.198 0.214 0.221 0.224 0.225 0.226 0.226 0.226 0.225 0.225 0.225 0.225 0.224 0.224 0.224 0.223 0.223 0.224 0.227 0.237 0.261 0.304 0.377 0.482 0.639 0.799 0.900 0.963 0.997 1.011 1.011 0.997 0.956 0.868 0.743 0.669 0.654 0.678 0.731 0.742 0.708 0.622 0.547 0.520 0.527 0.589 0.716 0.827 0.874 0.882 0.883 0.902 0.949 0.967 0.957 0.911 0.832 0.741 0.689 0.674 0.683 0.726 0.803 0.859 0.876 0.876 0.885 0.931 1.011 1.054 1.072 1.080 1.086 1.091 1.098 1.109 1.127 1.146 1.158 1.160 1.145 1.092 0.966 0.760 0.577 0.458 0.406 0.395 0.426 0.515 0.657 0.729 0.736 0.698 0.592 0.511 0.481 0.481 0.511 0.592 0.708 0.855 0.987 1.094 1.167 1.204 1.215 1.222 1.249 1.270 1.264 1.222 1.155 1.116 1.102 1.097 1.095 1.094 1.095 1.097 1.099 1.101 1.103 1.104 1.105 1.105 1.106 1.106 1.106 1.106 1.106 1.106 1.106 1.105 1.105 1.103 1.101 1.098 1.093 1.083 1.060 1.013 0.972 0.957 0.947 0.925 0.867 0.762 0.606 0.479 0.432 0.441 0.493 0.493 0.000 
0.000 0.001 0.001 0.017 0.046 0.059 0.061 0.061 0.065 0.074 0.094 0.128 0.169 0.197 0.214 0.222 0.227 0.229 0.231 0.232 0.232 0.233 0.233 0.233 0.234 0.234 0.235 0.237 0.239 0.243 0.249 0.261 0.280 0.312 0.358 0.426 0.522 0.649 0.773 0.862 0.919 0.952 0.966 0.967 0.961 0.936 0.878 0.803 0.760 0.743 0.740 0.747 0.745 0.728 0.687 0.660 0.653 0.659 0.687 0.752 0.828 0.872 0.895 0.914 0.933 0.952 0.957 0.950 0.919 0.861 0.812 0.786 0.778 0.778 0.789 0.826 0.864 0.888 0.909 0.933 0.967 1.016 1.051 1.071 1.082 1.089 1.096 1.102 1.109 1.117 1.122 1.121 1.111 1.084 1.029 0.930 0.779 0.637 0.553 0.516 0.508 0.518 0.559 0.624 0.655 0.658 0.642 0.593 0.549 0.535 0.536 0.553 0.600 0.685 0.801 0.925 1.019 1.081 1.126 1.158 1.177 1.188 1.192 1.190 1.176 1.142 1.115 1.103 1.099 1.099 1.100 1.103 1.107 1.112 1.116 1.119 1.122 1.123 1.124 1.125 1.126 1.126 1.126 1.126 1.125 1.125 1.124 1.122 1.120 1.116 1.110 1.101 1.087 1.065 1.033 1.001 0.975 0.949 0.918 0.868 0.788 0.709 0.668 0.657 0.671 0.707 0.707 0.000 
0.000 0.000 0.000 0.009 0.039 0.065 0.080 0.092 0.102 0.115 0.132 0.155 0.181 0.202 0.217 0.226 0.232 0.236 0.238 0.240 0.241 0.242 0.244 0.245 0.246 0.248 0.250 0.254 0.260 0.268 0.281 0.300 0.326 0.360 0.406 0.467 0.549 0.654 0.758 0.835 0.890 0.924 0.941 0.947 0.946 0.933 0.901 0.860 0.830 0.811 0.798 0.786 0.778 0.771 0.763 0.761 0.764 0.771 0.784 0.809 0.849 0.887 0.918 0.940 0.955 0.960 0.960 0.954 0.936 0.905 0.881 0.868 0.863 0.862 0.863 0.871 0.890 0.914 0.941 0.970 1.000 1.031 1.056 1.073 1.086 1.095 1.101 1.106 1.109 1.110 1.108 1.100 1.082 1.050 0.997 0.913 0.795 0.686 0.618 0.582 0.569 0.570 0.583 0.609 0.620 0.621 0.612 0.587 0.564 0.558 0.559 0.571 0.603 0.661 0.745 0.843 0.924 0.987 1.038 1.076 1.098 1.109 1.114 1.120 1.122 1.115 1.105 1.099 1.098 1.100 1.106 1.113 1.122 1.129 1.136 1.141 1.144 1.147 1.149 1.150 1.151 1.151 1.151 1.151 1.151 1.150 1.148 1.146 1.142 1.136 1.127 1.115 1.099 1.078 1.053 1.024 0.992 0.958 0.922 0.881 0.839 0.812 0.802 0.804 0.819 0.833 0.833 0.000 
0.000 0.000 0.000 0.009 0.042 0.078 0.105 0.125 0.141 0.155 0.169 0.185 0.201 0.215 0.226 0.235 0.241 0.245 0.249 0.251 0.253 0.255 0.257 0.259 0.262 0.265 0.270 0.276 0.285 0.298 0.315 0.337 0.364 0.398 0.441 0.497 0.568 0.657 0.747 0.817 0.870 0.906 0.929 0.941 0.944 0.940 0.928 0.909 0.892 0.876 0.859 0.846 0.840 0.840 0.847 0.856 0.864 0.869 0.875 0.882 0.896 0.922 0.950 0.969 0.977 0.978 0.977 0.973 0.965 0.953 0.944 0.940 0.938 0.937 0.935 0.934 0.938 0.954 0.978 1.006 1.030 1.051 1.068 1.082 1.094 1.102 1.107 1.109 1.110 1.108 1.101 1.088 1.067 1.032 0.981 0.906 0.809 0.721 0.661 0.624 0.604 0.597 0.596 0.601 0.603 0.601 0.594 0.579 0.568 0.565 0.567 0.576 0.599 0.640 0.698 0.769 0.836 0.892 0.940 0.976 1.000 1.018 1.035 1.051 1.066 1.077 1.084 1.088 1.093 1.100 1.111 1.125 1.139 1.150 1.160 1.167 1.172 1.176 1.179 1.181 1.182 1.182 1.182 1.182 1.181 1.180 1.178 1.174 1.169 1.161 1.151 1.137 1.119 1.098 1.074 1.045 1.010 0.972 0.938 0.913 0.898 0.893 0.893 0.902 0.925 0.934 0.934 0.000 
0.000 0.034 0.034 0.022 0.056 0.102 0.137 0.162 0.181 0.195 0.207 0.216 0.225 0.234 0.241 0.248 0.254 0.258 0.262 0.265 0.268 0.271 0.274 0.277 0.281 0.286 0.292 0.301 0.313 0.328 0.346 0.368 0.395 0.428 0.468 0.519 0.581 0.658 0.738 0.804 0.856 0.895 0.922 0.939 0.949 0.955 0.957 0.954 0.948 0.940 0.930 0.923 0.922 0.926 0.936 0.947 0.954 0.958 0.961 0.961 0.964 0.974 0.992 1.004 1.008 1.008 1.007 1.006 1.005 1.005 1.005 1.004 1.004 1.003 1.002 1.002 1.003 1.008 1.022 1.043 1.061 1.075 1.087 1.097 1.105 1.111 1.113 1.114 1.112 1.107 1.098 1.083 1.058 1.023 0.973 0.906 0.822 0.746 0.689 0.650 0.625 0.610 0.601 0.596 0.592 0.587 0.580 0.572 0.568 0.566 0.568 0.576 0.593 0.621 0.660 0.709 0.761 0.809 0.849 0.883 0.911 0.936 0.960 0.984 1.009 1.033 1.052 1.069 1.083 1.097 1.114 1.133 1.154 1.171 1.185 1.196 1.204 1.210 1.214 1.216 1.218 1.218 1.218 1.218 1.217 1.216 1.213 1.208 1.202 1.193 1.180 1.165 1.146 1.124 1.098 1.068 1.030 0.995 0.969 0.956 0.951 0.951 0.953 0.965 0.992 1.015 1.015 0.000 
0.000 0.071 0.071 0.060 0.095 0.142 0.179 0.206 0.224 0.237 0.245 0.251 0.255 0.258 0.263 0.267 0.271 0.275 0.279 0.282 0.286 0.289 0.293 0.297 0.302 0.308 0.316 0.327 0.339 0.355 0.373 0.394 0.421 0.452 0.490 0.536 0.592 0.658 0.731 0.795 0.847 0.889 0.920 0.943 0.962 0.977 0.989 0.997 1.001 1.002 1.002 1.004 1.007 1.013 1.021 1.030 1.035 1.038 1.040 1.040 1.039 1.039 1.044 1.048 1.050 1.050 1.050 1.052 1.055 1.060 1.063 1.063 1.063 1.062 1.061 1.061 1.062 1.065 1.072 1.084 1.095 1.104 1.111 1.116 1.121 1.123 1.122 1.120 1.116 1.109 1.098 1.080 1.054 1.019 0.971 0.909 0.834 0.764 0.709 0.668 0.638 0.617 0.602 0.591 0.583 0.576 0.570 0.566 0.565 0.565 0.567 0.572 0.584 0.602 0.627 0.660 0.698 0.737 0.773 0.805 0.835 0.863 0.892 0.921 0.951 0.983 1.015 1.042 1.066 1.090 1.113 1.139 1.165 1.187 1.206 1.221 1.234 1.243 1.249 1.254 1.256 1.258 1.258 1.258 1.257 1.256 1.253 1.248 1.240 1.230 1.216 1.200 1.179 1.155 1.127 1.092 1.055 1.026 1.007 0.996 0.991 0.991 0.993 1.001 1.023 1.047 1.047 0.000 
0.000 0.210 0.210 0.137 0.166 0.204 0.236 0.258 0.273 0.282 0.287 0.288 0.289 0.289 0.290 0.291 0.294 0.297 0.299 0.303 0.306 0.310 0.314 0.319 0.325 0.332 0.341 0.351 0.364 0.379 0.397 0.418 0.443 0.472 0.508 0.550 0.600 0.659 0.725 0.787 0.841 0.886 0.922 0.953 0.980 1.005 1.025 1.040 1.051 1.059 1.066 1.073 1.080 1.088 1.096 1.103 1.107 1.110 1.111 1.111 1.111 1.109 1.107 1.105 1.104 1.104 1.105 1.108 1.112 1.117 1.118 1.118 1.116 1.114 1.112 1.111 1.112 1.113 1.117 1.123 1.129 1.134 1.137 1.139 1.139 1.138 1.135 1.130 1.123 1.113 1.099 1.079 1.053 1.017 0.971 0.914 0.845 0.778 0.723 0.680 0.646 0.620 0.601 0.586 0.574 0.566 0.561 0.559 0.558 0.559 0.561 0.565 0.571 0.582 0.598 0.620 0.647 0.677 0.709 0.739 0.770 0.800 0.831 0.863 0.897 0.933 0.972 1.010 1.045 1.078 1.110 1.141 1.172 1.199 1.223 1.243 1.259 1.271 1.280 1.287 1.291 1.293 1.294 1.295 1.294 1.293 1.291 1.287 1.280 1.270 1.257 1.239 1.218 1.191 1.160 1.122 1.087 1.060 1.040 1.027 1.020 1.017 1.017 1.021 1.033 1.044 1.044 0.000 
0.000 0.354 0.354 0.278 0.276 0.291 0.309 0.321 0.327 0.329 0.329 0.327 0.325 0.322 0.321 0.320 0.321 0.322 0.324 0.326 0.329 0.333 0.337 0.342 0.348 0.355 0.364 0.374 0.387 0.401 0.418 0.438 0.462 0.490 0.523 0.562 0.608 0.661 0.720 0.782 0.837 0.886 0.928 0.968 1.003 1.034 1.059 1.080 1.096 1.110 1.122 1.133 1.143 1.152 1.160 1.167 1.171 1.174 1.175 1.175 1.175 1.174 1.172 1.170 1.168 1.167 1.167 1.168 1.169 1.170 1.169 1.167 1.163 1.159 1.156 1.154 1.153 1.153 1.154 1.156 1.159 1.161 1.161 1.161 1.159 1.155 1.150 1.142 1.132 1.118 1.101 1.080 1.052 1.017 0.973 0.919 0.855 0.790 0.734 0.688 0.651 0.621 0.597 0.579 0.565 0.556 0.551 0.549 0.549 0.549 0.550 0.552 0.556 0.562 0.571 0.585 0.605 0.628 0.655 0.684 0.713 0.744 0.776 0.811 0.847 0.887 0.929 0.975 1.021 1.063 1.103 1.140 1.176 1.208 1.236 1.260 1.279 1.295 1.306 1.315 1.321 1.324 1.326 1.327 1.327 1.326 1.324 1.321 1.315 1.306 1.293 1.277 1.255 1.229 1.196 1.158 1.121 1.090 1.067 1.050 1.039 1.034 1.031 1.032 1.036 1.042 1.042 0.000 
0.000 0.479 0.479 0.414 0.403 0.390 0.385 0.380 0.375 0.370 0.365 0.360 0.357 0.354 0.351 0.350 0.350 0.350 0.351 0.352 0.354 0.357 0.360 0.365 0.370 0.377 0.386 0.396 0.408 0.422 0.438 0.457 0.480 0.506 0.537 0.573 0.615 0.664 0.718 0.777 0.835 0.889 0.938 0.984 1.024 1.059 1.089 1.115 1.137 1.155 1.171 1.185 1.197 1.208 1.216 1.222 1.227 1.230 1.231 1.231 1.232 1.231 1.230 1.229 1.227 1.225 1.224 1.222 1.221 1.218 1.215 1.210 1.204 1.199 1.195 1.192 1.189 1.187 1.186 1.185 1.185 1.184 1.182 1.180 1.176 1.171 1.163 1.154 1.141 1.126 1.106 1.082 1.053 1.018 0.975 0.923 0.863 0.799 0.742 0.693 0.653 0.620 0.593 0.572 0.557 0.546 0.540 0.537 0.536 0.535 0.536 0.536 0.538 0.541 0.546 0.556 0.570 0.589 0.612 0.637 0.665 0.696 0.729 0.764 0.803 0.845 0.891 0.941 0.995 1.046 1.093 1.137 1.177 1.213 1.246 1.273 1.296 1.314 1.328 1.339 1.346 1.351 1.353 1.354 1.354 1.354 1.353 1.350 1.345 1.336 1.325 1.309 1.288 1.263 1.231 1.192 1.151 1.116 1.088 1.068 1.053 1.044 1.039 1.037 1.037 1.039 1.039 0.000 
0.000 0.603 0.603 0.537 0.497 0.465 0.442 0.425 0.413 0.403 0.395 0.389 0.384 0.380 0.378 0.376 0.375 0.375 0.375 0.376 0.377 0.379 0.382 0.386 0.392 0.398 0.407 0.417 0.428 0.441 0.457 0.475 0.496 0.521 0.550 0.584 0.623 0.668 0.719 0.775 0.834 0.892 0.947 0.997 1.042 1.081 1.116 1.146 1.172 1.195 1.214 1.230 1.244 1.255 1.264 1.271 1.275 1.278 1.280 1.281 1.281 1.281 1.280 1.279 1.278 1.275 1.273 1.270 1.266 1.261 1.255 1.248 1.241 1.234 1.229 1.224 1.220 1.216 1.213 1.210 1.207 1.204 1.200 1.196 1.190 1.183 1.175 1.164 1.150 1.133 1.112 1.086 1.055 1.019 0.977 0.928 0.870 0.807 0.748 0.698 0.655 0.618 0.589 0.565 0.548 0.536 0.528 0.523 0.520 0.518 0.517 0.517 0.517 0.519 0.523 0.530 0.541 0.556 0.575 0.598 0.625 0.654 0.687 0.723 0.763 0.807 0.856 0.909 0.968 1.027 1.082 1.131 1.175 1.216 1.252 1.283 1.309 1.330 1.346 1.359 1.367 1.373 1.376 1.378 1.378 1.378 1.377 1.375 1.370 1.363 1.352 1.337 1.317 1.291 1.260 1.222 1.177 1.137 1.105 1.080 1.062 1.049 1.042 1.038 1.037 1.036 1.036 0.000 
0.000 0.640 0.640 0.609 0.560 0.514 0.482 0.458 0.442 0.429 0.419 0.412 0.406 0.402 0.400 0.398 0.397 0.397 0.397 0.397 0.398 0.399 0.402 0.406 0.412 0.419 0.427 0.436 0.447 0.460 0.474 0.491 0.511 0.534 0.562 0.594 0.631 0.673 0.721 0.774 0.833 0.894 0.953 1.007 1.056 1.100 1.139 1.173 1.203 1.228 1.250 1.269 1.284 1.296 1.306 1.313 1.318 1.321 1.323 1.324 1.324 1.324 1.324 1.323 1.321 1.319 1.315 1.311 1.306 1.299 1.292 1.283 1.273 1.265 1.258 1.252 1.246 1.241 1.236 1.231 1.226 1.221 1.215 1.209 1.202 1.194 1.184 1.172 1.157 1.139 1.117 1.091 1.059 1.023 0.980 0.932 0.876 0.814 0.754 0.701 0.656 0.617 0.585 0.559 0.539 0.525 0.514 0.507 0.502 0.500 0.498 0.498 0.498 0.499 0.502 0.507 0.516 0.529 0.545 0.566 0.590 0.619 0.651 0.687 0.728 0.774 0.824 0.881 0.942 1.008 1.069 1.123 1.172 1.217 1.256 1.290 1.319 1.342 1.361 1.375 1.385 1.391 1.396 1.398 1.398 1.398 1.398 1.396 1.391 1.385 1.374 1.360 1.341 1.316 1.285 1.247 1.202 1.155 1.117 1.088 1.066 1.051 1.042 1.038 1.035 1.034 1.034 0.000 
0.000 0.675 0.675 0.647 0.595 0.543 0.507 0.480 0.462 0.448 0.437 0.430 0.424 0.421 0.418 0.416 0.415 0.415 0.415 0.415 0.416 0.418 0.422 0.426 0.432 0.439 0.447 0.455 0.465 0.477 0.491 0.507 0.525 0.548 0.574 0.604 0.639 0.679 0.725 0.776 0.832 0.894 0.957 1.015 1.069 1.116 1.159 1.197 1.229 1.257 1.281 1.301 1.318 1.331 1.341 1.349 1.354 1.358 1.360 1.361 1.361 1.361 1.361 1.360 1.358 1.356 1.352 1.347 1.341 1.333 1.324 1.313 1.302 1.293 1.284 1.276 1.269 1.262 1.255 1.249 1.242 1.235 1.228 1.221 1.212 1.202 1.191 1.178 1.162 1.143 1.121 1.094 1.063 1.026 0.984 0.936 0.881 0.819 0.758 0.704 0.657 0.616 0.582 0.554 0.532 0.515 0.502 0.493 0.487 0.483 0.481 0.481 0.481 0.482 0.484 0.488 0.495 0.506 0.520 0.539 0.562 0.589 0.620 0.656 0.697 0.744 0.796 0.854 0.918 0.988 1.054 1.114 1.168 1.215 1.258 1.295 1.326 1.352 1.372 1.387 1.399 1.407 1.411 1.414 1.415 1.415 1.414 1.413 1.409 1.403 1.393 1.379 1.361 1.336 1.306 1.268 1.223 1.172 1.128 1.093 1.068 1.051 1.041 1.036 1.033 1.031 1.031 0.000 
0.000 0.650 0.650 0.652 0.607 0.558 0.520 0.494 0.474 0.460 0.450 0.443 0.438 0.435 0.433 0.431 0.431 0.430 0.431 0.431 0.433 0.436 0.440 0.445 0.451 0.458 0.465 0.474 0.483 0.494 0.507 0.522 0.540 0.561 0.586 0.615 0.648 0.686 0.729 0.778 0.833 0.894 0.959 1.021 1.079 1.130 1.176 1.216 1.252 1.282 1.308 1.329 1.347 1.361 1.372 1.380 1.386 1.389 1.392 1.393 1.393 1.393 1.393 1.392 1.391 1.388 1.384 1.378 1.371 1.363 1.352 1.340 1.328 1.317 1.307 1.297 1.289 1.280 1.272 1.264 1.256 1.248 1.239 1.230 1.221 1.210 1.197 1.183 1.167 1.147 1.124 1.097 1.066 1.029 0.987 0.939 0.885 0.824 0.762 0.707 0.658 0.615 0.579 0.550 0.525 0.506 0.492 0.481 0.474 0.470 0.467 0.466 0.466 0.466 0.468 0.472 0.478 0.487 0.499 0.516 0.537 0.563 0.593 0.629 0.670 0.717 0.770 0.830 0.896 0.968 1.040 1.104 1.162 1.213 1.258 1.297 1.331 1.358 1.380 1.397 1.410 1.418 1.424 1.427 1.428 1.428 1.428 1.427 1.423 1.417 1.408 1.395 1.377 1.353 1.323 1.286 1.241 1.189 1.137 1.096 1.067 1.049 1.038 1.032 1.029 1.029 1.029 0.000 
0.000 0.624 0.624 0.632 0.607 0.563 0.526 0.500 0.481 0.468 0.459 0.453 0.449 0.446 0.444 0.443 0.443 0.443 0.444 0.446 0.449 0.453 0.458 0.463 0.469 0.476 0.484 0.492 0.501 0.511 0.523 0.537 0.554 0.574 0.597 0.625 0.657 0.693 0.735 0.782 0.835 0.895 0.960 1.026 1.087 1.141 1.190 1.233 1.271 1.303 1.330 1.353 1.371 1.386 1.398 1.406 1.413 1.417 1.419 1.420 1.421 1.421 1.421 1.420 1.418 1.415 1.411 1.405 1.398 1.389 1.378 1.365 1.351 1.338 1.327 1.316 1.306 1.296 1.287 1.278 1.268 1.259 1.249 1.239 1.228 1.216 1.203 1.188 1.170 1.150 1.127 1.099 1.068 1.031 0.989 0.942 0.888 0.828 0.766 0.709 0.659 0.615 0.578 0.546 0.520 0.499 0.483 0.471 0.463 0.458 0.455 0.453 0.453 0.453 0.454 0.457 0.462 0.470 0.481 0.497 0.516 0.541 0.570 0.605 0.646 0.693 0.747 0.807 0.874 0.949 1.025 1.094 1.155 1.209 1.257 1.298 1.333 1.363 1.386 1.405 1.418 1.428 1.434 1.437 1.439 1.439 1.439 1.438 1.435 1.429 1.420 1.407 1.390 1.366 1.337 1.301 1.257 1.204 1.146 1.098 1.063 1.041 1.029 1.025 1.024 1.026 1.026 0.000 
0.000 0.598 0.598 0.608 0.594 0.564 0.528 0.502 0.484 0.472 0.464 0.459 0.456 0.454 0.453 0.453 0.453 0.454 0.456 0.459 0.463 0.468 0.474 0.480 0.487 0.494 0.501 0.509 0.517 0.527 0.539 0.552 0.568 0.587 0.609 0.636 0.666 0.701 0.741 0.787 0.839 0.897 0.962 1.030 1.094 1.151 1.202 1.247 1.286 1.320 1.349 1.373 1.392 1.408 1.420 1.429 1.435 1.440 1.442 1.444 1.444 1.444 1.444 1.443 1.442 1.439 1.435 1.429 1.421 1.411 1.400 1.387 1.372 1.358 1.345 1.333 1.322 1.311 1.300 1.289 1.279 1.268 1.257 1.246 1.234 1.221 1.207 1.191 1.173 1.153 1.129 1.101 1.070 1.033 0.991 0.944 0.891 0.832 0.769 0.712 0.661 0.616 0.577 0.543 0.516 0.494 0.476 0.463 0.454 0.448 0.444 0.442 0.442 0.442 0.443 0.445 0.449 0.456 0.466 0.480 0.499 0.522 0.550 0.585 0.625 0.672 0.725 0.786 0.854 0.930 1.010 1.082 1.147 1.205 1.254 1.297 1.334 1.365 1.390 1.410 1.424 1.435 1.441 1.445 1.447 1.447 1.447 1.446 1.443 1.438 1.429 1.417 1.400 1.377 1.348 1.312 1.268 1.217 1.157 1.099 1.054 1.026 1.013 1.010 1.017 1.023 1.023 0.000 
0.000 0.572 0.572 0.583 0.575 0.556 0.527 0.502 0.485 0.474 0.467 0.463 0.461 0.459 0.459 0.459 0.461 0.463 0.466 0.471 0.477 0.483 0.489 0.496 0.503 0.510 0.517 0.525 0.534 0.543 0.554 0.567 0.582 0.600 0.621 0.646 0.676 0.710 0.748 0.793 0.844 0.900 0.964 1.034 1.100 1.159 1.212 1.259 1.300 1.335 1.364 1.389 1.409 1.426 1.438 1.448 1.455 1.459 1.462 1.464 1.464 1.464 1.464 1.463 1.462 1.459 1.455 1.449 1.441 1.431 1.420 1.406 1.391 1.375 1.361 1.348 1.335 1.323 1.312 1.300 1.288 1.276 1.264 1.252 1.239 1.226 1.211 1.194 1.176 1.155 1.131 1.103 1.071 1.035 0.993 0.946 0.894 0.835 0.773 0.715 0.662 0.616 0.576 0.541 0.512 0.489 0.470 0.456 0.446 0.439 0.435 0.433 0.432 0.432 0.432 0.434 0.438 0.444 0.453 0.466 0.483 0.505 0.533 0.566 0.606 0.652 0.706 0.766 0.835 0.912 0.994 1.071 1.139 1.199 1.251 1.296 1.334 1.366 1.392 1.413 1.428 1.439 1.447 1.451 1.453 1.453 1.453 1.452 1.450 1.445 1.436 1.424 1.407 1.384 1.355 1.320 1.277 1.226 1.167 1.103 1.046 1.002 0.980 0.978 0.999 1.042 1.042 0.000 
0.000 0.546 0.546 0.558 0.553 0.542 0.522 0.500 0.484 0.474 0.468 0.464 0.463 0.463 0.463 0.464 0.467 0.471 0.476 0.482 0.489 0.496 0.503 0.511 0.518 0.525 0.533 0.541 0.550 0.559 0.570 0.582 0.597 0.614 0.634 0.658 0.686 0.718 0.756 0.800 0.849 0.905 0.968 1.037 1.105 1.166 1.221 1.269 1.311 1.347 1.377 1.403 1.424 1.441 1.454 1.464 1.471 1.476 1.479 1.480 1.481 1.481 1.481 1.480 1.479 1.476 1.472 1.466 1.459 1.449 1.437 1.424 1.408 1.392 1.376 1.362 1.348 1.335 1.322 1.309 1.297 1.284 1.271 1.258 1.244 1.230 1.214 1.197 1.178 1.157 1.132 1.104 1.072 1.036 0.995 0.948 0.896 0.838 0.776 0.717 0.664 0.617 0.576 0.540 0.510 0.485 0.466 0.450 0.439 0.432 0.427 0.424 0.423 0.423 0.423 0.425 0.428 0.433 0.442 0.454 0.470 0.491 0.517 0.550 0.588 0.634 0.687 0.748 0.817 0.894 0.978 1.058 1.130 1.193 1.247 1.294 1.334 1.367 1.394 1.415 1.431 1.443 1.450 1.455 1.457 1.458 1.458 1.457 1.454 1.449 1.441 1.429 1.412 1.389 1.361 1.325 1.282 1.232 1.175 1.110 1.045 0.983 0.931 0.901 0.926 1.069 1.069 0.000 
0.000 0.520 0.520 0.533 0.530 0.523 0.512 0.495 0.482 0.473 0.467 0.465 0.464 0.464 0.465 0.468 0.472 0.477 0.484 0.492 0.500 0.508 0.516 0.524 0.532 0.540 0.548 0.556 0.565 0.575 0.585 0.597 0.611 0.627 0.647 0.669 0.696 0.728 0.764 0.807 0.855 0.910 0.971 1.040 1.109 1.172 1.228 1.277 1.320 1.357 1.388 1.414 1.436 1.453 1.466 1.477 1.484 1.489 1.492 1.494 1.495 1.495 1.495 1.495 1.493 1.491 1.487 1.481 1.474 1.464 1.452 1.439 1.424 1.407 1.390 1.374 1.360 1.346 1.332 1.318 1.304 1.291 1.277 1.263 1.249 1.234 1.217 1.200 1.180 1.158 1.134 1.105 1.073 1.037 0.996 0.950 0.898 0.841 0.779 0.720 0.666 0.619 0.576 0.540 0.509 0.483 0.462 0.446 0.434 0.425 0.420 0.417 0.416 0.415 0.415 0.416 0.419 0.424 0.431 0.442 0.458 0.478 0.503 0.534 0.572 0.617 0.670 0.730 0.798 0.876 0.961 1.045 1.119 1.185 1.242 1.291 1.332 1.366 1.394 1.416 1.432 1.444 1.452 1.457 1.460 1.460 1.460 1.460 1.457 1.453 1.444 1.432 1.415 1.393 1.364 1.328 1.285 1.235 1.178 1.115 1.048 0.977 0.901 0.804 0.693 0.679 0.679 0.000 
0.000 0.495 0.495 0.507 0.505 0.502 0.496 0.486 0.476 0.469 0.465 0.464 0.464 0.465 0.467 0.471 0.476 0.483 0.491 0.500 0.509 0.518 0.527 0.535 0.544 0.552 0.561 0.570 0.579 0.589 0.600 0.612 0.626 0.642 0.660 0.682 0.707 0.738 0.773 0.815 0.862 0.915 0.976 1.044 1.114 1.177 1.234 1.284 1.327 1.365 1.396 1.423 1.445 1.463 1.477 1.487 1.495 1.500 1.504 1.506 1.507 1.507 1.507 1.507 1.505 1.503 1.499 1.494 1.486 1.477 1.466 1.453 1.437 1.421 1.403 1.386 1.371 1.356 1.341 1.326 1.312 1.297 1.283 1.268 1.253 1.237 1.220 1.202 1.182 1.160 1.135 1.107 1.075 1.038 0.998 0.952 0.901 0.844 0.783 0.723 0.669 0.620 0.577 0.540 0.508 0.481 0.459 0.442 0.429 0.420 0.414 0.410 0.409 0.408 0.408 0.409 0.411 0.415 0.422 0.432 0.447 0.466 0.490 0.520 0.557 0.601 0.653 0.712 0.780 0.857 0.943 1.030 1.108 1.177 1.236 1.287 1.330 1.365 1.393 1.416 1.433 1.445 1.454 1.459 1.461 1.462 1.462 1.461 1.459 1.454 1.446 1.434 1.417 1.394 1.365 1.329 1.286 1.236 1.179 1.117 1.050 0.979 0.897 0.784 0.563 0.134 0.134 0.000 
0.000 0.469 0.469 0.481 0.481 0.479 0.477 0.472 0.466 0.463 0.461 0.461 0.462 0.464 0.468 0.473 0.480 0.488 0.497 0.507 0.517 0.527 0.536 0.545 0.555 0.564 0.573 0.583 0.593 0.603 0.614 0.627 0.640 0.656 0.674 0.695 0.719 0.749 0.783 0.823 0.869 0.922 0.981 1.048 1.118 1.182 1.239 1.289 1.333 1.371 1.403 1.430 1.453 1.471 1.485 1.496 1.504 1.509 1.513 1.515 1.516 1.517 1.517 1.516 1.515 1.513 1.510 1.504 1.497 1.488 1.478 1.465 1.450 1.433 1.416 1.398 1.381 1.365 1.349 1.334 1.319 1.304 1.288 1.273 1.257 1.241 1.223 1.205 1.184 1.162 1.136 1.108 1.076 1.040 0.999 0.954 0.903 0.847 0.786 0.726 0.671 0.622 0.579 0.540 0.507 0.480 0.457 0.439 0.425 0.415 0.408 0.404 0.402 0.402 0.402 0.402 0.404 0.408 0.414 0.423 0.437 0.455 0.478 0.507 0.543 0.586 0.636 0.695 0.763 0.839 0.925 1.015 1.096 1.167 1.229 1.282 1.327 1.363 1.393 1.416 1.433 1.446 1.454 1.459 1.462 1.463 1.463 1.462 1.460 1.455 1.447 1.435 1.418 1.395 1.366 1.329 1.286 1.236 1.179 1.117 1.053 0.985 0.911 0.814 0.654 0.435 0.435 0.000 
0.000 0.443 0.443 0.456 0.456 0.456 0.455 0.454 0.453 0.453 0.454 0.456 0.459 0.463 0.468 0.475 0.483 0.492 0.502 0.512 0.523 0.534 0.544 0.554 0.564 0.574 0.584 0.594 0.605 0.616 0.627 0.640 0.654 0.670 0.688 0.708 0.732 0.760 0.794 0.832 0.877 0.928 0.987 1.052 1.121 1.186 1.243 1.293 1.338 1.376 1.408 1.436 1.458 1.477 1.491 1.503 1.511 1.517 1.521 1.523 1.524 1.524 1.525 1.524 1.523 1.521 1.518 1.513 1.507 1.498 1.488 1.475 1.461 1.445 1.427 1.409 1.391 1.374 1.358 1.342 1.326 1.310 1.294 1.278 1.261 1.244 1.226 1.207 1.186 1.163 1.138 1.109 1.077 1.041 1.000 0.955 0.905 0.850 0.790 0.729 0.674 0.624 0.580 0.541 0.508 0.479 0.455 0.436 0.422 0.411 0.404 0.399 0.396 0.395 0.395 0.396 0.397 0.400 0.406 0.415 0.427 0.444 0.466 0.494 0.529 0.571 0.620 0.678 0.745 0.821 0.907 0.998 1.082 1.157 1.221 1.276 1.322 1.360 1.391 1.415 1.433 1.446 1.454 1.460 1.462 1.463 1.463 1.463 1.460 1.456 1.448 1.435 1.418 1.395 1.365 1.329 1.285 1.234 1.176 1.115 1.057 1.003 0.957 0.925 0.922 1.014 1.014 0.000 
0.000 0.417 0.417 0.430 0.430 0.431 0.431 0.433 0.435 0.438 0.442 0.447 0.454 0.461 0.468 0.476 0.485 0.494 0.505 0.516 0.528 0.539 0.550 0.561 0.572 0.583 0.594 0.605 0.616 0.627 0.639 0.653 0.667 0.683 0.701 0.722 0.745 0.773 0.805 0.843 0.886 0.936 0.992 1.056 1.125 1.189 1.246 1.297 1.341 1.380 1.412 1.440 1.463 1.481 1.496 1.508 1.516 1.522 1.526 1.529 1.530 1.531 1.531 1.531 1.530 1.528 1.525 1.521 1.514 1.506 1.496 1.484 1.470 1.455 1.437 1.419 1.401 1.383 1.366 1.349 1.332 1.316 1.299 1.282 1.265 1.248 1.229 1.210 1.188 1.165 1.139 1.110 1.078 1.042 1.002 0.957 0.908 0.853 0.793 0.733 0.677 0.627 0.582 0.543 0.508 0.479 0.454 0.434 0.419 0.407 0.399 0.394 0.391 0.390 0.389 0.389 0.391 0.393 0.398 0.406 0.418 0.434 0.455 0.482 0.515 0.556 0.604 0.661 0.726 0.802 0.887 0.981 1.068 1.144 1.211 1.269 1.317 1.356 1.388 1.413 1.432 1.445 1.454 1.459 1.462 1.463 1.463 1.463 1.460 1.456 1.448 1.435 1.418 1.395 1.365 1.327 1.282 1.228 1.168 1.112 1.066 1.034 1.018 1.018 1.051 1.132 1.132 0.000 
0.000 0.391 0.391 0.404 0.405 0.406 0.407 0.410 0.414 0.420 0.429 0.438 0.448 0.458 0.467 0.476 0.486 0.496 0.507 0.519 0.531 0.543 0.555 0.567 0.578 0.590 0.602 0.613 0.625 0.637 0.650 0.664 0.679 0.695 0.713 0.734 0.758 0.785 0.817 0.853 0.895 0.944 0.999 1.060 1.128 1.192 1.249 1.299 1.344 1.382 1.415 1.443 1.466 1.485 1.500 1.512 1.520 1.527 1.531 1.534 1.535 1.536 1.536 1.536 1.535 1.533 1.531 1.527 1.521 1.513 1.504 1.492 1.479 1.463 1.447 1.429 1.410 1.392 1.374 1.356 1.339 1.322 1.304 1.287 1.269 1.251 1.232 1.212 1.191 1.167 1.141 1.112 1.080 1.044 1.004 0.959 0.910 0.856 0.797 0.737 0.681 0.630 0.585 0.544 0.509 0.479 0.454 0.433 0.416 0.404 0.395 0.389 0.385 0.384 0.383 0.383 0.384 0.386 0.391 0.398 0.409 0.424 0.444 0.469 0.501 0.541 0.588 0.643 0.708 0.783 0.867 0.961 1.051 1.131 1.200 1.260 1.310 1.351 1.384 1.410 1.430 1.444 1.453 1.459 1.462 1.463 1.463 1.462 1.460 1.456 1.448 1.435 1.418 1.394 1.363 1.324 1.276 1.218 1.157 1.107 1.073 1.055 1.050 1.055 1.080 1.116 1.116 0.000 
0.000 0.365 0.365 0.379 0.380 0.382 0.385 0.390 0.397 0.407 0.418 0.431 0.442 0.454 0.465 0.476 0.486 0.497 0.509 0.521 0.533 0.546 0.559 0.571 0.583 0.596 0.608 0.620 0.633 0.646 0.659 0.673 0.689 0.706 0.724 0.745 0.769 0.796 0.827 0.863 0.904 0.951 1.005 1.065 1.130 1.194 1.251 1.301 1.346 1.384 1.417 1.445 1.468 1.487 1.502 1.514 1.523 1.530 1.534 1.537 1.539 1.539 1.539 1.539 1.539 1.538 1.535 1.531 1.526 1.519 1.510 1.499 1.486 1.471 1.455 1.437 1.419 1.400 1.381 1.363 1.345 1.328 1.310 1.292 1.274 1.255 1.236 1.215 1.193 1.169 1.143 1.114 1.081 1.045 1.006 0.962 0.913 0.860 0.802 0.741 0.685 0.634 0.588 0.547 0.511 0.480 0.454 0.432 0.414 0.401 0.391 0.384 0.380 0.378 0.377 0.377 0.378 0.380 0.384 0.390 0.400 0.414 0.433 0.457 0.488 0.526 0.571 0.626 0.689 0.763 0.847 0.940 1.033 1.116 1.188 1.249 1.302 1.345 1.379 1.407 1.427 1.442 1.452 1.458 1.461 1.462 1.462 1.462 1.460 1.455 1.447 1.434 1.417 1.392 1.361 1.320 1.268 1.207 1.148 1.104 1.076 1.063 1.060 1.065 1.084 1.107 1.107 0.000 
0.000 0.339 0.339 0.353 0.357 0.361 0.366 0.374 0.385 0.398 0.412 0.425 0.438 0.451 0.463 0.475 0.486 0.498 0.510 0.522 0.535 0.548 0.561 0.574 0.587 0.600 0.613 0.626 0.639 0.653 0.667 0.682 0.698 0.715 0.734 0.755 0.779 0.806 0.837 0.872 0.912 0.958 1.010 1.068 1.132 1.195 1.252 1.302 1.347 1.385 1.418 1.446 1.470 1.489 1.504 1.516 1.525 1.532 1.537 1.540 1.541 1.542 1.542 1.542 1.542 1.541 1.538 1.535 1.530 1.523 1.515 1.504 1.492 1.478 1.462 1.445 1.427 1.408 1.389 1.370 1.352 1.333 1.315 1.297 1.278 1.259 1.239 1.218 1.196 1.171 1.145 1.116 1.083 1.048 1.008 0.964 0.916 0.864 0.806 0.746 0.690 0.638 0.591 0.550 0.513 0.481 0.454 0.431 0.413 0.398 0.387 0.380 0.375 0.372 0.371 0.371 0.372 0.373 0.376 0.382 0.391 0.404 0.422 0.445 0.474 0.511 0.555 0.608 0.670 0.742 0.825 0.918 1.013 1.099 1.173 1.237 1.292 1.337 1.373 1.402 1.423 1.439 1.450 1.456 1.460 1.461 1.461 1.460 1.458 1.454 1.446 1.433 1.415 1.390 1.357 1.315 1.262 1.199 1.141 1.100 1.074 1.063 1.061 1.065 1.082 1.099 1.099 0.000 
0.000 0.314 0.314 0.328 0.334 0.341 0.351 0.363 0.378 0.393 0.407 0.421 0.435 0.448 0.461 0.473 0.485 0.498 0.510 0.522 0.535 0.549 0.562 0.576 0.589 0.603 0.617 0.630 0.644 0.658 0.673 0.688 0.705 0.722 0.742 0.763 0.787 0.814 0.845 0.879 0.919 0.964 1.014 1.071 1.134 1.196 1.253 1.303 1.347 1.386 1.419 1.447 1.470 1.490 1.505 1.517 1.527 1.533 1.538 1.541 1.543 1.544 1.544 1.544 1.544 1.543 1.541 1.538 1.533 1.527 1.519 1.509 1.497 1.484 1.469 1.452 1.434 1.416 1.396 1.377 1.358 1.339 1.321 1.302 1.283 1.263 1.243 1.221 1.199 1.174 1.147 1.118 1.086 1.050 1.011 0.968 0.920 0.868 0.812 0.752 0.695 0.643 0.596 0.553 0.516 0.483 0.454 0.430 0.411 0.395 0.384 0.375 0.370 0.367 0.365 0.365 0.365 0.366 0.369 0.374 0.382 0.394 0.410 0.432 0.460 0.495 0.538 0.589 0.650 0.721 0.802 0.894 0.991 1.080 1.157 1.224 1.280 1.327 1.365 1.395 1.418 1.435 1.446 1.453 1.457 1.458 1.459 1.458 1.456 1.452 1.443 1.431 1.412 1.387 1.353 1.311 1.258 1.194 1.136 1.093 1.067 1.056 1.054 1.059 1.076 1.095 1.095 0.000 
0.000 0.288 0.288 0.303 0.313 0.324 0.339 0.357 0.374 0.390 0.404 0.418 0.432 0.445 0.459 0.472 0.484 0.497 0.510 0.522 0.536 0.549 0.563 0.577 0.591 0.605 0.619 0.633 0.648 0.663 0.678 0.694 0.711 0.729 0.748 0.770 0.794 0.821 0.851 0.885 0.924 0.968 1.018 1.073 1.134 1.197 1.253 1.303 1.347 1.386 1.419 1.447 1.471 1.490 1.506 1.518 1.527 1.534 1.539 1.542 1.544 1.545 1.545 1.545 1.545 1.544 1.543 1.540 1.536 1.530 1.522 1.513 1.502 1.489 1.474 1.458 1.441 1.422 1.404 1.384 1.365 1.346 1.326 1.307 1.287 1.267 1.247 1.225 1.202 1.177 1.151 1.121 1.089 1.053 1.014 0.971 0.924 0.873 0.818 0.759 0.701 0.649 0.601 0.558 0.519 0.485 0.455 0.430 0.409 0.393 0.380 0.371 0.365 0.361 0.359 0.359 0.359 0.359 0.362 0.366 0.373 0.384 0.399 0.419 0.446 0.479 0.521 0.570 0.629 0.699 0.778 0.869 0.967 1.059 1.139 1.208 1.267 1.316 1.356 1.388 1.412 1.429 1.442 1.449 1.453 1.455 1.455 1.455 1.453 1.448 1.440 1.427 1.409 1.383 1.350 1.307 1.255 1.192 1.130 1.083 1.051 1.035 1.031 1.036 1.061 1.092 1.092 0.000 
0.000 0.262 0.262 0.279 0.293 0.311 0.333 0.355 0.373 0.388 0.403 0.417 0.430 0.443 0.457 0.470 0.483 0.496 0.509 0.522 0.535 0.549 0.563 0.577 0.591 0.606 0.621 0.635 0.650 0.666 0.681 0.698 0.715 0.733 0.753 0.775 0.799 0.826 0.856 0.890 0.929 0.972 1.020 1.075 1.135 1.197 1.253 1.303 1.347 1.386 1.419 1.447 1.471 1.490 1.506 1.518 1.527 1.535 1.540 1.543 1.545 1.546 1.546 1.546 1.546 1.545 1.544 1.541 1.537 1.532 1.525 1.516 1.506 1.493 1.479 1.464 1.447 1.429 1.410 1.391 1.372 1.352 1.332 1.313 1.293 1.272 1.251 1.230 1.206 1.181 1.155 1.125 1.093 1.058 1.019 0.976 0.930 0.879 0.825 0.766 0.709 0.655 0.607 0.562 0.523 0.487 0.456 0.430 0.408 0.390 0.376 0.366 0.359 0.355 0.353 0.352 0.352 0.352 0.354 0.358 0.364 0.373 0.387 0.406 0.431 0.463 0.502 0.550 0.608 0.675 0.753 0.842 0.940 1.035 1.118 1.190 1.252 1.303 1.345 1.378 1.404 1.422 1.435 1.444 1.448 1.450 1.451 1.450 1.448 1.444 1.436 1.423 1.404 1.379 1.345 1.303 1.251 1.190 1.125 1.067 1.022 0.992 0.980 0.984 1.023 1.090 1.090 0.000 
0.000 0.236 0.236 0.255 0.275 0.303 0.331 0.354 0.372 0.388 0.402 0.416 0.429 0.442 0.455 0.468 0.481 0.494 0.507 0.521 0.535 0.549 0.563 0.577 0.592 0.606 0.621 0.636 0.652 0.668 0.684 0.701 0.718 0.737 0.757 0.779 0.803 0.830 0.860 0.894 0.932 0.974 1.022 1.076 1.135 1.197 1.253 1.303 1.347 1.386 1.419 1.447 1.471 1.490 1.506 1.518 1.528 1.535 1.540 1.543 1.545 1.546 1.547 1.547 1.546 1.546 1.545 1.542 1.539 1.534 1.527 1.519 1.509 1.497 1.483 1.469 1.452 1.435 1.417 1.398 1.378 1.359 1.339 1.319 1.299 1.278 1.257 1.235 1.211 1.186 1.159 1.130 1.098 1.063 1.024 0.982 0.936 0.886 0.832 0.775 0.717 0.663 0.613 0.568 0.527 0.490 0.458 0.430 0.407 0.388 0.373 0.362 0.354 0.349 0.346 0.345 0.345 0.345 0.346 0.349 0.355 0.363 0.376 0.394 0.417 0.447 0.485 0.531 0.586 0.651 0.726 0.813 0.911 1.009 1.095 1.171 1.235 1.288 1.332 1.367 1.394 1.414 1.428 1.437 1.442 1.444 1.445 1.444 1.443 1.438 1.431 1.418 1.399 1.374 1.341 1.299 1.248 1.187 1.119 1.049 0.982 0.925 0.885 0.871 0.910 1.087 1.087 0.000 
0.000 0.210 0.210 0.231 0.262 0.301 0.332 0.355 0.373 0.389 0.403 0.416 0.428 0.440 0.453 0.465 0.478 0.491 0.505 0.519 0.533 0.547 0.562 0.577 0.591 0.606 0.621 0.637 0.653 0.669 0.685 0.702 0.720 0.739 0.760 0.782 0.806 0.833 0.863 0.896 0.934 0.976 1.023 1.076 1.135 1.196 1.253 1.303 1.347 1.386 1.419 1.447 1.470 1.490 1.506 1.518 1.528 1.535 1.540 1.543 1.545 1.546 1.547 1.547 1.547 1.546 1.545 1.543 1.539 1.535 1.528 1.521 1.511 1.500 1.487 1.473 1.457 1.441 1.423 1.404 1.385 1.366 1.346 1.326 1.305 1.285 1.263 1.241 1.218 1.192 1.165 1.136 1.104 1.069 1.031 0.989 0.943 0.894 0.841 0.784 0.726 0.671 0.620 0.574 0.532 0.494 0.460 0.431 0.406 0.386 0.370 0.357 0.349 0.343 0.340 0.338 0.338 0.338 0.339 0.341 0.346 0.354 0.365 0.382 0.404 0.433 0.469 0.513 0.566 0.628 0.701 0.785 0.881 0.981 1.070 1.148 1.215 1.271 1.317 1.354 1.383 1.404 1.419 1.429 1.434 1.437 1.437 1.437 1.435 1.431 1.424 1.411 1.393 1.368 1.335 1.293 1.242 1.182 1.111 1.032 0.946 0.856 0.762 0.671 0.596 0.612 0.612 0.000 
0.000 0.184 0.184 0.209 0.258 0.304 0.335 0.358 0.376 0.391 0.404 0.416 0.428 0.439 0.450 0.462 0.475 0.488 0.501 0.515 0.530 0.545 0.560 0.576 0.591 0.606 0.621 0.637 0.653 0.669 0.686 0.703 0.722 0.741 0.762 0.784 0.808 0.835 0.865 0.898 0.935 0.977 1.024 1.076 1.134 1.196 1.252 1.302 1.346 1.385 1.418 1.446 1.470 1.489 1.505 1.518 1.527 1.534 1.540 1.543 1.545 1.546 1.547 1.547 1.547 1.546 1.545 1.543 1.540 1.535 1.529 1.522 1.513 1.502 1.490 1.477 1.462 1.446 1.429 1.411 1.392 1.373 1.353 1.333 1.313 1.292 1.271 1.248 1.225 1.200 1.173 1.143 1.111 1.076 1.038 0.997 0.952 0.903 0.850 0.794 0.736 0.680 0.628 0.580 0.537 0.497 0.462 0.432 0.406 0.384 0.367 0.353 0.344 0.337 0.333 0.331 0.331 0.331 0.331 0.333 0.338 0.345 0.356 0.371 0.392 0.420 0.454 0.496 0.548 0.608 0.679 0.761 0.853 0.953 1.045 1.125 1.194 1.252 1.301 1.340 1.370 1.392 1.408 1.419 1.425 1.428 1.428 1.428 1.427 1.423 1.416 1.404 1.386 1.361 1.328 1.286 1.234 1.172 1.099 1.014 0.917 0.809 0.684 0.525 0.292 0.063 0.063 0.000 
0.000 0.193 0.193 0.206 0.267 0.314 0.346 0.367 0.383 0.396 0.407 0.418 0.428 0.438 0.448 0.459 0.470 0.483 0.496 0.511 0.526 0.542 0.558 0.574 0.590 0.605 0.621 0.637 0.653 0.669 0.686 0.704 0.722 0.742 0.762 0.785 0.809 0.836 0.866 0.899 0.936 0.977 1.024 1.076 1.134 1.195 1.251 1.301 1.345 1.384 1.417 1.445 1.469 1.488 1.504 1.517 1.527 1.534 1.539 1.543 1.545 1.546 1.547 1.547 1.547 1.546 1.545 1.543 1.540 1.536 1.530 1.523 1.515 1.505 1.493 1.480 1.466 1.451 1.434 1.417 1.399 1.380 1.361 1.341 1.321 1.300 1.279 1.257 1.233 1.208 1.181 1.152 1.120 1.085 1.047 1.006 0.961 0.913 0.861 0.805 0.747 0.690 0.637 0.587 0.542 0.501 0.465 0.433 0.406 0.383 0.364 0.350 0.339 0.332 0.328 0.325 0.324 0.324 0.325 0.327 0.330 0.337 0.347 0.362 0.382 0.408 0.441 0.482 0.531 0.590 0.659 0.739 0.829 0.928 1.021 1.103 1.173 1.233 1.283 1.323 1.355 1.379 1.396 1.407 1.414 1.417 1.418 1.418 1.417 1.413 1.406 1.395 1.377 1.352 1.320 1.278 1.226 1.162 1.086 0.997 0.894 0.778 0.647 0.484 0.225 0.000 0.000 0.000 
0.000 0.306 0.306 0.251 0.297 0.341 0.367 0.384 0.396 0.405 0.413 0.421 0.428 0.436 0.445 0.454 0.465 0.477 0.490 0.505 0.520 0.537 0.554 0.571 0.587 0.604 0.620 0.636 0.652 0.669 0.686 0.704 0.722 0.742 0.763 0.785 0.810 0.836 0.866 0.899 0.936 0.977 1.023 1.075 1.132 1.193 1.249 1.299 1.343 1.382 1.415 1.443 1.467 1.487 1.503 1.516 1.526 1.533 1.538 1.542 1.544 1.546 1.546 1.546 1.546 1.546 1.545 1.543 1.540 1.536 1.530 1.524 1.516 1.506 1.495 1.483 1.470 1.455 1.440 1.423 1.406 1.388 1.369 1.350 1.330 1.310 1.289 1.266 1.243 1.218 1.191 1.162 1.130 1.096 1.058 1.017 0.972 0.924 0.872 0.817 0.758 0.700 0.645 0.595 0.548 0.506 0.468 0.435 0.406 0.382 0.362 0.347 0.336 0.328 0.323 0.320 0.319 0.319 0.319 0.321 0.324 0.330 0.340 0.354 0.373 0.398 0.430 0.469 0.518 0.575 0.642 0.720 0.808 0.907 1.001 1.083 1.155 1.216 1.267 1.309 1.341 1.366 1.383 1.395 1.403 1.406 1.407 1.407 1.407 1.403 1.397 1.386 1.369 1.345 1.313 1.271 1.219 1.155 1.078 0.985 0.876 0.755 0.635 0.497 0.290 0.000 0.000 0.000 
0.000 0.436 0.436 0.366 0.372 0.392 0.405 0.411 0.415 0.418 0.422 0.425 0.429 0.434 0.441 0.449 0.459 0.470 0.483 0.498 0.513 0.530 0.548 0.566 0.583 0.601 0.618 0.635 0.651 0.669 0.686 0.704 0.722 0.742 0.763 0.785 0.810 0.836 0.866 0.899 0.936 0.977 1.023 1.074 1.131 1.191 1.246 1.296 1.340 1.379 1.412 1.441 1.465 1.485 1.501 1.514 1.524 1.532 1.537 1.541 1.543 1.545 1.545 1.545 1.545 1.545 1.544 1.542 1.540 1.536 1.531 1.524 1.517 1.508 1.497 1.486 1.473 1.459 1.445 1.429 1.413 1.396 1.378 1.359 1.340 1.320 1.299 1.278 1.254 1.230 1.203 1.174 1.142 1.108 1.070 1.029 0.984 0.936 0.885 0.830 0.771 0.711 0.655 0.602 0.554 0.510 0.471 0.436 0.407 0.382 0.361 0.345 0.333 0.324 0.319 0.316 0.314 0.314 0.314 0.316 0.319 0.324 0.333 0.347 0.365 0.389 0.420 0.459 0.506 0.562 0.628 0.704 0.791 0.888 0.983 1.067 1.139 1.201 1.253 1.295 1.329 1.354 1.373 1.385 1.393 1.397 1.398 1.399 1.398 1.395 1.389 1.378 1.362 1.339 1.307 1.267 1.215 1.152 1.074 0.979 0.864 0.738 0.637 0.572 0.540 0.492 0.492 0.000 
0.000 0.611 0.611 0.513 0.496 0.477 0.460 0.446 0.436 0.430 0.428 0.428 0.429 0.432 0.437 0.443 0.452 0.462 0.475 0.489 0.505 0.522 0.540 0.559 0.578 0.596 0.614 0.632 0.649 0.667 0.685 0.703 0.722 0.742 0.763 0.785 0.810 0.836 0.866 0.899 0.935 0.976 1.022 1.072 1.128 1.188 1.243 1.293 1.337 1.375 1.409 1.437 1.461 1.482 1.498 1.511 1.521 1.529 1.535 1.539 1.542 1.543 1.544 1.544 1.544 1.544 1.543 1.541 1.539 1.535 1.530 1.524 1.517 1.509 1.499 1.488 1.476 1.463 1.450 1.435 1.420 1.404 1.387 1.369 1.351 1.332 1.311 1.290 1.267 1.243 1.216 1.187 1.156 1.121 1.083 1.042 0.998 0.950 0.898 0.843 0.784 0.723 0.664 0.610 0.560 0.515 0.474 0.438 0.407 0.382 0.360 0.343 0.331 0.321 0.316 0.312 0.311 0.310 0.310 0.312 0.314 0.320 0.328 0.341 0.359 0.383 0.413 0.451 0.497 0.551 0.616 0.691 0.776 0.873 0.968 1.052 1.126 1.189 1.241 1.284 1.319 1.345 1.364 1.377 1.385 1.389 1.391 1.391 1.390 1.388 1.382 1.372 1.356 1.334 1.304 1.264 1.213 1.150 1.072 0.977 0.861 0.732 0.636 0.598 0.651 1.033 1.033 0.000 
0.000 0.785 0.785 0.685 0.628 0.556 0.504 0.470 0.448 0.436 0.430 0.428 0.428 0.429 0.432 0.437 0.444 0.454 0.465 0.479 0.494 0.512 0.531 0.551 0.571 0.590 0.609 0.628 0.646 0.664 0.683 0.702 0.721 0.741 0.762 0.785 0.809 0.836 0.865 0.898 0.934 0.975 1.020 1.069 1.125 1.184 1.239 1.288 1.332 1.371 1.404 1.433 1.457 1.478 1.494 1.508 1.518 1.526 1.532 1.537 1.539 1.541 1.542 1.542 1.542 1.542 1.541 1.540 1.538 1.535 1.530 1.524 1.518 1.510 1.501 1.490 1.479 1.467 1.454 1.440 1.426 1.411 1.395 1.379 1.362 1.344 1.324 1.304 1.281 1.257 1.231 1.202 1.171 1.136 1.098 1.057 1.012 0.964 0.912 0.857 0.797 0.735 0.674 0.618 0.566 0.519 0.477 0.440 0.409 0.382 0.360 0.342 0.329 0.319 0.313 0.310 0.308 0.307 0.308 0.309 0.311 0.316 0.325 0.337 0.354 0.377 0.407 0.444 0.489 0.543 0.607 0.681 0.765 0.860 0.956 1.041 1.115 1.178 1.232 1.275 1.310 1.337 1.356 1.370 1.378 1.383 1.385 1.385 1.385 1.382 1.377 1.367 1.352 1.331 1.301 1.262 1.213 1.150 1.073 0.978 0.864 0.737 0.633 0.561 0.521 0.568 0.568 0.000 
0.000 0.955 0.955 0.844 0.710 0.596 0.524 0.480 0.453 0.438 0.430 0.427 0.426 0.426 0.427 0.431 0.436 0.444 0.455 0.468 0.483 0.500 0.520 0.541 0.562 0.582 0.602 0.622 0.641 0.660 0.680 0.699 0.719 0.740 0.761 0.784 0.808 0.835 0.864 0.897 0.933 0.972 1.017 1.066 1.120 1.178 1.233 1.282 1.326 1.365 1.399 1.427 1.452 1.473 1.490 1.503 1.514 1.523 1.529 1.533 1.537 1.538 1.539 1.540 1.540 1.540 1.539 1.538 1.536 1.533 1.529 1.524 1.518 1.510 1.502 1.492 1.482 1.470 1.458 1.445 1.432 1.418 1.404 1.389 1.373 1.356 1.338 1.318 1.297 1.273 1.247 1.219 1.187 1.153 1.115 1.073 1.028 0.980 0.927 0.871 0.811 0.747 0.684 0.626 0.573 0.524 0.481 0.443 0.410 0.382 0.360 0.342 0.328 0.318 0.312 0.308 0.306 0.305 0.306 0.306 0.309 0.314 0.322 0.334 0.351 0.374 0.403 0.439 0.484 0.537 0.600 0.673 0.757 0.851 0.947 1.032 1.106 1.170 1.224 1.268 1.303 1.330 1.350 1.364 1.373 1.378 1.380 1.380 1.380 1.378 1.373 1.364 1.350 1.329 1.300 1.262 1.213 1.151 1.075 0.983 0.875 0.754 0.631 0.489 0.274 0.026 0.026 0.000 
0.000 1.004 1.004 0.924 0.735 0.607 0.529 0.482 0.454 0.438 0.429 0.424 0.422 0.422 0.422 0.423 0.427 0.434 0.443 0.455 0.470 0.487 0.507 0.528 0.550 0.572 0.593 0.614 0.634 0.655 0.675 0.695 0.716 0.737 0.759 0.782 0.806 0.833 0.862 0.894 0.930 0.969 1.013 1.061 1.114 1.172 1.226 1.275 1.319 1.358 1.392 1.421 1.446 1.467 1.484 1.498 1.509 1.518 1.525 1.530 1.533 1.535 1.536 1.537 1.537 1.537 1.537 1.536 1.534 1.532 1.528 1.524 1.518 1.511 1.503 1.494 1.484 1.474 1.462 1.450 1.438 1.425 1.412 1.398 1.383 1.367 1.351 1.332 1.312 1.290 1.264 1.236 1.205 1.171 1.132 1.091 1.045 0.996 0.943 0.886 0.825 0.760 0.695 0.634 0.579 0.529 0.484 0.445 0.411 0.383 0.360 0.342 0.328 0.317 0.311 0.307 0.305 0.304 0.304 0.305 0.307 0.312 0.320 0.332 0.349 0.371 0.400 0.436 0.480 0.533 0.595 0.668 0.751 0.844 0.940 1.025 1.100 1.164 1.218 1.262 1.298 1.325 1.346 1.360 1.369 1.374 1.376 1.377 1.377 1.375 1.370 1.362 1.348 1.328 1.300 1.262 1.214 1.154 1.080 0.992 0.891 0.776 0.644 0.479 0.222 0.000 0.000 0.000 
0.000 0.785 0.785 0.874 0.728 0.602 0.525 0.479 0.451 0.434 0.424 0.419 0.416 0.415 0.415 0.415 0.418 0.423 0.431 0.442 0.456 0.473 0.492 0.513 0.536 0.560 0.582 0.604 0.625 0.647 0.668 0.689 0.711 0.733 0.755 0.778 0.803 0.830 0.859 0.891 0.926 0.965 1.008 1.055 1.108 1.164 1.218 1.267 1.311 1.350 1.384 1.413 1.439 1.460 1.477 1.492 1.504 1.513 1.520 1.525 1.529 1.531 1.532 1.533 1.533 1.533 1.533 1.533 1.532 1.530 1.527 1.523 1.517 1.511 1.504 1.495 1.486 1.476 1.466 1.455 1.443 1.431 1.419 1.406 1.393 1.378 1.363 1.346 1.326 1.305 1.281 1.254 1.223 1.189 1.151 1.109 1.063 1.014 0.960 0.902 0.839 0.772 0.705 0.643 0.586 0.534 0.488 0.448 0.413 0.384 0.360 0.342 0.327 0.317 0.310 0.306 0.304 0.304 0.304 0.304 0.307 0.311 0.319 0.331 0.347 0.369 0.398 0.434 0.478 0.530 0.592 0.664 0.746 0.840 0.935 1.020 1.095 1.159 1.213 1.258 1.294 1.322 1.342 1.357 1.366 1.372 1.374 1.375 1.374 1.373 1.368 1.360 1.347 1.328 1.300 1.263 1.216 1.158 1.088 1.005 0.911 0.805 0.681 0.525 0.297 0.000 0.000 0.000 
0.000 0.571 0.571 0.680 0.649 0.570 0.506 0.466 0.440 0.425 0.415 0.410 0.407 0.406 0.406 0.406 0.408 0.411 0.418 0.428 0.441 0.457 0.475 0.497 0.520 0.545 0.568 0.591 0.614 0.637 0.659 0.681 0.704 0.726 0.750 0.774 0.799 0.826 0.855 0.886 0.921 0.959 1.002 1.048 1.099 1.155 1.209 1.258 1.302 1.341 1.376 1.405 1.431 1.453 1.471 1.486 1.498 1.508 1.515 1.520 1.524 1.527 1.529 1.529 1.530 1.530 1.530 1.529 1.529 1.527 1.525 1.521 1.517 1.511 1.504 1.496 1.488 1.479 1.469 1.459 1.448 1.437 1.426 1.414 1.402 1.388 1.374 1.358 1.340 1.319 1.296 1.270 1.240 1.207 1.169 1.128 1.082 1.032 0.977 0.918 0.854 0.785 0.716 0.652 0.593 0.539 0.492 0.451 0.415 0.385 0.361 0.342 0.328 0.317 0.310 0.306 0.304 0.303 0.303 0.304 0.306 0.311 0.318 0.330 0.346 0.368 0.397 0.433 0.476 0.529 0.590 0.662 0.744 0.837 0.932 1.018 1.092 1.156 1.210 1.255 1.291 1.319 1.340 1.355 1.364 1.370 1.372 1.373 1.373 1.371 1.367 1.360 1.347 1.328 1.301 1.265 1.220 1.164 1.098 1.021 0.936 0.847 0.759 0.674 0.594 0.520 0.520 0.000 
0.000 0.366 0.366 0.470 0.489 0.486 0.461 0.436 0.419 0.408 0.401 0.397 0.395 0.394 0.394 0.394 0.396 0.399 0.404 0.413 0.424 0.439 0.457 0.478 0.502 0.526 0.552 0.576 0.600 0.624 0.647 0.671 0.694 0.718 0.742 0.767 0.792 0.820 0.849 0.880 0.915 0.953 0.994 1.040 1.090 1.145 1.199 1.248 1.292 1.332 1.367 1.398 1.425 1.447 1.466 1.481 1.494 1.503 1.511 1.517 1.521 1.524 1.525 1.526 1.527 1.527 1.527 1.527 1.526 1.525 1.522 1.519 1.515 1.510 1.504 1.497 1.489 1.481 1.472 1.463 1.453 1.443 1.432 1.422 1.410 1.398 1.384 1.369 1.352 1.333 1.311 1.285 1.256 1.224 1.187 1.146 1.100 1.049 0.994 0.934 0.869 0.799 0.727 0.661 0.600 0.545 0.496 0.454 0.417 0.387 0.362 0.343 0.328 0.317 0.310 0.306 0.304 0.303 0.303 0.304 0.306 0.311 0.318 0.330 0.346 0.368 0.397 0.432 0.476 0.528 0.590 0.661 0.743 0.836 0.931 1.016 1.090 1.154 1.209 1.253 1.289 1.317 1.338 1.353 1.363 1.369 1.371 1.372 1.372 1.371 1.367 1.359 1.347 1.328 1.303 1.268 1.225 1.172 1.108 1.036 0.966 0.910 0.873 0.859 0.893 1.054 1.054 0.000 
0.000 0.213 0.213 0.302 0.357 0.383 0.392 0.390 0.386 0.383 0.380 0.379 0.379 0.379 0.379 0.380 0.382 0.385 0.389 0.397 0.407 0.421 0.438 0.458 0.481 0.506 0.532 0.558 0.583 0.608 0.633 0.657 0.682 0.707 0.732 0.757 0.784 0.811 0.841 0.872 0.907 0.944 0.985 1.030 1.080 1.133 1.187 1.238 1.283 1.324 1.360 1.392 1.419 1.442 1.461 1.477 1.490 1.500 1.508 1.514 1.518 1.521 1.523 1.524 1.524 1.524 1.524 1.524 1.524 1.522 1.521 1.518 1.514 1.510 1.504 1.498 1.491 1.483 1.474 1.466 1.457 1.448 1.438 1.428 1.418 1.407 1.394 1.380 1.364 1.345 1.324 1.299 1.271 1.239 1.203 1.162 1.117 1.067 1.011 0.950 0.884 0.813 0.739 0.670 0.607 0.551 0.501 0.457 0.420 0.389 0.364 0.344 0.328 0.318 0.310 0.306 0.304 0.303 0.303 0.304 0.306 0.311 0.318 0.330 0.346 0.368 0.397 0.432 0.476 0.528 0.589 0.661 0.743 0.835 0.930 1.015 1.090 1.154 1.208 1.252 1.288 1.317 1.338 1.353 1.362 1.368 1.371 1.372 1.372 1.370 1.367 1.359 1.348 1.330 1.305 1.273 1.231 1.180 1.118 1.054 1.004 0.972 0.960 0.962 0.995 1.054 1.054 0.000 
0.000 0.154 0.154 0.206 0.272 0.318 0.344 0.355 0.359 0.361 0.361 0.361 0.361 0.362 0.363 0.364 0.366 0.369 0.373 0.379 0.388 0.401 0.416 0.435 0.458 0.482 0.509 0.536 0.563 0.589 0.615 0.641 0.667 0.693 0.719 0.745 0.773 0.801 0.831 0.863 0.897 0.935 0.975 1.020 1.068 1.121 1.176 1.228 1.275 1.317 1.354 1.387 1.414 1.438 1.458 1.474 1.487 1.497 1.505 1.511 1.516 1.519 1.521 1.522 1.522 1.522 1.522 1.522 1.522 1.521 1.519 1.517 1.513 1.509 1.504 1.498 1.491 1.484 1.477 1.469 1.461 1.452 1.444 1.435 1.425 1.415 1.403 1.390 1.375 1.357 1.336 1.313 1.285 1.254 1.219 1.179 1.133 1.083 1.028 0.967 0.900 0.827 0.751 0.680 0.616 0.558 0.506 0.462 0.423 0.392 0.366 0.345 0.330 0.318 0.311 0.307 0.304 0.304 0.304 0.304 0.307 0.311 0.319 0.330 0.347 0.368 0.397 0.432 0.476 0.528 0.590 0.661 0.743 0.835 0.930 1.015 1.089 1.153 1.207 1.252 1.288 1.316 1.337 1.352 1.362 1.368 1.371 1.372 1.372 1.370 1.367 1.360 1.349 1.332 1.308 1.277 1.238 1.189 1.130 1.076 1.038 1.017 1.009 1.011 1.028 1.051 1.051 0.000 
0.000 0.096 0.096 0.146 0.224 0.287 0.321 0.337 0.344 0.346 0.347 0.347 0.347 0.347 0.347 0.348 0.349 0.351 0.355 0.361 0.369 0.379 0.393 0.411 0.432 0.456 0.483 0.510 0.539 0.566 0.594 0.621 0.648 0.675 0.703 0.730 0.759 0.788 0.818 0.851 0.886 0.923 0.964 1.009 1.057 1.110 1.167 1.220 1.268 1.311 1.349 1.382 1.411 1.435 1.455 1.471 1.484 1.495 1.503 1.509 1.514 1.517 1.519 1.520 1.521 1.521 1.521 1.521 1.520 1.519 1.518 1.515 1.512 1.508 1.504 1.498 1.492 1.485 1.478 1.471 1.464 1.456 1.449 1.440 1.432 1.422 1.411 1.399 1.384 1.367 1.348 1.325 1.299 1.268 1.234 1.194 1.149 1.100 1.044 0.983 0.916 0.842 0.764 0.691 0.625 0.565 0.512 0.467 0.427 0.395 0.368 0.347 0.331 0.320 0.312 0.308 0.305 0.305 0.305 0.305 0.307 0.312 0.319 0.331 0.347 0.369 0.397 0.433 0.477 0.529 0.590 0.662 0.743 0.836 0.930 1.015 1.089 1.153 1.207 1.252 1.288 1.316 1.337 1.352 1.362 1.368 1.371 1.372 1.372 1.371 1.367 1.361 1.350 1.334 1.313 1.284 1.246 1.200 1.145 1.099 1.066 1.046 1.037 1.035 1.040 1.048 1.048 0.000 
0.000 0.036 0.036 0.099 0.210 0.279 0.314 0.330 0.337 0.339 0.339 0.338 0.336 0.334 0.333 0.333 0.334 0.335 0.338 0.342 0.349 0.358 0.370 0.386 0.405 0.427 0.453 0.481 0.510 0.540 0.569 0.597 0.626 0.655 0.683 0.712 0.742 0.772 0.804 0.837 0.872 0.911 0.952 0.997 1.046 1.100 1.158 1.213 1.263 1.307 1.345 1.379 1.408 1.432 1.452 1.469 1.482 1.493 1.501 1.508 1.512 1.515 1.517 1.519 1.519 1.519 1.520 1.519 1.519 1.518 1.517 1.514 1.512 1.508 1.503 1.498 1.492 1.486 1.480 1.473 1.467 1.460 1.453 1.445 1.437 1.428 1.418 1.407 1.393 1.377 1.358 1.337 1.311 1.282 1.248 1.209 1.165 1.116 1.060 0.999 0.932 0.858 0.778 0.703 0.634 0.573 0.519 0.472 0.432 0.399 0.371 0.350 0.334 0.322 0.314 0.309 0.307 0.306 0.306 0.307 0.309 0.313 0.321 0.333 0.349 0.371 0.399 0.435 0.478 0.530 0.592 0.663 0.745 0.837 0.932 1.016 1.090 1.154 1.208 1.252 1.288 1.316 1.337 1.352 1.362 1.368 1.371 1.372 1.372 1.371 1.368 1.362 1.352 1.338 1.318 1.291 1.257 1.214 1.164 1.121 1.088 1.065 1.052 1.046 1.044 1.046 1.046 0.000 
0.000 0.134 0.134 0.117 0.224 0.283 0.314 0.329 0.335 0.336 0.336 0.332 0.327 0.323 0.321 0.320 0.320 0.321 0.323 0.326 0.331 0.338 0.348 0.362 0.378 0.398 0.422 0.449 0.478 0.509 0.539 0.569 0.600 0.630 0.660 0.690 0.721 0.753 0.786 0.820 0.857 0.896 0.939 0.985 1.036 1.091 1.151 1.207 1.258 1.303 1.342 1.376 1.405 1.430 1.450 1.467 1.481 1.492 1.500 1.506 1.511 1.514 1.516 1.517 1.518 1.518 1.518 1.518 1.518 1.517 1.516 1.514 1.511 1.507 1.503 1.498 1.493 1.487 1.481 1.475 1.469 1.463 1.456 1.450 1.442 1.434 1.425 1.414 1.401 1.386 1.368 1.347 1.323 1.294 1.261 1.223 1.180 1.131 1.076 1.015 0.948 0.873 0.793 0.715 0.645 0.582 0.527 0.479 0.438 0.404 0.376 0.354 0.337 0.325 0.317 0.312 0.310 0.309 0.309 0.309 0.312 0.316 0.324 0.335 0.351 0.373 0.402 0.437 0.481 0.533 0.595 0.666 0.748 0.840 0.934 1.018 1.092 1.155 1.208 1.253 1.288 1.316 1.338 1.353 1.363 1.369 1.372 1.373 1.373 1.372 1.369 1.364 1.355 1.342 1.324 1.300 1.269 1.230 1.183 1.139 1.104 1.078 1.061 1.051 1.045 1.043 1.043 0.000 
0.000 0.471 0.471 0.297 0.293 0.307 0.322 0.332 0.336 0.337 0.334 0.329 0.320 0.314 0.311 0.309 0.309 0.309 0.310 0.312 0.315 0.321 0.329 0.340 0.354 0.372 0.392 0.416 0.443 0.473 0.505 0.537 0.569 0.601 0.633 0.665 0.697 0.731 0.765 0.801 0.840 0.880 0.925 0.973 1.025 1.084 1.146 1.203 1.254 1.300 1.339 1.374 1.403 1.428 1.449 1.466 1.480 1.491 1.499 1.505 1.510 1.513 1.515 1.517 1.517 1.517 1.517 1.517 1.517 1.516 1.515 1.513 1.510 1.507 1.503 1.498 1.493 1.487 1.482 1.476 1.471 1.465 1.460 1.453 1.447 1.439 1.430 1.420 1.408 1.394 1.377 1.357 1.333 1.306 1.274 1.237 1.195 1.147 1.092 1.032 0.964 0.890 0.808 0.729 0.656 0.592 0.535 0.486 0.444 0.409 0.381 0.359 0.342 0.329 0.321 0.316 0.314 0.313 0.313 0.313 0.315 0.320 0.327 0.339 0.355 0.377 0.406 0.442 0.486 0.538 0.600 0.671 0.753 0.845 0.938 1.021 1.094 1.157 1.210 1.254 1.289 1.317 1.338 1.353 1.363 1.370 1.373 1.374 1.374 1.373 1.371 1.367 1.359 1.347 1.330 1.308 1.279 1.243 1.199 1.154 1.117 1.088 1.067 1.053 1.044 1.041 1.041 0.000 
0.000 0.524 0.524 0.440 0.352 0.340 0.341 0.343 0.343 0.341 0.335 0.326 0.316 0.308 0.303 0.300 0.298 0.298 0.298 0.299 0.302 0.306 0.312 0.321 0.333 0.348 0.366 0.387 0.412 0.439 0.469 0.501 0.534 0.567 0.601 0.635 0.670 0.705 0.742 0.780 0.820 0.863 0.909 0.960 1.016 1.078 1.141 1.199 1.251 1.297 1.337 1.372 1.402 1.427 1.448 1.465 1.479 1.490 1.498 1.504 1.509 1.512 1.514 1.516 1.516 1.517 1.517 1.517 1.516 1.515 1.514 1.512 1.509 1.506 1.502 1.498 1.493 1.488 1.483 1.478 1.472 1.467 1.462 1.456 1.450 1.443 1.435 1.425 1.414 1.400 1.384 1.365 1.343 1.316 1.286 1.250 1.209 1.162 1.108 1.048 0.981 0.906 0.824 0.743 0.669 0.603 0.545 0.495 0.452 0.417 0.388 0.365 0.347 0.335 0.326 0.321 0.319 0.318 0.318 0.318 0.321 0.325 0.333 0.344 0.361 0.383 0.412 0.448 0.492 0.545 0.607 0.679 0.761 0.853 0.945 1.027 1.099 1.160 1.213 1.256 1.291 1.319 1.340 1.355 1.365 1.371 1.374 1.376 1.376 1.375 1.373 1.369 1.362 1.351 1.336 1.315 1.287 1.253 1.212 1.166 1.126 1.095 1.071 1.053 1.043 1.038 1.038 0.000 
0.000 0.187 0.187 0.356 0.365 0.369 0.369 0.365 0.359 0.349 0.338 0.326 0.314 0.304 0.297 0.292 0.290 0.289 0.289 0.289 0.290 0.293 0.298 0.305 0.315 0.328 0.343 0.362 0.384 0.409 0.436 0.466 0.498 0.531 0.566 0.601 0.638 0.676 0.715 0.755 0.798 0.844 0.894 0.948 1.008 1.073 1.137 1.196 1.249 1.295 1.336 1.371 1.401 1.426 1.447 1.464 1.478 1.489 1.497 1.504 1.508 1.512 1.514 1.515 1.516 1.516 1.516 1.516 1.515 1.515 1.513 1.511 1.509 1.506 1.502 1.497 1.493 1.488 1.483 1.478 1.474 1.469 1.464 1.459 1.453 1.446 1.439 1.430 1.419 1.406 1.391 1.373 1.352 1.326 1.297 1.262 1.222 1.176 1.124 1.064 0.998 0.924 0.842 0.758 0.683 0.615 0.556 0.505 0.461 0.425 0.395 0.372 0.355 0.342 0.333 0.328 0.326 0.325 0.325 0.325 0.327 0.332 0.340 0.352 0.368 0.391 0.420 0.457 0.501 0.554 0.617 0.689 0.771 0.863 0.954 1.034 1.105 1.166 1.217 1.260 1.294 1.321 1.342 1.357 1.367 1.373 1.377 1.378 1.378 1.378 1.376 1.372 1.366 1.355 1.340 1.320 1.293 1.260 1.220 1.175 1.135 1.101 1.074 1.054 1.041 1.035 1.035 0.000 
0.000 0.200 0.200 0.265 0.381 0.406 0.407 0.399 0.383 0.362 0.344 0.327 0.313 0.301 0.293 0.287 0.283 0.281 0.280 0.280 0.281 0.283 0.287 0.292 0.300 0.311 0.324 0.341 0.360 0.383 0.408 0.436 0.466 0.498 0.533 0.568 0.606 0.645 0.686 0.730 0.776 0.825 0.879 0.937 1.001 1.069 1.134 1.194 1.247 1.294 1.335 1.370 1.400 1.425 1.446 1.464 1.478 1.488 1.497 1.503 1.508 1.511 1.513 1.514 1.515 1.515 1.515 1.515 1.515 1.514 1.513 1.511 1.508 1.505 1.501 1.497 1.492 1.488 1.483 1.479 1.474 1.470 1.465 1.460 1.455 1.449 1.442 1.433 1.423 1.411 1.397 1.380 1.360 1.335 1.307 1.273 1.235 1.190 1.139 1.081 1.015 0.942 0.860 0.775 0.698 0.629 0.569 0.516 0.472 0.435 0.405 0.381 0.364 0.351 0.342 0.337 0.334 0.333 0.333 0.334 0.336 0.341 0.349 0.361 0.378 0.401 0.431 0.468 0.513 0.567 0.630 0.703 0.785 0.877 0.966 1.045 1.114 1.173 1.223 1.265 1.299 1.325 1.345 1.360 1.370 1.376 1.379 1.381 1.381 1.381 1.379 1.376 1.369 1.359 1.344 1.323 1.297 1.264 1.225 1.182 1.142 1.106 1.077 1.054 1.039 1.033 1.033 0.000 
0.000 0.650 0.650 0.417 0.462 0.470 0.461 0.441 0.411 0.379 0.352 0.331 0.314 0.300 0.290 0.282 0.278 0.275 0.274 0.273 0.274 0.275 0.277 0.282 0.288 0.297 0.308 0.323 0.340 0.361 0.384 0.410 0.439 0.470 0.504 0.540 0.578 0.618 0.661 0.707 0.756 0.808 0.865 0.927 0.995 1.065 1.132 1.191 1.245 1.292 1.334 1.369 1.399 1.425 1.446 1.463 1.477 1.488 1.496 1.503 1.507 1.510 1.512 1.514 1.514 1.515 1.515 1.514 1.514 1.513 1.512 1.510 1.507 1.504 1.501 1.496 1.492 1.488 1.483 1.479 1.475 1.471 1.466 1.462 1.457 1.451 1.444 1.436 1.427 1.416 1.402 1.386 1.366 1.343 1.316 1.284 1.247 1.204 1.154 1.097 1.033 0.960 0.880 0.794 0.715 0.644 0.583 0.529 0.484 0.447 0.416 0.392 0.374 0.361 0.353 0.348 0.345 0.344 0.344 0.345 0.347 0.352 0.360 0.373 0.390 0.414 0.444 0.482 0.528 0.583 0.647 0.720 0.804 0.895 0.981 1.058 1.125 1.183 1.231 1.272 1.304 1.330 1.350 1.364 1.374 1.380 1.383 1.384 1.385 1.384 1.383 1.379 1.373 1.362 1.346 1.325 1.298 1.265 1.227 1.186 1.148 1.112 1.082 1.056 1.038 1.030 1.030 0.000 
0.000 0.925 0.925 0.759 0.643 0.577 0.526 0.479 0.434 0.395 0.362 0.336 0.316 0.300 0.288 0.280 0.274 0.270 0.269 0.268 0.268 0.269 0.270 0.273 0.279 0.286 0.296 0.309 0.324 0.343 0.364 0.389 0.416 0.447 0.480 0.515 0.554 0.595 0.639 0.687 0.738 0.793 0.853 0.919 0.990 1.062 1.129 1.190 1.244 1.291 1.333 1.369 1.399 1.425 1.446 1.463 1.477 1.488 1.496 1.502 1.507 1.510 1.512 1.513 1.514 1.514 1.514 1.514 1.513 1.512 1.511 1.509 1.507 1.503 1.500 1.496 1.492 1.487 1.483 1.479 1.475 1.471 1.467 1.462 1.458 1.452 1.446 1.439 1.430 1.419 1.406 1.391 1.372 1.350 1.324 1.294 1.258 1.216 1.168 1.113 1.051 0.980 0.900 0.814 0.733 0.661 0.599 0.544 0.498 0.460 0.430 0.406 0.387 0.374 0.366 0.361 0.358 0.357 0.357 0.358 0.360 0.366 0.374 0.387 0.405 0.430 0.461 0.500 0.547 0.603 0.668 0.742 0.826 0.917 1.000 1.075 1.139 1.195 1.242 1.281 1.312 1.337 1.355 1.369 1.378 1.384 1.387 1.389 1.389 1.388 1.387 1.383 1.376 1.364 1.348 1.326 1.299 1.266 1.227 1.188 1.152 1.119 1.088 1.062 1.040 1.028 1.028 0.000 
0.000 0.999 0.999 0.923 0.773 0.656 0.572 0.505 0.451 0.406 0.370 0.341 0.318 0.301 0.287 0.278 0.271 0.267 0.265 0.264 0.264 0.264 0.265 0.267 0.272 0.278 0.286 0.298 0.312 0.329 0.349 0.372 0.398 0.427 0.459 0.495 0.533 0.575 0.620 0.670 0.723 0.780 0.843 0.911 0.985 1.059 1.127 1.188 1.242 1.290 1.332 1.368 1.399 1.424 1.445 1.463 1.476 1.487 1.495 1.502 1.506 1.509 1.511 1.512 1.513 1.513 1.513 1.513 1.513 1.512 1.510 1.508 1.506 1.503 1.499 1.495 1.491 1.487 1.483 1.479 1.475 1.471 1.467 1.463 1.458 1.453 1.447 1.440 1.432 1.422 1.409 1.395 1.377 1.356 1.331 1.302 1.268 1.228 1.182 1.129 1.068 0.999 0.921 0.836 0.753 0.680 0.616 0.561 0.515 0.476 0.445 0.421 0.403 0.390 0.381 0.376 0.374 0.373 0.373 0.374 0.376 0.382 0.391 0.405 0.424 0.449 0.481 0.521 0.569 0.626 0.693 0.769 0.854 0.943 1.024 1.095 1.157 1.210 1.254 1.292 1.321 1.345 1.363 1.376 1.384 1.390 1.392 1.393 1.394 1.393 1.391 1.386 1.378 1.366 1.349 1.326 1.298 1.265 1.226 1.188 1.155 1.126 1.098 1.072 1.050 1.030 1.030 0.000 
0.000 0.994 0.994 0.959 0.825 0.693 0.595 0.520 0.461 0.413 0.374 0.344 0.320 0.301 0.287 0.277 0.270 0.265 0.262 0.261 0.261 0.261 0.262 0.263 0.267 0.272 0.279 0.289 0.302 0.318 0.336 0.358 0.383 0.412 0.443 0.478 0.517 0.559 0.605 0.655 0.710 0.769 0.834 0.905 0.982 1.057 1.125 1.187 1.241 1.290 1.332 1.368 1.398 1.424 1.445 1.462 1.476 1.487 1.495 1.501 1.506 1.509 1.511 1.512 1.512 1.512 1.512 1.512 1.512 1.511 1.509 1.507 1.505 1.502 1.498 1.494 1.490 1.486 1.483 1.479 1.475 1.471 1.467 1.463 1.459 1.454 1.448 1.441 1.433 1.424 1.412 1.398 1.381 1.361 1.338 1.310 1.277 1.238 1.194 1.143 1.084 1.018 0.943 0.859 0.775 0.701 0.636 0.580 0.533 0.494 0.463 0.439 0.420 0.407 0.399 0.394 0.392 0.391 0.391 0.392 0.395 0.401 0.411 0.425 0.445 0.471 0.505 0.546 0.596 0.655 0.723 0.800 0.887 0.974 1.051 1.118 1.177 1.228 1.270 1.305 1.333 1.355 1.371 1.383 1.391 1.395 1.398 1.398 1.398 1.397 1.395 1.389 1.380 1.367 1.349 1.326 1.297 1.263 1.223 1.186 1.155 1.130 1.109 1.089 1.073 1.064 1.064 0.000 
0.000 0.908 0.908 0.934 0.833 0.704 0.603 0.526 0.465 0.416 0.377 0.346 0.321 0.302 0.287 0.276 0.269 0.264 0.261 0.259 0.259 0.259 0.259 0.261 0.264 0.268 0.275 0.284 0.295 0.310 0.327 0.348 0.372 0.399 0.430 0.465 0.503 0.545 0.592 0.643 0.699 0.760 0.827 0.900 0.978 1.054 1.123 1.185 1.241 1.289 1.331 1.367 1.398 1.424 1.445 1.462 1.476 1.486 1.494 1.501 1.505 1.508 1.510 1.511 1.511 1.512 1.512 1.511 1.511 1.510 1.508 1.506 1.504 1.500 1.497 1.493 1.489 1.486 1.482 1.478 1.475 1.471 1.467 1.463 1.459 1.454 1.448 1.442 1.434 1.425 1.414 1.401 1.385 1.366 1.343 1.316 1.284 1.248 1.205 1.156 1.099 1.035 0.963 0.882 0.798 0.723 0.658 0.601 0.554 0.514 0.483 0.459 0.441 0.428 0.420 0.415 0.413 0.412 0.412 0.413 0.417 0.423 0.434 0.449 0.470 0.497 0.532 0.575 0.627 0.688 0.758 0.838 0.926 1.008 1.082 1.146 1.201 1.248 1.288 1.320 1.346 1.365 1.380 1.390 1.397 1.401 1.402 1.403 1.402 1.401 1.397 1.391 1.381 1.367 1.349 1.325 1.295 1.258 1.217 1.181 1.153 1.132 1.118 1.108 1.102 1.098 1.098 0.000 
0.000 0.809 0.809 0.852 0.802 0.702 0.603 0.527 0.466 0.418 0.378 0.347 0.322 0.302 0.287 0.276 0.268 0.263 0.260 0.259 0.258 0.258 0.258 0.259 0.262 0.266 0.272 0.280 0.291 0.304 0.321 0.341 0.364 0.390 0.420 0.454 0.492 0.535 0.581 0.633 0.690 0.752 0.820 0.895 0.975 1.052 1.122 1.184 1.240 1.288 1.331 1.367 1.398 1.423 1.444 1.461 1.475 1.486 1.494 1.500 1.504 1.507 1.509 1.510 1.511 1.511 1.511 1.510 1.510 1.509 1.507 1.505 1.502 1.499 1.495 1.492 1.488 1.485 1.481 1.478 1.474 1.471 1.467 1.463 1.459 1.454 1.448 1.442 1.434 1.426 1.415 1.402 1.387 1.369 1.347 1.321 1.291 1.256 1.215 1.167 1.113 1.051 0.981 0.903 0.820 0.745 0.679 0.622 0.575 0.535 0.504 0.479 0.461 0.449 0.441 0.436 0.434 0.434 0.434 0.435 0.439 0.446 0.457 0.473 0.496 0.525 0.562 0.607 0.660 0.723 0.796 0.877 0.964 1.042 1.111 1.171 1.223 1.267 1.303 1.333 1.357 1.374 1.387 1.396 1.402 1.405 1.406 1.406 1.405 1.404 1.400 1.393 1.382 1.367 1.348 1.323 1.291 1.252 1.209 1.174 1.147 1.130 1.121 1.118 1.122 1.123 1.123 0.000 
0.000 0.698 0.698 0.751 0.729 0.675 0.598 0.525 0.466 0.418 0.379 0.347 0.322 0.302 0.287 0.276 0.268 0.263 0.260 0.258 0.258 0.258 0.258 0.259 0.261 0.265 0.270 0.278 0.288 0.301 0.317 0.336 0.358 0.384 0.413 0.447 0.484 0.526 0.573 0.625 0.682 0.745 0.815 0.891 0.972 1.050 1.120 1.183 1.239 1.288 1.330 1.366 1.397 1.423 1.444 1.461 1.475 1.485 1.493 1.499 1.503 1.506 1.508 1.509 1.510 1.510 1.510 1.509 1.509 1.508 1.506 1.504 1.501 1.497 1.493 1.490 1.487 1.483 1.480 1.477 1.474 1.470 1.467 1.463 1.458 1.454 1.448 1.442 1.435 1.426 1.416 1.403 1.389 1.371 1.350 1.326 1.297 1.263 1.223 1.178 1.125 1.065 0.998 0.922 0.840 0.764 0.698 0.641 0.593 0.554 0.522 0.498 0.480 0.467 0.459 0.455 0.453 0.452 0.453 0.454 0.458 0.466 0.478 0.495 0.518 0.549 0.587 0.634 0.690 0.755 0.829 0.912 0.996 1.070 1.136 1.193 1.242 1.283 1.317 1.344 1.365 1.382 1.393 1.401 1.406 1.408 1.409 1.409 1.408 1.406 1.401 1.393 1.382 1.367 1.346 1.320 1.286 1.244 1.199 1.164 1.138 1.124 1.119 1.119 1.131 1.146 1.146 0.000 
0.000 0.594 0.594 0.642 0.631 0.612 0.574 0.519 0.464 0.417 0.378 0.347 0.322 0.303 0.288 0.276 0.269 0.263 0.260 0.258 0.258 0.258 0.258 0.259 0.261 0.264 0.270 0.277 0.287 0.299 0.314 0.333 0.354 0.379 0.408 0.441 0.478 0.520 0.567 0.619 0.676 0.740 0.810 0.887 0.970 1.048 1.118 1.182 1.238 1.287 1.330 1.366 1.397 1.422 1.444 1.461 1.474 1.485 1.493 1.498 1.503 1.505 1.507 1.508 1.508 1.508 1.508 1.508 1.507 1.506 1.504 1.502 1.498 1.495 1.491 1.488 1.485 1.482 1.478 1.475 1.472 1.469 1.466 1.462 1.458 1.453 1.448 1.442 1.435 1.426 1.416 1.404 1.390 1.373 1.353 1.329 1.301 1.269 1.230 1.186 1.136 1.078 1.012 0.938 0.858 0.782 0.715 0.658 0.610 0.570 0.538 0.513 0.495 0.483 0.475 0.470 0.468 0.468 0.468 0.470 0.475 0.482 0.495 0.513 0.538 0.569 0.609 0.658 0.715 0.782 0.858 0.942 1.022 1.094 1.156 1.210 1.257 1.295 1.327 1.353 1.372 1.387 1.398 1.404 1.408 1.410 1.411 1.411 1.410 1.407 1.402 1.394 1.382 1.366 1.344 1.317 1.282 1.238 1.190 1.151 1.124 1.111 1.108 1.112 1.131 1.154 1.154 0.000 
0.000 0.494 0.494 0.541 0.543 0.540 0.529 0.501 0.459 0.415 0.378 0.347 0.322 0.303 0.288 0.277 0.269 0.264 0.260 0.259 0.258 0.258 0.258 0.259 0.261 0.264 0.270 0.277 0.286 0.298 0.313 0.331 0.352 0.377 0.405 0.437 0.474 0.515 0.562 0.614 0.672 0.736 0.806 0.884 0.967 1.046 1.117 1.181 1.237 1.286 1.329 1.366 1.396 1.422 1.443 1.460 1.473 1.484 1.492 1.497 1.501 1.504 1.506 1.506 1.507 1.507 1.507 1.506 1.505 1.504 1.502 1.499 1.496 1.492 1.489 1.485 1.482 1.479 1.476 1.473 1.470 1.467 1.464 1.461 1.457 1.453 1.447 1.441 1.434 1.426 1.416 1.404 1.391 1.374 1.355 1.332 1.305 1.273 1.237 1.194 1.145 1.089 1.025 0.953 0.873 0.797 0.730 0.672 0.624 0.583 0.551 0.526 0.508 0.495 0.488 0.483 0.481 0.481 0.481 0.483 0.488 0.496 0.509 0.528 0.553 0.586 0.627 0.677 0.736 0.804 0.882 0.966 1.044 1.113 1.173 1.225 1.269 1.305 1.335 1.359 1.378 1.391 1.401 1.407 1.410 1.412 1.412 1.412 1.411 1.408 1.402 1.394 1.382 1.365 1.342 1.314 1.278 1.234 1.183 1.137 1.104 1.085 1.080 1.085 1.114 1.158 1.158 0.000 
0.000 0.436 0.436 0.469 0.481 0.483 0.479 0.469 0.446 0.411 0.376 0.346 0.322 0.303 0.289 0.278 0.270 0.265 0.262 0.260 0.259 0.259 0.259 0.260 0.262 0.265 0.270 0.277 0.286 0.298 0.313 0.331 0.351 0.375 0.403 0.435 0.471 0.512 0.558 0.610 0.668 0.732 0.803 0.881 0.964 1.044 1.115 1.179 1.236 1.286 1.328 1.365 1.396 1.421 1.442 1.459 1.472 1.483 1.490 1.496 1.500 1.502 1.504 1.505 1.505 1.505 1.505 1.504 1.503 1.501 1.499 1.496 1.492 1.489 1.485 1.482 1.479 1.476 1.474 1.471 1.468 1.465 1.462 1.459 1.455 1.451 1.446 1.441 1.434 1.426 1.416 1.404 1.391 1.375 1.356 1.334 1.308 1.277 1.242 1.200 1.152 1.098 1.036 0.965 0.887 0.811 0.743 0.685 0.635 0.595 0.562 0.537 0.519 0.506 0.498 0.494 0.492 0.491 0.492 0.494 0.499 0.507 0.521 0.540 0.566 0.600 0.642 0.693 0.753 0.823 0.902 0.985 1.061 1.127 1.185 1.235 1.278 1.313 1.341 1.364 1.381 1.394 1.403 1.408 1.411 1.412 1.413 1.412 1.411 1.408 1.402 1.393 1.381 1.363 1.340 1.310 1.274 1.230 1.179 1.125 1.078 1.041 1.021 1.022 1.053 1.142 1.142 0.000 
0.000 0.410 0.410 0.428 0.438 0.440 0.439 0.434 0.423 0.402 0.373 0.345 0.322 0.304 0.290 0.280 0.272 0.267 0.263 0.262 0.261 0.261 0.261 0.262 0.263 0.266 0.271 0.278 0.287 0.299 0.313 0.331 0.351 0.375 0.402 0.434 0.470 0.510 0.556 0.607 0.665 0.729 0.800 0.878 0.962 1.042 1.114 1.178 1.235 1.285 1.328 1.364 1.395 1.420 1.441 1.458 1.471 1.481 1.489 1.494 1.498 1.500 1.502 1.502 1.502 1.502 1.502 1.501 1.500 1.498 1.496 1.492 1.488 1.484 1.481 1.478 1.475 1.473 1.470 1.467 1.465 1.462 1.459 1.456 1.453 1.449 1.444 1.439 1.433 1.425 1.415 1.404 1.391 1.375 1.357 1.335 1.310 1.280 1.246 1.205 1.159 1.106 1.045 0.976 0.899 0.822 0.754 0.695 0.645 0.604 0.571 0.546 0.527 0.514 0.506 0.502 0.500 0.500 0.500 0.502 0.507 0.516 0.529 0.549 0.576 0.610 0.653 0.705 0.766 0.837 0.917 0.999 1.073 1.138 1.195 1.243 1.284 1.318 1.345 1.367 1.384 1.396 1.404 1.409 1.412 1.413 1.413 1.413 1.411 1.408 1.402 1.393 1.380 1.361 1.337 1.307 1.270 1.225 1.173 1.115 1.055 0.994 0.936 0.892 0.886 1.006 1.006 0.000 
0.000 0.384 0.384 0.400 0.406 0.407 0.407 0.404 0.397 0.386 0.367 0.343 0.322 0.305 0.292 0.282 0.275 0.270 0.267 0.265 0.264 0.264 0.264 0.265 0.266 0.269 0.274 0.280 0.289 0.300 0.314 0.331 0.351 0.375 0.402 0.433 0.469 0.509 0.554 0.605 0.662 0.726 0.797 0.875 0.959 1.039 1.112 1.177 1.234 1.284 1.327 1.363 1.394 1.419 1.440 1.456 1.469 1.479 1.487 1.492 1.495 1.498 1.499 1.499 1.499 1.499 1.499 1.498 1.497 1.494 1.491 1.487 1.483 1.479 1.476 1.473 1.471 1.468 1.466 1.463 1.461 1.458 1.455 1.453 1.449 1.446 1.442 1.437 1.431 1.423 1.414 1.404 1.391 1.375 1.357 1.336 1.312 1.283 1.249 1.210 1.164 1.112 1.053 0.985 0.909 0.832 0.763 0.704 0.653 0.611 0.578 0.552 0.533 0.520 0.512 0.508 0.506 0.505 0.506 0.508 0.513 0.522 0.536 0.556 0.583 0.618 0.661 0.714 0.776 0.847 0.928 1.010 1.082 1.146 1.201 1.249 1.288 1.321 1.348 1.369 1.385 1.396 1.404 1.409 1.412 1.413 1.413 1.413 1.411 1.408 1.402 1.392 1.378 1.359 1.335 1.303 1.265 1.219 1.165 1.104 1.036 0.963 0.884 0.782 0.606 0.435 0.435 0.000 
0.000 0.358 0.358 0.373 0.379 0.380 0.380 0.379 0.374 0.367 0.356 0.340 0.322 0.306 0.295 0.285 0.279 0.274 0.271 0.270 0.269 0.269 0.269 0.269 0.271 0.273 0.278 0.284 0.292 0.303 0.316 0.332 0.352 0.375 0.402 0.433 0.468 0.508 0.553 0.603 0.660 0.723 0.794 0.872 0.956 1.037 1.110 1.175 1.232 1.282 1.325 1.362 1.392 1.417 1.438 1.454 1.467 1.477 1.484 1.489 1.492 1.494 1.495 1.496 1.496 1.496 1.495 1.494 1.492 1.489 1.486 1.481 1.477 1.473 1.470 1.467 1.465 1.462 1.460 1.458 1.455 1.453 1.451 1.448 1.445 1.442 1.438 1.433 1.428 1.421 1.412 1.402 1.390 1.375 1.357 1.337 1.313 1.284 1.251 1.213 1.169 1.117 1.059 0.993 0.918 0.840 0.771 0.710 0.659 0.617 0.583 0.557 0.538 0.525 0.516 0.512 0.510 0.510 0.510 0.512 0.517 0.526 0.540 0.560 0.588 0.623 0.667 0.720 0.782 0.854 0.936 1.017 1.088 1.151 1.205 1.252 1.291 1.323 1.349 1.370 1.385 1.397 1.404 1.409 1.412 1.413 1.413 1.412 1.411 1.407 1.401 1.391 1.376 1.357 1.331 1.299 1.260 1.212 1.155 1.089 1.016 0.943 0.867 0.764 0.552 0.132 0.132 0.000 
0.000 0.332 0.332 0.347 0.353 0.357 0.358 0.357 0.355 0.351 0.344 0.334 0.321 0.308 0.298 0.290 0.284 0.280 0.278 0.276 0.276 0.275 0.276 0.276 0.277 0.280 0.284 0.289 0.297 0.307 0.320 0.335 0.354 0.377 0.403 0.433 0.468 0.507 0.552 0.602 0.658 0.721 0.791 0.869 0.953 1.035 1.108 1.173 1.231 1.280 1.323 1.360 1.390 1.415 1.436 1.452 1.464 1.474 1.480 1.485 1.488 1.490 1.491 1.491 1.491 1.491 1.490 1.489 1.487 1.483 1.479 1.474 1.470 1.466 1.463 1.460 1.458 1.456 1.453 1.451 1.449 1.447 1.445 1.442 1.440 1.437 1.433 1.429 1.424 1.418 1.410 1.400 1.388 1.374 1.357 1.337 1.313 1.286 1.253 1.216 1.172 1.122 1.064 0.999 0.925 0.847 0.777 0.716 0.664 0.621 0.587 0.561 0.541 0.528 0.519 0.515 0.513 0.512 0.513 0.515 0.520 0.529 0.543 0.563 0.591 0.626 0.670 0.723 0.786 0.859 0.941 1.021 1.092 1.154 1.208 1.254 1.292 1.324 1.350 1.370 1.385 1.397 1.404 1.409 1.411 1.412 1.412 1.412 1.410 1.406 1.399 1.389 1.374 1.354 1.328 1.294 1.253 1.203 1.142 1.071 0.994 0.927 0.866 0.803 0.729 0.686 0.686 0.000 
0.000 0.307 0.307 0.322 0.328 0.334 0.337 0.338 0.338 0.337 0.333 0.327 0.319 0.310 0.302 0.296 0.291 0.288 0.286 0.285 0.284 0.284 0.284 0.285 0.286 0.288 0.292 0.297 0.304 0.313 0.325 0.340 0.358 0.379 0.405 0.434 0.468 0.507 0.551 0.601 0.656 0.719 0.788 0.866 0.950 1.032 1.105 1.171 1.228 1.278 1.321 1.357 1.388 1.412 1.432 1.448 1.461 1.470 1.476 1.481 1.484 1.485 1.486 1.486 1.486 1.486 1.485 1.483 1.480 1.476 1.471 1.466 1.462 1.458 1.455 1.452 1.450 1.447 1.445 1.443 1.441 1.439 1.437 1.435 1.433 1.430 1.427 1.423 1.419 1.413 1.406 1.397 1.386 1.373 1.356 1.337 1.314 1.286 1.255 1.218 1.175 1.126 1.069 1.004 0.931 0.852 0.782 0.720 0.668 0.625 0.590 0.563 0.543 0.529 0.521 0.516 0.514 0.514 0.514 0.516 0.521 0.530 0.544 0.565 0.592 0.628 0.672 0.726 0.789 0.862 0.943 1.023 1.094 1.155 1.209 1.254 1.292 1.324 1.350 1.370 1.385 1.396 1.404 1.408 1.410 1.411 1.411 1.411 1.409 1.404 1.397 1.386 1.371 1.350 1.323 1.289 1.247 1.195 1.133 1.059 0.979 0.915 0.876 0.866 0.916 1.094 1.094 0.000 
0.000 0.281 0.281 0.296 0.303 0.311 0.317 0.321 0.324 0.325 0.324 0.322 0.319 0.313 0.308 0.303 0.300 0.298 0.296 0.296 0.295 0.295 0.296 0.296 0.298 0.300 0.303 0.308 0.314 0.322 0.333 0.347 0.364 0.384 0.408 0.436 0.469 0.507 0.551 0.600 0.655 0.716 0.785 0.862 0.946 1.028 1.102 1.168 1.225 1.275 1.318 1.354 1.384 1.409 1.429 1.444 1.456 1.465 1.471 1.475 1.478 1.479 1.480 1.480 1.480 1.479 1.478 1.475 1.472 1.467 1.462 1.456 1.452 1.448 1.445 1.442 1.440 1.438 1.436 1.434 1.432 1.431 1.429 1.427 1.425 1.423 1.420 1.417 1.413 1.407 1.401 1.393 1.383 1.370 1.355 1.336 1.313 1.287 1.256 1.220 1.177 1.128 1.072 1.008 0.936 0.857 0.785 0.723 0.670 0.627 0.591 0.564 0.544 0.530 0.522 0.517 0.515 0.514 0.515 0.517 0.522 0.531 0.545 0.565 0.593 0.628 0.673 0.726 0.790 0.863 0.945 1.024 1.094 1.156 1.209 1.254 1.292 1.324 1.349 1.369 1.384 1.395 1.402 1.407 1.409 1.409 1.409 1.409 1.406 1.402 1.394 1.383 1.367 1.346 1.318 1.283 1.240 1.189 1.127 1.053 0.974 0.910 0.875 0.873 0.929 1.092 1.092 0.000 
0.000 0.255 0.255 0.270 0.278 0.287 0.297 0.305 0.311 0.315 0.318 0.319 0.319 0.317 0.314 0.312 0.310 0.309 0.309 0.309 0.309 0.309 0.309 0.310 0.312 0.314 0.317 0.321 0.326 0.334 0.344 0.356 0.371 0.390 0.413 0.440 0.472 0.508 0.551 0.599 0.653 0.714 0.782 0.858 0.942 1.025 1.099 1.164 1.222 1.272 1.314 1.350 1.380 1.404 1.424 1.439 1.450 1.459 1.465 1.469 1.471 1.472 1.473 1.473 1.472 1.471 1.470 1.467 1.463 1.457 1.451 1.445 1.440 1.436 1.433 1.431 1.428 1.427 1.425 1.423 1.422 1.420 1.419 1.417 1.416 1.414 1.411 1.409 1.405 1.401 1.395 1.388 1.378 1.367 1.352 1.334 1.313 1.287 1.256 1.221 1.179 1.131 1.075 1.012 0.940 0.861 0.788 0.726 0.672 0.628 0.592 0.565 0.545 0.531 0.522 0.517 0.515 0.514 0.515 0.517 0.522 0.531 0.545 0.565 0.593 0.629 0.673 0.727 0.790 0.863 0.945 1.024 1.094 1.156 1.209 1.254 1.292 1.323 1.348 1.368 1.383 1.393 1.400 1.404 1.406 1.406 1.406 1.406 1.403 1.398 1.391 1.379 1.363 1.341 1.312 1.277 1.234 1.183 1.122 1.052 0.975 0.909 0.858 0.824 0.816 0.934 0.934 0.000 
0.000 0.229 0.229 0.245 0.254 0.265 0.276 0.288 0.298 0.306 0.313 0.317 0.320 0.321 0.322 0.322 0.322 0.323 0.323 0.324 0.324 0.325 0.326 0.327 0.328 0.330 0.333 0.337 0.342 0.348 0.357 0.368 0.382 0.399 0.420 0.445 0.475 0.510 0.551 0.598 0.651 0.711 0.779 0.854 0.938 1.020 1.094 1.160 1.217 1.267 1.310 1.345 1.375 1.399 1.418 1.433 1.444 1.452 1.457 1.461 1.463 1.464 1.464 1.464 1.464 1.462 1.460 1.457 1.452 1.445 1.438 1.432 1.427 1.423 1.420 1.417 1.415 1.414 1.412 1.411 1.410 1.409 1.407 1.406 1.405 1.403 1.401 1.399 1.396 1.392 1.387 1.381 1.373 1.362 1.349 1.332 1.312 1.287 1.257 1.222 1.181 1.133 1.078 1.015 0.943 0.864 0.791 0.727 0.673 0.628 0.593 0.565 0.545 0.531 0.522 0.517 0.515 0.514 0.515 0.517 0.522 0.531 0.545 0.565 0.593 0.628 0.673 0.726 0.790 0.863 0.945 1.024 1.094 1.155 1.208 1.253 1.290 1.321 1.346 1.365 1.380 1.390 1.396 1.400 1.402 1.402 1.402 1.401 1.399 1.394 1.386 1.374 1.357 1.335 1.306 1.271 1.228 1.177 1.118 1.051 0.979 0.911 0.841 0.752 0.576 0.383 0.383 0.000 
0.000 0.203 0.203 0.220 0.230 0.242 0.256 0.272 0.286 0.299 0.309 0.316 0.322 0.326 0.329 0.332 0.334 0.335 0.336 0.337 0.339 0.340 0.341 0.342 0.344 0.346 0.349 0.353 0.357 0.363 0.371 0.381 0.393 0.409 0.428 0.452 0.480 0.513 0.552 0.597 0.649 0.708 0.775 0.849 0.932 1.015 1.089 1.154 1.212 1.262 1.304 1.339 1.368 1.392 1.411 1.425 1.436 1.444 1.449 1.452 1.454 1.454 1.455 1.454 1.454 1.452 1.449 1.445 1.439 1.431 1.424 1.417 1.412 1.408 1.405 1.403 1.401 1.399 1.398 1.397 1.396 1.395 1.394 1.393 1.392 1.391 1.390 1.388 1.386 1.383 1.379 1.373 1.366 1.357 1.344 1.329 1.309 1.286 1.257 1.222 1.182 1.135 1.080 1.017 0.946 0.867 0.793 0.729 0.674 0.629 0.593 0.565 0.544 0.530 0.521 0.516 0.514 0.514 0.514 0.516 0.521 0.530 0.544 0.564 0.592 0.627 0.672 0.725 0.788 0.861 0.943 1.022 1.092 1.153 1.205 1.250 1.287 1.318 1.342 1.361 1.375 1.385 1.391 1.395 1.396 1.397 1.397 1.395 1.393 1.388 1.379 1.367 1.350 1.328 1.299 1.264 1.221 1.170 1.112 1.048 0.980 0.913 0.841 0.744 0.545 0.166 0.166 0.000 
0.000 0.178 0.178 0.194 0.206 0.221 0.237 0.256 0.275 0.292 0.306 0.316 0.325 0.331 0.336 0.340 0.343 0.345 0.347 0.349 0.351 0.352 0.354 0.356 0.357 0.360 0.362 0.366 0.370 0.376 0.383 0.392 0.404 0.418 0.436 0.458 0.484 0.516 0.553 0.596 0.647 0.705 0.770 0.844 0.926 1.008 1.082 1.148 1.205 1.255 1.297 1.332 1.361 1.384 1.402 1.416 1.427 1.434 1.439 1.442 1.443 1.444 1.444 1.443 1.442 1.440 1.436 1.431 1.424 1.415 1.407 1.401 1.395 1.391 1.388 1.386 1.384 1.383 1.382 1.381 1.381 1.380 1.380 1.380 1.379 1.379 1.378 1.377 1.375 1.373 1.370 1.365 1.359 1.350 1.339 1.325 1.307 1.284 1.256 1.223 1.183 1.136 1.082 1.020 0.949 0.870 0.795 0.729 0.674 0.629 0.592 0.564 0.543 0.529 0.520 0.515 0.513 0.512 0.513 0.515 0.520 0.528 0.542 0.563 0.590 0.625 0.669 0.723 0.786 0.859 0.940 1.019 1.088 1.148 1.201 1.245 1.282 1.312 1.336 1.355 1.368 1.378 1.384 1.387 1.389 1.389 1.389 1.388 1.385 1.380 1.372 1.359 1.342 1.320 1.291 1.256 1.213 1.162 1.104 1.040 0.978 0.920 0.862 0.799 0.733 0.712 0.712 0.000 
0.000 0.152 0.152 0.169 0.183 0.199 0.219 0.242 0.267 0.287 0.304 0.317 0.327 0.335 0.342 0.347 0.351 0.354 0.356 0.358 0.360 0.362 0.364 0.366 0.368 0.370 0.373 0.376 0.380 0.385 0.392 0.401 0.412 0.425 0.442 0.463 0.488 0.518 0.553 0.595 0.644 0.701 0.765 0.838 0.918 1.001 1.075 1.140 1.198 1.247 1.289 1.324 1.352 1.375 1.393 1.406 1.416 1.423 1.427 1.430 1.431 1.431 1.431 1.431 1.429 1.427 1.422 1.416 1.408 1.398 1.389 1.382 1.377 1.373 1.370 1.368 1.367 1.366 1.366 1.366 1.366 1.366 1.367 1.367 1.368 1.368 1.368 1.367 1.366 1.364 1.362 1.358 1.352 1.344 1.334 1.320 1.303 1.282 1.255 1.223 1.184 1.138 1.084 1.022 0.951 0.872 0.796 0.730 0.674 0.628 0.591 0.563 0.542 0.527 0.518 0.513 0.510 0.510 0.510 0.512 0.517 0.526 0.539 0.559 0.586 0.621 0.665 0.718 0.781 0.854 0.935 1.013 1.082 1.142 1.193 1.237 1.274 1.304 1.328 1.346 1.359 1.369 1.375 1.378 1.380 1.380 1.380 1.379 1.376 1.370 1.362 1.350 1.333 1.310 1.282 1.246 1.203 1.151 1.090 1.026 0.973 0.933 0.908 0.901 0.943 1.079 1.079 0.000 
0.000 0.126 0.126 0.144 0.160 0.179 0.202 0.232 0.260 0.284 0.303 0.318 0.330 0.339 0.347 0.352 0.357 0.360 0.363 0.366 0.368 0.370 0.372 0.374 0.376 0.378 0.381 0.384 0.388 0.393 0.399 0.407 0.417 0.430 0.446 0.466 0.490 0.518 0.553 0.594 0.642 0.697 0.760 0.831 0.910 0.992 1.066 1.131 1.188 1.238 1.279 1.314 1.342 1.364 1.382 1.395 1.404 1.410 1.414 1.417 1.417 1.418 1.418 1.417 1.415 1.411 1.406 1.399 1.389 1.379 1.371 1.364 1.360 1.356 1.354 1.352 1.352 1.351 1.351 1.351 1.352 1.353 1.355 1.357 1.358 1.359 1.359 1.359 1.358 1.357 1.355 1.351 1.346 1.339 1.330 1.317 1.300 1.280 1.254 1.222 1.184 1.139 1.086 1.024 0.954 0.874 0.797 0.730 0.674 0.627 0.590 0.560 0.539 0.524 0.514 0.509 0.506 0.506 0.506 0.508 0.513 0.521 0.534 0.554 0.581 0.615 0.659 0.711 0.774 0.845 0.926 1.004 1.072 1.132 1.183 1.227 1.263 1.293 1.316 1.334 1.348 1.357 1.363 1.366 1.368 1.368 1.368 1.367 1.364 1.359 1.350 1.338 1.321 1.299 1.271 1.235 1.192 1.139 1.076 1.014 0.967 0.939 0.931 0.940 0.996 1.076 1.076 0.000 
0.000 0.100 0.100 0.119 0.136 0.159 0.189 0.225 0.256 0.282 0.303 0.319 0.332 0.342 0.350 0.357 0.362 0.366 0.369 0.371 0.374 0.376 0.378 0.380 0.382 0.384 0.387 0.390 0.393 0.398 0.404 0.412 0.421 0.434 0.449 0.468 0.491 0.519 0.552 0.592 0.639 0.692 0.754 0.823 0.901 0.982 1.056 1.121 1.178 1.227 1.268 1.302 1.330 1.352 1.369 1.382 1.391 1.396 1.400 1.402 1.403 1.403 1.402 1.401 1.399 1.395 1.389 1.381 1.371 1.362 1.354 1.349 1.344 1.341 1.340 1.339 1.338 1.338 1.338 1.339 1.340 1.342 1.345 1.348 1.350 1.351 1.351 1.352 1.351 1.350 1.349 1.346 1.342 1.335 1.326 1.314 1.298 1.278 1.253 1.222 1.184 1.140 1.087 1.026 0.956 0.877 0.799 0.731 0.673 0.625 0.587 0.557 0.535 0.519 0.509 0.503 0.501 0.500 0.500 0.502 0.506 0.514 0.528 0.547 0.573 0.607 0.650 0.702 0.763 0.834 0.913 0.991 1.059 1.118 1.169 1.213 1.249 1.278 1.302 1.320 1.333 1.343 1.349 1.352 1.354 1.354 1.354 1.353 1.350 1.345 1.336 1.324 1.308 1.286 1.258 1.223 1.180 1.129 1.068 1.008 0.963 0.937 0.932 0.942 0.997 1.073 1.073 0.000 
0.000 0.075 0.075 0.093 0.113 0.142 0.180 0.221 0.255 0.282 0.303 0.320 0.334 0.345 0.354 0.360 0.366 0.370 0.373 0.375 0.378 0.380 0.382 0.384 0.386 0.388 0.391 0.394 0.397 0.402 0.407 0.415 0.424 0.436 0.450 0.469 0.491 0.518 0.551 0.590 0.635 0.687 0.747 0.814 0.890 0.971 1.044 1.109 1.166 1.215 1.256 1.289 1.317 1.338 1.355 1.367 1.376 1.381 1.384 1.386 1.386 1.386 1.386 1.384 1.382 1.378 1.372 1.365 1.355 1.347 1.340 1.335 1.331 1.328 1.327 1.326 1.326 1.326 1.326 1.327 1.329 1.332 1.336 1.340 1.343 1.345 1.345 1.346 1.346 1.345 1.344 1.342 1.338 1.332 1.323 1.311 1.296 1.276 1.252 1.222 1.185 1.141 1.089 1.029 0.959 0.880 0.800 0.730 0.671 0.622 0.582 0.552 0.529 0.513 0.502 0.496 0.493 0.492 0.492 0.494 0.498 0.506 0.518 0.537 0.562 0.596 0.637 0.688 0.748 0.818 0.896 0.973 1.041 1.100 1.151 1.194 1.230 1.260 1.284 1.302 1.316 1.325 1.331 1.335 1.336 1.337 1.337 1.336 1.333 1.328 1.320 1.308 1.292 1.271 1.243 1.210 1.169 1.120 1.063 1.006 0.960 0.928 0.911 0.911 0.952 1.071 1.071 0.000 
0.000 0.049 0.049 0.068 0.092 0.129 0.177 0.220 0.254 0.282 0.304 0.322 0.336 0.347 0.356 0.363 0.368 0.372 0.376 0.378 0.380 0.382 0.384 0.386 0.389 0.391 0.393 0.396 0.399 0.404 0.409 0.416 0.425 0.437 0.451 0.469 0.491 0.518 0.550 0.587 0.631 0.682 0.739 0.805 0.878 0.958 1.031 1.096 1.152 1.201 1.241 1.275 1.302 1.323 1.340 1.351 1.359 1.364 1.367 1.369 1.370 1.370 1.369 1.368 1.366 1.362 1.357 1.350 1.341 1.333 1.327 1.322 1.319 1.317 1.316 1.316 1.316 1.316 1.316 1.318 1.320 1.324 1.329 1.333 1.337 1.339 1.341 1.341 1.341 1.341 1.340 1.338 1.334 1.329 1.321 1.309 1.295 1.275 1.251 1.222 1.185 1.142 1.091 1.031 0.962 0.883 0.801 0.729 0.668 0.618 0.577 0.545 0.521 0.504 0.493 0.486 0.483 0.482 0.482 0.484 0.487 0.495 0.507 0.524 0.549 0.581 0.621 0.671 0.729 0.797 0.874 0.950 1.017 1.076 1.127 1.171 1.208 1.238 1.262 1.281 1.294 1.304 1.311 1.315 1.316 1.317 1.317 1.316 1.313 1.308 1.301 1.289 1.274 1.253 1.227 1.195 1.156 1.111 1.058 1.004 0.955 0.909 0.864 0.818 0.782 0.869 0.869 0.000 
0.000 0.028 0.028 0.046 0.077 0.124 0.177 0.220 0.255 0.283 0.306 0.324 0.338 0.350 0.358 0.365 0.370 0.374 0.377 0.380 0.382 0.384 0.386 0.388 0.390 0.392 0.394 0.397 0.400 0.405 0.410 0.417 0.426 0.437 0.451 0.469 0.490 0.516 0.547 0.584 0.626 0.675 0.731 0.795 0.866 0.944 1.017 1.081 1.137 1.185 1.226 1.259 1.286 1.307 1.323 1.335 1.343 1.348 1.352 1.354 1.354 1.354 1.354 1.353 1.352 1.348 1.344 1.337 1.329 1.322 1.316 1.312 1.309 1.308 1.307 1.307 1.307 1.307 1.308 1.310 1.313 1.317 1.322 1.328 1.332 1.335 1.337 1.337 1.338 1.337 1.337 1.335 1.332 1.326 1.319 1.308 1.294 1.275 1.251 1.222 1.186 1.143 1.092 1.033 0.964 0.886 0.803 0.729 0.665 0.612 0.570 0.536 0.511 0.493 0.481 0.474 0.471 0.470 0.470 0.471 0.474 0.481 0.492 0.509 0.532 0.563 0.602 0.649 0.706 0.771 0.846 0.921 0.988 1.048 1.099 1.143 1.180 1.211 1.235 1.255 1.269 1.280 1.287 1.291 1.293 1.293 1.293 1.292 1.290 1.286 1.278 1.268 1.253 1.233 1.209 1.179 1.142 1.100 1.053 1.002 0.950 0.897 0.837 0.749 0.566 0.328 0.328 0.000 
0.000 0.010 0.010 0.029 0.070 0.125 0.178 0.221 0.256 0.285 0.308 0.326 0.341 0.352 0.360 0.367 0.372 0.375 0.378 0.381 0.383 0.385 0.387 0.388 0.390 0.392 0.395 0.397 0.401 0.405 0.410 0.417 0.426 0.437 0.451 0.468 0.489 0.514 0.544 0.580 0.621 0.668 0.722 0.783 0.852 0.928 1.001 1.065 1.121 1.169 1.209 1.242 1.269 1.290 1.307 1.319 1.328 1.334 1.337 1.339 1.340 1.341 1.340 1.340 1.338 1.336 1.331 1.326 1.318 1.312 1.307 1.303 1.301 1.299 1.299 1.299 1.299 1.299 1.301 1.303 1.306 1.311 1.317 1.324 1.328 1.332 1.334 1.334 1.335 1.335 1.334 1.332 1.329 1.325 1.317 1.307 1.293 1.274 1.251 1.222 1.187 1.144 1.094 1.035 0.967 0.890 0.806 0.730 0.664 0.607 0.562 0.526 0.500 0.481 0.468 0.460 0.456 0.455 0.454 0.455 0.458 0.464 0.474 0.490 0.512 0.541 0.577 0.623 0.677 0.740 0.811 0.886 0.953 1.012 1.064 1.109 1.147 1.178 1.204 1.225 1.240 1.251 1.259 1.264 1.266 1.267 1.267 1.266 1.264 1.260 1.253 1.243 1.229 1.211 1.188 1.160 1.127 1.088 1.044 0.996 0.946 0.894 0.835 0.745 0.557 0.210 0.210 0.000 
0.000 0.030 0.030 0.029 0.072 0.129 0.182 0.225 0.260 0.289 0.311 0.329 0.343 0.354 0.362 0.368 0.373 0.376 0.379 0.381 0.383 0.385 0.387 0.389 0.390 0.392 0.395 0.397 0.401 0.405 0.410 0.417 0.426 0.437 0.450 0.467 0.487 0.512 0.541 0.575 0.614 0.660 0.712 0.771 0.837 0.911 0.983 1.047 1.103 1.151 1.191 1.224 1.252 1.274 1.291 1.304 1.314 1.320 1.324 1.327 1.328 1.328 1.328 1.328 1.326 1.324 1.321 1.315 1.309 1.303 1.298 1.295 1.293 1.292 1.292 1.292 1.292 1.293 1.294 1.297 1.301 1.306 1.313 1.320 1.325 1.329 1.331 1.332 1.332 1.332 1.332 1.331 1.328 1.323 1.316 1.306 1.292 1.274 1.251 1.223 1.188 1.146 1.096 1.038 0.971 0.894 0.810 0.732 0.663 0.604 0.556 0.517 0.487 0.466 0.452 0.443 0.439 0.437 0.437 0.437 0.439 0.445 0.454 0.468 0.488 0.515 0.549 0.592 0.643 0.702 0.770 0.843 0.911 0.971 1.023 1.069 1.108 1.141 1.168 1.190 1.207 1.219 1.228 1.233 1.235 1.236 1.236 1.236 1.234 1.230 1.224 1.215 1.202 1.185 1.164 1.139 1.108 1.072 1.031 0.985 0.940 0.896 0.851 0.799 0.745 0.746 0.746 0.000 
0.000 0.062 0.062 0.053 0.089 0.141 0.191 0.233 0.267 0.295 0.316 0.333 0.346 0.356 0.364 0.369 0.373 0.377 0.379 0.381 0.383 0.385 0.387 0.388 0.390 0.392 0.394 0.397 0.400 0.405 0.410 0.416 0.425 0.435 0.449 0.465 0.484 0.508 0.536 0.568 0.606 0.650 0.700 0.757 0.821 0.893 0.964 1.028 1.083 1.131 1.172 1.207 1.235 1.258 1.276 1.290 1.300 1.308 1.312 1.315 1.316 1.317 1.317 1.317 1.316 1.314 1.311 1.306 1.301 1.295 1.291 1.289 1.287 1.286 1.286 1.286 1.286 1.287 1.289 1.292 1.296 1.302 1.310 1.317 1.323 1.327 1.329 1.330 1.331 1.331 1.330 1.329 1.326 1.322 1.315 1.305 1.292 1.274 1.252 1.224 1.189 1.148 1.098 1.041 0.974 0.899 0.814 0.734 0.664 0.603 0.552 0.510 0.477 0.453 0.436 0.425 0.419 0.417 0.416 0.417 0.418 0.422 0.430 0.442 0.460 0.485 0.516 0.556 0.603 0.659 0.723 0.793 0.861 0.922 0.976 1.023 1.063 1.098 1.126 1.150 1.168 1.182 1.192 1.198 1.202 1.203 1.203 1.202 1.200 1.197 1.191 1.183 1.171 1.157 1.138 1.115 1.087 1.054 1.014 0.970 0.933 0.906 0.890 0.888 0.933 1.058 1.058 0.000 
0.000 0.157 0.157 0.111 0.137 0.167 0.205 0.245 0.277 0.303 0.323 0.338 0.350 0.359 0.366 0.370 0.374 0.377 0.379 0.381 0.383 0.384 0.386 0.388 0.390 0.391 0.394 0.396 0.399 0.403 0.408 0.415 0.423 0.433 0.446 0.462 0.480 0.503 0.530 0.561 0.598 0.640 0.688 0.743 0.804 0.873 0.944 1.007 1.063 1.112 1.154 1.190 1.219 1.243 1.262 1.277 1.288 1.296 1.301 1.304 1.306 1.307 1.307 1.307 1.306 1.304 1.302 1.298 1.293 1.289 1.285 1.283 1.282 1.281 1.281 1.281 1.281 1.283 1.285 1.288 1.292 1.299 1.307 1.314 1.320 1.325 1.327 1.329 1.329 1.329 1.329 1.328 1.325 1.321 1.314 1.305 1.292 1.275 1.252 1.225 1.191 1.150 1.101 1.044 0.978 0.904 0.820 0.738 0.666 0.604 0.550 0.505 0.469 0.442 0.423 0.409 0.401 0.397 0.396 0.395 0.396 0.399 0.405 0.415 0.430 0.451 0.479 0.515 0.558 0.609 0.668 0.735 0.803 0.866 0.921 0.970 1.012 1.048 1.079 1.105 1.125 1.141 1.153 1.161 1.165 1.166 1.166 1.166 1.164 1.161 1.157 1.150 1.141 1.129 1.113 1.093 1.068 1.038 1.002 0.961 0.929 0.911 0.908 0.920 0.977 1.055 1.055 0.000 
0.000 0.270 0.270 0.209 0.193 0.200 0.227 0.262 0.292 0.314 0.332 0.345 0.355 0.362 0.367 0.371 0.374 0.376 0.378 0.380 0.382 0.383 0.385 0.386 0.388 0.390 0.392 0.394 0.397 0.401 0.406 0.412 0.420 0.430 0.442 0.457 0.475 0.497 0.522 0.552 0.588 0.628 0.674 0.727 0.786 0.853 0.922 0.987 1.044 1.094 1.137 1.173 1.204 1.229 1.249 1.264 1.276 1.285 1.290 1.294 1.296 1.297 1.298 1.297 1.297 1.296 1.294 1.291 1.287 1.283 1.280 1.278 1.277 1.277 1.276 1.277 1.277 1.278 1.281 1.284 1.289 1.296 1.304 1.312 1.318 1.323 1.326 1.327 1.328 1.328 1.328 1.327 1.324 1.320 1.314 1.305 1.292 1.275 1.253 1.226 1.192 1.152 1.104 1.048 0.983 0.909 0.826 0.743 0.669 0.605 0.550 0.502 0.464 0.434 0.411 0.396 0.385 0.380 0.377 0.376 0.377 0.378 0.382 0.390 0.402 0.419 0.443 0.473 0.511 0.556 0.609 0.670 0.737 0.801 0.859 0.910 0.954 0.993 1.026 1.054 1.077 1.096 1.110 1.120 1.126 1.130 1.132 1.132 1.131 1.130 1.126 1.121 1.114 1.104 1.091 1.074 1.053 1.026 0.995 0.958 0.927 0.910 0.907 0.919 0.976 1.053 1.053 0.000 
0.000 0.175 0.175 0.220 0.219 0.236 0.260 0.288 0.312 0.330 0.343 0.353 0.361 0.366 0.370 0.372 0.374 0.376 0.377 0.379 0.380 0.381 0.382 0.384 0.385 0.387 0.389 0.391 0.394 0.397 0.402 0.408 0.416 0.425 0.437 0.451 0.468 0.489 0.514 0.543 0.576 0.615 0.660 0.711 0.768 0.832 0.901 0.966 1.024 1.075 1.120 1.157 1.189 1.215 1.236 1.252 1.265 1.274 1.280 1.285 1.287 1.289 1.289 1.289 1.289 1.288 1.287 1.284 1.281 1.277 1.275 1.273 1.273 1.272 1.272 1.272 1.273 1.275 1.277 1.281 1.286 1.293 1.302 1.310 1.317 1.321 1.324 1.326 1.327 1.327 1.326 1.325 1.323 1.319 1.313 1.304 1.292 1.275 1.254 1.227 1.195 1.155 1.108 1.052 0.988 0.916 0.833 0.749 0.674 0.608 0.550 0.501 0.461 0.428 0.403 0.385 0.372 0.364 0.361 0.359 0.359 0.360 0.363 0.368 0.378 0.392 0.411 0.437 0.469 0.508 0.554 0.607 0.666 0.729 0.789 0.843 0.890 0.931 0.967 0.998 1.024 1.046 1.063 1.077 1.088 1.095 1.100 1.102 1.103 1.102 1.100 1.097 1.091 1.083 1.072 1.058 1.040 1.018 0.991 0.958 0.926 0.902 0.888 0.885 0.925 1.050 1.050 0.000 
0.000 0.027 0.027 0.143 0.241 0.280 0.304 0.323 0.338 0.349 0.358 0.363 0.368 0.370 0.372 0.373 0.374 0.374 0.375 0.376 0.377 0.378 0.378 0.380 0.381 0.382 0.384 0.386 0.389 0.392 0.397 0.402 0.409 0.418 0.429 0.443 0.460 0.480 0.503 0.531 0.564 0.602 0.645 0.694 0.749 0.811 0.880 0.946 1.006 1.058 1.103 1.142 1.174 1.201 1.223 1.240 1.254 1.264 1.271 1.276 1.279 1.280 1.281 1.281 1.281 1.281 1.280 1.278 1.275 1.272 1.270 1.269 1.268 1.268 1.268 1.269 1.270 1.271 1.274 1.278 1.284 1.291 1.300 1.308 1.315 1.320 1.323 1.325 1.325 1.325 1.325 1.324 1.322 1.319 1.313 1.304 1.292 1.276 1.256 1.229 1.197 1.158 1.112 1.057 0.995 0.923 0.842 0.757 0.679 0.611 0.552 0.502 0.459 0.424 0.396 0.376 0.361 0.352 0.346 0.344 0.343 0.344 0.345 0.349 0.356 0.367 0.383 0.405 0.432 0.465 0.505 0.551 0.603 0.660 0.718 0.773 0.822 0.866 0.905 0.939 0.969 0.995 1.017 1.036 1.051 1.063 1.071 1.076 1.078 1.078 1.078 1.076 1.072 1.066 1.057 1.046 1.031 1.012 0.989 0.960 0.927 0.890 0.848 0.795 0.739 0.805 0.805 0.000 
0.000 0.312 0.312 0.191 0.297 0.341 0.359 0.367 0.372 0.374 0.376 0.376 0.376 0.375 0.374 0.373 0.372 0.372 0.372 0.372 0.372 0.373 0.373 0.374 0.375 0.376 0.377 0.379 0.382 0.385 0.389 0.394 0.401 0.410 0.420 0.434 0.450 0.469 0.492 0.519 0.550 0.587 0.629 0.677 0.731 0.792 0.859 0.927 0.987 1.040 1.087 1.126 1.160 1.188 1.210 1.228 1.243 1.253 1.261 1.267 1.270 1.272 1.274 1.274 1.274 1.274 1.273 1.272 1.270 1.267 1.266 1.265 1.264 1.264 1.265 1.265 1.266 1.268 1.271 1.275 1.281 1.289 1.298 1.307 1.313 1.318 1.322 1.323 1.324 1.324 1.324 1.323 1.322 1.318 1.312 1.304 1.293 1.277 1.257 1.232 1.200 1.162 1.117 1.063 1.002 0.931 0.851 0.766 0.686 0.617 0.556 0.503 0.459 0.422 0.392 0.369 0.353 0.341 0.334 0.331 0.329 0.329 0.330 0.333 0.338 0.346 0.359 0.377 0.400 0.428 0.463 0.503 0.549 0.599 0.653 0.708 0.758 0.805 0.847 0.885 0.918 0.948 0.975 0.997 1.016 1.032 1.044 1.052 1.057 1.059 1.059 1.058 1.056 1.052 1.046 1.037 1.025 1.009 0.988 0.962 0.928 0.887 0.831 0.741 0.555 0.275 0.275 0.000 
0.000 0.692 0.692 0.494 0.444 0.435 0.428 0.419 0.410 0.402 0.395 0.389 0.384 0.379 0.375 0.372 0.370 0.369 0.367 0.366 0.366 0.366 0.366 0.366 0.367 0.368 0.369 0.370 0.373 0.376 0.379 0.385 0.391 0.399 0.410 0.422 0.438 0.456 0.479 0.505 0.536 0.571 0.613 0.659 0.713 0.773 0.840 0.908 0.969 1.023 1.071 1.111 1.146 1.174 1.198 1.217 1.232 1.243 1.252 1.258 1.262 1.265 1.266 1.267 1.267 1.267 1.267 1.266 1.264 1.262 1.261 1.261 1.261 1.261 1.261 1.261 1.263 1.265 1.268 1.273 1.279 1.286 1.296 1.305 1.312 1.317 1.320 1.322 1.323 1.323 1.323 1.322 1.321 1.317 1.312 1.304 1.293 1.278 1.259 1.234 1.204 1.167 1.122 1.070 1.010 0.941 0.862 0.777 0.695 0.623 0.560 0.506 0.460 0.421 0.390 0.365 0.346 0.333 0.324 0.319 0.317 0.317 0.317 0.318 0.322 0.329 0.339 0.353 0.372 0.397 0.426 0.462 0.502 0.547 0.597 0.649 0.701 0.749 0.794 0.835 0.872 0.905 0.935 0.961 0.983 1.002 1.018 1.029 1.037 1.042 1.044 1.044 1.043 1.041 1.037 1.030 1.021 1.008 0.989 0.964 0.931 0.889 0.832 0.742 0.565 0.253 0.253 0.000 
0.000 0.746 0.746 0.683 0.582 0.526 0.489 0.463 0.441 0.425 0.411 0.400 0.390 0.382 0.376 0.371 0.367 0.364 0.361 0.359 0.358 0.357 0.357 0.357 0.357 0.357 0.358 0.360 0.361 0.364 0.368 0.373 0.379 0.387 0.397 0.409 0.424 0.442 0.464 0.490 0.520 0.555 0.596 0.642 0.695 0.754 0.820 0.889 0.951 1.006 1.054 1.096 1.131 1.161 1.185 1.205 1.221 1.233 1.242 1.249 1.254 1.257 1.259 1.260 1.260 1.261 1.260 1.260 1.259 1.258 1.257 1.257 1.257 1.257 1.257 1.258 1.259 1.262 1.265 1.270 1.276 1.284 1.294 1.303 1.310 1.315 1.319 1.321 1.322 1.322 1.322 1.321 1.320 1.317 1.311 1.304 1.293 1.278 1.260 1.236 1.207 1.171 1.129 1.078 1.019 0.952 0.875 0.790 0.706 0.632 0.567 0.510 0.462 0.422 0.389 0.362 0.341 0.326 0.316 0.310 0.307 0.305 0.305 0.306 0.308 0.313 0.321 0.333 0.349 0.369 0.395 0.426 0.462 0.503 0.548 0.597 0.648 0.698 0.746 0.789 0.829 0.865 0.898 0.927 0.952 0.974 0.993 1.007 1.019 1.026 1.031 1.033 1.034 1.033 1.031 1.026 1.019 1.008 0.991 0.968 0.937 0.898 0.851 0.799 0.754 0.778 0.778 0.000 
0.000 0.737 0.737 0.721 0.646 0.579 0.531 0.495 0.466 0.443 0.424 0.408 0.395 0.384 0.376 0.368 0.362 0.357 0.353 0.350 0.348 0.347 0.346 0.345 0.345 0.345 0.346 0.347 0.348 0.351 0.354 0.358 0.364 0.372 0.382 0.394 0.409 0.427 0.448 0.474 0.504 0.538 0.578 0.624 0.676 0.735 0.801 0.870 0.933 0.989 1.038 1.081 1.117 1.148 1.173 1.193 1.210 1.223 1.233 1.240 1.245 1.249 1.252 1.253 1.254 1.254 1.254 1.254 1.254 1.253 1.253 1.252 1.253 1.253 1.253 1.254 1.256 1.259 1.262 1.267 1.274 1.282 1.292 1.301 1.308 1.314 1.317 1.319 1.320 1.321 1.321 1.320 1.318 1.316 1.311 1.303 1.293 1.278 1.260 1.237 1.209 1.175 1.134 1.085 1.029 0.964 0.889 0.805 0.720 0.643 0.575 0.516 0.466 0.424 0.389 0.360 0.338 0.321 0.309 0.302 0.297 0.295 0.295 0.295 0.297 0.300 0.306 0.315 0.329 0.346 0.369 0.396 0.428 0.465 0.507 0.552 0.601 0.652 0.702 0.747 0.790 0.828 0.863 0.895 0.923 0.947 0.969 0.986 1.001 1.012 1.020 1.025 1.027 1.028 1.027 1.025 1.020 1.010 0.995 0.975 0.947 0.919 0.900 0.898 0.933 1.037 1.037 0.000 
0.000 0.714 0.714 0.715 0.668 0.608 0.558 0.518 0.485 0.458 0.435 0.416 0.399 0.386 0.374 0.364 0.356 0.349 0.344 0.339 0.336 0.334 0.333 0.332 0.331 0.331 0.331 0.332 0.333 0.335 0.338 0.342 0.348 0.356 0.365 0.377 0.392 0.410 0.431 0.457 0.486 0.521 0.561 0.606 0.658 0.717 0.782 0.851 0.915 0.972 1.022 1.066 1.103 1.134 1.160 1.182 1.199 1.213 1.223 1.231 1.237 1.241 1.244 1.246 1.247 1.248 1.248 1.248 1.248 1.248 1.248 1.248 1.248 1.249 1.250 1.251 1.253 1.255 1.259 1.265 1.271 1.280 1.290 1.299 1.306 1.312 1.315 1.318 1.319 1.319 1.319 1.318 1.317 1.314 1.309 1.302 1.292 1.278 1.260 1.238 1.210 1.177 1.138 1.091 1.037 0.975 0.903 0.823 0.736 0.656 0.585 0.524 0.471 0.427 0.390 0.360 0.336 0.317 0.304 0.295 0.289 0.287 0.286 0.286 0.286 0.289 0.293 0.301 0.311 0.326 0.346 0.370 0.399 0.433 0.471 0.514 0.560 0.611 0.662 0.709 0.754 0.794 0.831 0.865 0.895 0.922 0.945 0.966 0.983 0.997 1.008 1.016 1.022 1.025 1.026 1.025 1.021 1.014 1.002 0.985 0.965 0.954 0.953 0.961 0.993 1.035 1.035 0.000 
0.000 0.688 0.688 0.696 0.668 0.621 0.575 0.535 0.500 0.470 0.444 0.422 0.403 0.386 0.372 0.360 0.349 0.340 0.333 0.327 0.323 0.320 0.318 0.316 0.316 0.316 0.316 0.316 0.317 0.318 0.321 0.325 0.330 0.337 0.347 0.359 0.374 0.391 0.413 0.438 0.468 0.503 0.543 0.588 0.640 0.698 0.763 0.833 0.897 0.955 1.006 1.050 1.088 1.121 1.148 1.170 1.188 1.202 1.214 1.222 1.229 1.233 1.237 1.239 1.241 1.241 1.242 1.243 1.243 1.243 1.243 1.244 1.244 1.245 1.246 1.247 1.249 1.252 1.256 1.262 1.268 1.277 1.287 1.297 1.304 1.309 1.313 1.315 1.317 1.317 1.317 1.316 1.315 1.312 1.308 1.301 1.291 1.278 1.260 1.238 1.211 1.179 1.141 1.096 1.043 0.984 0.915 0.839 0.754 0.671 0.597 0.533 0.478 0.431 0.392 0.360 0.334 0.314 0.300 0.289 0.283 0.279 0.277 0.277 0.277 0.279 0.282 0.288 0.297 0.310 0.326 0.348 0.374 0.405 0.440 0.481 0.525 0.574 0.625 0.675 0.720 0.763 0.801 0.837 0.869 0.897 0.923 0.946 0.965 0.982 0.997 1.009 1.017 1.023 1.026 1.026 1.025 1.021 1.013 1.001 0.992 0.990 0.992 1.000 1.019 1.035 1.035 0.000 
0.000 0.662 0.662 0.672 0.657 0.624 0.583 0.546 0.512 0.482 0.454 0.428 0.406 0.386 0.369 0.354 0.341 0.330 0.321 0.314 0.308 0.304 0.302 0.300 0.299 0.298 0.298 0.299 0.299 0.300 0.303 0.306 0.312 0.319 0.328 0.340 0.355 0.373 0.394 0.420 0.450 0.485 0.525 0.570 0.622 0.679 0.744 0.814 0.879 0.938 0.990 1.035 1.074 1.107 1.135 1.158 1.177 1.192 1.204 1.213 1.220 1.225 1.229 1.232 1.234 1.235 1.236 1.237 1.237 1.238 1.238 1.239 1.240 1.240 1.242 1.243 1.246 1.249 1.253 1.258 1.265 1.274 1.284 1.294 1.301 1.307 1.310 1.313 1.314 1.314 1.314 1.314 1.313 1.310 1.306 1.299 1.289 1.276 1.259 1.238 1.211 1.180 1.142 1.098 1.048 0.990 0.925 0.851 0.770 0.686 0.611 0.544 0.486 0.437 0.395 0.361 0.334 0.312 0.296 0.284 0.276 0.272 0.270 0.269 0.269 0.270 0.272 0.277 0.284 0.295 0.310 0.329 0.352 0.381 0.414 0.452 0.494 0.541 0.592 0.642 0.690 0.733 0.773 0.810 0.843 0.873 0.901 0.926 0.948 0.968 0.985 1.000 1.013 1.022 1.028 1.031 1.033 1.032 1.028 1.024 1.023 1.024 1.027 1.032 1.038 1.038 1.038 0.000 
0.000 0.636 0.636 0.647 0.637 0.616 0.585 0.553 0.522 0.492 0.463 0.435 0.409 0.386 0.365 0.348 0.332 0.320 0.309 0.301 0.294 0.290 0.286 0.284 0.283 0.282 0.282 0.282 0.283 0.284 0.286 0.290 0.295 0.301 0.311 0.322 0.337 0.355 0.376 0.402 0.432 0.466 0.506 0.552 0.603 0.661 0.725 0.795 0.861 0.921 0.973 1.019 1.059 1.093 1.122 1.146 1.165 1.181 1.193 1.203 1.211 1.217 1.221 1.224 1.226 1.228 1.229 1.230 1.231 1.232 1.233 1.234 1.235 1.236 1.237 1.239 1.241 1.245 1.249 1.255 1.262 1.270 1.281 1.290 1.297 1.303 1.307 1.309 1.310 1.311 1.311 1.310 1.309 1.307 1.303 1.296 1.287 1.274 1.258 1.237 1.211 1.180 1.143 1.100 1.051 0.995 0.932 0.861 0.782 0.699 0.623 0.555 0.495 0.443 0.399 0.363 0.334 0.311 0.293 0.280 0.271 0.265 0.262 0.261 0.261 0.262 0.263 0.267 0.273 0.282 0.295 0.312 0.334 0.360 0.391 0.427 0.467 0.512 0.561 0.613 0.661 0.705 0.746 0.784 0.819 0.850 0.879 0.906 0.931 0.953 0.973 0.992 1.008 1.022 1.033 1.041 1.045 1.048 1.050 1.052 1.054 1.057 1.059 1.062 1.061 1.059 1.059 0.000 
0.000 0.611 0.611 0.622 0.614 0.600 0.581 0.556 0.530 0.502 0.473 0.441 0.411 0.385 0.362 0.342 0.324 0.310 0.298 0.289 0.281 0.276 0.272 0.269 0.268 0.267 0.267 0.267 0.267 0.268 0.270 0.274 0.278 0.285 0.294 0.306 0.320 0.338 0.359 0.384 0.414 0.448 0.488 0.533 0.584 0.642 0.706 0.776 0.843 0.903 0.956 1.003 1.044 1.078 1.108 1.133 1.153 1.169 1.183 1.193 1.201 1.207 1.212 1.216 1.218 1.220 1.222 1.223 1.224 1.226 1.227 1.228 1.229 1.230 1.232 1.234 1.237 1.240 1.244 1.250 1.257 1.266 1.276 1.285 1.293 1.298 1.302 1.305 1.306 1.306 1.306 1.306 1.305 1.302 1.298 1.292 1.283 1.271 1.255 1.235 1.210 1.179 1.143 1.101 1.053 0.998 0.937 0.868 0.792 0.710 0.632 0.563 0.502 0.448 0.403 0.365 0.334 0.309 0.290 0.276 0.266 0.259 0.256 0.254 0.254 0.254 0.255 0.258 0.263 0.271 0.282 0.298 0.317 0.341 0.370 0.404 0.443 0.486 0.534 0.585 0.634 0.679 0.721 0.759 0.795 0.828 0.858 0.887 0.913 0.938 0.961 0.982 1.002 1.021 1.038 1.053 1.064 1.071 1.077 1.083 1.087 1.090 1.092 1.092 1.093 1.097 1.097 0.000 
0.000 0.585 0.585 0.596 0.590 0.582 0.572 0.557 0.536 0.511 0.481 0.448 0.414 0.384 0.358 0.335 0.317 0.301 0.288 0.277 0.269 0.263 0.259 0.256 0.254 0.253 0.253 0.253 0.253 0.254 0.256 0.259 0.263 0.270 0.278 0.289 0.304 0.321 0.342 0.367 0.396 0.431 0.470 0.515 0.566 0.623 0.686 0.756 0.824 0.884 0.939 0.986 1.028 1.063 1.093 1.119 1.140 1.157 1.171 1.182 1.190 1.197 1.202 1.206 1.209 1.212 1.214 1.215 1.217 1.218 1.220 1.221 1.222 1.224 1.226 1.228 1.231 1.234 1.239 1.245 1.252 1.260 1.270 1.280 1.287 1.292 1.296 1.298 1.300 1.300 1.300 1.300 1.299 1.297 1.293 1.287 1.278 1.267 1.251 1.232 1.207 1.178 1.142 1.101 1.053 0.999 0.939 0.872 0.798 0.717 0.640 0.569 0.507 0.452 0.405 0.366 0.334 0.307 0.287 0.272 0.261 0.254 0.249 0.247 0.247 0.247 0.247 0.249 0.254 0.260 0.271 0.284 0.303 0.325 0.352 0.384 0.421 0.462 0.508 0.558 0.608 0.654 0.696 0.735 0.771 0.805 0.837 0.867 0.895 0.922 0.948 0.972 0.995 1.018 1.040 1.063 1.083 1.099 1.109 1.116 1.121 1.124 1.125 1.125 1.127 1.129 1.129 0.000 
0.000 0.559 0.559 0.572 0.573 0.573 0.569 0.559 0.542 0.518 0.488 0.453 0.415 0.382 0.354 0.329 0.309 0.292 0.278 0.266 0.257 0.251 0.246 0.242 0.240 0.239 0.239 0.239 0.239 0.240 0.241 0.244 0.248 0.255 0.263 0.274 0.288 0.305 0.325 0.350 0.379 0.413 0.452 0.496 0.546 0.603 0.666 0.736 0.804 0.865 0.920 0.968 1.010 1.047 1.078 1.104 1.125 1.143 1.158 1.169 1.179 1.186 1.191 1.196 1.199 1.202 1.204 1.206 1.208 1.210 1.211 1.213 1.215 1.216 1.218 1.221 1.224 1.227 1.232 1.238 1.245 1.253 1.263 1.272 1.279 1.284 1.288 1.290 1.292 1.292 1.292 1.292 1.291 1.289 1.285 1.279 1.271 1.260 1.245 1.226 1.203 1.174 1.140 1.099 1.053 1.000 0.940 0.875 0.802 0.723 0.644 0.574 0.511 0.455 0.407 0.367 0.333 0.306 0.284 0.268 0.256 0.248 0.243 0.241 0.239 0.239 0.240 0.241 0.245 0.251 0.260 0.272 0.289 0.310 0.335 0.366 0.401 0.440 0.485 0.533 0.583 0.629 0.671 0.711 0.748 0.783 0.816 0.847 0.877 0.906 0.934 0.961 0.987 1.013 1.039 1.066 1.094 1.120 1.139 1.150 1.155 1.158 1.160 1.160 1.159 1.157 1.157 0.000 
0.000 0.533 0.533 0.551 0.566 0.570 0.569 0.562 0.547 0.524 0.494 0.455 0.415 0.380 0.349 0.323 0.301 0.283 0.268 0.256 0.246 0.239 0.233 0.229 0.227 0.226 0.225 0.225 0.225 0.226 0.227 0.230 0.234 0.240 0.248 0.258 0.272 0.288 0.309 0.333 0.361 0.395 0.433 0.477 0.527 0.583 0.646 0.715 0.783 0.845 0.900 0.949 0.992 1.029 1.060 1.087 1.110 1.128 1.143 1.155 1.165 1.173 1.179 1.184 1.187 1.191 1.193 1.195 1.197 1.199 1.201 1.203 1.205 1.207 1.209 1.212 1.215 1.218 1.223 1.229 1.236 1.244 1.254 1.262 1.269 1.274 1.278 1.280 1.281 1.282 1.282 1.281 1.281 1.279 1.275 1.270 1.262 1.251 1.237 1.219 1.196 1.169 1.136 1.097 1.051 0.999 0.940 0.875 0.804 0.726 0.647 0.576 0.513 0.457 0.408 0.367 0.332 0.304 0.281 0.264 0.251 0.243 0.237 0.234 0.232 0.232 0.232 0.234 0.237 0.242 0.250 0.261 0.276 0.296 0.320 0.348 0.382 0.420 0.462 0.509 0.558 0.604 0.647 0.687 0.725 0.761 0.795 0.828 0.859 0.890 0.920 0.949 0.979 1.008 1.037 1.067 1.098 1.132 1.161 1.181 1.191 1.196 1.197 1.197 1.194 1.187 1.187 0.000 
0.000 0.550 0.550 0.548 0.567 0.572 0.572 0.566 0.552 0.529 0.497 0.456 0.414 0.377 0.345 0.317 0.294 0.274 0.258 0.245 0.235 0.227 0.221 0.217 0.214 0.213 0.212 0.212 0.212 0.212 0.214 0.216 0.220 0.225 0.233 0.243 0.256 0.272 0.292 0.316 0.344 0.376 0.414 0.458 0.507 0.562 0.624 0.692 0.761 0.823 0.879 0.929 0.972 1.009 1.041 1.069 1.092 1.111 1.126 1.139 1.149 1.158 1.164 1.169 1.174 1.177 1.180 1.182 1.185 1.187 1.189 1.191 1.193 1.195 1.198 1.200 1.203 1.207 1.212 1.217 1.224 1.232 1.242 1.250 1.256 1.261 1.265 1.267 1.268 1.268 1.269 1.268 1.267 1.266 1.262 1.257 1.250 1.239 1.226 1.209 1.187 1.161 1.129 1.091 1.047 0.997 0.939 0.875 0.804 0.727 0.649 0.578 0.514 0.457 0.408 0.366 0.331 0.302 0.278 0.260 0.247 0.237 0.231 0.227 0.225 0.225 0.225 0.226 0.228 0.233 0.240 0.250 0.264 0.282 0.305 0.332 0.364 0.400 0.441 0.486 0.534 0.580 0.623 0.664 0.702 0.738 0.774 0.807 0.840 0.873 0.905 0.937 0.968 1.000 1.033 1.065 1.099 1.136 1.174 1.207 1.227 1.236 1.238 1.238 1.233 1.219 1.219 0.000 
0.000 0.570 0.570 0.565 0.580 0.584 0.583 0.576 0.559 0.534 0.498 0.455 0.411 0.373 0.339 0.310 0.286 0.265 0.248 0.234 0.223 0.215 0.209 0.204 0.201 0.200 0.199 0.199 0.199 0.199 0.200 0.202 0.206 0.211 0.218 0.228 0.241 0.256 0.275 0.299 0.326 0.358 0.395 0.438 0.486 0.541 0.602 0.669 0.738 0.800 0.856 0.906 0.949 0.987 1.020 1.048 1.071 1.091 1.107 1.120 1.131 1.140 1.147 1.152 1.157 1.161 1.164 1.167 1.169 1.171 1.174 1.176 1.178 1.181 1.183 1.186 1.189 1.193 1.197 1.203 1.209 1.217 1.226 1.234 1.240 1.245 1.248 1.250 1.251 1.252 1.252 1.252 1.251 1.249 1.246 1.241 1.234 1.224 1.211 1.195 1.174 1.149 1.119 1.083 1.041 0.992 0.937 0.874 0.804 0.727 0.649 0.578 0.514 0.457 0.408 0.366 0.329 0.300 0.275 0.256 0.242 0.232 0.225 0.221 0.218 0.218 0.218 0.218 0.220 0.224 0.230 0.240 0.253 0.269 0.290 0.316 0.346 0.381 0.420 0.463 0.509 0.556 0.599 0.640 0.679 0.716 0.752 0.787 0.821 0.855 0.889 0.923 0.957 0.991 1.026 1.061 1.097 1.136 1.178 1.222 1.258 1.279 1.287 1.288 1.285 1.278 1.278 0.000 
0.000 0.664 0.664 0.611 0.616 0.614 0.606 0.592 0.569 0.537 0.497 0.451 0.407 0.367 0.333 0.303 0.277 0.256 0.238 0.224 0.212 0.203 0.196 0.192 0.188 0.187 0.186 0.185 0.185 0.186 0.187 0.189 0.192 0.197 0.204 0.213 0.225 0.240 0.259 0.281 0.308 0.339 0.376 0.418 0.465 0.518 0.578 0.644 0.712 0.775 0.831 0.880 0.924 0.963 0.996 1.024 1.048 1.068 1.085 1.098 1.110 1.119 1.126 1.132 1.137 1.141 1.144 1.147 1.150 1.153 1.155 1.158 1.160 1.163 1.165 1.168 1.171 1.175 1.179 1.185 1.191 1.199 1.207 1.214 1.220 1.224 1.227 1.229 1.230 1.231 1.231 1.231 1.230 1.228 1.225 1.220 1.214 1.205 1.193 1.177 1.158 1.134 1.105 1.071 1.031 0.984 0.931 0.870 0.802 0.727 0.649 0.578 0.514 0.457 0.407 0.364 0.327 0.297 0.272 0.252 0.237 0.226 0.218 0.214 0.211 0.210 0.210 0.211 0.212 0.215 0.221 0.229 0.241 0.256 0.276 0.300 0.329 0.362 0.399 0.440 0.485 0.531 0.575 0.616 0.655 0.693 0.730 0.766 0.801 0.837 0.872 0.908 0.943 0.980 1.016 1.054 1.093 1.134 1.178 1.227 1.278 1.320 1.345 1.354 1.356 1.353 1.353 0.000 
0.000 0.760 0.760 0.703 0.683 0.666 0.644 0.615 0.580 0.539 0.493 0.445 0.401 0.361 0.325 0.295 0.269 0.246 0.228 0.213 0.201 0.191 0.184 0.179 0.176 0.174 0.172 0.172 0.172 0.172 0.173 0.175 0.178 0.183 0.189 0.198 0.209 0.224 0.242 0.264 0.290 0.320 0.356 0.396 0.443 0.495 0.553 0.617 0.684 0.746 0.802 0.852 0.896 0.935 0.968 0.996 1.021 1.041 1.058 1.072 1.084 1.094 1.101 1.108 1.113 1.117 1.121 1.124 1.127 1.130 1.132 1.135 1.137 1.140 1.143 1.146 1.149 1.153 1.157 1.162 1.168 1.175 1.183 1.190 1.195 1.199 1.202 1.203 1.204 1.205 1.205 1.204 1.204 1.202 1.199 1.195 1.189 1.180 1.169 1.154 1.136 1.113 1.086 1.054 1.016 0.972 0.921 0.863 0.798 0.725 0.648 0.577 0.513 0.456 0.405 0.362 0.324 0.293 0.267 0.247 0.231 0.220 0.212 0.207 0.204 0.203 0.203 0.203 0.204 0.206 0.211 0.219 0.229 0.244 0.262 0.285 0.311 0.343 0.378 0.418 0.461 0.507 0.550 0.592 0.631 0.669 0.707 0.744 0.780 0.817 0.853 0.890 0.927 0.965 1.003 1.043 1.085 1.128 1.175 1.227 1.285 1.348 1.401 1.435 1.451 1.452 1.452 0.000 
0.000 0.878 0.878 0.810 0.781 0.740 0.693 0.642 0.589 0.537 0.486 0.438 0.393 0.353 0.317 0.286 0.259 0.237 0.218 0.202 0.189 0.180 0.172 0.167 0.163 0.161 0.159 0.159 0.159 0.159 0.160 0.161 0.164 0.168 0.174 0.183 0.194 0.208 0.225 0.246 0.271 0.300 0.335 0.374 0.419 0.469 0.525 0.587 0.654 0.715 0.771 0.820 0.864 0.902 0.936 0.965 0.989 1.010 1.027 1.042 1.054 1.064 1.072 1.078 1.084 1.088 1.092 1.096 1.099 1.101 1.104 1.107 1.110 1.112 1.115 1.118 1.121 1.125 1.129 1.134 1.139 1.146 1.153 1.159 1.164 1.167 1.170 1.172 1.172 1.173 1.173 1.172 1.172 1.170 1.167 1.163 1.158 1.149 1.139 1.125 1.108 1.087 1.062 1.031 0.996 0.954 0.906 0.851 0.789 0.720 0.645 0.574 0.510 0.453 0.402 0.358 0.320 0.289 0.263 0.242 0.226 0.214 0.205 0.200 0.197 0.195 0.195 0.195 0.195 0.198 0.202 0.208 0.218 0.231 0.248 0.269 0.294 0.324 0.358 0.396 0.437 0.482 0.525 0.566 0.606 0.645 0.682 0.720 0.757 0.795 0.832 0.870 0.908 0.947 0.987 1.028 1.072 1.118 1.168 1.223 1.286 1.360 1.439 1.504 1.545 1.566 1.566 0.000 
0.000 0.993 0.993 0.927 0.871 0.807 0.733 0.659 0.594 0.534 0.479 0.429 0.383 0.343 0.307 0.276 0.249 0.226 0.207 0.191 0.178 0.168 0.160 0.154 0.150 0.147 0.146 0.145 0.145 0.145 0.146 0.147 0.150 0.154 0.159 0.167 0.178 0.191 0.207 0.227 0.251 0.280 0.313 0.350 0.393 0.442 0.496 0.555 0.620 0.680 0.735 0.784 0.827 0.866 0.899 0.928 0.952 0.973 0.991 1.005 1.018 1.028 1.036 1.043 1.049 1.053 1.058 1.061 1.064 1.067 1.070 1.073 1.076 1.078 1.081 1.084 1.087 1.091 1.095 1.099 1.104 1.110 1.117 1.122 1.126 1.129 1.131 1.133 1.133 1.134 1.134 1.133 1.133 1.131 1.129 1.125 1.119 1.112 1.102 1.089 1.074 1.054 1.031 1.003 0.969 0.930 0.886 0.834 0.776 0.711 0.639 0.569 0.505 0.448 0.397 0.353 0.315 0.283 0.257 0.236 0.219 0.207 0.198 0.192 0.188 0.187 0.186 0.186 0.187 0.188 0.192 0.197 0.206 0.218 0.234 0.253 0.277 0.305 0.337 0.373 0.413 0.456 0.499 0.540 0.580 0.618 0.656 0.694 0.732 0.770 0.807 0.846 0.884 0.924 0.965 1.008 1.053 1.102 1.155 1.215 1.282 1.362 1.457 1.548 1.611 1.636 1.636 0.000 
0.000 1.031 1.031 0.996 0.934 0.852 0.757 0.669 0.594 0.529 0.470 0.419 0.373 0.332 0.296 0.265 0.238 0.214 0.195 0.179 0.166 0.155 0.147 0.141 0.137 0.134 0.133 0.132 0.132 0.132 0.132 0.133 0.135 0.139 0.144 0.152 0.161 0.174 0.189 0.208 0.231 0.258 0.289 0.325 0.366 0.412 0.463 0.520 0.582 0.641 0.695 0.743 0.785 0.823 0.856 0.884 0.909 0.930 0.948 0.962 0.975 0.985 0.994 1.001 1.007 1.012 1.016 1.019 1.023 1.026 1.029 1.031 1.034 1.037 1.040 1.043 1.046 1.049 1.052 1.057 1.061 1.067 1.072 1.077 1.080 1.083 1.085 1.086 1.086 1.086 1.086 1.086 1.085 1.084 1.082 1.078 1.073 1.066 1.057 1.046 1.031 1.013 0.992 0.966 0.935 0.900 0.858 0.811 0.757 0.696 0.629 0.560 0.496 0.440 0.389 0.346 0.308 0.276 0.249 0.228 0.211 0.199 0.190 0.184 0.180 0.178 0.177 0.177 0.177 0.179 0.182 0.186 0.194 0.205 0.219 0.237 0.259 0.286 0.316 0.350 0.388 0.429 0.471 0.512 0.551 0.590 0.628 0.665 0.703 0.741 0.778 0.817 0.855 0.895 0.937 0.981 1.028 1.079 1.135 1.199 1.272 1.357 1.461 1.567 1.645 1.685 1.685 0.000 
0.000 1.067 1.067 1.036 0.971 0.878 0.768 0.672 0.591 0.522 0.461 0.407 0.360 0.319 0.283 0.252 0.225 0.202 0.183 0.166 0.153 0.143 0.134 0.128 0.124 0.121 0.119 0.118 0.118 0.118 0.118 0.119 0.121 0.124 0.129 0.135 0.144 0.156 0.171 0.188 0.210 0.235 0.264 0.298 0.336 0.379 0.428 0.481 0.540 0.597 0.649 0.696 0.737 0.774 0.806 0.834 0.859 0.879 0.897 0.912 0.924 0.935 0.943 0.950 0.956 0.961 0.966 0.970 0.973 0.976 0.979 0.982 0.984 0.987 0.990 0.992 0.995 0.998 1.001 1.005 1.009 1.014 1.019 1.022 1.025 1.027 1.029 1.030 1.030 1.030 1.030 1.030 1.029 1.028 1.025 1.022 1.018 1.011 1.003 0.993 0.980 0.964 0.944 0.921 0.893 0.861 0.823 0.780 0.730 0.675 0.612 0.546 0.484 0.428 0.379 0.336 0.298 0.267 0.241 0.219 0.203 0.190 0.180 0.174 0.170 0.168 0.167 0.167 0.167 0.168 0.171 0.175 0.182 0.191 0.204 0.221 0.241 0.266 0.294 0.326 0.362 0.401 0.442 0.482 0.520 0.558 0.596 0.633 0.670 0.707 0.744 0.782 0.820 0.860 0.902 0.946 0.994 1.047 1.106 1.173 1.251 1.344 1.456 1.571 1.656 1.700 1.700 0.000 
0.000 1.070 1.070 1.052 0.988 0.889 0.771 0.670 0.585 0.511 0.448 0.393 0.346 0.305 0.269 0.238 0.211 0.188 0.169 0.153 0.140 0.129 0.121 0.115 0.110 0.107 0.105 0.104 0.103 0.103 0.103 0.104 0.106 0.108 0.113 0.119 0.127 0.137 0.151 0.167 0.187 0.210 0.237 0.268 0.304 0.344 0.389 0.438 0.493 0.548 0.597 0.642 0.682 0.718 0.749 0.776 0.800 0.820 0.837 0.852 0.864 0.875 0.883 0.891 0.897 0.902 0.906 0.910 0.913 0.916 0.919 0.922 0.924 0.927 0.930 0.932 0.935 0.937 0.940 0.944 0.947 0.951 0.955 0.958 0.960 0.961 0.962 0.963 0.963 0.963 0.963 0.963 0.962 0.961 0.958 0.955 0.951 0.946 0.939 0.929 0.918 0.904 0.886 0.866 0.841 0.812 0.778 0.740 0.695 0.645 0.589 0.527 0.467 0.412 0.364 0.322 0.286 0.255 0.229 0.209 0.192 0.179 0.170 0.164 0.159 0.157 0.156 0.156 0.156 0.157 0.159 0.163 0.168 0.177 0.189 0.204 0.222 0.245 0.271 0.301 0.334 0.371 0.409 0.448 0.486 0.523 0.559 0.595 0.631 0.667 0.703 0.740 0.778 0.817 0.858 0.902 0.950 1.004 1.064 1.135 1.217 1.316 1.437 1.564 1.655 1.700 1.700 0.000 
0.000 1.072 1.072 1.055 0.992 0.891 0.768 0.661 0.572 0.496 0.432 0.376 0.329 0.288 0.252 0.222 0.196 0.173 0.154 0.139 0.126 0.115 0.107 0.100 0.096 0.092 0.090 0.089 0.088 0.088 0.088 0.089 0.090 0.092 0.096 0.101 0.108 0.118 0.130 0.144 0.162 0.183 0.208 0.236 0.268 0.305 0.345 0.391 0.441 0.492 0.539 0.581 0.619 0.653 0.683 0.709 0.732 0.751 0.768 0.782 0.794 0.804 0.813 0.820 0.826 0.831 0.836 0.839 0.843 0.846 0.848 0.851 0.853 0.856 0.858 0.860 0.863 0.865 0.868 0.870 0.873 0.876 0.879 0.881 0.882 0.883 0.884 0.884 0.884 0.884 0.884 0.884 0.883 0.881 0.880 0.877 0.873 0.868 0.862 0.854 0.844 0.832 0.817 0.799 0.778 0.753 0.723 0.689 0.650 0.606 0.556 0.500 0.443 0.391 0.345 0.305 0.270 0.240 0.216 0.195 0.179 0.167 0.158 0.151 0.147 0.145 0.144 0.143 0.144 0.144 0.146 0.149 0.154 0.162 0.172 0.185 0.202 0.223 0.247 0.274 0.305 0.338 0.374 0.411 0.447 0.482 0.517 0.551 0.586 0.620 0.655 0.690 0.726 0.764 0.804 0.847 0.894 0.948 1.009 1.080 1.165 1.268 1.395 1.539 1.647 1.700 1.700 0.000 
0.000 1.075 1.075 1.057 0.990 0.882 0.753 0.643 0.551 0.474 0.409 0.354 0.307 0.267 0.232 0.203 0.178 0.156 0.138 0.123 0.110 0.100 0.092 0.085 0.080 0.077 0.075 0.074 0.073 0.073 0.073 0.074 0.075 0.076 0.079 0.084 0.090 0.097 0.108 0.120 0.136 0.154 0.176 0.200 0.229 0.261 0.297 0.338 0.382 0.429 0.472 0.512 0.547 0.579 0.607 0.631 0.653 0.671 0.687 0.701 0.712 0.722 0.731 0.737 0.743 0.748 0.753 0.756 0.759 0.762 0.765 0.767 0.769 0.772 0.774 0.776 0.778 0.780 0.782 0.784 0.786 0.788 0.790 0.791 0.792 0.792 0.792 0.792 0.792 0.792 0.792 0.791 0.790 0.789 0.787 0.785 0.782 0.778 0.772 0.766 0.758 0.748 0.735 0.720 0.702 0.681 0.657 0.628 0.595 0.557 0.513 0.465 0.412 0.364 0.321 0.283 0.250 0.222 0.199 0.180 0.164 0.152 0.144 0.137 0.133 0.131 0.130 0.129 0.129 0.130 0.131 0.134 0.138 0.145 0.154 0.165 0.180 0.198 0.220 0.245 0.272 0.303 0.335 0.369 0.403 0.436 0.468 0.500 0.532 0.564 0.597 0.630 0.664 0.699 0.737 0.778 0.824 0.876 0.936 1.006 1.090 1.192 1.320 1.479 1.625 1.700 1.700 0.000 
0.000 1.078 1.078 1.057 0.978 0.854 0.721 0.611 0.520 0.444 0.380 0.326 0.281 0.242 0.209 0.181 0.157 0.137 0.120 0.105 0.093 0.084 0.076 0.070 0.065 0.063 0.061 0.060 0.059 0.059 0.059 0.059 0.060 0.062 0.064 0.067 0.072 0.079 0.087 0.097 0.109 0.124 0.142 0.163 0.187 0.214 0.244 0.279 0.317 0.358 0.398 0.433 0.466 0.494 0.520 0.542 0.562 0.579 0.594 0.607 0.617 0.627 0.635 0.641 0.647 0.652 0.656 0.659 0.662 0.665 0.667 0.669 0.671 0.673 0.675 0.676 0.678 0.679 0.681 0.682 0.684 0.685 0.686 0.686 0.686 0.686 0.686 0.686 0.685 0.685 0.684 0.684 0.683 0.681 0.680 0.678 0.675 0.672 0.668 0.663 0.657 0.649 0.639 0.627 0.613 0.597 0.577 0.554 0.527 0.495 0.459 0.419 0.374 0.330 0.290 0.256 0.226 0.200 0.178 0.161 0.146 0.135 0.127 0.121 0.117 0.115 0.114 0.113 0.113 0.113 0.114 0.117 0.120 0.126 0.133 0.143 0.156 0.172 0.190 0.212 0.236 0.263 0.292 0.322 0.353 0.382 0.412 0.441 0.470 0.499 0.528 0.558 0.589 0.622 0.657 0.695 0.738 0.786 0.842 0.908 0.986 1.082 1.203 1.364 1.563 1.700 1.700 0.000 
0.000 1.080 1.080 1.050 0.940 0.795 0.665 0.560 0.473 0.401 0.341 0.291 0.248 0.212 0.181 0.156 0.134 0.115 0.099 0.086 0.075 0.066 0.060 0.055 0.052 0.049 0.048 0.047 0.046 0.046 0.046 0.047 0.047 0.048 0.050 0.053 0.057 0.061 0.068 0.076 0.085 0.097 0.111 0.127 0.146 0.167 0.191 0.218 0.248 0.282 0.315 0.345 0.373 0.398 0.421 0.440 0.458 0.473 0.487 0.498 0.508 0.517 0.524 0.530 0.535 0.540 0.543 0.547 0.549 0.552 0.554 0.556 0.557 0.559 0.560 0.561 0.562 0.563 0.564 0.565 0.565 0.565 0.565 0.565 0.565 0.564 0.563 0.563 0.562 0.561 0.560 0.560 0.559 0.558 0.556 0.555 0.553 0.551 0.548 0.544 0.540 0.534 0.528 0.519 0.509 0.497 0.483 0.466 0.445 0.421 0.393 0.361 0.325 0.287 0.252 0.222 0.195 0.173 0.153 0.138 0.125 0.115 0.108 0.102 0.099 0.096 0.095 0.095 0.095 0.095 0.095 0.097 0.100 0.104 0.110 0.119 0.129 0.142 0.157 0.175 0.195 0.218 0.242 0.268 0.295 0.321 0.346 0.371 0.396 0.422 0.447 0.473 0.500 0.529 0.560 0.594 0.632 0.675 0.725 0.782 0.849 0.928 1.027 1.164 1.379 1.700 1.700 0.000 
0.000 1.024 1.024 1.008 0.842 0.693 0.579 0.487 0.410 0.345 0.291 0.246 0.208 0.176 0.149 0.126 0.106 0.090 0.076 0.066 0.057 0.050 0.045 0.042 0.039 0.037 0.036 0.035 0.035 0.035 0.035 0.035 0.035 0.036 0.038 0.040 0.042 0.046 0.051 0.057 0.064 0.073 0.083 0.095 0.109 0.125 0.144 0.164 0.187 0.211 0.237 0.260 0.281 0.300 0.318 0.333 0.347 0.359 0.369 0.379 0.387 0.394 0.400 0.405 0.410 0.413 0.417 0.419 0.422 0.424 0.425 0.427 0.428 0.429 0.430 0.431 0.431 0.432 0.432 0.432 0.432 0.431 0.431 0.430 0.429 0.429 0.428 0.427 0.426 0.426 0.425 0.424 0.423 0.422 0.421 0.420 0.419 0.417 0.415 0.413 0.410 0.407 0.403 0.397 0.391 0.384 0.374 0.363 0.349 0.333 0.314 0.292 0.265 0.235 0.206 0.181 0.159 0.140 0.124 0.111 0.100 0.091 0.085 0.080 0.077 0.075 0.074 0.073 0.073 0.073 0.074 0.075 0.077 0.080 0.085 0.091 0.099 0.109 0.121 0.135 0.150 0.168 0.187 0.207 0.228 0.249 0.270 0.290 0.311 0.331 0.352 0.374 0.396 0.420 0.445 0.474 0.506 0.542 0.582 0.626 0.672 0.720 0.772 0.833 0.926 1.059 1.059 0.000 
0.000 0.477 0.477 0.759 0.636 0.533 0.455 0.386 0.326 0.273 0.228 0.190 0.159 0.132 0.110 0.092 0.077 0.065 0.055 0.047 0.041 0.036 0.033 0.030 0.028 0.027 0.026 0.025 0.025 0.025 0.025 0.025 0.025 0.026 0.027 0.028 0.030 0.033 0.036 0.041 0.046 0.052 0.059 0.068 0.078 0.089 0.102 0.117 0.133 0.151 0.169 0.186 0.201 0.215 0.227 0.238 0.248 0.257 0.264 0.271 0.277 0.282 0.286 0.290 0.293 0.296 0.298 0.300 0.302 0.303 0.304 0.305 0.306 0.307 0.308 0.308 0.308 0.309 0.309 0.309 0.309 0.308 0.308 0.308 0.307 0.306 0.306 0.305 0.305 0.304 0.304 0.303 0.302 0.302 0.301 0.300 0.299 0.298 0.297 0.295 0.293 0.291 0.288 0.284 0.280 0.274 0.268 0.260 0.251 0.240 0.227 0.212 0.194 0.174 0.153 0.133 0.117 0.102 0.090 0.080 0.072 0.066 0.061 0.058 0.055 0.054 0.053 0.053 0.053 0.053 0.053 0.054 0.055 0.058 0.061 0.065 0.071 0.078 0.087 0.097 0.108 0.120 0.134 0.149 0.164 0.179 0.194 0.209 0.223 0.238 0.253 0.269 0.285 0.302 0.321 0.342 0.366 0.392 0.421 0.449 0.471 0.488 0.495 0.476 0.389 0.199 0.199 0.000 
0.000 0.000 0.000 0.245 0.329 0.320 0.296 0.263 0.225 0.187 0.155 0.129 0.107 0.088 0.073 0.061 0.051 0.043 0.037 0.031 0.027 0.024 0.022 0.020 0.019 0.018 0.017 0.017 0.017 0.017 0.017 0.017 0.017 0.017 0.018 0.019 0.020 0.022 0.024 0.027 0.030 0.034 0.039 0.045 0.052 0.059 0.068 0.077 0.088 0.100 0.112 0.123 0.133 0.143 0.151 0.158 0.165 0.170 0.176 0.180 0.184 0.187 0.190 0.193 0.195 0.196 0.198 0.199 0.200 0.201 0.202 0.203 0.204 0.204 0.204 0.205 0.205 0.205 0.205 0.205 0.205 0.205 0.205 0.204 0.204 0.204 0.203 0.203 0.202 0.202 0.202 0.201 0.201 0.200 0.200 0.199 0.199 0.198 0.197 0.196 0.195 0.193 0.191 0.189 0.186 0.182 0.178 0.173 0.167 0.159 0.151 0.141 0.129 0.116 0.102 0.089 0.078 0.068 0.060 0.053 0.048 0.044 0.041 0.038 0.037 0.036 0.035 0.035 0.035 0.035 0.035 0.036 0.037 0.038 0.041 0.044 0.047 0.052 0.058 0.064 0.072 0.080 0.089 0.099 0.109 0.119 0.129 0.139 0.149 0.159 0.169 0.179 0.190 0.201 0.214 0.228 0.244 0.262 0.281 0.295 0.303 0.305 0.296 0.258 0.146 0.000 0.000 0.000 
0.000 0.000 0.000 0.052 0.144 0.166 0.167 0.156 0.136 0.113 0.093 0.077 0.063 0.053 0.044 0.036 0.030 0.026 0.022 0.019 0.016 0.014 0.013 0.012 0.011 0.010 0.010 0.010 0.010 0.010 0.010 0.010 0.010 0.010 0.011 0.011 0.012 0.013 0.014 0.016 0.018 0.020 0.023 0.027 0.031 0.035 0.040 0.046 0.052 0.059 0.067 0.073 0.079 0.085 0.090 0.094 0.098 0.101 0.104 0.107 0.109 0.111 0.113 0.115 0.116 0.117 0.118 0.119 0.119 0.120 0.120 0.121 0.121 0.121 0.122 0.122 0.122 0.122 0.122 0.122 0.122 0.122 0.122 0.122 0.121 0.121 0.121 0.121 0.120 0.120 0.120 0.120 0.119 0.119 0.119 0.119 0.118 0.118 0.117 0.117 0.116 0.115 0.114 0.112 0.110 0.108 0.106 0.103 0.099 0.095 0.090 0.084 0.077 0.069 0.060 0.053 0.046 0.040 0.036 0.032 0.029 0.026 0.024 0.023 0.022 0.021 0.021 0.021 0.021 0.021 0.021 0.021 0.022 0.023 0.024 0.026 0.028 0.031 0.034 0.038 0.043 0.048 0.053 0.059 0.065 0.071 0.077 0.083 0.089 0.094 0.100 0.106 0.113 0.120 0.127 0.136 0.146 0.157 0.167 0.173 0.175 0.174 0.164 0.133 0.063 0.000 0.000 0.000 
0.000 0.000 0.000 0.016 0.059 0.075 0.078 0.076 0.068 0.056 0.046 0.038 0.031 0.026 0.021 0.018 0.015 0.013 0.011 0.009 0.008 0.007 0.006 0.006 0.005 0.005 0.005 0.005 0.005 0.005 0.005 0.005 0.005 0.005 0.005 0.005 0.006 0.006 0.007 0.008 0.009 0.010 0.011 0.013 0.015 0.017 0.020 0.023 0.026 0.029 0.033 0.036 0.039 0.042 0.044 0.046 0.048 0.050 0.051 0.053 0.054 0.055 0.056 0.056 0.057 0.057 0.058 0.058 0.059 0.059 0.059 0.059 0.059 0.060 0.060 0.060 0.060 0.060 0.060 0.060 0.060 0.060 0.060 0.060 0.060 0.059 0.059 0.059 0.059 0.059 0.059 0.059 0.059 0.058 0.058 0.058 0.058 0.058 0.058 0.057 0.057 0.056 0.056 0.055 0.054 0.053 0.052 0.050 0.049 0.047 0.044 0.041 0.038 0.034 0.030 0.026 0.023 0.020 0.017 0.016 0.014 0.013 0.012 0.011 0.011 0.010 0.010 0.010 0.010 0.010 0.010 0.010 0.011 0.011 0.012 0.013 0.014 0.015 0.017 0.019 0.021 0.023 0.026 0.029 0.032 0.035 0.038 0.041 0.044 0.046 0.049 0.052 0.055 0.059 0.063 0.067 0.072 0.078 0.082 0.084 0.085 0.083 0.077 0.060 0.026 0.000 0.000 0.000 
0.000 0.000 0.000 0.004 0.017 0.023 0.024 0.024 0.022 0.018 0.015 0.012 0.010 0.008 0.007 0.006 0.005 0.004 0.003 0.003 0.003 0.002 0.002 0.002 0.002 0.002 0.002 0.002 0.002 0.002 0.002 0.002 0.002 0.002 0.002 0.002 0.002 0.002 0.002 0.003 0.003 0.003 0.004 0.004 0.005 0.006 0.006 0.007 0.008 0.009 0.011 0.012 0.013 0.013 0.014 0.015 0.015 0.016 0.017 0.017 0.017 0.018 0.018 0.018 0.018 0.018 0.019 0.019 0.019 0.019 0.019 0.019 0.019 0.019 0.019 0.019 0.019 0.019 0.019 0.019 0.019 0.019 0.019 0.019 0.019 0.019 0.019 0.019 0.019 0.019 0.019 0.019 0.019 0.019 0.019 0.019 0.019 0.019 0.019 0.018 0.018 0.018 0.018 0.018 0.017 0.017 0.017 0.016 0.016 0.015 0.014 0.013 0.012 0.011 0.010 0.008 0.007 0.006 0.006 0.005 0.004 0.004 0.004 0.004 0.003 0.003 0.003 0.003 0.003 0.003 0.003 0.003 0.003 0.004 0.004 0.004 0.004 0.005 0.005 0.006 0.007 0.008 0.008 0.009 0.010 0.011 0.012 0.013 0.014 0.015 0.016 0.017 0.018 0.019 0.020 0.021 0.023 0.025 0.026 0.027 0.027 0.027 0.024 0.019 0.007 0.000 0.000 0.000 
0.000 0.000 0.000 0.000 0.000 0.000 0.000 0.000 0.000 0.000 0.000 0.000 0.000 0.000 0.000 0.000 0.000 0.000 0.000 0.000 0.000 0.000 0.000 0.000 0.000 0.000 0.000 0.000 0.000 0.000 0.000 0.000 0.000 0.000 0.000 0.000 0.000 0.000 0.000 0.000 0.000 0.000 0.000 0.000 0.000 0.000 0.000 0.000 0.000 0.000 0.000 0.000 0.000 0.000 0.000 0.000 0.000 0.000 0.000 0.000 0.000 0.000 0.000 0.000 0.000 0.000 0.000 0.000 0.000 0.000 0.000 0.000 0.000 0.000 0.000 0.000 0.000 0.000 0.000 0.000 0.000 0.000 0.000 0.000 0.000 0.000 0.000 0.000 0.000 0.000 0.000 0.000 0.000 0.000 0.000 0.000 0.000 0.000 0.000 0.000 0.000 0.000 0.000 0.000 0.000 0.000 0.000 0.000 0.000 0.000 0.000 0.000 0.000 0.000 0.000 0.000 0.000 0.000 0.000 0.000 0.000 0.000 0.000 0.000 0.000 0.000 0.000 0.000 0.000 0.000 0.000 0.000 0.000 0.000 0.000 0.000 0.000 0.000 0.000 0.000 0.000 0.000 0.000 0.000 0.000 0.000 0.000 0.000 0.000 0.000 0.000 0.000 0.000 0.000 0.000 0.000 0.000 0.000 0.000 0.000 0.000 0.000 0.000 0.000 0.000 0.000 0.000 0.000 
0.000 0.089 0.089 0.077 0.065 0.049 0.049 0.029 0.010 0.010 0.001 0.003 0.005 0.005 0.005 0.005 0.005 0.005 0.004 0.002 0.002 0.001 0.000 0.001 0.001 0.001 0.001 0.001 0.001 0.001 0.001 0.001 0.001 0.001 0.001 0.001 0.001 0.001 0.001 0.001 0.000 0.000 0.000 0.001 0.004 0.008 0.008 0.021 0.046 0.046 0.070 0.087 0.098 0.098 0.108 0.116 0.122 0.122 0.127 0.122 0.122 0.106 0.089 0.081 0.081 0.081 0.080 0.079 0.079 0.078 0.077 0.077 0.076 0.077 0.077 0.077 0.077 0.076 0.074 0.074 0.073 0.071 0.071 0.069 0.069 0.073 0.073 0.076 0.062 0.031 0.031 0.001 0.000 0.000 0.007 0.022 0.025 0.025 0.018 0.011 0.017 0.017 0.035 0.053 0.053 0.059 0.055 0.051 0.051 0.046 0.039 0.033 0.033 0.025 0.015 0.015 0.006 0.001 0.002 0.002 0.002 0.002 0.002 0.002 0.001 0.001 0.001 0.001 0.001 0.001 0.001 0.001 0.000 0.000 0.001 0.003 0.004 0.004 0.007 0.012 0.016 0.016 0.018 0.017 0.017 0.016 0.015 0.014 0.014 0.013 0.011 0.009 0.009 0.007 0.005 0.005 0.003 0.002 0.000 0.000 0.000 0.000 0.000 0.000 0.007 0.014 0.014 0.000 
0.000 0.000 0.000 0.000 0.000 0.000 0.000 0.000 0.000 0.000 0.000 0.000 0.000 0.000 0.000 0.000 0.000 0.000 0.000 0.000 0.000 0.000 0.000 0.000 0.000 0.000 0.000 0.000 0.000 0.000 0.000 0.000 0.000 0.000 0.000 0.000 0.000 0.000 0.000 0.000 0.000 0.000 0.000 0.000 0.000 0.000 0.000 0.000 0.000 0.000 0.000 0.000 0.000 0.000 0.000 0.000 0.000 0.000 0.000 0.000 0.000 0.000 0.000 0.000 0.000 0.000 0.000 0.000 0.000 0.000 0.000 0.000 0.000 0.000 0.000 0.000 0.000 0.000 0.000 0.000 0.000 0.000 0.000 0.000 0.000 0.000 0.000 0.000 0.000 0.000 0.000 0.000 0.000 0.000 0.000 0.000 0.000 0.000 0.000 0.000 0.000 0.000 0.000 0.000 0.000 0.000 0.000 0.000 0.000 0.000 0.000 0.000 0.000 0.000 0.000 0.000 0.000 0.000 0.000 0.000 0.000 0.000 0.000 0.000 0.000 0.000 0.000 0.000 0.000 0.000 0.000 0.000 0.000 0.000 0.000 0.000 0.000 0.000 0.000 0.000 0.000 0.000 0.000 0.000 0.000 0.000 0.000 0.000 0.000 0.000 0.000 0.000 0.000 0.000 0.000 0.000 0.000 0.000 0.000 0.000 0.000 0.000 0.000 0.000 0.000 0.000 0.000 0.000 
