ncols 168
nrows 121
xllcenter 640304.69
yllcenter 1081277.12
cellsize 46.59
NODATA_value -9999.000
0.000 0.000 0.000 0.000 0.000 0.000 0.000 0.000 0.000 0.000 0.000 0.000 0.000 0.000 0.000 0.000 0.000 0.000 0.000 0.000 0.000 0.000 0.000 0.000 0.000 0.000 0.000 0.000 0.000 0.000 0.000 0.000 0.000 0.000 0.000 0.000 0.000 0.000 0.000 0.000 0.000 0.000 0.000 0.000 0.000 0.000 0.000 0.000 0.000 0.000 0.000 0.000 0.000 0.000 0.000 0.000 0.000 0.000 0.000 0.000 0.000 0.000 0.000 0.000 0.000 0.000 0.000 0.000 0.000 0.000 0.000 0.000 0.000 0.000 0.000 0.000 0.000 0.000 0.000 0.000 0.000 0.000 0.000 0.000 0.000 0.000 0.000 0.000 0.000 0.000 0.000 0.000 0.000 0.000 0.000 0.000 0.000 0.000 0.000 0.000 0.000 0.000 0.000 0.000 0.000 0.000 0.000 0.000 0.000 0.000 0.000 0.000 0.000 0.000 0.000 0.000 0.000 0.000 0.000 0.000 0.000 0.000 0.000 0.000 0.000 0.000 0.000 0.000 0.000 0.000 0.000 0.000 0.000 0.000 0.000 0.000 0.000 0.000 0.000 0.000 0.000 0.000 0.000 0.000 0.000 0.000 0.000 0.000 0.000 0.000 0.000 0.000 0.000 0.000 0.000 0.000 0.000 0.000 0.000 0.000 0.000 0.000 0.000 0.000 0.000 0.000 0.000 0.000 
0.000 0.397 0.397 0.397 0.296 0.018 0.018 0.000 0.000 0.000 0.024 0.303 0.397 0.397 0.397 0.397 0.397 0.397 0.397 0.397 0.397 0.397 0.397 0.397 0.397 0.397 0.397 0.397 0.397 0.397 0.397 0.397 0.397 0.397 0.481 0.481 0.614 0.784 0.955 0.955 1.032 1.061 1.061 1.061 1.061 1.054 1.054 1.036 1.033 1.033 1.012 0.958 0.784 0.784 0.609 0.498 0.519 0.519 0.678 0.853 0.853 0.986 0.311 0.501 0.501 1.060 1.047 0.944 0.944 0.815 0.686 0.686 0.644 0.691 0.821 0.821 0.950 0.580 0.251 0.251 0.931 1.064 1.064 1.064 1.064 1.064 1.064 1.068 1.081 1.131 1.131 1.181 1.199 1.199 1.127 0.921 0.684 0.684 0.439 0.472 0.334 0.334 0.188 0.856 0.856 0.930 0.757 0.571 0.571 0.460 0.485 0.671 0.671 0.857 1.018 1.018 1.156 1.258 0.760 0.760 0.516 1.272 1.263 1.263 1.162 1.067 1.067 1.067 1.067 1.067 1.067 1.067 1.067 1.067 1.068 1.068 1.068 1.068 1.068 1.068 1.068 1.068 1.068 1.068 1.068 1.068 1.068 1.069 1.069 1.069 1.069 1.069 1.069 1.013 0.445 0.445 0.644 1.038 0.914 0.914 0.730 0.531 0.328 0.328 0.101 0.000 0.000 0.000 
0.000 0.234 0.234 0.233 0.174 0.011 0.011 0.000 0.000 0.000 0.013 0.164 0.220 0.220 0.225 0.224 0.223 0.223 0.222 0.221 0.221 0.220 0.219 0.218 0.218 0.217 0.216 0.212 0.212 0.202 0.200 0.200 0.203 0.211 0.339 0.339 0.521 0.744 0.968 0.968 1.056 1.080 1.080 1.080 1.080 0.900 0.900 0.500 0.497 0.497 0.687 0.918 0.691 0.691 0.464 0.330 0.397 0.397 0.608 0.835 0.835 1.038 0.730 0.820 0.820 1.075 1.045 0.909 0.909 0.741 0.573 0.573 0.543 0.618 0.786 0.786 0.954 0.845 0.718 0.718 1.023 1.082 1.082 1.083 1.083 1.083 1.083 1.091 1.112 1.176 1.176 1.240 1.257 1.257 1.136 0.866 0.544 0.544 0.191 0.199 0.308 0.308 0.525 0.939 0.939 0.896 0.663 0.424 0.424 0.312 0.363 0.602 0.602 0.841 1.044 1.044 1.214 1.345 1.240 1.240 1.186 1.415 1.324 1.324 1.199 1.086 1.086 1.086 1.086 1.086 1.086 1.086 1.086 1.086 1.086 1.086 1.087 1.087 1.087 1.087 1.087 1.087 1.087 1.087 1.087 1.087 1.087 1.087 1.087 1.087 1.088 1.088 1.088 1.069 0.877 0.877 0.945 1.045 0.869 0.869 0.633 0.377 0.112 0.112 0.033 0.000 0.000 0.000 
0.000 0.046 0.046 0.140 0.146 0.075 0.021 0.011 0.007 0.007 0.017 0.083 0.178 0.207 0.218 0.222 0.223 0.223 0.223 0.222 0.222 0.221 0.221 0.220 0.219 0.219 0.218 0.216 0.215 0.211 0.206 0.205 0.208 0.218 0.276 0.344 0.430 0.630 0.852 0.947 1.000 1.052 1.064 1.064 1.057 0.983 0.874 0.691 0.543 0.534 0.598 0.774 0.771 0.692 0.586 0.422 0.397 0.422 0.503 0.723 0.828 0.905 0.886 0.824 0.852 0.952 1.024 0.970 0.904 0.829 0.663 0.598 0.583 0.596 0.701 0.787 0.862 0.891 0.815 0.795 0.891 1.035 1.070 1.077 1.080 1.081 1.083 1.087 1.101 1.139 1.168 1.196 1.228 1.231 1.182 1.007 0.707 0.545 0.377 0.249 0.282 0.333 0.433 0.730 0.879 0.874 0.775 0.549 0.451 0.398 0.375 0.480 0.595 0.710 0.931 1.034 1.123 1.261 1.271 1.239 1.230 1.296 1.342 1.314 1.262 1.145 1.103 1.095 1.091 1.089 1.088 1.088 1.088 1.088 1.088 1.089 1.089 1.089 1.089 1.089 1.089 1.089 1.089 1.089 1.089 1.089 1.089 1.089 1.089 1.088 1.088 1.086 1.083 1.069 0.989 0.920 0.926 0.976 0.945 0.865 0.762 0.529 0.278 0.182 0.158 0.171 0.171 0.000 
0.000 0.014 0.014 0.047 0.072 0.064 0.043 0.033 0.031 0.035 0.055 0.103 0.163 0.197 0.213 0.221 0.224 0.225 0.226 0.226 0.226 0.225 0.225 0.225 0.225 0.225 0.224 0.224 0.224 0.223 0.223 0.227 0.236 0.260 0.304 0.378 0.483 0.641 0.799 0.897 0.958 0.991 1.004 1.004 0.989 0.947 0.859 0.733 0.661 0.646 0.669 0.719 0.729 0.697 0.613 0.540 0.514 0.522 0.582 0.706 0.815 0.861 0.871 0.873 0.891 0.936 0.954 0.946 0.902 0.825 0.734 0.683 0.669 0.677 0.719 0.794 0.849 0.866 0.867 0.878 0.925 1.002 1.043 1.061 1.070 1.076 1.081 1.088 1.099 1.118 1.139 1.151 1.154 1.139 1.086 0.961 0.757 0.578 0.461 0.410 0.399 0.431 0.523 0.667 0.739 0.747 0.709 0.604 0.524 0.493 0.495 0.522 0.602 0.718 0.865 0.997 1.104 1.177 1.213 1.224 1.230 1.255 1.274 1.268 1.227 1.160 1.121 1.105 1.098 1.095 1.093 1.092 1.092 1.093 1.093 1.094 1.094 1.094 1.095 1.095 1.095 1.095 1.095 1.095 1.095 1.095 1.094 1.093 1.092 1.091 1.088 1.083 1.074 1.053 1.008 0.967 0.952 0.942 0.921 0.864 0.761 0.606 0.479 0.432 0.441 0.493 0.493 0.000 
0.000 0.001 0.001 0.017 0.046 0.059 0.061 0.061 0.064 0.074 0.094 0.127 0.168 0.197 0.213 0.222 0.226 0.229 0.231 0.232 0.232 0.232 0.233 0.233 0.234 0.234 0.236 0.237 0.239 0.243 0.249 0.260 0.279 0.311 0.359 0.430 0.529 0.658 0.776 0.859 0.911 0.939 0.949 0.950 0.941 0.915 0.858 0.781 0.736 0.720 0.718 0.726 0.725 0.706 0.664 0.634 0.627 0.633 0.663 0.731 0.809 0.853 0.875 0.893 0.911 0.929 0.934 0.929 0.901 0.845 0.792 0.765 0.757 0.758 0.771 0.808 0.847 0.871 0.891 0.915 0.952 1.001 1.033 1.051 1.062 1.070 1.077 1.084 1.090 1.096 1.101 1.099 1.090 1.064 1.011 0.915 0.769 0.636 0.559 0.525 0.520 0.531 0.576 0.644 0.676 0.680 0.666 0.620 0.578 0.565 0.566 0.581 0.626 0.709 0.823 0.947 1.041 1.103 1.148 1.180 1.197 1.205 1.207 1.203 1.186 1.152 1.123 1.108 1.101 1.099 1.098 1.098 1.098 1.099 1.100 1.101 1.102 1.102 1.103 1.103 1.103 1.103 1.103 1.103 1.103 1.102 1.101 1.100 1.098 1.095 1.090 1.083 1.071 1.051 1.020 0.988 0.963 0.939 0.910 0.863 0.785 0.707 0.666 0.656 0.670 0.707 0.707 0.000 
0.000 0.000 0.000 0.009 0.039 0.064 0.080 0.091 0.102 0.114 0.131 0.154 0.181 0.202 0.216 0.226 0.231 0.235 0.238 0.240 0.241 0.242 0.244 0.245 0.247 0.248 0.251 0.255 0.260 0.268 0.281 0.300 0.327 0.364 0.413 0.478 0.564 0.671 0.765 0.834 0.880 0.907 0.919 0.921 0.917 0.903 0.869 0.823 0.789 0.770 0.758 0.748 0.741 0.732 0.719 0.712 0.712 0.719 0.737 0.771 0.818 0.857 0.886 0.907 0.923 0.931 0.932 0.927 0.908 0.875 0.845 0.830 0.824 0.823 0.826 0.838 0.859 0.884 0.912 0.941 0.974 1.007 1.032 1.049 1.058 1.065 1.070 1.074 1.076 1.076 1.073 1.064 1.048 1.017 0.967 0.888 0.778 0.682 0.624 0.595 0.588 0.590 0.608 0.638 0.652 0.654 0.647 0.626 0.608 0.602 0.604 0.616 0.647 0.702 0.785 0.884 0.964 1.027 1.078 1.115 1.136 1.145 1.148 1.149 1.145 1.133 1.117 1.107 1.102 1.100 1.101 1.103 1.105 1.107 1.109 1.111 1.112 1.113 1.113 1.114 1.114 1.114 1.114 1.113 1.113 1.112 1.110 1.108 1.105 1.100 1.094 1.085 1.072 1.054 1.029 1.001 0.972 0.942 0.911 0.874 0.833 0.807 0.797 0.801 0.818 0.833 0.833 0.000 
0.000 0.000 0.000 0.009 0.042 0.077 0.104 0.124 0.140 0.154 0.168 0.183 0.199 0.213 0.225 0.234 0.240 0.244 0.248 0.251 0.253 0.255 0.257 0.260 0.263 0.266 0.271 0.277 0.286 0.299 0.317 0.340 0.370 0.408 0.455 0.515 0.591 0.681 0.760 0.820 0.861 0.888 0.903 0.908 0.908 0.901 0.884 0.857 0.833 0.814 0.799 0.786 0.778 0.776 0.777 0.782 0.787 0.794 0.805 0.820 0.844 0.875 0.903 0.923 0.933 0.937 0.937 0.933 0.924 0.908 0.894 0.886 0.882 0.881 0.880 0.882 0.890 0.908 0.934 0.963 0.992 1.017 1.035 1.049 1.057 1.062 1.064 1.065 1.064 1.061 1.053 1.041 1.020 0.988 0.940 0.873 0.786 0.713 0.666 0.639 0.627 0.625 0.629 0.639 0.644 0.644 0.640 0.630 0.623 0.621 0.623 0.633 0.656 0.696 0.755 0.831 0.900 0.958 1.004 1.038 1.062 1.078 1.091 1.100 1.106 1.108 1.105 1.101 1.100 1.100 1.102 1.107 1.113 1.117 1.120 1.123 1.124 1.126 1.126 1.127 1.127 1.127 1.127 1.126 1.125 1.124 1.122 1.119 1.115 1.108 1.100 1.089 1.076 1.058 1.036 1.010 0.980 0.950 0.923 0.901 0.888 0.883 0.885 0.897 0.923 0.934 0.934 0.000 
0.000 0.034 0.034 0.022 0.056 0.101 0.135 0.160 0.179 0.193 0.205 0.214 0.223 0.232 0.240 0.247 0.253 0.257 0.261 0.264 0.268 0.271 0.274 0.278 0.282 0.287 0.294 0.303 0.315 0.332 0.352 0.377 0.407 0.444 0.489 0.544 0.611 0.689 0.758 0.811 0.850 0.877 0.895 0.904 0.907 0.905 0.899 0.887 0.872 0.857 0.844 0.836 0.832 0.834 0.841 0.850 0.858 0.864 0.869 0.876 0.885 0.904 0.926 0.941 0.948 0.950 0.950 0.949 0.948 0.944 0.939 0.937 0.936 0.935 0.934 0.933 0.935 0.943 0.961 0.986 1.010 1.028 1.041 1.051 1.058 1.060 1.061 1.060 1.057 1.051 1.040 1.024 1.001 0.969 0.924 0.865 0.794 0.735 0.693 0.667 0.652 0.644 0.642 0.642 0.642 0.640 0.637 0.632 0.630 0.630 0.633 0.641 0.659 0.689 0.733 0.789 0.847 0.897 0.937 0.970 0.996 1.018 1.037 1.054 1.068 1.079 1.086 1.090 1.094 1.098 1.103 1.110 1.119 1.127 1.132 1.136 1.139 1.141 1.142 1.142 1.142 1.142 1.142 1.141 1.140 1.139 1.136 1.132 1.127 1.119 1.110 1.098 1.083 1.065 1.044 1.018 0.989 0.964 0.947 0.939 0.936 0.936 0.941 0.957 0.990 1.015 1.015 0.000 
0.000 0.071 0.071 0.060 0.094 0.141 0.178 0.203 0.222 0.234 0.242 0.248 0.252 0.256 0.261 0.265 0.270 0.274 0.278 0.282 0.285 0.289 0.294 0.298 0.304 0.311 0.320 0.332 0.346 0.364 0.385 0.410 0.439 0.475 0.517 0.567 0.628 0.696 0.757 0.806 0.844 0.872 0.891 0.903 0.910 0.914 0.916 0.914 0.909 0.902 0.897 0.895 0.896 0.900 0.908 0.917 0.924 0.928 0.931 0.933 0.936 0.943 0.956 0.965 0.970 0.972 0.974 0.976 0.979 0.982 0.985 0.986 0.986 0.987 0.987 0.986 0.986 0.988 0.996 1.012 1.029 1.041 1.050 1.056 1.059 1.061 1.060 1.058 1.052 1.044 1.031 1.013 0.989 0.956 0.914 0.861 0.800 0.749 0.712 0.685 0.668 0.656 0.649 0.645 0.641 0.638 0.635 0.633 0.633 0.633 0.636 0.644 0.658 0.682 0.714 0.756 0.802 0.844 0.881 0.912 0.939 0.964 0.987 1.009 1.030 1.048 1.062 1.074 1.084 1.093 1.102 1.112 1.123 1.134 1.143 1.149 1.154 1.157 1.159 1.160 1.160 1.160 1.159 1.159 1.158 1.155 1.152 1.148 1.141 1.133 1.122 1.109 1.093 1.074 1.052 1.026 1.002 0.985 0.976 0.972 0.971 0.973 0.978 0.992 1.020 1.047 1.047 0.000 
0.000 0.210 0.210 0.137 0.165 0.202 0.234 0.255 0.270 0.279 0.283 0.285 0.285 0.286 0.287 0.289 0.292 0.295 0.298 0.302 0.306 0.310 0.316 0.322 0.329 0.337 0.348 0.361 0.376 0.393 0.414 0.439 0.468 0.502 0.541 0.587 0.642 0.703 0.758 0.804 0.840 0.869 0.890 0.905 0.918 0.928 0.936 0.943 0.946 0.948 0.951 0.954 0.958 0.964 0.972 0.979 0.985 0.988 0.990 0.991 0.991 0.991 0.994 0.998 1.001 1.004 1.007 1.011 1.017 1.025 1.030 1.033 1.035 1.035 1.035 1.035 1.035 1.036 1.037 1.042 1.050 1.057 1.061 1.063 1.064 1.063 1.061 1.057 1.050 1.039 1.025 1.005 0.980 0.948 0.909 0.859 0.805 0.760 0.724 0.697 0.677 0.663 0.653 0.646 0.641 0.637 0.635 0.634 0.634 0.634 0.637 0.644 0.656 0.674 0.698 0.729 0.764 0.800 0.832 0.862 0.889 0.915 0.940 0.966 0.991 1.015 1.036 1.055 1.071 1.085 1.098 1.112 1.126 1.139 1.151 1.160 1.166 1.171 1.175 1.177 1.178 1.178 1.178 1.178 1.176 1.174 1.171 1.166 1.159 1.150 1.138 1.124 1.107 1.087 1.063 1.038 1.019 1.007 0.999 0.996 0.996 0.997 1.001 1.011 1.030 1.044 1.044 0.000 
0.000 0.354 0.354 0.278 0.275 0.290 0.306 0.317 0.323 0.325 0.324 0.323 0.321 0.319 0.318 0.318 0.319 0.320 0.322 0.326 0.329 0.334 0.340 0.346 0.354 0.363 0.374 0.388 0.403 0.421 0.442 0.466 0.494 0.526 0.563 0.605 0.654 0.709 0.760 0.803 0.839 0.868 0.892 0.912 0.930 0.946 0.961 0.973 0.983 0.992 0.999 1.006 1.014 1.021 1.029 1.036 1.040 1.044 1.045 1.046 1.045 1.043 1.041 1.041 1.042 1.044 1.048 1.053 1.061 1.070 1.076 1.079 1.080 1.081 1.081 1.081 1.080 1.079 1.077 1.076 1.076 1.076 1.076 1.074 1.071 1.068 1.063 1.057 1.048 1.036 1.020 1.000 0.974 0.943 0.905 0.859 0.809 0.767 0.732 0.705 0.684 0.668 0.656 0.647 0.641 0.637 0.634 0.634 0.633 0.634 0.637 0.643 0.652 0.666 0.684 0.706 0.733 0.762 0.791 0.818 0.845 0.871 0.897 0.924 0.952 0.981 1.009 1.033 1.055 1.075 1.093 1.110 1.127 1.143 1.156 1.168 1.177 1.184 1.189 1.192 1.194 1.194 1.195 1.194 1.194 1.192 1.189 1.185 1.178 1.169 1.157 1.142 1.124 1.102 1.077 1.054 1.037 1.024 1.017 1.013 1.012 1.012 1.014 1.021 1.033 1.042 1.042 0.000 
0.000 0.479 0.479 0.414 0.402 0.388 0.381 0.375 0.370 0.365 0.360 0.355 0.352 0.350 0.348 0.348 0.348 0.348 0.349 0.351 0.355 0.359 0.364 0.370 0.378 0.388 0.399 0.413 0.428 0.447 0.467 0.491 0.518 0.548 0.583 0.622 0.666 0.715 0.762 0.803 0.839 0.870 0.897 0.922 0.946 0.968 0.988 1.005 1.020 1.032 1.044 1.054 1.063 1.072 1.080 1.086 1.091 1.094 1.096 1.097 1.097 1.096 1.094 1.092 1.092 1.093 1.096 1.102 1.110 1.116 1.120 1.122 1.123 1.123 1.123 1.122 1.121 1.118 1.114 1.110 1.105 1.099 1.094 1.088 1.082 1.075 1.067 1.059 1.048 1.035 1.018 0.996 0.971 0.940 0.903 0.859 0.813 0.772 0.738 0.710 0.687 0.670 0.657 0.647 0.640 0.636 0.633 0.633 0.633 0.633 0.636 0.640 0.647 0.656 0.670 0.687 0.707 0.730 0.755 0.780 0.805 0.831 0.858 0.886 0.916 0.947 0.979 1.010 1.038 1.063 1.086 1.107 1.126 1.144 1.160 1.174 1.185 1.194 1.200 1.204 1.207 1.209 1.209 1.209 1.209 1.208 1.205 1.202 1.196 1.187 1.176 1.162 1.144 1.121 1.096 1.072 1.053 1.039 1.029 1.024 1.021 1.021 1.022 1.025 1.033 1.039 1.039 0.000 
0.000 0.603 0.603 0.537 0.496 0.463 0.439 0.421 0.408 0.398 0.390 0.383 0.379 0.376 0.374 0.373 0.373 0.373 0.373 0.375 0.377 0.381 0.386 0.392 0.400 0.410 0.422 0.436 0.452 0.470 0.491 0.514 0.540 0.569 0.601 0.637 0.677 0.721 0.765 0.804 0.840 0.874 0.906 0.936 0.965 0.992 1.016 1.037 1.054 1.070 1.084 1.096 1.107 1.117 1.125 1.132 1.137 1.140 1.143 1.144 1.144 1.144 1.144 1.144 1.144 1.145 1.147 1.151 1.156 1.160 1.162 1.163 1.163 1.163 1.162 1.160 1.157 1.153 1.148 1.142 1.134 1.125 1.115 1.105 1.095 1.084 1.074 1.062 1.049 1.034 1.016 0.994 0.968 0.937 0.902 0.860 0.815 0.775 0.741 0.713 0.690 0.671 0.657 0.646 0.639 0.634 0.632 0.631 0.631 0.631 0.632 0.635 0.640 0.647 0.656 0.669 0.684 0.703 0.723 0.746 0.770 0.795 0.822 0.850 0.881 0.914 0.950 0.986 1.019 1.049 1.077 1.102 1.124 1.144 1.162 1.178 1.191 1.201 1.209 1.215 1.218 1.221 1.221 1.222 1.222 1.221 1.219 1.216 1.211 1.204 1.193 1.180 1.163 1.142 1.117 1.091 1.068 1.050 1.038 1.030 1.026 1.025 1.025 1.027 1.032 1.036 1.036 0.000 
0.000 0.640 0.640 0.609 0.560 0.512 0.479 0.455 0.437 0.424 0.413 0.406 0.401 0.397 0.395 0.394 0.394 0.394 0.394 0.395 0.397 0.400 0.405 0.412 0.421 0.431 0.443 0.458 0.474 0.493 0.513 0.536 0.561 0.589 0.619 0.652 0.689 0.728 0.769 0.807 0.845 0.881 0.918 0.953 0.986 1.016 1.043 1.066 1.086 1.104 1.120 1.134 1.146 1.157 1.165 1.172 1.178 1.182 1.185 1.187 1.188 1.188 1.189 1.189 1.189 1.190 1.192 1.194 1.197 1.199 1.200 1.201 1.200 1.200 1.198 1.195 1.191 1.185 1.179 1.171 1.162 1.151 1.139 1.125 1.111 1.097 1.082 1.067 1.052 1.035 1.015 0.993 0.967 0.936 0.901 0.861 0.817 0.778 0.744 0.715 0.691 0.672 0.657 0.645 0.637 0.632 0.629 0.627 0.627 0.627 0.627 0.629 0.632 0.636 0.643 0.652 0.664 0.679 0.696 0.716 0.738 0.762 0.789 0.818 0.850 0.884 0.921 0.961 1.000 1.035 1.067 1.095 1.120 1.143 1.163 1.181 1.196 1.207 1.217 1.223 1.228 1.231 1.232 1.232 1.232 1.232 1.231 1.228 1.224 1.217 1.208 1.196 1.180 1.160 1.136 1.109 1.082 1.060 1.044 1.034 1.028 1.025 1.025 1.027 1.030 1.034 1.034 0.000 
0.000 0.675 0.675 0.647 0.595 0.542 0.504 0.477 0.457 0.443 0.432 0.424 0.419 0.415 0.413 0.412 0.411 0.411 0.411 0.412 0.414 0.418 0.423 0.430 0.439 0.450 0.463 0.478 0.495 0.513 0.533 0.556 0.580 0.607 0.636 0.667 0.701 0.737 0.774 0.813 0.852 0.892 0.933 0.971 1.007 1.039 1.067 1.093 1.115 1.135 1.152 1.168 1.181 1.192 1.201 1.209 1.215 1.220 1.223 1.225 1.227 1.228 1.228 1.229 1.230 1.231 1.232 1.233 1.234 1.235 1.236 1.235 1.234 1.233 1.230 1.226 1.221 1.214 1.206 1.197 1.187 1.174 1.161 1.146 1.129 1.111 1.093 1.075 1.056 1.037 1.016 0.993 0.966 0.935 0.901 0.861 0.819 0.779 0.745 0.716 0.691 0.671 0.656 0.644 0.635 0.629 0.625 0.622 0.621 0.621 0.621 0.621 0.622 0.625 0.630 0.636 0.645 0.657 0.671 0.689 0.709 0.733 0.759 0.788 0.820 0.856 0.894 0.937 0.980 1.020 1.055 1.087 1.116 1.141 1.163 1.182 1.198 1.212 1.222 1.230 1.235 1.239 1.240 1.241 1.241 1.241 1.240 1.238 1.234 1.228 1.220 1.208 1.193 1.175 1.152 1.125 1.095 1.069 1.049 1.035 1.028 1.025 1.024 1.025 1.028 1.031 1.031 0.000 
0.000 0.650 0.650 0.652 0.607 0.557 0.519 0.491 0.471 0.456 0.445 0.438 0.432 0.429 0.427 0.426 0.426 0.426 0.426 0.427 0.430 0.434 0.440 0.447 0.457 0.468 0.482 0.497 0.513 0.532 0.552 0.574 0.598 0.624 0.652 0.682 0.714 0.747 0.783 0.821 0.861 0.904 0.948 0.989 1.026 1.060 1.090 1.117 1.141 1.162 1.181 1.198 1.212 1.224 1.234 1.242 1.248 1.253 1.257 1.260 1.261 1.263 1.264 1.265 1.265 1.266 1.267 1.267 1.268 1.268 1.268 1.267 1.265 1.263 1.259 1.254 1.248 1.241 1.232 1.221 1.209 1.196 1.181 1.165 1.147 1.127 1.106 1.085 1.063 1.040 1.017 0.993 0.966 0.935 0.901 0.862 0.820 0.781 0.746 0.717 0.691 0.671 0.654 0.641 0.631 0.624 0.619 0.615 0.613 0.612 0.612 0.611 0.612 0.613 0.616 0.620 0.627 0.637 0.649 0.665 0.684 0.706 0.732 0.761 0.793 0.829 0.869 0.913 0.959 1.003 1.043 1.079 1.110 1.137 1.161 1.182 1.200 1.214 1.226 1.235 1.241 1.245 1.247 1.248 1.248 1.248 1.248 1.246 1.242 1.237 1.229 1.218 1.204 1.187 1.165 1.138 1.107 1.077 1.052 1.035 1.026 1.021 1.021 1.021 1.024 1.029 1.029 0.000 
0.000 0.624 0.624 0.632 0.607 0.563 0.525 0.498 0.478 0.464 0.454 0.447 0.443 0.440 0.438 0.437 0.437 0.437 0.438 0.440 0.443 0.448 0.454 0.463 0.473 0.485 0.498 0.513 0.530 0.549 0.569 0.591 0.615 0.640 0.668 0.697 0.728 0.760 0.795 0.832 0.873 0.917 0.962 1.005 1.043 1.078 1.110 1.139 1.164 1.187 1.207 1.224 1.239 1.252 1.262 1.271 1.278 1.283 1.287 1.290 1.292 1.294 1.295 1.296 1.296 1.297 1.297 1.297 1.297 1.297 1.296 1.295 1.293 1.290 1.285 1.280 1.273 1.264 1.254 1.243 1.230 1.215 1.199 1.182 1.163 1.142 1.120 1.096 1.071 1.046 1.021 0.994 0.966 0.935 0.901 0.863 0.821 0.782 0.747 0.717 0.691 0.669 0.652 0.637 0.626 0.617 0.611 0.607 0.604 0.602 0.601 0.600 0.600 0.601 0.602 0.605 0.610 0.618 0.629 0.643 0.661 0.682 0.707 0.735 0.768 0.804 0.845 0.889 0.938 0.987 1.030 1.069 1.103 1.133 1.159 1.181 1.200 1.216 1.228 1.238 1.245 1.249 1.252 1.254 1.254 1.254 1.253 1.252 1.249 1.244 1.237 1.226 1.213 1.196 1.175 1.149 1.119 1.085 1.055 1.033 1.020 1.013 1.012 1.013 1.019 1.026 1.026 0.000 
0.000 0.598 0.598 0.608 0.594 0.563 0.527 0.501 0.482 0.469 0.460 0.454 0.450 0.448 0.446 0.446 0.446 0.446 0.448 0.450 0.454 0.460 0.467 0.477 0.487 0.499 0.513 0.529 0.546 0.564 0.584 0.606 0.630 0.655 0.682 0.711 0.742 0.774 0.808 0.845 0.886 0.930 0.976 1.019 1.059 1.095 1.128 1.158 1.185 1.209 1.229 1.248 1.263 1.276 1.287 1.297 1.304 1.310 1.314 1.317 1.320 1.322 1.323 1.323 1.324 1.324 1.324 1.324 1.324 1.323 1.322 1.320 1.318 1.314 1.309 1.302 1.295 1.285 1.275 1.262 1.249 1.233 1.216 1.197 1.177 1.156 1.132 1.108 1.081 1.054 1.026 0.997 0.967 0.935 0.901 0.864 0.823 0.783 0.748 0.717 0.690 0.667 0.648 0.632 0.619 0.609 0.602 0.596 0.592 0.590 0.588 0.587 0.587 0.587 0.588 0.590 0.594 0.601 0.610 0.623 0.640 0.660 0.684 0.712 0.744 0.781 0.821 0.867 0.917 0.969 1.016 1.059 1.096 1.128 1.156 1.180 1.200 1.216 1.230 1.240 1.248 1.253 1.256 1.257 1.258 1.258 1.258 1.256 1.254 1.249 1.242 1.232 1.219 1.203 1.182 1.157 1.128 1.094 1.059 1.029 1.008 0.997 0.994 0.997 1.011 1.023 1.023 0.000 
0.000 0.572 0.572 0.583 0.575 0.556 0.527 0.501 0.483 0.471 0.463 0.458 0.455 0.453 0.452 0.452 0.453 0.454 0.456 0.460 0.465 0.471 0.479 0.489 0.500 0.513 0.527 0.542 0.559 0.578 0.598 0.620 0.643 0.668 0.695 0.724 0.754 0.787 0.822 0.859 0.899 0.942 0.988 1.032 1.073 1.111 1.145 1.175 1.203 1.228 1.249 1.268 1.284 1.298 1.310 1.319 1.327 1.333 1.338 1.341 1.344 1.346 1.347 1.348 1.348 1.348 1.348 1.348 1.348 1.347 1.345 1.343 1.340 1.335 1.330 1.323 1.315 1.305 1.293 1.280 1.266 1.249 1.231 1.212 1.191 1.168 1.144 1.119 1.091 1.062 1.032 1.001 0.970 0.937 0.902 0.864 0.824 0.784 0.748 0.716 0.688 0.664 0.643 0.625 0.611 0.600 0.591 0.584 0.579 0.576 0.574 0.573 0.573 0.573 0.573 0.575 0.579 0.585 0.593 0.605 0.621 0.640 0.663 0.690 0.722 0.758 0.799 0.845 0.897 0.951 1.002 1.047 1.087 1.122 1.152 1.178 1.199 1.216 1.230 1.241 1.249 1.255 1.258 1.260 1.261 1.261 1.261 1.260 1.257 1.253 1.246 1.237 1.224 1.207 1.187 1.162 1.134 1.100 1.063 1.026 0.993 0.970 0.960 0.963 0.994 1.042 1.042 0.000 
0.000 0.546 0.546 0.558 0.553 0.541 0.522 0.499 0.482 0.471 0.464 0.460 0.458 0.457 0.456 0.457 0.458 0.460 0.463 0.468 0.474 0.481 0.490 0.500 0.511 0.524 0.539 0.554 0.571 0.590 0.610 0.632 0.655 0.680 0.707 0.735 0.766 0.799 0.833 0.871 0.911 0.954 0.999 1.044 1.086 1.124 1.159 1.191 1.219 1.244 1.267 1.286 1.303 1.317 1.329 1.339 1.347 1.354 1.359 1.362 1.365 1.367 1.368 1.369 1.369 1.369 1.369 1.369 1.368 1.367 1.366 1.363 1.359 1.355 1.349 1.341 1.332 1.322 1.310 1.296 1.281 1.264 1.245 1.225 1.203 1.180 1.155 1.129 1.101 1.071 1.040 1.008 0.974 0.940 0.904 0.866 0.826 0.785 0.749 0.715 0.685 0.659 0.637 0.618 0.602 0.589 0.579 0.571 0.566 0.562 0.560 0.559 0.559 0.559 0.559 0.561 0.564 0.569 0.577 0.589 0.603 0.621 0.643 0.670 0.701 0.737 0.778 0.824 0.876 0.933 0.987 1.035 1.078 1.116 1.148 1.175 1.197 1.216 1.230 1.242 1.250 1.256 1.260 1.262 1.263 1.263 1.263 1.262 1.259 1.255 1.249 1.239 1.227 1.210 1.190 1.166 1.137 1.104 1.067 1.027 0.987 0.946 0.910 0.888 0.920 1.069 1.069 0.000 
0.000 0.520 0.520 0.533 0.530 0.523 0.511 0.495 0.480 0.470 0.464 0.460 0.459 0.459 0.459 0.460 0.462 0.465 0.469 0.475 0.481 0.489 0.499 0.509 0.521 0.534 0.549 0.564 0.582 0.600 0.620 0.642 0.665 0.690 0.717 0.746 0.776 0.809 0.844 0.881 0.921 0.964 1.009 1.054 1.097 1.136 1.171 1.204 1.233 1.259 1.282 1.302 1.319 1.334 1.346 1.356 1.365 1.372 1.377 1.381 1.383 1.385 1.387 1.387 1.388 1.388 1.388 1.387 1.387 1.385 1.383 1.381 1.377 1.372 1.365 1.358 1.348 1.337 1.325 1.311 1.295 1.277 1.258 1.237 1.215 1.191 1.166 1.139 1.110 1.080 1.048 1.015 0.980 0.944 0.907 0.868 0.827 0.787 0.749 0.714 0.683 0.655 0.631 0.610 0.593 0.579 0.568 0.560 0.554 0.550 0.547 0.546 0.546 0.546 0.546 0.548 0.551 0.555 0.563 0.573 0.587 0.604 0.625 0.651 0.681 0.717 0.758 0.804 0.856 0.914 0.971 1.023 1.068 1.108 1.142 1.171 1.195 1.214 1.230 1.242 1.250 1.257 1.261 1.263 1.264 1.264 1.264 1.263 1.261 1.257 1.250 1.241 1.228 1.212 1.192 1.168 1.139 1.106 1.069 1.029 0.985 0.937 0.878 0.793 0.689 0.679 0.679 0.000 
0.000 0.495 0.495 0.507 0.505 0.502 0.496 0.486 0.475 0.467 0.463 0.460 0.459 0.459 0.460 0.462 0.465 0.469 0.474 0.481 0.488 0.497 0.506 0.517 0.529 0.543 0.557 0.573 0.590 0.609 0.629 0.651 0.674 0.699 0.726 0.754 0.785 0.818 0.853 0.890 0.930 0.972 1.018 1.063 1.106 1.146 1.182 1.215 1.245 1.271 1.295 1.315 1.333 1.348 1.361 1.372 1.380 1.387 1.392 1.397 1.399 1.401 1.403 1.403 1.404 1.404 1.404 1.403 1.403 1.401 1.399 1.396 1.392 1.387 1.380 1.372 1.363 1.351 1.339 1.324 1.308 1.290 1.270 1.249 1.226 1.202 1.176 1.148 1.119 1.089 1.056 1.022 0.987 0.950 0.911 0.871 0.830 0.789 0.750 0.714 0.681 0.652 0.626 0.604 0.586 0.571 0.559 0.549 0.543 0.538 0.536 0.534 0.534 0.534 0.534 0.535 0.538 0.542 0.549 0.559 0.571 0.588 0.608 0.633 0.663 0.698 0.738 0.784 0.836 0.894 0.954 1.009 1.057 1.100 1.136 1.167 1.192 1.213 1.229 1.241 1.250 1.257 1.261 1.263 1.264 1.265 1.264 1.264 1.261 1.257 1.251 1.242 1.229 1.213 1.193 1.168 1.139 1.106 1.070 1.030 0.986 0.936 0.873 0.773 0.562 0.134 0.134 0.000 
0.000 0.469 0.469 0.481 0.481 0.480 0.477 0.473 0.467 0.462 0.460 0.459 0.459 0.459 0.461 0.464 0.468 0.473 0.479 0.486 0.494 0.503 0.513 0.524 0.536 0.550 0.564 0.580 0.597 0.616 0.636 0.658 0.681 0.706 0.733 0.762 0.793 0.825 0.860 0.898 0.937 0.980 1.025 1.071 1.114 1.154 1.191 1.225 1.255 1.282 1.306 1.327 1.345 1.360 1.374 1.384 1.393 1.401 1.406 1.410 1.413 1.415 1.417 1.417 1.418 1.418 1.418 1.417 1.416 1.415 1.413 1.410 1.406 1.400 1.394 1.385 1.375 1.364 1.351 1.336 1.319 1.301 1.281 1.259 1.236 1.211 1.185 1.157 1.128 1.097 1.064 1.030 0.994 0.956 0.917 0.876 0.833 0.791 0.751 0.714 0.680 0.650 0.623 0.599 0.580 0.563 0.550 0.541 0.533 0.528 0.525 0.523 0.523 0.523 0.523 0.524 0.526 0.530 0.536 0.545 0.557 0.573 0.592 0.616 0.645 0.679 0.719 0.765 0.816 0.875 0.937 0.995 1.046 1.090 1.129 1.161 1.188 1.210 1.227 1.240 1.250 1.257 1.261 1.263 1.264 1.265 1.265 1.264 1.262 1.258 1.251 1.242 1.230 1.213 1.193 1.168 1.139 1.106 1.069 1.030 0.989 0.942 0.885 0.802 0.651 0.435 0.435 0.000 
0.000 0.443 0.443 0.456 0.456 0.456 0.456 0.456 0.455 0.454 0.454 0.455 0.457 0.459 0.462 0.465 0.470 0.476 0.482 0.490 0.498 0.508 0.518 0.529 0.542 0.555 0.570 0.586 0.603 0.622 0.642 0.664 0.687 0.712 0.739 0.768 0.799 0.832 0.867 0.904 0.944 0.986 1.032 1.078 1.121 1.162 1.199 1.233 1.263 1.291 1.315 1.336 1.355 1.371 1.384 1.396 1.405 1.412 1.418 1.422 1.425 1.427 1.429 1.429 1.430 1.430 1.430 1.429 1.429 1.427 1.425 1.422 1.418 1.412 1.405 1.397 1.387 1.375 1.362 1.347 1.330 1.312 1.291 1.269 1.246 1.221 1.194 1.166 1.136 1.105 1.072 1.038 1.001 0.963 0.923 0.881 0.837 0.794 0.753 0.715 0.680 0.648 0.620 0.595 0.575 0.557 0.543 0.533 0.525 0.519 0.516 0.514 0.513 0.513 0.513 0.514 0.515 0.519 0.525 0.533 0.544 0.559 0.578 0.601 0.629 0.662 0.701 0.746 0.797 0.855 0.919 0.979 1.033 1.080 1.121 1.155 1.184 1.207 1.225 1.239 1.249 1.256 1.261 1.263 1.264 1.265 1.265 1.264 1.262 1.258 1.251 1.242 1.230 1.213 1.193 1.168 1.138 1.104 1.068 1.032 0.996 0.962 0.930 0.908 0.916 1.014 1.014 0.000 
0.000 0.417 0.417 0.430 0.431 0.432 0.434 0.436 0.439 0.442 0.446 0.450 0.454 0.457 0.461 0.466 0.472 0.478 0.485 0.493 0.502 0.512 0.522 0.533 0.546 0.559 0.574 0.590 0.608 0.626 0.647 0.668 0.692 0.717 0.744 0.773 0.804 0.837 0.872 0.909 0.949 0.992 1.037 1.083 1.127 1.168 1.205 1.239 1.270 1.298 1.323 1.345 1.363 1.380 1.393 1.405 1.414 1.422 1.428 1.432 1.435 1.438 1.439 1.440 1.440 1.440 1.440 1.440 1.439 1.438 1.435 1.432 1.428 1.423 1.416 1.407 1.397 1.386 1.372 1.357 1.340 1.321 1.301 1.279 1.255 1.230 1.203 1.174 1.144 1.113 1.080 1.045 1.009 0.970 0.930 0.887 0.842 0.797 0.756 0.717 0.681 0.648 0.618 0.593 0.571 0.552 0.538 0.526 0.517 0.511 0.507 0.505 0.504 0.503 0.503 0.504 0.506 0.509 0.514 0.522 0.532 0.546 0.564 0.586 0.613 0.646 0.684 0.728 0.778 0.835 0.899 0.963 1.019 1.069 1.112 1.148 1.178 1.203 1.222 1.237 1.248 1.255 1.260 1.263 1.264 1.264 1.264 1.263 1.261 1.257 1.251 1.242 1.229 1.213 1.192 1.166 1.135 1.100 1.064 1.034 1.010 0.994 0.988 0.996 1.044 1.132 1.132 0.000 
0.000 0.391 0.391 0.405 0.407 0.409 0.412 0.416 0.422 0.429 0.436 0.443 0.449 0.455 0.461 0.466 0.473 0.480 0.487 0.496 0.505 0.514 0.525 0.536 0.549 0.563 0.577 0.593 0.611 0.630 0.650 0.672 0.696 0.721 0.748 0.777 0.808 0.841 0.876 0.914 0.954 0.996 1.041 1.088 1.132 1.173 1.210 1.245 1.276 1.304 1.329 1.351 1.370 1.387 1.401 1.413 1.422 1.430 1.436 1.441 1.444 1.446 1.448 1.449 1.449 1.449 1.449 1.449 1.448 1.447 1.445 1.441 1.437 1.432 1.425 1.416 1.406 1.395 1.381 1.366 1.349 1.330 1.310 1.288 1.264 1.238 1.211 1.183 1.152 1.121 1.088 1.053 1.016 0.978 0.937 0.893 0.848 0.802 0.759 0.718 0.682 0.648 0.618 0.591 0.568 0.549 0.533 0.520 0.511 0.504 0.500 0.497 0.496 0.495 0.495 0.496 0.497 0.500 0.504 0.511 0.521 0.535 0.552 0.573 0.599 0.630 0.667 0.710 0.760 0.816 0.880 0.946 1.005 1.057 1.102 1.140 1.172 1.198 1.218 1.234 1.246 1.254 1.259 1.262 1.263 1.264 1.264 1.263 1.261 1.257 1.251 1.241 1.228 1.211 1.190 1.163 1.130 1.093 1.059 1.035 1.020 1.015 1.017 1.031 1.072 1.116 1.116 0.000 
0.000 0.365 0.365 0.379 0.383 0.387 0.393 0.400 0.409 0.419 0.428 0.437 0.444 0.452 0.459 0.466 0.473 0.481 0.489 0.497 0.507 0.516 0.527 0.539 0.551 0.565 0.580 0.596 0.613 0.632 0.653 0.675 0.698 0.724 0.751 0.780 0.811 0.844 0.879 0.917 0.957 1.000 1.045 1.091 1.136 1.177 1.215 1.249 1.281 1.309 1.334 1.357 1.376 1.393 1.407 1.419 1.429 1.437 1.443 1.448 1.452 1.454 1.456 1.456 1.457 1.457 1.457 1.456 1.456 1.454 1.452 1.449 1.445 1.440 1.433 1.425 1.415 1.403 1.390 1.375 1.358 1.339 1.318 1.296 1.272 1.247 1.219 1.191 1.160 1.129 1.095 1.060 1.024 0.985 0.944 0.900 0.854 0.807 0.762 0.721 0.683 0.649 0.618 0.590 0.566 0.546 0.529 0.516 0.506 0.498 0.493 0.490 0.488 0.488 0.488 0.488 0.489 0.492 0.496 0.502 0.512 0.524 0.540 0.561 0.586 0.616 0.652 0.694 0.742 0.797 0.860 0.927 0.989 1.044 1.091 1.131 1.164 1.192 1.213 1.230 1.243 1.251 1.257 1.260 1.262 1.262 1.262 1.262 1.260 1.256 1.249 1.240 1.227 1.209 1.186 1.158 1.122 1.084 1.054 1.034 1.024 1.022 1.025 1.041 1.077 1.107 1.107 0.000 
0.000 0.339 0.339 0.354 0.360 0.367 0.376 0.387 0.400 0.412 0.423 0.433 0.441 0.450 0.458 0.466 0.474 0.482 0.490 0.499 0.508 0.518 0.528 0.540 0.552 0.566 0.581 0.597 0.615 0.634 0.654 0.676 0.700 0.726 0.753 0.782 0.813 0.847 0.882 0.920 0.960 1.002 1.048 1.094 1.139 1.180 1.218 1.253 1.285 1.313 1.339 1.361 1.381 1.398 1.412 1.425 1.435 1.443 1.449 1.454 1.458 1.460 1.462 1.463 1.463 1.463 1.463 1.463 1.462 1.461 1.459 1.456 1.452 1.447 1.440 1.432 1.422 1.411 1.398 1.382 1.366 1.347 1.326 1.304 1.280 1.255 1.228 1.199 1.169 1.137 1.103 1.068 1.031 0.992 0.951 0.907 0.860 0.812 0.766 0.724 0.685 0.650 0.618 0.590 0.565 0.544 0.526 0.512 0.501 0.493 0.488 0.484 0.482 0.481 0.481 0.481 0.482 0.484 0.488 0.494 0.503 0.515 0.530 0.550 0.574 0.603 0.638 0.679 0.726 0.780 0.841 0.908 0.973 1.029 1.079 1.121 1.156 1.185 1.208 1.226 1.239 1.248 1.254 1.258 1.260 1.260 1.260 1.260 1.258 1.254 1.247 1.238 1.224 1.206 1.182 1.152 1.114 1.076 1.048 1.031 1.023 1.021 1.025 1.042 1.075 1.099 1.099 0.000 
0.000 0.314 0.314 0.329 0.338 0.349 0.362 0.378 0.394 0.408 0.420 0.430 0.439 0.448 0.457 0.465 0.473 0.482 0.490 0.499 0.508 0.518 0.529 0.541 0.553 0.567 0.582 0.598 0.616 0.635 0.655 0.677 0.701 0.727 0.754 0.784 0.815 0.848 0.884 0.921 0.962 1.004 1.050 1.096 1.141 1.182 1.220 1.255 1.287 1.316 1.342 1.365 1.384 1.402 1.416 1.429 1.439 1.448 1.454 1.459 1.463 1.466 1.467 1.468 1.469 1.469 1.469 1.469 1.468 1.467 1.465 1.462 1.458 1.453 1.447 1.439 1.429 1.418 1.405 1.390 1.373 1.355 1.334 1.312 1.288 1.263 1.236 1.207 1.177 1.145 1.111 1.076 1.039 0.999 0.958 0.914 0.867 0.818 0.771 0.728 0.688 0.651 0.619 0.590 0.564 0.542 0.524 0.509 0.498 0.489 0.483 0.479 0.477 0.476 0.476 0.476 0.476 0.478 0.482 0.487 0.495 0.506 0.521 0.540 0.563 0.592 0.625 0.665 0.711 0.764 0.823 0.890 0.956 1.014 1.066 1.110 1.146 1.177 1.201 1.220 1.234 1.244 1.251 1.255 1.257 1.257 1.257 1.257 1.255 1.251 1.244 1.234 1.220 1.201 1.177 1.146 1.107 1.069 1.041 1.023 1.015 1.014 1.018 1.035 1.069 1.095 1.095 0.000 
0.000 0.288 0.288 0.304 0.317 0.332 0.352 0.373 0.391 0.406 0.418 0.429 0.438 0.447 0.456 0.465 0.473 0.482 0.490 0.499 0.509 0.519 0.529 0.541 0.553 0.567 0.582 0.598 0.616 0.635 0.656 0.678 0.702 0.728 0.755 0.784 0.816 0.849 0.885 0.923 0.963 1.006 1.051 1.098 1.142 1.184 1.222 1.257 1.289 1.318 1.344 1.367 1.387 1.405 1.420 1.432 1.443 1.451 1.458 1.463 1.467 1.470 1.472 1.473 1.473 1.474 1.474 1.473 1.473 1.472 1.470 1.467 1.464 1.459 1.452 1.445 1.435 1.424 1.411 1.397 1.380 1.362 1.342 1.320 1.296 1.271 1.244 1.215 1.185 1.153 1.119 1.084 1.046 1.007 0.965 0.921 0.874 0.825 0.776 0.732 0.691 0.653 0.620 0.590 0.564 0.542 0.523 0.507 0.495 0.486 0.479 0.475 0.472 0.471 0.471 0.471 0.471 0.473 0.476 0.481 0.489 0.499 0.513 0.531 0.554 0.581 0.614 0.652 0.697 0.749 0.807 0.872 0.939 0.999 1.052 1.097 1.136 1.168 1.193 1.213 1.228 1.239 1.246 1.250 1.253 1.253 1.253 1.253 1.251 1.247 1.240 1.230 1.216 1.196 1.171 1.140 1.102 1.063 1.031 1.009 0.997 0.993 0.996 1.012 1.054 1.092 1.092 0.000 
0.000 0.262 0.262 0.280 0.297 0.320 0.347 0.371 0.390 0.405 0.418 0.428 0.438 0.447 0.456 0.465 0.473 0.482 0.490 0.499 0.509 0.519 0.529 0.541 0.553 0.567 0.582 0.598 0.616 0.635 0.656 0.678 0.702 0.728 0.755 0.785 0.816 0.850 0.885 0.923 0.964 1.006 1.052 1.099 1.144 1.185 1.223 1.259 1.291 1.320 1.346 1.369 1.389 1.407 1.422 1.435 1.446 1.454 1.461 1.467 1.471 1.474 1.476 1.477 1.477 1.478 1.478 1.477 1.477 1.476 1.474 1.472 1.468 1.463 1.457 1.450 1.441 1.430 1.417 1.403 1.387 1.369 1.349 1.327 1.304 1.279 1.252 1.223 1.193 1.161 1.127 1.091 1.054 1.014 0.973 0.928 0.881 0.831 0.782 0.736 0.694 0.656 0.622 0.591 0.565 0.542 0.522 0.506 0.493 0.484 0.477 0.472 0.469 0.467 0.467 0.467 0.467 0.469 0.471 0.476 0.483 0.493 0.506 0.524 0.545 0.572 0.603 0.641 0.685 0.735 0.792 0.856 0.924 0.985 1.038 1.085 1.125 1.158 1.185 1.206 1.221 1.233 1.240 1.245 1.248 1.248 1.248 1.248 1.246 1.242 1.235 1.225 1.210 1.191 1.165 1.134 1.097 1.056 1.019 0.987 0.963 0.950 0.948 0.960 1.015 1.090 1.090 0.000 
0.000 0.236 0.236 0.255 0.279 0.312 0.345 0.370 0.390 0.405 0.418 0.428 0.438 0.447 0.456 0.464 0.473 0.481 0.490 0.499 0.509 0.518 0.529 0.541 0.553 0.567 0.582 0.598 0.616 0.635 0.656 0.678 0.702 0.728 0.756 0.785 0.816 0.850 0.886 0.924 0.964 1.007 1.053 1.100 1.144 1.186 1.224 1.260 1.292 1.321 1.347 1.370 1.391 1.409 1.424 1.437 1.448 1.457 1.464 1.469 1.474 1.477 1.479 1.480 1.481 1.481 1.481 1.481 1.480 1.479 1.478 1.475 1.472 1.468 1.462 1.455 1.446 1.435 1.423 1.409 1.393 1.376 1.356 1.335 1.311 1.286 1.260 1.231 1.201 1.169 1.135 1.100 1.062 1.022 0.980 0.936 0.889 0.838 0.788 0.741 0.698 0.659 0.624 0.592 0.565 0.542 0.522 0.505 0.492 0.482 0.474 0.469 0.466 0.464 0.464 0.464 0.464 0.465 0.468 0.472 0.478 0.488 0.501 0.517 0.538 0.564 0.595 0.631 0.674 0.723 0.779 0.842 0.910 0.971 1.026 1.073 1.114 1.148 1.175 1.197 1.214 1.226 1.234 1.239 1.241 1.242 1.242 1.242 1.240 1.236 1.229 1.219 1.204 1.184 1.159 1.128 1.091 1.049 1.004 0.958 0.915 0.880 0.856 0.851 0.901 1.087 1.087 0.000 
0.000 0.210 0.210 0.231 0.265 0.310 0.345 0.371 0.391 0.406 0.418 0.429 0.438 0.447 0.456 0.464 0.472 0.481 0.490 0.499 0.508 0.518 0.529 0.540 0.553 0.567 0.582 0.598 0.616 0.635 0.656 0.678 0.702 0.728 0.756 0.785 0.816 0.850 0.886 0.924 0.964 1.007 1.053 1.100 1.145 1.186 1.225 1.260 1.292 1.322 1.348 1.371 1.392 1.410 1.425 1.438 1.449 1.458 1.466 1.471 1.476 1.479 1.481 1.482 1.483 1.483 1.484 1.483 1.483 1.482 1.481 1.479 1.476 1.471 1.466 1.459 1.450 1.440 1.428 1.415 1.399 1.382 1.363 1.342 1.319 1.294 1.268 1.239 1.209 1.177 1.143 1.108 1.070 1.030 0.988 0.944 0.896 0.846 0.795 0.747 0.702 0.662 0.626 0.594 0.566 0.542 0.522 0.505 0.491 0.481 0.473 0.467 0.464 0.462 0.461 0.461 0.461 0.462 0.465 0.469 0.475 0.484 0.496 0.512 0.532 0.557 0.587 0.623 0.664 0.713 0.768 0.830 0.897 0.960 1.015 1.063 1.104 1.138 1.166 1.189 1.206 1.218 1.226 1.232 1.234 1.235 1.235 1.235 1.233 1.229 1.223 1.212 1.197 1.177 1.152 1.120 1.083 1.038 0.987 0.930 0.868 0.802 0.730 0.655 0.590 0.612 0.612 0.000 
0.000 0.184 0.184 0.209 0.261 0.313 0.349 0.375 0.394 0.409 0.421 0.431 0.439 0.448 0.456 0.464 0.472 0.480 0.489 0.497 0.507 0.517 0.528 0.540 0.552 0.566 0.581 0.597 0.615 0.634 0.655 0.678 0.702 0.728 0.755 0.785 0.816 0.850 0.886 0.924 0.964 1.007 1.053 1.100 1.145 1.186 1.225 1.260 1.293 1.322 1.348 1.372 1.392 1.410 1.426 1.439 1.450 1.460 1.467 1.473 1.478 1.481 1.483 1.485 1.485 1.486 1.486 1.486 1.485 1.485 1.483 1.481 1.478 1.474 1.469 1.463 1.455 1.445 1.433 1.420 1.405 1.389 1.370 1.349 1.327 1.302 1.276 1.248 1.218 1.186 1.152 1.116 1.079 1.039 0.997 0.952 0.905 0.854 0.802 0.753 0.707 0.666 0.629 0.596 0.568 0.543 0.522 0.505 0.491 0.480 0.472 0.466 0.463 0.460 0.460 0.459 0.460 0.460 0.462 0.466 0.472 0.480 0.492 0.507 0.527 0.551 0.580 0.615 0.656 0.704 0.758 0.819 0.886 0.949 1.005 1.054 1.095 1.130 1.159 1.181 1.199 1.211 1.220 1.225 1.228 1.229 1.229 1.229 1.227 1.224 1.217 1.207 1.192 1.172 1.146 1.114 1.074 1.026 0.971 0.907 0.834 0.750 0.647 0.509 0.290 0.063 0.063 0.000 
0.000 0.193 0.193 0.206 0.270 0.324 0.360 0.384 0.402 0.415 0.425 0.434 0.442 0.449 0.456 0.463 0.471 0.479 0.487 0.496 0.505 0.515 0.526 0.538 0.551 0.565 0.580 0.596 0.614 0.633 0.654 0.677 0.701 0.727 0.755 0.784 0.816 0.850 0.886 0.924 0.964 1.007 1.053 1.100 1.145 1.186 1.225 1.260 1.293 1.322 1.348 1.372 1.393 1.411 1.426 1.440 1.451 1.460 1.468 1.474 1.479 1.482 1.485 1.486 1.487 1.487 1.488 1.488 1.487 1.487 1.486 1.484 1.481 1.477 1.472 1.466 1.458 1.449 1.438 1.425 1.411 1.395 1.376 1.356 1.334 1.310 1.284 1.256 1.226 1.195 1.161 1.125 1.088 1.048 1.005 0.961 0.913 0.862 0.809 0.759 0.713 0.671 0.633 0.599 0.570 0.544 0.523 0.505 0.491 0.480 0.472 0.466 0.462 0.459 0.458 0.458 0.458 0.459 0.461 0.464 0.470 0.478 0.489 0.504 0.523 0.546 0.575 0.609 0.650 0.696 0.749 0.810 0.876 0.940 0.996 1.045 1.088 1.123 1.152 1.175 1.193 1.206 1.214 1.220 1.223 1.224 1.224 1.224 1.222 1.219 1.212 1.202 1.188 1.168 1.142 1.109 1.068 1.018 0.959 0.889 0.809 0.717 0.608 0.466 0.223 0.000 0.000 0.000 
0.000 0.306 0.306 0.251 0.301 0.351 0.382 0.402 0.415 0.425 0.433 0.439 0.445 0.451 0.457 0.463 0.469 0.477 0.484 0.493 0.502 0.513 0.524 0.536 0.548 0.562 0.578 0.594 0.612 0.632 0.653 0.675 0.700 0.726 0.754 0.783 0.815 0.849 0.885 0.923 0.964 1.007 1.053 1.100 1.145 1.186 1.225 1.260 1.293 1.322 1.348 1.372 1.393 1.411 1.427 1.440 1.452 1.461 1.469 1.475 1.480 1.483 1.486 1.487 1.488 1.489 1.489 1.489 1.489 1.488 1.487 1.486 1.483 1.480 1.475 1.469 1.462 1.453 1.442 1.430 1.416 1.401 1.383 1.363 1.342 1.318 1.292 1.265 1.235 1.204 1.170 1.135 1.097 1.057 1.015 0.970 0.922 0.871 0.818 0.766 0.719 0.676 0.637 0.602 0.572 0.546 0.524 0.506 0.491 0.480 0.471 0.465 0.461 0.459 0.458 0.457 0.457 0.458 0.460 0.463 0.468 0.476 0.487 0.501 0.520 0.543 0.571 0.604 0.644 0.690 0.743 0.802 0.868 0.932 0.989 1.039 1.081 1.117 1.146 1.170 1.188 1.201 1.210 1.216 1.219 1.220 1.221 1.220 1.219 1.215 1.209 1.199 1.185 1.165 1.139 1.105 1.064 1.013 0.951 0.877 0.790 0.694 0.597 0.479 0.286 0.000 0.000 0.000 
0.000 0.436 0.436 0.367 0.377 0.403 0.420 0.430 0.436 0.440 0.443 0.446 0.449 0.453 0.457 0.462 0.467 0.474 0.481 0.490 0.499 0.509 0.520 0.532 0.545 0.559 0.575 0.591 0.609 0.629 0.650 0.673 0.698 0.724 0.752 0.782 0.814 0.848 0.884 0.923 0.963 1.007 1.053 1.100 1.145 1.186 1.225 1.260 1.293 1.322 1.348 1.372 1.393 1.411 1.427 1.440 1.452 1.461 1.469 1.475 1.480 1.484 1.487 1.488 1.489 1.490 1.490 1.490 1.490 1.490 1.489 1.487 1.485 1.482 1.477 1.472 1.465 1.456 1.446 1.435 1.421 1.406 1.389 1.370 1.349 1.326 1.301 1.274 1.244 1.213 1.180 1.144 1.107 1.067 1.025 0.980 0.932 0.881 0.827 0.774 0.726 0.682 0.642 0.606 0.575 0.548 0.526 0.507 0.492 0.480 0.471 0.465 0.461 0.458 0.457 0.457 0.457 0.457 0.459 0.462 0.467 0.475 0.485 0.499 0.517 0.540 0.567 0.601 0.640 0.685 0.737 0.796 0.861 0.926 0.983 1.033 1.076 1.112 1.142 1.165 1.184 1.197 1.207 1.213 1.216 1.217 1.218 1.217 1.216 1.213 1.206 1.197 1.183 1.163 1.137 1.104 1.062 1.011 0.948 0.871 0.779 0.678 0.601 0.554 0.532 0.492 0.492 0.000 
0.000 0.611 0.611 0.514 0.502 0.489 0.477 0.467 0.459 0.454 0.452 0.452 0.452 0.454 0.456 0.460 0.465 0.471 0.478 0.486 0.495 0.505 0.515 0.528 0.541 0.555 0.571 0.587 0.606 0.625 0.647 0.670 0.694 0.721 0.749 0.780 0.812 0.846 0.883 0.921 0.962 1.006 1.052 1.099 1.144 1.186 1.225 1.260 1.293 1.322 1.348 1.372 1.393 1.411 1.427 1.440 1.452 1.461 1.469 1.476 1.481 1.484 1.487 1.489 1.490 1.491 1.491 1.491 1.491 1.491 1.490 1.489 1.486 1.483 1.479 1.474 1.468 1.460 1.450 1.439 1.426 1.412 1.395 1.377 1.356 1.334 1.309 1.283 1.254 1.223 1.190 1.155 1.117 1.077 1.035 0.990 0.942 0.891 0.837 0.783 0.734 0.688 0.647 0.610 0.578 0.551 0.527 0.508 0.493 0.481 0.472 0.465 0.461 0.458 0.457 0.457 0.457 0.457 0.459 0.462 0.466 0.474 0.484 0.498 0.516 0.538 0.565 0.598 0.636 0.681 0.732 0.791 0.856 0.920 0.978 1.028 1.071 1.108 1.138 1.162 1.181 1.194 1.204 1.210 1.214 1.215 1.215 1.215 1.214 1.211 1.205 1.195 1.181 1.162 1.136 1.103 1.062 1.010 0.947 0.870 0.776 0.673 0.601 0.580 0.642 1.033 1.033 0.000 
0.000 0.785 0.785 0.687 0.634 0.569 0.522 0.492 0.474 0.463 0.457 0.454 0.453 0.454 0.455 0.458 0.462 0.467 0.473 0.481 0.489 0.499 0.510 0.522 0.535 0.549 0.565 0.582 0.601 0.621 0.642 0.665 0.690 0.717 0.746 0.776 0.809 0.843 0.880 0.919 0.961 1.005 1.051 1.099 1.143 1.185 1.224 1.260 1.292 1.322 1.348 1.372 1.393 1.411 1.427 1.440 1.452 1.461 1.469 1.476 1.481 1.485 1.488 1.489 1.491 1.491 1.492 1.492 1.492 1.491 1.491 1.490 1.488 1.485 1.481 1.476 1.470 1.463 1.454 1.443 1.431 1.417 1.401 1.383 1.364 1.342 1.318 1.292 1.264 1.233 1.200 1.166 1.128 1.089 1.046 1.002 0.954 0.903 0.848 0.793 0.742 0.695 0.653 0.615 0.582 0.554 0.530 0.510 0.494 0.481 0.472 0.465 0.461 0.458 0.457 0.457 0.457 0.457 0.459 0.461 0.466 0.473 0.483 0.497 0.515 0.536 0.563 0.596 0.634 0.678 0.729 0.787 0.852 0.916 0.974 1.025 1.068 1.105 1.135 1.159 1.178 1.192 1.202 1.208 1.212 1.214 1.214 1.214 1.213 1.210 1.204 1.195 1.181 1.162 1.136 1.103 1.062 1.010 0.947 0.871 0.779 0.678 0.598 0.544 0.514 0.568 0.568 0.000 
0.000 0.955 0.955 0.846 0.716 0.610 0.544 0.504 0.480 0.466 0.458 0.455 0.454 0.454 0.454 0.456 0.459 0.463 0.468 0.475 0.483 0.492 0.503 0.515 0.528 0.542 0.558 0.575 0.594 0.614 0.636 0.660 0.685 0.712 0.741 0.772 0.805 0.840 0.877 0.917 0.958 1.003 1.050 1.097 1.142 1.184 1.223 1.259 1.291 1.321 1.348 1.371 1.392 1.411 1.426 1.440 1.452 1.461 1.469 1.476 1.481 1.485 1.488 1.490 1.491 1.492 1.492 1.492 1.492 1.492 1.491 1.490 1.489 1.486 1.483 1.478 1.472 1.465 1.457 1.447 1.435 1.422 1.406 1.389 1.370 1.350 1.326 1.301 1.274 1.244 1.211 1.177 1.140 1.101 1.059 1.014 0.966 0.915 0.860 0.804 0.751 0.703 0.660 0.621 0.587 0.558 0.533 0.512 0.496 0.483 0.473 0.466 0.461 0.459 0.457 0.457 0.457 0.457 0.459 0.461 0.466 0.473 0.483 0.497 0.514 0.536 0.562 0.594 0.632 0.676 0.727 0.784 0.848 0.913 0.971 1.022 1.065 1.102 1.133 1.157 1.177 1.191 1.201 1.207 1.211 1.213 1.213 1.213 1.212 1.209 1.203 1.194 1.181 1.162 1.136 1.104 1.063 1.012 0.950 0.876 0.789 0.693 0.593 0.471 0.271 0.026 0.026 0.000 
0.000 1.004 1.004 0.925 0.742 0.621 0.549 0.507 0.481 0.466 0.458 0.454 0.453 0.452 0.452 0.453 0.455 0.458 0.462 0.468 0.476 0.485 0.495 0.507 0.520 0.534 0.550 0.567 0.586 0.606 0.629 0.652 0.678 0.705 0.735 0.766 0.800 0.835 0.873 0.913 0.955 1.000 1.048 1.096 1.141 1.183 1.222 1.257 1.290 1.320 1.347 1.371 1.392 1.410 1.426 1.440 1.452 1.461 1.469 1.476 1.481 1.485 1.488 1.490 1.491 1.492 1.492 1.492 1.492 1.492 1.492 1.491 1.489 1.487 1.484 1.480 1.474 1.468 1.459 1.450 1.439 1.426 1.412 1.395 1.377 1.357 1.335 1.310 1.284 1.255 1.223 1.189 1.152 1.113 1.071 1.027 0.979 0.928 0.873 0.816 0.762 0.713 0.668 0.628 0.593 0.563 0.537 0.515 0.498 0.484 0.474 0.467 0.462 0.459 0.458 0.457 0.457 0.457 0.459 0.461 0.466 0.473 0.483 0.496 0.514 0.535 0.562 0.594 0.631 0.675 0.725 0.782 0.846 0.911 0.969 1.020 1.064 1.101 1.131 1.156 1.175 1.190 1.200 1.207 1.211 1.212 1.213 1.213 1.212 1.209 1.203 1.194 1.181 1.162 1.137 1.105 1.065 1.016 0.956 0.887 0.806 0.713 0.604 0.461 0.220 0.000 0.000 0.000 
0.000 0.785 0.785 0.875 0.735 0.616 0.546 0.504 0.479 0.465 0.457 0.452 0.450 0.449 0.449 0.449 0.450 0.453 0.456 0.461 0.468 0.476 0.486 0.497 0.510 0.524 0.540 0.557 0.576 0.597 0.619 0.643 0.669 0.697 0.727 0.759 0.793 0.829 0.868 0.908 0.951 0.997 1.045 1.093 1.138 1.180 1.220 1.256 1.289 1.319 1.345 1.369 1.391 1.409 1.426 1.439 1.451 1.461 1.469 1.476 1.481 1.485 1.488 1.490 1.491 1.492 1.492 1.493 1.493 1.492 1.492 1.491 1.490 1.488 1.485 1.481 1.476 1.470 1.462 1.453 1.442 1.430 1.416 1.401 1.383 1.364 1.343 1.319 1.293 1.265 1.235 1.201 1.165 1.127 1.085 1.040 0.993 0.941 0.887 0.829 0.773 0.723 0.677 0.635 0.599 0.568 0.541 0.519 0.501 0.487 0.476 0.468 0.463 0.460 0.458 0.458 0.458 0.458 0.459 0.462 0.466 0.473 0.483 0.496 0.514 0.535 0.562 0.593 0.631 0.674 0.724 0.781 0.845 0.910 0.968 1.018 1.062 1.100 1.130 1.155 1.175 1.189 1.200 1.207 1.210 1.212 1.213 1.213 1.212 1.209 1.203 1.195 1.181 1.163 1.139 1.108 1.069 1.022 0.966 0.902 0.828 0.744 0.642 0.507 0.294 0.000 0.000 0.000 
0.000 0.571 0.571 0.681 0.655 0.585 0.528 0.493 0.472 0.459 0.452 0.448 0.446 0.445 0.445 0.445 0.445 0.447 0.450 0.454 0.460 0.467 0.476 0.486 0.499 0.513 0.528 0.546 0.565 0.586 0.608 0.633 0.659 0.688 0.718 0.750 0.785 0.822 0.861 0.902 0.946 0.992 1.041 1.090 1.135 1.178 1.217 1.253 1.287 1.317 1.344 1.368 1.389 1.408 1.425 1.439 1.451 1.461 1.469 1.475 1.481 1.485 1.488 1.490 1.491 1.492 1.493 1.493 1.493 1.493 1.492 1.491 1.490 1.488 1.486 1.482 1.477 1.471 1.464 1.456 1.446 1.434 1.421 1.406 1.389 1.371 1.350 1.328 1.303 1.276 1.246 1.214 1.179 1.141 1.100 1.055 1.008 0.956 0.901 0.843 0.786 0.734 0.686 0.644 0.606 0.574 0.546 0.523 0.504 0.490 0.478 0.470 0.464 0.461 0.459 0.459 0.458 0.459 0.460 0.462 0.467 0.474 0.483 0.497 0.514 0.535 0.561 0.593 0.630 0.674 0.724 0.780 0.844 0.909 0.967 1.018 1.062 1.099 1.130 1.155 1.174 1.189 1.200 1.206 1.210 1.212 1.213 1.213 1.212 1.209 1.204 1.195 1.183 1.165 1.142 1.112 1.075 1.031 0.979 0.921 0.858 0.792 0.724 0.656 0.587 0.520 0.520 0.000 
0.000 0.366 0.366 0.472 0.498 0.502 0.484 0.466 0.454 0.447 0.442 0.440 0.439 0.438 0.438 0.438 0.439 0.440 0.442 0.446 0.450 0.457 0.465 0.474 0.486 0.500 0.515 0.532 0.551 0.572 0.595 0.620 0.647 0.676 0.707 0.740 0.775 0.813 0.853 0.895 0.940 0.987 1.037 1.085 1.131 1.174 1.214 1.250 1.284 1.314 1.342 1.366 1.388 1.407 1.423 1.438 1.450 1.460 1.468 1.475 1.480 1.485 1.488 1.490 1.491 1.492 1.493 1.493 1.493 1.493 1.492 1.492 1.490 1.489 1.486 1.483 1.478 1.473 1.466 1.458 1.448 1.437 1.425 1.411 1.395 1.377 1.357 1.336 1.312 1.285 1.257 1.226 1.192 1.155 1.114 1.071 1.023 0.972 0.917 0.858 0.800 0.746 0.697 0.653 0.615 0.581 0.552 0.528 0.509 0.493 0.481 0.473 0.467 0.463 0.461 0.460 0.460 0.460 0.461 0.464 0.468 0.475 0.484 0.497 0.514 0.535 0.562 0.593 0.630 0.674 0.723 0.780 0.844 0.908 0.966 1.017 1.061 1.099 1.130 1.155 1.174 1.189 1.200 1.206 1.211 1.212 1.213 1.213 1.212 1.209 1.205 1.197 1.185 1.168 1.146 1.118 1.083 1.042 0.994 0.945 0.900 0.864 0.843 0.840 0.884 1.054 1.054 0.000 
0.000 0.213 0.213 0.303 0.367 0.402 0.419 0.425 0.427 0.428 0.428 0.428 0.429 0.429 0.430 0.430 0.431 0.433 0.434 0.437 0.441 0.446 0.453 0.462 0.472 0.485 0.500 0.517 0.536 0.557 0.581 0.606 0.633 0.662 0.694 0.728 0.764 0.802 0.843 0.886 0.932 0.980 1.031 1.080 1.126 1.170 1.210 1.247 1.280 1.311 1.339 1.364 1.386 1.405 1.422 1.436 1.449 1.459 1.467 1.474 1.480 1.484 1.487 1.490 1.491 1.492 1.492 1.493 1.493 1.493 1.492 1.492 1.491 1.489 1.486 1.483 1.479 1.474 1.467 1.460 1.451 1.440 1.428 1.415 1.400 1.383 1.364 1.343 1.320 1.295 1.267 1.237 1.204 1.168 1.129 1.086 1.040 0.989 0.934 0.875 0.815 0.759 0.709 0.664 0.624 0.589 0.559 0.534 0.514 0.497 0.485 0.476 0.469 0.465 0.463 0.462 0.462 0.462 0.463 0.465 0.469 0.476 0.485 0.498 0.515 0.536 0.562 0.593 0.630 0.674 0.723 0.780 0.843 0.908 0.966 1.017 1.061 1.098 1.129 1.155 1.174 1.189 1.200 1.207 1.211 1.213 1.214 1.213 1.213 1.210 1.206 1.199 1.187 1.172 1.152 1.125 1.093 1.054 1.011 0.975 0.949 0.935 0.932 0.941 0.987 1.054 1.054 0.000 
0.000 0.154 0.154 0.207 0.281 0.339 0.375 0.395 0.406 0.412 0.415 0.417 0.419 0.420 0.421 0.422 0.423 0.424 0.426 0.428 0.431 0.435 0.441 0.449 0.459 0.470 0.484 0.501 0.519 0.541 0.564 0.589 0.617 0.647 0.679 0.714 0.750 0.790 0.832 0.876 0.923 0.972 1.024 1.074 1.121 1.164 1.205 1.242 1.276 1.307 1.336 1.361 1.383 1.403 1.420 1.434 1.447 1.458 1.466 1.474 1.479 1.484 1.487 1.489 1.491 1.492 1.492 1.493 1.493 1.493 1.492 1.492 1.491 1.489 1.487 1.484 1.480 1.475 1.469 1.461 1.453 1.443 1.432 1.419 1.404 1.388 1.370 1.350 1.328 1.303 1.277 1.247 1.215 1.181 1.142 1.101 1.055 1.006 0.952 0.893 0.831 0.774 0.722 0.675 0.634 0.598 0.567 0.541 0.520 0.502 0.489 0.480 0.473 0.468 0.466 0.465 0.465 0.465 0.466 0.468 0.472 0.478 0.487 0.499 0.516 0.537 0.563 0.594 0.631 0.674 0.724 0.780 0.843 0.908 0.966 1.017 1.061 1.098 1.130 1.155 1.174 1.189 1.200 1.207 1.212 1.214 1.215 1.215 1.214 1.212 1.208 1.201 1.191 1.177 1.159 1.135 1.104 1.068 1.032 1.005 0.989 0.983 0.984 0.992 1.021 1.051 1.051 0.000 
0.000 0.096 0.096 0.147 0.232 0.309 0.354 0.380 0.395 0.403 0.408 0.410 0.412 0.413 0.414 0.415 0.415 0.416 0.418 0.419 0.422 0.426 0.431 0.437 0.446 0.456 0.469 0.484 0.502 0.522 0.545 0.571 0.599 0.629 0.662 0.697 0.735 0.775 0.818 0.864 0.912 0.963 1.016 1.066 1.114 1.158 1.199 1.237 1.272 1.303 1.332 1.357 1.380 1.400 1.417 1.432 1.445 1.456 1.465 1.472 1.478 1.483 1.486 1.489 1.491 1.492 1.492 1.492 1.492 1.492 1.492 1.492 1.491 1.489 1.487 1.484 1.480 1.476 1.470 1.463 1.455 1.445 1.434 1.422 1.408 1.393 1.375 1.356 1.335 1.311 1.285 1.257 1.226 1.192 1.155 1.115 1.071 1.022 0.969 0.911 0.849 0.790 0.736 0.687 0.645 0.607 0.575 0.548 0.526 0.508 0.495 0.484 0.477 0.472 0.470 0.468 0.468 0.468 0.469 0.471 0.474 0.480 0.489 0.502 0.518 0.538 0.564 0.595 0.632 0.675 0.724 0.780 0.844 0.908 0.966 1.017 1.061 1.099 1.130 1.155 1.175 1.190 1.201 1.208 1.213 1.215 1.216 1.216 1.216 1.214 1.211 1.205 1.196 1.184 1.167 1.145 1.118 1.084 1.054 1.032 1.019 1.014 1.014 1.019 1.034 1.048 1.048 0.000 
0.000 0.036 0.036 0.099 0.219 0.302 0.348 0.375 0.391 0.399 0.404 0.406 0.407 0.408 0.408 0.408 0.409 0.410 0.411 0.412 0.414 0.417 0.421 0.427 0.434 0.444 0.455 0.469 0.485 0.504 0.526 0.551 0.579 0.609 0.643 0.679 0.717 0.759 0.803 0.850 0.900 0.952 1.006 1.058 1.106 1.151 1.193 1.231 1.266 1.298 1.327 1.353 1.376 1.397 1.414 1.430 1.443 1.454 1.463 1.471 1.477 1.482 1.486 1.488 1.490 1.491 1.492 1.492 1.492 1.492 1.492 1.491 1.490 1.489 1.487 1.484 1.481 1.476 1.471 1.464 1.456 1.447 1.437 1.425 1.412 1.397 1.380 1.361 1.341 1.318 1.293 1.266 1.236 1.203 1.167 1.128 1.085 1.038 0.986 0.929 0.868 0.806 0.751 0.701 0.657 0.618 0.585 0.557 0.534 0.515 0.501 0.490 0.482 0.477 0.474 0.473 0.472 0.472 0.473 0.475 0.478 0.484 0.492 0.504 0.520 0.541 0.566 0.597 0.633 0.676 0.725 0.781 0.844 0.909 0.967 1.018 1.062 1.099 1.130 1.155 1.175 1.191 1.202 1.210 1.215 1.217 1.218 1.219 1.218 1.217 1.215 1.210 1.202 1.192 1.177 1.158 1.133 1.103 1.075 1.054 1.040 1.033 1.031 1.033 1.039 1.046 1.046 0.000 
0.000 0.134 0.134 0.117 0.235 0.306 0.349 0.375 0.390 0.399 0.402 0.404 0.404 0.404 0.404 0.404 0.404 0.404 0.404 0.405 0.407 0.409 0.413 0.418 0.424 0.432 0.443 0.455 0.470 0.488 0.509 0.532 0.559 0.589 0.622 0.658 0.698 0.740 0.786 0.834 0.886 0.940 0.995 1.048 1.097 1.143 1.185 1.224 1.260 1.293 1.322 1.349 1.372 1.393 1.411 1.427 1.440 1.452 1.461 1.469 1.476 1.481 1.484 1.487 1.489 1.491 1.491 1.492 1.492 1.492 1.492 1.491 1.490 1.489 1.487 1.484 1.481 1.476 1.471 1.465 1.457 1.449 1.439 1.427 1.415 1.400 1.384 1.366 1.347 1.325 1.301 1.274 1.245 1.214 1.179 1.140 1.098 1.052 1.002 0.947 0.887 0.824 0.766 0.715 0.669 0.629 0.595 0.566 0.542 0.523 0.508 0.496 0.488 0.483 0.480 0.478 0.477 0.477 0.478 0.480 0.483 0.488 0.497 0.508 0.524 0.544 0.569 0.599 0.636 0.678 0.727 0.783 0.846 0.910 0.968 1.018 1.062 1.100 1.131 1.156 1.176 1.192 1.204 1.212 1.217 1.220 1.221 1.222 1.222 1.221 1.219 1.215 1.209 1.200 1.188 1.171 1.149 1.121 1.094 1.071 1.056 1.046 1.041 1.040 1.041 1.043 1.043 0.000 
0.000 0.471 0.471 0.300 0.306 0.328 0.355 0.378 0.392 0.399 0.403 0.404 0.403 0.402 0.400 0.399 0.399 0.399 0.399 0.400 0.401 0.403 0.406 0.410 0.415 0.422 0.432 0.443 0.457 0.474 0.493 0.516 0.541 0.570 0.602 0.638 0.677 0.720 0.767 0.817 0.870 0.926 0.983 1.037 1.087 1.133 1.177 1.217 1.253 1.286 1.317 1.344 1.368 1.389 1.408 1.424 1.438 1.449 1.459 1.467 1.474 1.479 1.483 1.486 1.488 1.490 1.491 1.491 1.491 1.491 1.491 1.491 1.490 1.489 1.487 1.484 1.481 1.477 1.471 1.465 1.458 1.450 1.440 1.430 1.417 1.403 1.388 1.371 1.352 1.331 1.307 1.282 1.254 1.223 1.189 1.152 1.111 1.066 1.017 0.963 0.905 0.842 0.783 0.730 0.683 0.642 0.606 0.577 0.552 0.532 0.516 0.504 0.495 0.490 0.486 0.484 0.484 0.484 0.484 0.486 0.489 0.494 0.502 0.513 0.529 0.548 0.573 0.603 0.639 0.681 0.730 0.785 0.848 0.912 0.969 1.020 1.064 1.101 1.132 1.158 1.178 1.194 1.206 1.214 1.220 1.223 1.225 1.226 1.226 1.225 1.224 1.221 1.216 1.208 1.196 1.181 1.161 1.137 1.109 1.086 1.068 1.055 1.047 1.043 1.041 1.041 1.041 0.000 
0.000 0.524 0.524 0.443 0.367 0.361 0.373 0.389 0.398 0.403 0.405 0.404 0.403 0.401 0.398 0.396 0.395 0.395 0.395 0.395 0.396 0.397 0.399 0.402 0.407 0.414 0.422 0.432 0.445 0.461 0.479 0.501 0.525 0.553 0.585 0.620 0.659 0.702 0.748 0.798 0.852 0.910 0.969 1.024 1.076 1.123 1.168 1.208 1.246 1.280 1.310 1.338 1.363 1.385 1.404 1.420 1.435 1.447 1.457 1.465 1.472 1.477 1.482 1.485 1.487 1.489 1.490 1.490 1.490 1.490 1.490 1.490 1.489 1.488 1.486 1.484 1.481 1.477 1.472 1.466 1.459 1.451 1.442 1.431 1.419 1.406 1.391 1.374 1.356 1.336 1.313 1.289 1.261 1.231 1.198 1.162 1.123 1.079 1.031 0.979 0.922 0.860 0.800 0.745 0.697 0.655 0.619 0.588 0.562 0.541 0.525 0.512 0.503 0.497 0.494 0.492 0.491 0.491 0.491 0.493 0.496 0.501 0.508 0.519 0.534 0.554 0.578 0.608 0.643 0.685 0.733 0.789 0.851 0.914 0.972 1.022 1.066 1.103 1.134 1.160 1.180 1.197 1.209 1.218 1.224 1.227 1.229 1.230 1.230 1.230 1.229 1.226 1.221 1.214 1.203 1.188 1.170 1.148 1.122 1.098 1.078 1.063 1.051 1.044 1.040 1.038 1.038 0.000 
0.000 0.187 0.187 0.359 0.380 0.393 0.401 0.408 0.412 0.412 0.410 0.407 0.404 0.400 0.396 0.394 0.392 0.391 0.391 0.391 0.391 0.392 0.393 0.396 0.400 0.406 0.413 0.423 0.435 0.449 0.467 0.487 0.511 0.538 0.569 0.604 0.643 0.685 0.732 0.782 0.836 0.894 0.954 1.011 1.064 1.113 1.158 1.200 1.238 1.273 1.304 1.332 1.358 1.380 1.399 1.417 1.431 1.444 1.454 1.463 1.470 1.476 1.480 1.483 1.486 1.487 1.488 1.489 1.489 1.489 1.489 1.489 1.488 1.487 1.486 1.484 1.481 1.477 1.472 1.466 1.459 1.452 1.443 1.433 1.421 1.408 1.394 1.378 1.360 1.340 1.318 1.294 1.268 1.239 1.207 1.172 1.133 1.091 1.044 0.993 0.938 0.877 0.816 0.761 0.712 0.669 0.632 0.600 0.573 0.552 0.535 0.522 0.513 0.506 0.502 0.500 0.499 0.499 0.500 0.501 0.504 0.508 0.516 0.527 0.542 0.561 0.585 0.614 0.649 0.691 0.739 0.793 0.855 0.918 0.975 1.025 1.069 1.106 1.137 1.163 1.183 1.200 1.212 1.221 1.228 1.232 1.234 1.235 1.235 1.234 1.233 1.230 1.226 1.218 1.208 1.194 1.177 1.156 1.132 1.108 1.086 1.069 1.055 1.045 1.038 1.035 1.035 0.000 
0.000 0.200 0.200 0.268 0.396 0.431 0.439 0.439 0.435 0.428 0.420 0.412 0.406 0.400 0.395 0.392 0.389 0.388 0.387 0.387 0.387 0.387 0.389 0.391 0.394 0.399 0.406 0.415 0.426 0.439 0.456 0.476 0.499 0.526 0.556 0.590 0.628 0.671 0.717 0.767 0.821 0.879 0.940 0.998 1.053 1.103 1.149 1.192 1.231 1.266 1.298 1.327 1.353 1.375 1.395 1.413 1.428 1.440 1.451 1.460 1.467 1.473 1.478 1.482 1.484 1.486 1.487 1.488 1.488 1.488 1.488 1.488 1.487 1.487 1.485 1.483 1.480 1.476 1.472 1.466 1.460 1.452 1.443 1.434 1.422 1.410 1.396 1.380 1.363 1.344 1.323 1.300 1.274 1.246 1.215 1.181 1.143 1.102 1.056 1.006 0.952 0.893 0.832 0.777 0.727 0.683 0.645 0.613 0.586 0.564 0.546 0.533 0.523 0.516 0.512 0.510 0.509 0.509 0.509 0.510 0.513 0.518 0.525 0.536 0.550 0.569 0.592 0.622 0.656 0.697 0.745 0.799 0.860 0.923 0.980 1.029 1.073 1.110 1.141 1.166 1.187 1.204 1.216 1.226 1.232 1.236 1.237 1.238 1.238 1.238 1.237 1.234 1.229 1.221 1.211 1.198 1.181 1.161 1.138 1.115 1.094 1.075 1.058 1.045 1.037 1.033 1.033 0.000 
0.000 0.650 0.650 0.419 0.476 0.495 0.492 0.482 0.466 0.448 0.433 0.420 0.409 0.401 0.395 0.390 0.387 0.385 0.384 0.383 0.383 0.384 0.384 0.386 0.389 0.393 0.399 0.407 0.418 0.431 0.447 0.466 0.488 0.514 0.544 0.578 0.616 0.658 0.704 0.753 0.807 0.865 0.927 0.987 1.042 1.094 1.141 1.185 1.225 1.261 1.293 1.322 1.348 1.371 1.391 1.409 1.424 1.437 1.448 1.457 1.465 1.471 1.476 1.480 1.482 1.484 1.485 1.486 1.487 1.487 1.487 1.487 1.486 1.485 1.484 1.482 1.480 1.476 1.472 1.466 1.460 1.452 1.444 1.434 1.423 1.411 1.398 1.383 1.366 1.347 1.327 1.304 1.279 1.252 1.222 1.188 1.152 1.112 1.067 1.019 0.965 0.907 0.847 0.792 0.743 0.698 0.660 0.627 0.599 0.577 0.559 0.545 0.535 0.528 0.524 0.521 0.520 0.520 0.520 0.521 0.524 0.528 0.535 0.546 0.560 0.579 0.602 0.631 0.665 0.706 0.753 0.807 0.868 0.930 0.986 1.035 1.078 1.114 1.145 1.171 1.192 1.208 1.221 1.229 1.235 1.239 1.241 1.241 1.241 1.241 1.239 1.236 1.231 1.224 1.213 1.199 1.183 1.163 1.141 1.120 1.100 1.081 1.063 1.047 1.035 1.030 1.030 0.000 
0.000 0.925 0.925 0.761 0.655 0.599 0.558 0.523 0.492 0.465 0.444 0.426 0.413 0.402 0.394 0.389 0.385 0.382 0.381 0.380 0.380 0.380 0.381 0.382 0.385 0.388 0.394 0.401 0.411 0.423 0.439 0.457 0.479 0.505 0.535 0.568 0.605 0.647 0.692 0.742 0.795 0.853 0.915 0.976 1.033 1.085 1.134 1.178 1.218 1.255 1.288 1.317 1.344 1.367 1.387 1.405 1.421 1.434 1.445 1.454 1.462 1.469 1.474 1.477 1.480 1.482 1.484 1.484 1.485 1.485 1.485 1.485 1.485 1.484 1.483 1.481 1.479 1.475 1.471 1.466 1.460 1.452 1.444 1.435 1.424 1.412 1.399 1.384 1.368 1.350 1.330 1.308 1.284 1.257 1.228 1.196 1.160 1.121 1.077 1.030 0.978 0.921 0.861 0.806 0.757 0.713 0.674 0.641 0.613 0.590 0.572 0.558 0.548 0.541 0.536 0.534 0.533 0.532 0.533 0.533 0.536 0.540 0.547 0.558 0.572 0.590 0.613 0.641 0.676 0.716 0.763 0.816 0.877 0.938 0.993 1.042 1.084 1.121 1.151 1.177 1.197 1.213 1.225 1.233 1.238 1.241 1.243 1.244 1.243 1.243 1.241 1.238 1.233 1.225 1.214 1.200 1.183 1.163 1.142 1.123 1.105 1.087 1.069 1.052 1.037 1.028 1.028 0.000 
0.000 0.999 0.999 0.923 0.780 0.675 0.604 0.550 0.509 0.476 0.451 0.430 0.415 0.403 0.394 0.387 0.383 0.380 0.378 0.377 0.377 0.377 0.377 0.379 0.381 0.384 0.389 0.396 0.405 0.417 0.432 0.451 0.472 0.498 0.527 0.559 0.596 0.637 0.682 0.731 0.785 0.842 0.905 0.967 1.024 1.078 1.127 1.172 1.213 1.250 1.283 1.313 1.339 1.363 1.383 1.401 1.417 1.431 1.442 1.451 1.459 1.466 1.471 1.475 1.478 1.480 1.482 1.483 1.483 1.483 1.483 1.483 1.483 1.482 1.481 1.480 1.478 1.474 1.471 1.466 1.460 1.452 1.444 1.435 1.425 1.413 1.400 1.386 1.370 1.352 1.333 1.312 1.288 1.262 1.233 1.202 1.167 1.129 1.086 1.040 0.989 0.933 0.874 0.820 0.770 0.727 0.689 0.656 0.628 0.605 0.587 0.573 0.562 0.555 0.550 0.548 0.546 0.546 0.546 0.547 0.550 0.554 0.561 0.571 0.585 0.603 0.626 0.654 0.688 0.728 0.775 0.828 0.887 0.948 1.003 1.051 1.092 1.128 1.158 1.182 1.202 1.217 1.228 1.236 1.241 1.243 1.245 1.245 1.245 1.245 1.243 1.239 1.234 1.226 1.214 1.200 1.183 1.163 1.142 1.124 1.108 1.094 1.078 1.062 1.046 1.030 1.030 0.000 
0.000 0.994 0.994 0.960 0.829 0.709 0.626 0.565 0.518 0.482 0.454 0.433 0.416 0.403 0.393 0.386 0.381 0.377 0.375 0.374 0.374 0.374 0.374 0.375 0.377 0.380 0.385 0.392 0.401 0.412 0.427 0.445 0.466 0.491 0.520 0.552 0.589 0.629 0.673 0.722 0.775 0.833 0.895 0.958 1.016 1.071 1.120 1.166 1.207 1.245 1.278 1.308 1.335 1.359 1.380 1.398 1.414 1.427 1.439 1.448 1.457 1.463 1.468 1.472 1.476 1.478 1.479 1.480 1.481 1.481 1.481 1.481 1.481 1.480 1.480 1.478 1.476 1.473 1.470 1.465 1.459 1.452 1.444 1.435 1.425 1.413 1.401 1.387 1.371 1.354 1.335 1.314 1.291 1.266 1.238 1.207 1.173 1.136 1.095 1.049 0.999 0.945 0.886 0.832 0.783 0.740 0.702 0.669 0.641 0.619 0.601 0.587 0.577 0.569 0.565 0.562 0.561 0.561 0.561 0.562 0.564 0.569 0.576 0.586 0.599 0.617 0.640 0.668 0.702 0.742 0.788 0.841 0.900 0.960 1.013 1.060 1.101 1.135 1.164 1.187 1.206 1.220 1.230 1.238 1.242 1.245 1.246 1.246 1.246 1.246 1.244 1.240 1.234 1.226 1.214 1.200 1.182 1.161 1.140 1.123 1.109 1.099 1.089 1.078 1.068 1.064 1.064 0.000 
0.000 0.908 0.908 0.934 0.837 0.718 0.632 0.570 0.522 0.485 0.456 0.433 0.416 0.402 0.392 0.384 0.379 0.375 0.373 0.372 0.371 0.371 0.372 0.372 0.374 0.377 0.381 0.388 0.397 0.409 0.423 0.441 0.462 0.486 0.514 0.546 0.582 0.622 0.666 0.714 0.767 0.824 0.886 0.950 1.009 1.064 1.114 1.160 1.202 1.240 1.274 1.304 1.331 1.355 1.376 1.394 1.410 1.424 1.436 1.445 1.454 1.460 1.466 1.470 1.473 1.475 1.477 1.478 1.479 1.479 1.479 1.479 1.479 1.478 1.478 1.476 1.474 1.472 1.468 1.464 1.458 1.452 1.444 1.435 1.425 1.414 1.401 1.387 1.372 1.355 1.337 1.317 1.294 1.270 1.242 1.212 1.179 1.143 1.102 1.058 1.009 0.955 0.897 0.843 0.795 0.751 0.714 0.681 0.654 0.632 0.614 0.600 0.590 0.583 0.578 0.576 0.575 0.575 0.575 0.576 0.578 0.582 0.589 0.600 0.613 0.631 0.654 0.682 0.716 0.756 0.802 0.854 0.913 0.972 1.023 1.069 1.108 1.141 1.169 1.191 1.209 1.223 1.232 1.239 1.244 1.246 1.247 1.247 1.247 1.246 1.244 1.240 1.234 1.226 1.214 1.199 1.181 1.158 1.137 1.120 1.108 1.101 1.097 1.095 1.096 1.098 1.098 0.000 
0.000 0.809 0.809 0.853 0.807 0.716 0.632 0.570 0.522 0.485 0.456 0.433 0.415 0.401 0.391 0.382 0.377 0.373 0.371 0.369 0.369 0.369 0.369 0.370 0.371 0.374 0.379 0.385 0.394 0.406 0.420 0.438 0.459 0.483 0.510 0.541 0.577 0.616 0.659 0.707 0.760 0.817 0.878 0.942 1.002 1.057 1.108 1.155 1.197 1.235 1.269 1.300 1.327 1.351 1.372 1.391 1.407 1.421 1.432 1.442 1.450 1.457 1.463 1.467 1.470 1.473 1.474 1.475 1.476 1.476 1.476 1.476 1.476 1.476 1.475 1.474 1.472 1.470 1.467 1.462 1.457 1.451 1.444 1.435 1.425 1.414 1.401 1.388 1.373 1.356 1.338 1.319 1.297 1.273 1.246 1.217 1.184 1.148 1.109 1.065 1.017 0.965 0.908 0.854 0.805 0.762 0.725 0.692 0.665 0.643 0.625 0.612 0.602 0.595 0.590 0.588 0.587 0.587 0.587 0.588 0.590 0.595 0.602 0.612 0.626 0.644 0.666 0.695 0.728 0.768 0.814 0.866 0.924 0.981 1.032 1.076 1.114 1.146 1.173 1.194 1.211 1.224 1.234 1.240 1.244 1.247 1.247 1.248 1.247 1.246 1.244 1.240 1.234 1.225 1.213 1.198 1.178 1.154 1.132 1.116 1.105 1.100 1.099 1.103 1.116 1.123 1.123 0.000 
0.000 0.698 0.698 0.752 0.735 0.689 0.625 0.567 0.521 0.485 0.456 0.433 0.414 0.400 0.389 0.380 0.375 0.371 0.368 0.367 0.366 0.366 0.366 0.367 0.369 0.372 0.376 0.383 0.392 0.404 0.418 0.436 0.456 0.480 0.507 0.537 0.572 0.611 0.654 0.701 0.753 0.810 0.871 0.935 0.995 1.051 1.103 1.150 1.192 1.231 1.265 1.296 1.323 1.348 1.369 1.387 1.403 1.417 1.429 1.439 1.447 1.454 1.460 1.464 1.467 1.470 1.471 1.473 1.473 1.474 1.474 1.474 1.474 1.473 1.473 1.472 1.470 1.468 1.465 1.461 1.456 1.450 1.443 1.434 1.425 1.414 1.401 1.388 1.373 1.357 1.340 1.320 1.299 1.275 1.249 1.220 1.189 1.154 1.115 1.072 1.025 0.973 0.917 0.863 0.815 0.772 0.735 0.702 0.675 0.653 0.636 0.622 0.612 0.605 0.601 0.598 0.597 0.597 0.597 0.598 0.601 0.605 0.612 0.622 0.636 0.654 0.677 0.705 0.738 0.778 0.824 0.876 0.934 0.989 1.039 1.082 1.119 1.150 1.176 1.197 1.213 1.226 1.235 1.241 1.245 1.247 1.248 1.248 1.248 1.246 1.244 1.240 1.234 1.224 1.212 1.195 1.174 1.149 1.125 1.108 1.099 1.096 1.096 1.104 1.126 1.146 1.146 0.000 
0.000 0.594 0.594 0.643 0.639 0.628 0.600 0.558 0.516 0.482 0.453 0.430 0.412 0.397 0.386 0.378 0.372 0.368 0.366 0.364 0.364 0.364 0.364 0.365 0.366 0.370 0.375 0.382 0.391 0.403 0.417 0.434 0.454 0.477 0.504 0.534 0.568 0.607 0.649 0.696 0.747 0.803 0.864 0.928 0.989 1.046 1.097 1.144 1.187 1.226 1.261 1.292 1.319 1.344 1.365 1.384 1.400 1.414 1.426 1.436 1.444 1.451 1.456 1.461 1.464 1.467 1.468 1.470 1.470 1.471 1.471 1.471 1.471 1.470 1.470 1.469 1.467 1.465 1.462 1.459 1.454 1.448 1.441 1.433 1.424 1.413 1.401 1.388 1.374 1.358 1.340 1.321 1.300 1.277 1.252 1.224 1.193 1.158 1.120 1.078 1.032 0.981 0.926 0.872 0.824 0.781 0.743 0.711 0.684 0.662 0.645 0.631 0.621 0.614 0.610 0.607 0.606 0.606 0.606 0.607 0.610 0.614 0.621 0.631 0.645 0.663 0.686 0.713 0.747 0.786 0.832 0.884 0.941 0.996 1.044 1.086 1.122 1.153 1.178 1.199 1.214 1.227 1.235 1.241 1.245 1.247 1.248 1.248 1.248 1.246 1.244 1.240 1.233 1.223 1.210 1.192 1.170 1.143 1.117 1.098 1.087 1.084 1.085 1.095 1.125 1.154 1.154 0.000 
0.000 0.494 0.494 0.544 0.555 0.558 0.554 0.536 0.507 0.476 0.449 0.426 0.408 0.394 0.383 0.375 0.369 0.365 0.363 0.362 0.361 0.361 0.362 0.362 0.364 0.368 0.373 0.381 0.390 0.402 0.416 0.433 0.453 0.476 0.502 0.532 0.565 0.603 0.645 0.691 0.742 0.798 0.858 0.922 0.983 1.040 1.092 1.139 1.183 1.222 1.257 1.288 1.316 1.340 1.362 1.380 1.397 1.410 1.422 1.432 1.441 1.448 1.453 1.457 1.461 1.463 1.465 1.466 1.467 1.467 1.468 1.468 1.468 1.467 1.467 1.466 1.464 1.462 1.460 1.456 1.452 1.446 1.440 1.432 1.423 1.413 1.401 1.388 1.374 1.358 1.341 1.322 1.302 1.279 1.254 1.227 1.196 1.162 1.125 1.084 1.039 0.989 0.934 0.880 0.832 0.789 0.752 0.719 0.692 0.670 0.653 0.639 0.629 0.622 0.618 0.615 0.614 0.614 0.614 0.615 0.617 0.622 0.629 0.639 0.652 0.670 0.693 0.720 0.754 0.793 0.838 0.890 0.947 1.001 1.048 1.090 1.125 1.155 1.180 1.200 1.215 1.227 1.236 1.241 1.245 1.247 1.248 1.248 1.247 1.246 1.244 1.239 1.232 1.221 1.207 1.189 1.166 1.138 1.108 1.083 1.066 1.057 1.057 1.068 1.108 1.158 1.158 0.000 
0.000 0.436 0.436 0.472 0.494 0.502 0.503 0.500 0.488 0.465 0.441 0.420 0.403 0.390 0.379 0.372 0.366 0.363 0.360 0.359 0.359 0.359 0.359 0.360 0.363 0.367 0.373 0.381 0.390 0.402 0.416 0.433 0.452 0.474 0.500 0.530 0.563 0.600 0.641 0.687 0.738 0.792 0.852 0.916 0.977 1.034 1.087 1.135 1.178 1.217 1.252 1.284 1.312 1.336 1.358 1.377 1.393 1.407 1.419 1.429 1.437 1.444 1.449 1.454 1.457 1.460 1.462 1.463 1.464 1.464 1.464 1.464 1.464 1.464 1.463 1.462 1.461 1.459 1.457 1.453 1.449 1.444 1.437 1.430 1.421 1.411 1.400 1.388 1.373 1.358 1.341 1.323 1.303 1.280 1.256 1.229 1.199 1.166 1.130 1.089 1.044 0.995 0.941 0.887 0.839 0.796 0.759 0.726 0.699 0.677 0.659 0.646 0.635 0.628 0.624 0.621 0.620 0.620 0.620 0.621 0.624 0.628 0.635 0.645 0.658 0.676 0.698 0.726 0.759 0.798 0.843 0.894 0.951 1.004 1.051 1.092 1.127 1.156 1.181 1.200 1.216 1.227 1.236 1.241 1.245 1.247 1.247 1.247 1.247 1.246 1.243 1.238 1.230 1.219 1.204 1.185 1.160 1.132 1.099 1.066 1.036 1.011 0.999 1.005 1.047 1.142 1.142 0.000 
0.000 0.410 0.410 0.431 0.450 0.458 0.460 0.461 0.458 0.448 0.430 0.412 0.396 0.384 0.374 0.367 0.362 0.359 0.357 0.357 0.356 0.356 0.357 0.359 0.362 0.367 0.373 0.381 0.390 0.402 0.416 0.432 0.452 0.474 0.499 0.528 0.561 0.597 0.638 0.684 0.733 0.788 0.847 0.910 0.972 1.029 1.082 1.130 1.173 1.213 1.248 1.280 1.308 1.332 1.354 1.373 1.389 1.403 1.415 1.425 1.433 1.440 1.446 1.450 1.453 1.456 1.458 1.459 1.460 1.460 1.460 1.460 1.460 1.460 1.460 1.459 1.457 1.456 1.453 1.450 1.446 1.441 1.435 1.428 1.419 1.410 1.399 1.387 1.373 1.358 1.341 1.323 1.303 1.281 1.258 1.231 1.202 1.169 1.134 1.094 1.050 1.001 0.948 0.894 0.846 0.803 0.765 0.733 0.705 0.683 0.665 0.651 0.641 0.634 0.629 0.627 0.625 0.625 0.625 0.626 0.629 0.633 0.639 0.649 0.663 0.680 0.702 0.730 0.763 0.801 0.846 0.897 0.954 1.006 1.053 1.093 1.128 1.157 1.181 1.200 1.216 1.227 1.235 1.241 1.244 1.246 1.247 1.247 1.246 1.245 1.241 1.236 1.228 1.216 1.200 1.180 1.154 1.124 1.088 1.048 1.004 0.958 0.913 0.878 0.881 1.006 1.006 0.000 
0.000 0.384 0.384 0.402 0.414 0.421 0.424 0.425 0.424 0.422 0.414 0.400 0.387 0.376 0.368 0.362 0.358 0.356 0.354 0.354 0.354 0.354 0.355 0.358 0.361 0.366 0.373 0.381 0.390 0.402 0.416 0.432 0.451 0.473 0.498 0.527 0.559 0.595 0.636 0.680 0.729 0.783 0.841 0.904 0.966 1.024 1.076 1.125 1.168 1.208 1.244 1.275 1.304 1.328 1.350 1.369 1.385 1.399 1.411 1.421 1.429 1.436 1.442 1.446 1.449 1.452 1.454 1.455 1.456 1.456 1.456 1.456 1.456 1.456 1.455 1.455 1.453 1.452 1.449 1.446 1.442 1.437 1.431 1.425 1.417 1.408 1.397 1.385 1.372 1.357 1.341 1.323 1.304 1.282 1.259 1.233 1.204 1.172 1.137 1.098 1.055 1.007 0.954 0.900 0.852 0.808 0.771 0.738 0.710 0.688 0.670 0.656 0.645 0.638 0.633 0.631 0.629 0.629 0.629 0.630 0.632 0.636 0.643 0.653 0.666 0.683 0.705 0.733 0.765 0.804 0.849 0.899 0.955 1.008 1.054 1.094 1.128 1.157 1.181 1.200 1.216 1.227 1.235 1.240 1.244 1.245 1.246 1.246 1.245 1.243 1.240 1.234 1.225 1.212 1.195 1.174 1.147 1.114 1.074 1.029 0.978 0.923 0.859 0.770 0.603 0.435 0.435 0.000 
0.000 0.358 0.358 0.374 0.383 0.388 0.391 0.393 0.393 0.393 0.390 0.384 0.375 0.366 0.360 0.356 0.353 0.351 0.351 0.350 0.351 0.352 0.354 0.357 0.361 0.367 0.373 0.381 0.391 0.402 0.416 0.432 0.451 0.473 0.498 0.526 0.558 0.593 0.633 0.677 0.725 0.778 0.836 0.898 0.961 1.018 1.071 1.120 1.164 1.203 1.239 1.271 1.299 1.324 1.346 1.365 1.381 1.395 1.407 1.417 1.425 1.432 1.437 1.442 1.445 1.447 1.449 1.450 1.451 1.451 1.451 1.452 1.451 1.451 1.451 1.450 1.449 1.447 1.445 1.442 1.438 1.433 1.428 1.421 1.413 1.405 1.395 1.383 1.371 1.356 1.341 1.323 1.304 1.283 1.260 1.235 1.206 1.175 1.140 1.102 1.059 1.012 0.960 0.906 0.857 0.814 0.775 0.743 0.715 0.692 0.674 0.659 0.649 0.641 0.636 0.634 0.632 0.632 0.632 0.633 0.635 0.639 0.645 0.655 0.668 0.685 0.707 0.734 0.767 0.805 0.850 0.901 0.956 1.008 1.054 1.094 1.128 1.157 1.181 1.200 1.215 1.226 1.234 1.239 1.242 1.244 1.244 1.244 1.243 1.241 1.237 1.231 1.221 1.208 1.190 1.167 1.138 1.102 1.059 1.009 0.955 0.901 0.841 0.752 0.550 0.132 0.132 0.000 
0.000 0.332 0.332 0.347 0.353 0.358 0.361 0.363 0.364 0.365 0.365 0.363 0.360 0.355 0.351 0.348 0.347 0.346 0.346 0.347 0.348 0.350 0.353 0.357 0.361 0.367 0.374 0.382 0.391 0.403 0.416 0.433 0.451 0.473 0.497 0.525 0.556 0.592 0.631 0.674 0.722 0.774 0.831 0.893 0.955 1.013 1.066 1.115 1.159 1.199 1.235 1.267 1.295 1.320 1.342 1.361 1.377 1.391 1.402 1.412 1.420 1.427 1.432 1.437 1.440 1.442 1.444 1.445 1.446 1.446 1.446 1.446 1.446 1.446 1.446 1.445 1.444 1.442 1.440 1.437 1.433 1.428 1.423 1.417 1.409 1.401 1.392 1.381 1.369 1.355 1.340 1.323 1.304 1.283 1.261 1.236 1.208 1.177 1.143 1.105 1.063 1.017 0.965 0.911 0.862 0.818 0.780 0.747 0.719 0.695 0.677 0.662 0.651 0.644 0.639 0.636 0.634 0.634 0.634 0.635 0.637 0.641 0.647 0.657 0.669 0.687 0.708 0.735 0.768 0.806 0.850 0.901 0.957 1.009 1.054 1.094 1.128 1.157 1.181 1.200 1.214 1.225 1.233 1.238 1.241 1.242 1.242 1.242 1.241 1.239 1.234 1.227 1.217 1.203 1.184 1.160 1.129 1.091 1.046 0.992 0.936 0.887 0.842 0.791 0.725 0.686 0.686 0.000 
0.000 0.307 0.307 0.321 0.325 0.330 0.333 0.336 0.338 0.340 0.342 0.342 0.342 0.341 0.340 0.340 0.340 0.341 0.342 0.344 0.347 0.350 0.353 0.357 0.362 0.368 0.374 0.382 0.392 0.404 0.417 0.433 0.452 0.473 0.497 0.524 0.555 0.590 0.628 0.671 0.718 0.770 0.826 0.887 0.949 1.008 1.061 1.110 1.154 1.194 1.230 1.262 1.290 1.315 1.337 1.356 1.372 1.386 1.398 1.407 1.415 1.422 1.427 1.431 1.435 1.437 1.439 1.440 1.440 1.441 1.441 1.441 1.441 1.441 1.440 1.439 1.438 1.437 1.434 1.431 1.428 1.423 1.418 1.412 1.405 1.397 1.388 1.378 1.366 1.353 1.338 1.322 1.304 1.284 1.261 1.237 1.210 1.180 1.146 1.109 1.067 1.021 0.970 0.916 0.867 0.822 0.784 0.750 0.722 0.698 0.679 0.664 0.653 0.645 0.640 0.637 0.636 0.635 0.635 0.636 0.638 0.642 0.648 0.657 0.670 0.687 0.709 0.736 0.768 0.806 0.851 0.901 0.957 1.009 1.054 1.094 1.128 1.157 1.180 1.199 1.213 1.224 1.231 1.236 1.238 1.239 1.239 1.239 1.238 1.236 1.231 1.223 1.213 1.198 1.178 1.153 1.121 1.083 1.036 0.980 0.922 0.878 0.853 0.851 0.910 1.094 1.094 0.000 
0.000 0.281 0.281 0.295 0.299 0.303 0.307 0.311 0.314 0.318 0.322 0.325 0.327 0.329 0.331 0.332 0.335 0.337 0.339 0.342 0.346 0.349 0.353 0.358 0.363 0.368 0.375 0.384 0.393 0.405 0.418 0.434 0.452 0.473 0.497 0.524 0.554 0.588 0.626 0.668 0.715 0.766 0.821 0.881 0.944 1.002 1.056 1.105 1.149 1.189 1.225 1.257 1.285 1.310 1.332 1.351 1.367 1.381 1.392 1.402 1.410 1.416 1.422 1.426 1.429 1.431 1.433 1.434 1.434 1.435 1.435 1.435 1.435 1.435 1.434 1.433 1.432 1.430 1.428 1.425 1.422 1.418 1.412 1.407 1.400 1.392 1.383 1.374 1.363 1.350 1.336 1.321 1.303 1.283 1.262 1.238 1.211 1.181 1.148 1.112 1.071 1.025 0.975 0.921 0.871 0.826 0.787 0.753 0.724 0.700 0.681 0.666 0.655 0.646 0.641 0.638 0.636 0.636 0.636 0.637 0.639 0.642 0.649 0.658 0.671 0.688 0.709 0.736 0.768 0.806 0.851 0.901 0.957 1.008 1.054 1.094 1.127 1.155 1.179 1.197 1.211 1.221 1.228 1.233 1.235 1.236 1.236 1.236 1.235 1.232 1.227 1.219 1.207 1.192 1.171 1.146 1.114 1.076 1.030 0.974 0.917 0.873 0.852 0.857 0.923 1.092 1.092 0.000 
0.000 0.255 0.255 0.269 0.273 0.277 0.282 0.287 0.292 0.298 0.305 0.310 0.315 0.319 0.323 0.326 0.330 0.333 0.337 0.341 0.345 0.349 0.353 0.358 0.364 0.370 0.377 0.385 0.395 0.406 0.420 0.435 0.453 0.474 0.497 0.523 0.553 0.587 0.624 0.665 0.711 0.761 0.816 0.876 0.938 0.997 1.050 1.099 1.144 1.184 1.220 1.252 1.280 1.305 1.326 1.345 1.361 1.375 1.386 1.396 1.404 1.410 1.415 1.419 1.422 1.425 1.426 1.427 1.428 1.428 1.428 1.428 1.428 1.428 1.428 1.427 1.426 1.424 1.422 1.419 1.415 1.411 1.406 1.401 1.394 1.387 1.378 1.369 1.359 1.347 1.334 1.319 1.302 1.283 1.262 1.238 1.212 1.183 1.151 1.114 1.074 1.029 0.979 0.925 0.875 0.830 0.790 0.756 0.727 0.702 0.683 0.667 0.655 0.647 0.642 0.638 0.637 0.636 0.636 0.637 0.639 0.643 0.649 0.658 0.671 0.688 0.709 0.736 0.768 0.806 0.850 0.901 0.956 1.008 1.053 1.092 1.126 1.154 1.176 1.194 1.208 1.218 1.225 1.229 1.231 1.232 1.232 1.231 1.230 1.227 1.222 1.213 1.202 1.186 1.165 1.139 1.107 1.069 1.024 0.972 0.917 0.870 0.833 0.809 0.811 0.934 0.934 0.000 
0.000 0.229 0.229 0.243 0.248 0.253 0.259 0.265 0.272 0.281 0.290 0.298 0.305 0.311 0.317 0.322 0.326 0.331 0.335 0.340 0.345 0.349 0.354 0.359 0.365 0.371 0.379 0.387 0.397 0.408 0.422 0.437 0.455 0.475 0.497 0.523 0.552 0.585 0.622 0.662 0.707 0.757 0.811 0.870 0.933 0.991 1.045 1.094 1.138 1.178 1.214 1.246 1.274 1.299 1.320 1.339 1.355 1.368 1.380 1.389 1.397 1.404 1.409 1.412 1.415 1.418 1.419 1.420 1.421 1.421 1.421 1.421 1.421 1.421 1.420 1.420 1.418 1.417 1.414 1.412 1.408 1.404 1.399 1.394 1.388 1.381 1.373 1.364 1.354 1.343 1.330 1.316 1.300 1.282 1.262 1.239 1.213 1.184 1.153 1.117 1.077 1.033 0.983 0.930 0.879 0.833 0.793 0.758 0.728 0.704 0.684 0.668 0.656 0.647 0.642 0.638 0.637 0.636 0.636 0.637 0.639 0.643 0.649 0.658 0.671 0.687 0.709 0.735 0.768 0.805 0.849 0.900 0.955 1.006 1.051 1.090 1.123 1.151 1.173 1.191 1.204 1.213 1.220 1.224 1.226 1.227 1.227 1.226 1.225 1.222 1.216 1.207 1.195 1.179 1.158 1.132 1.100 1.063 1.019 0.970 0.919 0.869 0.815 0.739 0.573 0.383 0.383 0.000 
0.000 0.203 0.203 0.218 0.223 0.229 0.237 0.245 0.255 0.267 0.279 0.289 0.298 0.305 0.312 0.318 0.324 0.329 0.334 0.339 0.345 0.350 0.355 0.360 0.366 0.373 0.381 0.390 0.400 0.411 0.424 0.439 0.456 0.475 0.497 0.523 0.551 0.583 0.619 0.659 0.704 0.753 0.806 0.865 0.927 0.985 1.039 1.088 1.132 1.172 1.208 1.240 1.268 1.292 1.314 1.332 1.348 1.362 1.373 1.382 1.390 1.396 1.401 1.405 1.408 1.410 1.412 1.412 1.413 1.413 1.413 1.413 1.413 1.413 1.413 1.412 1.410 1.409 1.407 1.404 1.400 1.397 1.392 1.387 1.381 1.374 1.367 1.358 1.349 1.338 1.327 1.313 1.298 1.281 1.261 1.239 1.214 1.186 1.154 1.119 1.080 1.036 0.987 0.934 0.882 0.836 0.795 0.760 0.730 0.705 0.684 0.668 0.656 0.648 0.642 0.638 0.637 0.636 0.636 0.637 0.639 0.642 0.648 0.657 0.670 0.687 0.708 0.735 0.766 0.804 0.848 0.898 0.953 1.003 1.048 1.087 1.119 1.146 1.168 1.186 1.199 1.208 1.214 1.218 1.220 1.221 1.221 1.220 1.219 1.215 1.210 1.201 1.189 1.172 1.151 1.125 1.093 1.056 1.013 0.967 0.920 0.871 0.815 0.731 0.542 0.166 0.166 0.000 
0.000 0.178 0.178 0.193 0.199 0.207 0.216 0.227 0.241 0.257 0.270 0.282 0.292 0.301 0.309 0.316 0.322 0.328 0.334 0.339 0.345 0.350 0.356 0.362 0.368 0.375 0.383 0.392 0.402 0.413 0.426 0.441 0.457 0.476 0.497 0.522 0.550 0.582 0.617 0.657 0.700 0.749 0.801 0.859 0.921 0.979 1.033 1.082 1.126 1.166 1.202 1.233 1.261 1.285 1.307 1.325 1.341 1.354 1.365 1.374 1.382 1.388 1.393 1.397 1.400 1.402 1.403 1.404 1.405 1.405 1.405 1.405 1.405 1.405 1.404 1.403 1.402 1.400 1.398 1.395 1.392 1.388 1.384 1.379 1.373 1.367 1.360 1.352 1.343 1.334 1.322 1.310 1.295 1.279 1.260 1.238 1.214 1.187 1.156 1.121 1.082 1.039 0.991 0.938 0.886 0.839 0.798 0.762 0.731 0.706 0.685 0.669 0.656 0.647 0.642 0.638 0.637 0.636 0.636 0.637 0.638 0.642 0.648 0.657 0.669 0.686 0.707 0.733 0.764 0.802 0.845 0.895 0.949 0.999 1.044 1.082 1.114 1.141 1.163 1.179 1.192 1.201 1.208 1.211 1.213 1.214 1.214 1.213 1.211 1.208 1.202 1.193 1.181 1.164 1.143 1.117 1.085 1.048 1.005 0.961 0.919 0.879 0.837 0.787 0.728 0.712 0.712 0.000 
0.000 0.152 0.152 0.167 0.175 0.185 0.197 0.212 0.231 0.249 0.264 0.277 0.289 0.298 0.307 0.314 0.321 0.327 0.333 0.339 0.345 0.351 0.357 0.363 0.370 0.378 0.386 0.394 0.404 0.415 0.427 0.441 0.458 0.476 0.497 0.521 0.549 0.580 0.615 0.654 0.697 0.744 0.796 0.853 0.914 0.973 1.026 1.075 1.119 1.159 1.194 1.226 1.254 1.278 1.299 1.317 1.333 1.346 1.357 1.366 1.373 1.380 1.384 1.388 1.391 1.393 1.394 1.395 1.396 1.396 1.396 1.396 1.396 1.396 1.395 1.394 1.393 1.391 1.389 1.387 1.383 1.380 1.375 1.371 1.365 1.360 1.353 1.346 1.338 1.328 1.318 1.306 1.292 1.276 1.258 1.238 1.214 1.187 1.157 1.123 1.085 1.042 0.995 0.943 0.890 0.842 0.800 0.764 0.732 0.706 0.685 0.669 0.656 0.647 0.641 0.638 0.636 0.635 0.635 0.636 0.637 0.641 0.647 0.655 0.668 0.684 0.704 0.730 0.761 0.798 0.841 0.890 0.944 0.994 1.038 1.075 1.107 1.134 1.155 1.172 1.185 1.194 1.199 1.203 1.205 1.205 1.205 1.205 1.203 1.200 1.194 1.185 1.173 1.156 1.135 1.109 1.076 1.037 0.993 0.952 0.919 0.895 0.882 0.885 0.936 1.079 1.079 0.000 
0.000 0.126 0.126 0.142 0.152 0.165 0.180 0.201 0.224 0.244 0.260 0.274 0.286 0.297 0.305 0.313 0.320 0.327 0.333 0.339 0.346 0.352 0.358 0.365 0.372 0.379 0.387 0.396 0.406 0.416 0.428 0.442 0.458 0.476 0.497 0.521 0.548 0.578 0.612 0.650 0.693 0.740 0.791 0.847 0.908 0.966 1.019 1.068 1.112 1.152 1.187 1.218 1.246 1.270 1.291 1.309 1.324 1.337 1.348 1.357 1.364 1.370 1.375 1.379 1.381 1.384 1.385 1.386 1.386 1.386 1.387 1.386 1.386 1.386 1.385 1.385 1.383 1.382 1.380 1.377 1.374 1.371 1.367 1.362 1.358 1.352 1.346 1.339 1.332 1.323 1.313 1.302 1.289 1.274 1.257 1.237 1.214 1.188 1.158 1.125 1.087 1.045 0.999 0.947 0.894 0.845 0.802 0.765 0.733 0.707 0.685 0.668 0.656 0.646 0.640 0.637 0.635 0.634 0.634 0.634 0.636 0.639 0.645 0.653 0.665 0.681 0.701 0.726 0.757 0.793 0.835 0.883 0.936 0.986 1.029 1.067 1.099 1.125 1.146 1.163 1.175 1.184 1.190 1.194 1.195 1.196 1.196 1.195 1.194 1.190 1.185 1.176 1.164 1.147 1.126 1.100 1.068 1.029 0.983 0.945 0.917 0.904 0.903 0.921 0.990 1.076 1.076 0.000 
0.000 0.100 0.100 0.117 0.130 0.146 0.167 0.194 0.219 0.241 0.258 0.273 0.285 0.296 0.305 0.313 0.320 0.327 0.333 0.340 0.346 0.353 0.359 0.366 0.373 0.381 0.389 0.397 0.407 0.417 0.429 0.442 0.458 0.476 0.496 0.520 0.546 0.576 0.610 0.647 0.689 0.735 0.786 0.841 0.901 0.959 1.012 1.060 1.104 1.143 1.179 1.210 1.237 1.261 1.281 1.299 1.314 1.327 1.338 1.347 1.354 1.360 1.365 1.369 1.371 1.374 1.375 1.376 1.376 1.376 1.376 1.376 1.376 1.376 1.375 1.374 1.373 1.372 1.370 1.368 1.365 1.362 1.359 1.355 1.350 1.345 1.339 1.333 1.326 1.318 1.308 1.297 1.285 1.271 1.254 1.235 1.213 1.188 1.159 1.126 1.089 1.048 1.002 0.951 0.897 0.848 0.805 0.767 0.734 0.707 0.685 0.668 0.655 0.645 0.639 0.635 0.633 0.632 0.632 0.632 0.634 0.637 0.642 0.650 0.661 0.677 0.696 0.721 0.751 0.786 0.827 0.874 0.927 0.976 1.019 1.056 1.088 1.114 1.135 1.152 1.164 1.173 1.179 1.183 1.185 1.185 1.185 1.185 1.183 1.180 1.174 1.166 1.154 1.138 1.117 1.091 1.060 1.022 0.978 0.941 0.916 0.904 0.904 0.923 0.991 1.073 1.073 0.000 
0.000 0.075 0.075 0.092 0.108 0.129 0.159 0.190 0.217 0.239 0.257 0.272 0.285 0.296 0.305 0.313 0.320 0.327 0.334 0.341 0.347 0.354 0.361 0.368 0.375 0.382 0.390 0.398 0.407 0.417 0.429 0.442 0.458 0.475 0.495 0.518 0.545 0.574 0.607 0.644 0.685 0.730 0.780 0.835 0.893 0.951 1.004 1.052 1.096 1.135 1.170 1.200 1.227 1.251 1.272 1.289 1.304 1.317 1.328 1.337 1.344 1.350 1.354 1.358 1.361 1.363 1.364 1.365 1.366 1.366 1.366 1.366 1.366 1.366 1.365 1.364 1.363 1.362 1.360 1.359 1.356 1.354 1.351 1.347 1.343 1.338 1.333 1.327 1.320 1.312 1.303 1.293 1.281 1.268 1.252 1.233 1.212 1.187 1.159 1.127 1.091 1.051 1.006 0.955 0.901 0.851 0.807 0.768 0.735 0.707 0.685 0.667 0.653 0.643 0.636 0.632 0.630 0.629 0.629 0.629 0.630 0.633 0.638 0.646 0.657 0.671 0.690 0.714 0.743 0.777 0.817 0.863 0.914 0.963 1.006 1.043 1.075 1.101 1.123 1.139 1.152 1.161 1.167 1.171 1.173 1.173 1.173 1.173 1.171 1.168 1.163 1.154 1.143 1.127 1.107 1.082 1.052 1.017 0.976 0.940 0.912 0.894 0.886 0.894 0.946 1.071 1.071 0.000 
0.000 0.049 0.049 0.067 0.088 0.118 0.156 0.189 0.217 0.239 0.257 0.272 0.285 0.296 0.305 0.313 0.321 0.328 0.335 0.341 0.348 0.355 0.362 0.369 0.376 0.383 0.390 0.398 0.407 0.417 0.429 0.442 0.457 0.475 0.495 0.517 0.543 0.572 0.604 0.640 0.680 0.725 0.774 0.828 0.886 0.943 0.995 1.043 1.086 1.125 1.160 1.190 1.217 1.241 1.261 1.279 1.293 1.306 1.317 1.325 1.333 1.339 1.343 1.347 1.350 1.352 1.354 1.355 1.355 1.356 1.356 1.356 1.356 1.355 1.355 1.354 1.354 1.353 1.351 1.350 1.348 1.346 1.343 1.340 1.336 1.332 1.327 1.321 1.315 1.307 1.299 1.289 1.277 1.264 1.249 1.231 1.210 1.187 1.159 1.128 1.093 1.053 1.009 0.959 0.905 0.855 0.809 0.770 0.736 0.707 0.684 0.666 0.651 0.641 0.633 0.629 0.626 0.625 0.625 0.625 0.626 0.628 0.633 0.640 0.650 0.664 0.683 0.705 0.733 0.766 0.805 0.850 0.899 0.948 0.991 1.028 1.060 1.086 1.108 1.125 1.138 1.147 1.153 1.157 1.159 1.160 1.160 1.160 1.158 1.155 1.150 1.142 1.131 1.116 1.097 1.073 1.045 1.012 0.975 0.939 0.906 0.874 0.841 0.806 0.777 0.869 0.869 0.000 
0.000 0.028 0.028 0.045 0.072 0.114 0.156 0.189 0.217 0.239 0.257 0.273 0.285 0.296 0.305 0.314 0.321 0.329 0.336 0.343 0.349 0.356 0.363 0.369 0.376 0.383 0.390 0.398 0.407 0.417 0.429 0.442 0.457 0.474 0.493 0.515 0.541 0.569 0.601 0.636 0.676 0.719 0.767 0.820 0.877 0.934 0.986 1.034 1.077 1.115 1.149 1.180 1.206 1.230 1.250 1.267 1.282 1.294 1.305 1.314 1.321 1.327 1.332 1.336 1.339 1.341 1.343 1.344 1.345 1.345 1.345 1.346 1.346 1.346 1.345 1.345 1.344 1.344 1.343 1.341 1.340 1.338 1.335 1.332 1.329 1.325 1.321 1.315 1.309 1.302 1.294 1.284 1.273 1.261 1.246 1.229 1.209 1.186 1.159 1.129 1.094 1.055 1.012 0.963 0.910 0.858 0.812 0.771 0.736 0.707 0.683 0.663 0.648 0.637 0.629 0.624 0.621 0.620 0.619 0.619 0.620 0.622 0.626 0.633 0.643 0.656 0.673 0.695 0.721 0.753 0.790 0.833 0.881 0.930 0.972 1.010 1.042 1.069 1.091 1.108 1.121 1.131 1.138 1.142 1.144 1.145 1.145 1.145 1.144 1.141 1.136 1.128 1.118 1.103 1.085 1.063 1.037 1.007 0.973 0.938 0.901 0.863 0.816 0.738 0.564 0.328 0.328 0.000 
0.000 0.010 0.010 0.028 0.066 0.115 0.157 0.191 0.218 0.240 0.259 0.274 0.287 0.297 0.307 0.315 0.323 0.330 0.337 0.344 0.351 0.357 0.364 0.370 0.377 0.383 0.390 0.398 0.407 0.417 0.428 0.441 0.456 0.473 0.492 0.513 0.538 0.566 0.597 0.632 0.670 0.713 0.760 0.812 0.868 0.924 0.976 1.023 1.066 1.104 1.138 1.168 1.195 1.218 1.238 1.255 1.270 1.282 1.293 1.301 1.309 1.315 1.320 1.324 1.327 1.329 1.331 1.333 1.334 1.335 1.335 1.336 1.336 1.336 1.336 1.336 1.335 1.335 1.334 1.333 1.332 1.330 1.328 1.325 1.322 1.319 1.314 1.309 1.304 1.297 1.289 1.280 1.269 1.257 1.243 1.226 1.207 1.184 1.158 1.129 1.095 1.057 1.014 0.967 0.914 0.861 0.814 0.772 0.736 0.706 0.681 0.661 0.645 0.633 0.624 0.618 0.615 0.613 0.613 0.613 0.613 0.615 0.618 0.624 0.633 0.645 0.662 0.682 0.707 0.737 0.773 0.814 0.860 0.908 0.951 0.989 1.021 1.049 1.071 1.089 1.103 1.114 1.121 1.125 1.128 1.129 1.129 1.129 1.128 1.125 1.120 1.113 1.103 1.090 1.073 1.052 1.028 1.000 0.968 0.934 0.899 0.861 0.814 0.734 0.554 0.210 0.210 0.000 
0.000 0.030 0.030 0.029 0.068 0.119 0.161 0.194 0.222 0.244 0.262 0.277 0.289 0.300 0.309 0.317 0.325 0.332 0.339 0.346 0.352 0.358 0.364 0.371 0.377 0.383 0.390 0.398 0.406 0.416 0.427 0.440 0.454 0.471 0.490 0.511 0.535 0.562 0.593 0.627 0.665 0.707 0.753 0.803 0.858 0.914 0.965 1.012 1.054 1.092 1.126 1.156 1.182 1.205 1.225 1.242 1.257 1.269 1.280 1.289 1.296 1.302 1.307 1.311 1.315 1.318 1.320 1.322 1.323 1.325 1.325 1.326 1.326 1.327 1.327 1.327 1.326 1.326 1.325 1.325 1.324 1.322 1.320 1.318 1.315 1.312 1.308 1.304 1.298 1.292 1.284 1.276 1.266 1.254 1.240 1.224 1.205 1.183 1.158 1.129 1.096 1.058 1.017 0.970 0.918 0.865 0.816 0.773 0.736 0.705 0.678 0.657 0.640 0.627 0.618 0.611 0.607 0.605 0.604 0.604 0.605 0.606 0.609 0.614 0.622 0.633 0.648 0.667 0.691 0.719 0.753 0.791 0.835 0.882 0.926 0.964 0.998 1.026 1.049 1.068 1.083 1.094 1.102 1.107 1.110 1.111 1.111 1.111 1.110 1.108 1.104 1.097 1.088 1.075 1.059 1.040 1.017 0.991 0.960 0.928 0.897 0.866 0.832 0.789 0.741 0.746 0.746 0.000 
0.000 0.062 0.062 0.052 0.086 0.131 0.170 0.202 0.228 0.249 0.267 0.281 0.293 0.304 0.313 0.321 0.328 0.335 0.342 0.348 0.354 0.359 0.365 0.371 0.377 0.383 0.390 0.397 0.406 0.415 0.426 0.439 0.453 0.469 0.487 0.508 0.532 0.558 0.588 0.621 0.658 0.699 0.744 0.794 0.847 0.903 0.953 1.000 1.042 1.080 1.113 1.143 1.169 1.192 1.212 1.229 1.244 1.256 1.266 1.275 1.283 1.289 1.294 1.299 1.303 1.306 1.308 1.311 1.313 1.314 1.316 1.316 1.317 1.317 1.318 1.318 1.318 1.317 1.317 1.316 1.316 1.314 1.313 1.311 1.309 1.306 1.302 1.298 1.293 1.287 1.280 1.271 1.262 1.250 1.237 1.221 1.202 1.181 1.157 1.128 1.096 1.060 1.019 0.973 0.922 0.868 0.818 0.774 0.736 0.703 0.675 0.653 0.635 0.621 0.610 0.603 0.598 0.596 0.595 0.594 0.595 0.596 0.598 0.602 0.609 0.619 0.633 0.650 0.672 0.698 0.730 0.766 0.807 0.853 0.897 0.937 0.971 1.000 1.025 1.045 1.061 1.073 1.082 1.087 1.091 1.092 1.093 1.093 1.092 1.089 1.085 1.079 1.071 1.059 1.045 1.027 1.006 0.981 0.951 0.921 0.897 0.880 0.871 0.877 0.928 1.058 1.058 0.000 
0.000 0.157 0.157 0.110 0.133 0.157 0.185 0.215 0.239 0.259 0.275 0.288 0.299 0.309 0.318 0.325 0.332 0.339 0.344 0.350 0.355 0.361 0.366 0.371 0.376 0.382 0.389 0.396 0.404 0.414 0.424 0.437 0.450 0.466 0.484 0.504 0.527 0.553 0.582 0.615 0.651 0.691 0.735 0.783 0.836 0.890 0.941 0.987 1.029 1.066 1.100 1.129 1.155 1.178 1.198 1.215 1.230 1.242 1.253 1.262 1.269 1.276 1.282 1.286 1.290 1.294 1.297 1.300 1.302 1.304 1.306 1.307 1.308 1.308 1.309 1.309 1.309 1.309 1.309 1.308 1.308 1.307 1.305 1.304 1.302 1.299 1.296 1.292 1.287 1.282 1.275 1.267 1.258 1.246 1.233 1.218 1.200 1.179 1.155 1.128 1.096 1.060 1.020 0.975 0.925 0.871 0.820 0.774 0.735 0.700 0.672 0.648 0.628 0.613 0.602 0.593 0.588 0.585 0.583 0.583 0.583 0.584 0.585 0.589 0.595 0.604 0.616 0.631 0.651 0.675 0.704 0.738 0.777 0.820 0.865 0.905 0.941 0.971 0.997 1.019 1.036 1.049 1.059 1.066 1.071 1.073 1.073 1.073 1.072 1.070 1.067 1.062 1.054 1.045 1.032 1.016 0.997 0.974 0.946 0.918 0.897 0.887 0.888 0.906 0.973 1.055 1.055 0.000 
0.000 0.270 0.270 0.207 0.188 0.191 0.208 0.234 0.255 0.272 0.286 0.298 0.308 0.317 0.324 0.331 0.337 0.343 0.348 0.353 0.357 0.361 0.366 0.370 0.376 0.381 0.387 0.395 0.403 0.412 0.422 0.434 0.447 0.463 0.480 0.500 0.522 0.548 0.576 0.608 0.643 0.682 0.725 0.772 0.823 0.877 0.927 0.973 1.014 1.052 1.085 1.115 1.141 1.164 1.183 1.200 1.215 1.228 1.239 1.248 1.256 1.263 1.269 1.274 1.278 1.282 1.286 1.289 1.291 1.294 1.296 1.297 1.298 1.299 1.300 1.300 1.300 1.300 1.300 1.300 1.300 1.299 1.298 1.297 1.295 1.293 1.290 1.286 1.282 1.276 1.270 1.263 1.253 1.243 1.230 1.215 1.198 1.177 1.154 1.127 1.096 1.060 1.021 0.977 0.928 0.874 0.821 0.775 0.733 0.698 0.667 0.642 0.621 0.604 0.592 0.583 0.577 0.573 0.571 0.570 0.570 0.570 0.571 0.574 0.579 0.586 0.596 0.610 0.628 0.649 0.676 0.707 0.743 0.784 0.828 0.870 0.907 0.940 0.967 0.990 1.009 1.024 1.035 1.044 1.049 1.052 1.054 1.054 1.054 1.052 1.050 1.046 1.040 1.031 1.021 1.007 0.990 0.969 0.944 0.917 0.897 0.887 0.888 0.906 0.972 1.053 1.053 0.000 
0.000 0.175 0.175 0.219 0.214 0.227 0.243 0.261 0.278 0.291 0.302 0.311 0.319 0.326 0.332 0.338 0.343 0.347 0.351 0.355 0.359 0.362 0.366 0.370 0.374 0.380 0.386 0.393 0.400 0.409 0.419 0.431 0.444 0.459 0.476 0.495 0.517 0.541 0.569 0.600 0.634 0.672 0.714 0.760 0.810 0.863 0.912 0.958 0.999 1.037 1.070 1.100 1.126 1.148 1.168 1.185 1.200 1.213 1.224 1.234 1.242 1.249 1.255 1.261 1.266 1.270 1.274 1.278 1.281 1.283 1.286 1.287 1.289 1.290 1.291 1.291 1.292 1.292 1.292 1.292 1.292 1.291 1.290 1.289 1.288 1.286 1.283 1.280 1.276 1.271 1.265 1.258 1.249 1.239 1.226 1.212 1.195 1.175 1.152 1.125 1.095 1.060 1.021 0.978 0.930 0.876 0.823 0.774 0.732 0.694 0.662 0.635 0.613 0.595 0.581 0.571 0.564 0.559 0.556 0.555 0.555 0.555 0.556 0.558 0.561 0.567 0.575 0.587 0.602 0.621 0.645 0.673 0.706 0.744 0.788 0.831 0.870 0.905 0.934 0.959 0.980 0.997 1.010 1.020 1.027 1.032 1.035 1.037 1.037 1.036 1.034 1.031 1.027 1.020 1.011 0.999 0.985 0.967 0.945 0.919 0.897 0.880 0.870 0.874 0.921 1.050 1.050 0.000 
0.000 0.027 0.027 0.143 0.237 0.269 0.287 0.299 0.308 0.316 0.323 0.328 0.333 0.338 0.342 0.346 0.349 0.352 0.355 0.357 0.359 0.362 0.365 0.369 0.373 0.378 0.383 0.390 0.397 0.406 0.415 0.427 0.439 0.454 0.470 0.489 0.510 0.534 0.561 0.591 0.624 0.661 0.702 0.746 0.795 0.847 0.897 0.942 0.983 1.021 1.054 1.084 1.110 1.133 1.153 1.170 1.185 1.198 1.210 1.219 1.228 1.235 1.242 1.248 1.253 1.258 1.263 1.267 1.270 1.273 1.276 1.278 1.279 1.281 1.282 1.283 1.283 1.284 1.284 1.284 1.284 1.283 1.283 1.282 1.281 1.279 1.277 1.274 1.270 1.266 1.260 1.253 1.245 1.235 1.223 1.209 1.192 1.172 1.150 1.124 1.094 1.060 1.022 0.979 0.931 0.878 0.824 0.774 0.730 0.691 0.657 0.628 0.604 0.585 0.570 0.558 0.550 0.544 0.541 0.539 0.538 0.538 0.539 0.540 0.542 0.547 0.553 0.563 0.576 0.592 0.613 0.638 0.668 0.703 0.744 0.788 0.830 0.867 0.899 0.926 0.948 0.967 0.983 0.995 1.004 1.011 1.016 1.020 1.021 1.022 1.021 1.019 1.015 1.010 1.003 0.994 0.982 0.966 0.946 0.923 0.896 0.867 0.832 0.786 0.736 0.805 0.805 0.000 
0.000 0.312 0.312 0.190 0.292 0.330 0.342 0.346 0.347 0.348 0.348 0.349 0.350 0.351 0.352 0.354 0.355 0.356 0.357 0.358 0.360 0.362 0.364 0.367 0.371 0.375 0.381 0.387 0.394 0.402 0.411 0.422 0.434 0.448 0.464 0.482 0.503 0.526 0.552 0.581 0.613 0.649 0.689 0.732 0.779 0.830 0.880 0.925 0.966 1.004 1.037 1.067 1.093 1.116 1.137 1.154 1.170 1.183 1.195 1.205 1.214 1.222 1.229 1.235 1.241 1.246 1.251 1.255 1.259 1.262 1.265 1.268 1.270 1.272 1.273 1.274 1.275 1.275 1.275 1.275 1.275 1.275 1.275 1.274 1.273 1.272 1.270 1.267 1.264 1.260 1.255 1.248 1.240 1.230 1.219 1.205 1.189 1.170 1.148 1.122 1.093 1.059 1.021 0.979 0.932 0.880 0.825 0.773 0.727 0.687 0.651 0.621 0.595 0.574 0.558 0.545 0.535 0.529 0.524 0.522 0.521 0.520 0.520 0.521 0.523 0.526 0.531 0.539 0.551 0.565 0.584 0.606 0.633 0.665 0.701 0.743 0.786 0.826 0.860 0.890 0.915 0.936 0.954 0.968 0.980 0.990 0.998 1.003 1.007 1.008 1.009 1.008 1.006 1.002 0.997 0.990 0.980 0.967 0.949 0.926 0.898 0.864 0.815 0.732 0.553 0.275 0.275 0.000 
0.000 0.692 0.692 0.493 0.439 0.425 0.414 0.403 0.392 0.382 0.376 0.370 0.367 0.364 0.362 0.360 0.359 0.359 0.359 0.359 0.360 0.361 0.363 0.365 0.369 0.372 0.377 0.383 0.389 0.397 0.406 0.416 0.428 0.441 0.457 0.474 0.494 0.516 0.542 0.570 0.601 0.636 0.675 0.717 0.763 0.813 0.862 0.907 0.949 0.986 1.020 1.049 1.076 1.099 1.120 1.138 1.154 1.167 1.179 1.190 1.199 1.208 1.215 1.222 1.228 1.234 1.239 1.244 1.248 1.252 1.255 1.258 1.260 1.262 1.264 1.265 1.266 1.266 1.267 1.267 1.267 1.267 1.267 1.266 1.266 1.265 1.263 1.261 1.258 1.254 1.249 1.242 1.235 1.225 1.214 1.201 1.185 1.166 1.145 1.120 1.091 1.058 1.021 0.979 0.932 0.881 0.825 0.772 0.725 0.683 0.646 0.614 0.587 0.564 0.546 0.532 0.521 0.513 0.508 0.505 0.503 0.502 0.502 0.503 0.504 0.506 0.511 0.518 0.527 0.540 0.556 0.576 0.601 0.629 0.662 0.699 0.740 0.782 0.819 0.852 0.880 0.903 0.924 0.941 0.956 0.968 0.978 0.986 0.992 0.996 0.998 0.999 0.998 0.996 0.993 0.988 0.980 0.968 0.952 0.931 0.903 0.866 0.816 0.734 0.563 0.253 0.253 0.000 
0.000 0.746 0.746 0.683 0.579 0.518 0.479 0.451 0.429 0.412 0.399 0.389 0.381 0.374 0.369 0.365 0.363 0.361 0.360 0.359 0.359 0.360 0.361 0.363 0.366 0.369 0.373 0.378 0.384 0.391 0.400 0.409 0.421 0.433 0.448 0.465 0.484 0.506 0.530 0.558 0.588 0.622 0.659 0.700 0.745 0.794 0.843 0.888 0.930 0.967 1.001 1.031 1.058 1.082 1.103 1.121 1.137 1.152 1.164 1.175 1.185 1.194 1.202 1.209 1.215 1.221 1.227 1.232 1.236 1.241 1.244 1.247 1.250 1.252 1.254 1.256 1.257 1.257 1.258 1.258 1.258 1.258 1.258 1.258 1.258 1.257 1.255 1.253 1.251 1.247 1.242 1.236 1.229 1.220 1.209 1.196 1.181 1.163 1.141 1.117 1.089 1.056 1.020 0.978 0.932 0.881 0.825 0.771 0.722 0.679 0.640 0.607 0.578 0.554 0.535 0.519 0.507 0.498 0.492 0.488 0.486 0.485 0.485 0.485 0.486 0.488 0.491 0.497 0.505 0.516 0.531 0.549 0.570 0.596 0.626 0.660 0.697 0.738 0.777 0.812 0.843 0.869 0.893 0.913 0.930 0.945 0.958 0.969 0.977 0.984 0.989 0.992 0.992 0.992 0.990 0.987 0.981 0.971 0.957 0.937 0.911 0.877 0.836 0.791 0.751 0.778 0.778 0.000 
0.000 0.737 0.737 0.720 0.643 0.574 0.524 0.487 0.458 0.436 0.418 0.404 0.392 0.383 0.376 0.370 0.365 0.362 0.360 0.359 0.359 0.359 0.359 0.360 0.362 0.365 0.368 0.373 0.378 0.385 0.392 0.402 0.412 0.425 0.439 0.455 0.474 0.495 0.518 0.545 0.574 0.607 0.643 0.683 0.726 0.774 0.823 0.868 0.910 0.948 0.982 1.013 1.040 1.064 1.085 1.104 1.121 1.135 1.148 1.160 1.170 1.179 1.188 1.195 1.202 1.208 1.214 1.220 1.225 1.229 1.233 1.236 1.239 1.242 1.244 1.246 1.247 1.248 1.249 1.249 1.249 1.250 1.250 1.249 1.249 1.248 1.247 1.245 1.243 1.240 1.235 1.230 1.223 1.214 1.203 1.191 1.176 1.158 1.137 1.113 1.086 1.054 1.018 0.977 0.932 0.881 0.825 0.770 0.720 0.675 0.635 0.600 0.570 0.545 0.524 0.507 0.494 0.484 0.477 0.473 0.470 0.468 0.468 0.468 0.468 0.470 0.473 0.477 0.484 0.494 0.507 0.523 0.542 0.566 0.593 0.623 0.658 0.695 0.734 0.771 0.805 0.834 0.860 0.883 0.904 0.922 0.937 0.951 0.962 0.972 0.979 0.985 0.988 0.989 0.989 0.987 0.983 0.975 0.963 0.946 0.924 0.900 0.886 0.890 0.930 1.037 1.037 0.000 
0.000 0.714 0.714 0.714 0.666 0.604 0.553 0.513 0.481 0.455 0.434 0.417 0.402 0.391 0.381 0.373 0.367 0.363 0.360 0.358 0.357 0.357 0.357 0.357 0.358 0.360 0.363 0.367 0.371 0.377 0.384 0.393 0.403 0.415 0.428 0.444 0.462 0.482 0.505 0.530 0.559 0.591 0.626 0.664 0.707 0.753 0.802 0.847 0.889 0.928 0.962 0.993 1.021 1.046 1.067 1.087 1.104 1.119 1.132 1.144 1.155 1.164 1.173 1.181 1.188 1.195 1.201 1.207 1.212 1.217 1.221 1.225 1.228 1.231 1.234 1.236 1.237 1.238 1.239 1.240 1.240 1.240 1.240 1.240 1.240 1.239 1.238 1.237 1.235 1.231 1.227 1.222 1.215 1.207 1.197 1.185 1.170 1.153 1.132 1.109 1.082 1.051 1.015 0.975 0.930 0.880 0.825 0.769 0.717 0.671 0.629 0.593 0.562 0.536 0.514 0.496 0.482 0.471 0.463 0.457 0.454 0.452 0.452 0.451 0.452 0.453 0.455 0.459 0.465 0.473 0.484 0.499 0.516 0.537 0.562 0.590 0.622 0.657 0.694 0.732 0.767 0.799 0.827 0.853 0.876 0.897 0.915 0.932 0.946 0.959 0.969 0.978 0.984 0.988 0.989 0.989 0.987 0.982 0.973 0.960 0.945 0.938 0.940 0.953 0.991 1.035 1.035 0.000 
0.000 0.688 0.688 0.695 0.667 0.619 0.571 0.531 0.498 0.471 0.447 0.428 0.411 0.397 0.385 0.376 0.368 0.363 0.359 0.356 0.355 0.354 0.354 0.354 0.354 0.355 0.357 0.360 0.364 0.369 0.376 0.383 0.393 0.404 0.417 0.432 0.449 0.468 0.490 0.515 0.542 0.573 0.607 0.645 0.686 0.731 0.779 0.826 0.868 0.907 0.942 0.973 1.001 1.027 1.049 1.069 1.086 1.102 1.116 1.128 1.139 1.149 1.158 1.166 1.174 1.181 1.187 1.193 1.199 1.204 1.209 1.213 1.217 1.220 1.222 1.225 1.226 1.228 1.229 1.229 1.230 1.230 1.230 1.230 1.230 1.229 1.228 1.227 1.225 1.222 1.218 1.213 1.207 1.199 1.189 1.177 1.163 1.146 1.127 1.104 1.077 1.046 1.012 0.973 0.928 0.879 0.825 0.768 0.714 0.667 0.624 0.587 0.554 0.527 0.504 0.485 0.469 0.458 0.449 0.443 0.439 0.436 0.435 0.435 0.435 0.436 0.438 0.441 0.446 0.453 0.463 0.476 0.492 0.511 0.533 0.559 0.589 0.621 0.656 0.693 0.729 0.763 0.794 0.822 0.848 0.871 0.893 0.912 0.929 0.945 0.959 0.971 0.981 0.987 0.992 0.993 0.994 0.992 0.987 0.980 0.975 0.977 0.982 0.995 1.018 1.035 1.035 0.000 
0.000 0.662 0.662 0.672 0.656 0.622 0.581 0.544 0.512 0.484 0.459 0.437 0.419 0.402 0.388 0.377 0.369 0.362 0.357 0.354 0.351 0.350 0.349 0.349 0.349 0.349 0.350 0.353 0.356 0.360 0.366 0.373 0.382 0.392 0.404 0.418 0.434 0.453 0.474 0.498 0.525 0.555 0.588 0.624 0.665 0.709 0.756 0.803 0.846 0.885 0.920 0.952 0.981 1.007 1.030 1.050 1.068 1.084 1.098 1.111 1.122 1.132 1.142 1.150 1.158 1.166 1.173 1.179 1.185 1.190 1.195 1.200 1.204 1.207 1.210 1.213 1.214 1.216 1.217 1.218 1.218 1.218 1.218 1.218 1.218 1.218 1.217 1.216 1.214 1.212 1.208 1.204 1.197 1.190 1.180 1.169 1.155 1.139 1.119 1.097 1.071 1.041 1.007 0.969 0.925 0.877 0.824 0.766 0.711 0.662 0.618 0.580 0.546 0.518 0.493 0.473 0.457 0.445 0.435 0.428 0.424 0.421 0.419 0.419 0.419 0.419 0.421 0.423 0.427 0.434 0.443 0.454 0.468 0.486 0.506 0.530 0.557 0.588 0.621 0.656 0.692 0.728 0.760 0.791 0.819 0.845 0.869 0.891 0.911 0.930 0.947 0.963 0.976 0.988 0.996 1.001 1.005 1.006 1.006 1.006 1.008 1.012 1.019 1.028 1.037 1.038 1.038 0.000 
0.000 0.636 0.636 0.647 0.637 0.615 0.584 0.552 0.524 0.496 0.470 0.446 0.425 0.407 0.391 0.378 0.368 0.361 0.355 0.350 0.347 0.345 0.343 0.343 0.342 0.343 0.343 0.344 0.347 0.350 0.355 0.361 0.369 0.379 0.390 0.403 0.419 0.437 0.457 0.480 0.506 0.535 0.567 0.603 0.642 0.685 0.732 0.779 0.822 0.862 0.898 0.931 0.960 0.986 1.010 1.030 1.049 1.065 1.080 1.093 1.104 1.115 1.125 1.134 1.142 1.150 1.157 1.163 1.170 1.175 1.181 1.185 1.190 1.193 1.197 1.199 1.201 1.203 1.204 1.205 1.206 1.206 1.206 1.206 1.206 1.206 1.205 1.204 1.202 1.200 1.197 1.192 1.186 1.179 1.170 1.159 1.146 1.130 1.111 1.089 1.064 1.034 1.001 0.963 0.921 0.874 0.821 0.764 0.708 0.658 0.613 0.573 0.538 0.508 0.483 0.462 0.445 0.432 0.421 0.414 0.409 0.405 0.404 0.403 0.403 0.403 0.404 0.406 0.410 0.415 0.423 0.433 0.446 0.462 0.481 0.503 0.528 0.556 0.587 0.621 0.656 0.692 0.726 0.759 0.789 0.817 0.844 0.869 0.892 0.914 0.934 0.953 0.971 0.987 1.002 1.013 1.021 1.026 1.031 1.036 1.041 1.047 1.053 1.058 1.060 1.059 1.059 0.000 
0.000 0.611 0.611 0.622 0.614 0.600 0.581 0.557 0.533 0.508 0.481 0.455 0.431 0.410 0.392 0.378 0.367 0.358 0.351 0.346 0.341 0.339 0.337 0.335 0.335 0.335 0.335 0.335 0.337 0.340 0.344 0.349 0.356 0.365 0.375 0.388 0.402 0.419 0.439 0.461 0.486 0.514 0.546 0.581 0.619 0.661 0.707 0.754 0.798 0.838 0.875 0.908 0.938 0.965 0.988 1.010 1.028 1.045 1.060 1.073 1.085 1.096 1.106 1.116 1.124 1.132 1.140 1.147 1.153 1.159 1.165 1.170 1.174 1.178 1.182 1.184 1.187 1.189 1.190 1.191 1.191 1.192 1.192 1.192 1.192 1.191 1.191 1.190 1.189 1.186 1.183 1.179 1.174 1.167 1.158 1.147 1.134 1.119 1.101 1.079 1.054 1.026 0.994 0.957 0.915 0.869 0.817 0.761 0.704 0.653 0.607 0.566 0.530 0.499 0.473 0.451 0.433 0.419 0.408 0.400 0.394 0.390 0.388 0.387 0.387 0.387 0.387 0.389 0.392 0.397 0.403 0.413 0.424 0.439 0.456 0.477 0.500 0.527 0.556 0.588 0.622 0.657 0.692 0.726 0.758 0.789 0.818 0.845 0.871 0.896 0.919 0.942 0.964 0.985 1.006 1.025 1.041 1.052 1.061 1.069 1.076 1.082 1.087 1.090 1.092 1.097 1.097 0.000 
0.000 0.585 0.585 0.596 0.591 0.583 0.574 0.560 0.540 0.517 0.491 0.462 0.435 0.412 0.393 0.378 0.365 0.355 0.346 0.340 0.335 0.331 0.328 0.327 0.326 0.325 0.325 0.325 0.326 0.328 0.331 0.336 0.342 0.350 0.359 0.371 0.385 0.401 0.420 0.441 0.465 0.493 0.523 0.557 0.595 0.636 0.681 0.728 0.773 0.813 0.851 0.884 0.915 0.942 0.966 0.988 1.007 1.024 1.039 1.053 1.065 1.076 1.086 1.096 1.105 1.113 1.121 1.128 1.135 1.141 1.147 1.152 1.157 1.161 1.165 1.168 1.170 1.172 1.174 1.175 1.175 1.176 1.176 1.176 1.176 1.175 1.175 1.174 1.173 1.171 1.168 1.164 1.159 1.152 1.144 1.133 1.121 1.106 1.088 1.067 1.043 1.016 0.984 0.948 0.908 0.862 0.812 0.757 0.700 0.647 0.600 0.558 0.522 0.490 0.463 0.440 0.421 0.406 0.394 0.385 0.379 0.375 0.372 0.371 0.370 0.370 0.371 0.372 0.374 0.379 0.384 0.393 0.403 0.416 0.432 0.451 0.473 0.498 0.526 0.556 0.588 0.623 0.658 0.693 0.727 0.759 0.790 0.820 0.848 0.876 0.903 0.929 0.955 0.980 1.005 1.032 1.058 1.079 1.093 1.104 1.111 1.117 1.120 1.123 1.126 1.129 1.129 0.000 
0.000 0.559 0.559 0.572 0.574 0.574 0.570 0.562 0.547 0.525 0.499 0.468 0.438 0.413 0.393 0.376 0.362 0.350 0.340 0.333 0.327 0.322 0.319 0.317 0.315 0.315 0.314 0.314 0.315 0.316 0.318 0.322 0.327 0.334 0.342 0.353 0.366 0.382 0.399 0.420 0.444 0.470 0.500 0.533 0.570 0.610 0.654 0.701 0.746 0.787 0.825 0.859 0.890 0.918 0.942 0.964 0.984 1.001 1.016 1.030 1.043 1.054 1.065 1.074 1.083 1.092 1.100 1.107 1.114 1.121 1.127 1.132 1.137 1.142 1.146 1.149 1.151 1.153 1.155 1.156 1.157 1.157 1.157 1.157 1.157 1.157 1.157 1.156 1.155 1.153 1.150 1.146 1.141 1.135 1.127 1.117 1.105 1.090 1.073 1.053 1.030 1.003 0.972 0.937 0.898 0.854 0.805 0.751 0.694 0.641 0.593 0.550 0.513 0.480 0.452 0.428 0.409 0.393 0.381 0.371 0.364 0.359 0.356 0.355 0.354 0.354 0.354 0.355 0.357 0.360 0.366 0.373 0.382 0.394 0.409 0.426 0.447 0.470 0.496 0.525 0.556 0.589 0.624 0.659 0.694 0.728 0.761 0.793 0.824 0.855 0.884 0.914 0.944 0.973 1.003 1.033 1.066 1.098 1.122 1.138 1.147 1.153 1.156 1.158 1.159 1.157 1.157 0.000 
0.000 0.533 0.533 0.551 0.567 0.571 0.571 0.565 0.552 0.532 0.505 0.472 0.440 0.413 0.391 0.373 0.357 0.344 0.333 0.324 0.317 0.312 0.308 0.305 0.303 0.302 0.302 0.302 0.302 0.302 0.304 0.307 0.311 0.317 0.325 0.334 0.347 0.361 0.378 0.398 0.421 0.446 0.475 0.508 0.544 0.583 0.626 0.673 0.718 0.760 0.798 0.833 0.864 0.892 0.916 0.939 0.958 0.976 0.992 1.006 1.018 1.030 1.041 1.051 1.060 1.068 1.077 1.084 1.092 1.098 1.105 1.110 1.115 1.120 1.124 1.127 1.130 1.132 1.134 1.135 1.136 1.136 1.136 1.136 1.136 1.136 1.136 1.135 1.134 1.132 1.129 1.126 1.121 1.115 1.107 1.098 1.086 1.072 1.056 1.036 1.014 0.988 0.958 0.924 0.886 0.843 0.796 0.743 0.687 0.633 0.585 0.541 0.503 0.470 0.441 0.417 0.397 0.380 0.367 0.357 0.349 0.344 0.341 0.339 0.338 0.338 0.338 0.338 0.340 0.343 0.347 0.353 0.362 0.373 0.386 0.402 0.421 0.443 0.467 0.494 0.524 0.556 0.589 0.625 0.661 0.696 0.731 0.765 0.798 0.831 0.864 0.897 0.930 0.964 0.997 1.032 1.068 1.108 1.144 1.169 1.183 1.190 1.194 1.194 1.192 1.187 1.187 0.000 
0.000 0.550 0.550 0.548 0.568 0.574 0.574 0.570 0.558 0.537 0.509 0.473 0.440 0.412 0.388 0.368 0.351 0.336 0.324 0.314 0.306 0.300 0.295 0.292 0.290 0.289 0.288 0.288 0.288 0.288 0.289 0.291 0.294 0.299 0.306 0.315 0.326 0.340 0.356 0.375 0.397 0.422 0.450 0.482 0.517 0.555 0.598 0.644 0.689 0.731 0.770 0.804 0.835 0.863 0.889 0.911 0.931 0.949 0.964 0.979 0.992 1.003 1.014 1.024 1.034 1.042 1.051 1.059 1.066 1.073 1.079 1.085 1.090 1.095 1.099 1.102 1.105 1.107 1.109 1.110 1.111 1.112 1.112 1.112 1.112 1.112 1.111 1.111 1.109 1.108 1.105 1.102 1.097 1.091 1.084 1.075 1.064 1.051 1.035 1.016 0.995 0.970 0.941 0.908 0.871 0.830 0.784 0.733 0.678 0.624 0.575 0.531 0.493 0.459 0.430 0.405 0.384 0.367 0.353 0.342 0.334 0.329 0.325 0.323 0.321 0.321 0.321 0.321 0.322 0.325 0.328 0.334 0.341 0.351 0.363 0.378 0.395 0.415 0.438 0.464 0.492 0.522 0.555 0.590 0.626 0.662 0.699 0.735 0.771 0.806 0.842 0.878 0.914 0.951 0.989 1.027 1.067 1.110 1.156 1.194 1.219 1.231 1.235 1.236 1.232 1.219 1.219 0.000 
0.000 0.570 0.570 0.566 0.580 0.586 0.585 0.579 0.565 0.542 0.510 0.473 0.439 0.409 0.384 0.362 0.343 0.327 0.314 0.303 0.294 0.287 0.282 0.278 0.275 0.273 0.272 0.272 0.272 0.272 0.273 0.274 0.277 0.281 0.287 0.295 0.305 0.317 0.333 0.351 0.372 0.396 0.424 0.454 0.489 0.527 0.568 0.613 0.659 0.701 0.739 0.774 0.805 0.833 0.858 0.881 0.901 0.918 0.934 0.949 0.962 0.974 0.985 0.995 1.004 1.013 1.022 1.030 1.037 1.044 1.050 1.056 1.062 1.066 1.071 1.074 1.077 1.079 1.081 1.082 1.083 1.084 1.084 1.084 1.084 1.084 1.083 1.083 1.082 1.080 1.078 1.074 1.070 1.064 1.057 1.049 1.038 1.026 1.010 0.993 0.972 0.948 0.920 0.889 0.853 0.814 0.769 0.720 0.666 0.613 0.564 0.520 0.481 0.447 0.417 0.392 0.371 0.353 0.339 0.328 0.319 0.313 0.309 0.306 0.305 0.304 0.304 0.304 0.305 0.307 0.310 0.314 0.321 0.329 0.340 0.354 0.370 0.388 0.410 0.434 0.460 0.489 0.521 0.555 0.590 0.627 0.665 0.703 0.741 0.779 0.817 0.856 0.896 0.936 0.977 1.019 1.063 1.109 1.159 1.210 1.251 1.274 1.284 1.286 1.284 1.278 1.278 0.000 
0.000 0.664 0.664 0.611 0.617 0.615 0.608 0.595 0.574 0.545 0.509 0.471 0.435 0.404 0.377 0.354 0.334 0.316 0.302 0.290 0.280 0.272 0.266 0.262 0.259 0.257 0.255 0.255 0.255 0.255 0.255 0.256 0.258 0.261 0.266 0.273 0.283 0.294 0.309 0.326 0.346 0.370 0.396 0.426 0.460 0.497 0.537 0.582 0.627 0.668 0.706 0.741 0.772 0.800 0.825 0.847 0.867 0.885 0.901 0.916 0.929 0.941 0.952 0.962 0.971 0.980 0.989 0.997 1.004 1.011 1.018 1.024 1.029 1.034 1.038 1.042 1.045 1.047 1.049 1.050 1.051 1.051 1.052 1.052 1.052 1.052 1.051 1.051 1.050 1.048 1.046 1.043 1.038 1.033 1.027 1.018 1.008 0.996 0.982 0.965 0.945 0.922 0.896 0.866 0.832 0.794 0.751 0.704 0.653 0.600 0.551 0.507 0.469 0.434 0.404 0.379 0.357 0.339 0.324 0.313 0.304 0.297 0.293 0.290 0.288 0.287 0.287 0.287 0.287 0.288 0.291 0.295 0.300 0.308 0.317 0.329 0.344 0.361 0.381 0.404 0.429 0.456 0.487 0.519 0.554 0.591 0.630 0.669 0.709 0.749 0.790 0.831 0.873 0.917 0.961 1.006 1.054 1.103 1.156 1.214 1.271 1.316 1.342 1.353 1.355 1.353 1.353 0.000 
0.000 0.760 0.760 0.703 0.684 0.667 0.645 0.618 0.585 0.547 0.506 0.466 0.430 0.397 0.369 0.344 0.322 0.304 0.288 0.275 0.265 0.256 0.250 0.245 0.241 0.239 0.237 0.236 0.236 0.236 0.236 0.237 0.238 0.241 0.245 0.251 0.260 0.271 0.284 0.300 0.320 0.342 0.368 0.397 0.429 0.465 0.505 0.548 0.592 0.634 0.671 0.705 0.736 0.764 0.789 0.811 0.831 0.848 0.864 0.879 0.892 0.904 0.915 0.925 0.934 0.943 0.952 0.960 0.967 0.974 0.981 0.987 0.992 0.997 1.001 1.004 1.007 1.010 1.011 1.013 1.014 1.014 1.014 1.014 1.014 1.014 1.014 1.014 1.013 1.011 1.009 1.006 1.002 0.997 0.991 0.983 0.974 0.962 0.948 0.932 0.914 0.892 0.867 0.838 0.806 0.770 0.730 0.685 0.636 0.584 0.536 0.493 0.454 0.420 0.390 0.364 0.342 0.324 0.309 0.297 0.288 0.281 0.276 0.273 0.271 0.269 0.269 0.269 0.269 0.270 0.272 0.275 0.280 0.286 0.294 0.305 0.318 0.334 0.352 0.373 0.397 0.423 0.452 0.484 0.518 0.554 0.593 0.633 0.674 0.716 0.759 0.803 0.847 0.893 0.940 0.989 1.040 1.093 1.150 1.211 1.278 1.346 1.400 1.435 1.451 1.452 1.452 0.000 
0.000 0.878 0.878 0.810 0.781 0.741 0.694 0.644 0.595 0.547 0.502 0.460 0.422 0.388 0.358 0.332 0.310 0.290 0.274 0.260 0.248 0.239 0.232 0.226 0.222 0.219 0.217 0.216 0.216 0.216 0.216 0.216 0.217 0.220 0.223 0.229 0.236 0.246 0.258 0.274 0.292 0.313 0.338 0.366 0.397 0.432 0.470 0.512 0.556 0.596 0.633 0.667 0.697 0.724 0.748 0.770 0.790 0.807 0.823 0.837 0.850 0.862 0.873 0.883 0.893 0.902 0.910 0.918 0.925 0.932 0.939 0.944 0.950 0.954 0.958 0.962 0.965 0.967 0.969 0.970 0.971 0.972 0.972 0.972 0.972 0.972 0.972 0.971 0.970 0.969 0.967 0.964 0.960 0.956 0.950 0.942 0.933 0.923 0.910 0.895 0.877 0.857 0.833 0.806 0.776 0.742 0.704 0.662 0.615 0.565 0.518 0.476 0.438 0.404 0.374 0.348 0.327 0.308 0.293 0.281 0.271 0.264 0.259 0.255 0.253 0.251 0.251 0.251 0.251 0.251 0.253 0.255 0.259 0.264 0.271 0.281 0.293 0.307 0.324 0.343 0.365 0.390 0.418 0.448 0.481 0.517 0.555 0.595 0.637 0.680 0.724 0.770 0.817 0.865 0.914 0.966 1.020 1.077 1.138 1.204 1.276 1.357 1.440 1.505 1.545 1.566 1.566 0.000 
0.000 0.993 0.993 0.927 0.871 0.807 0.733 0.662 0.600 0.544 0.495 0.451 0.412 0.377 0.346 0.318 0.295 0.274 0.257 0.242 0.230 0.220 0.212 0.206 0.201 0.198 0.196 0.195 0.194 0.194 0.194 0.194 0.195 0.197 0.200 0.205 0.211 0.220 0.232 0.246 0.263 0.284 0.307 0.334 0.364 0.397 0.434 0.474 0.517 0.556 0.592 0.624 0.654 0.680 0.704 0.726 0.745 0.762 0.777 0.791 0.804 0.816 0.826 0.836 0.846 0.855 0.863 0.870 0.878 0.884 0.891 0.896 0.901 0.906 0.910 0.913 0.916 0.918 0.920 0.921 0.922 0.923 0.923 0.923 0.923 0.923 0.923 0.922 0.922 0.920 0.918 0.916 0.912 0.908 0.902 0.896 0.887 0.877 0.865 0.851 0.835 0.816 0.794 0.769 0.741 0.709 0.673 0.634 0.590 0.543 0.497 0.456 0.419 0.386 0.356 0.331 0.310 0.291 0.276 0.264 0.254 0.246 0.241 0.237 0.234 0.233 0.232 0.232 0.232 0.232 0.233 0.235 0.238 0.242 0.248 0.256 0.267 0.279 0.295 0.312 0.333 0.356 0.382 0.411 0.443 0.478 0.515 0.554 0.596 0.640 0.686 0.733 0.781 0.831 0.883 0.937 0.994 1.055 1.120 1.191 1.269 1.358 1.459 1.549 1.611 1.636 1.636 0.000 
0.000 1.031 1.031 0.996 0.934 0.851 0.757 0.672 0.601 0.540 0.487 0.441 0.399 0.363 0.331 0.303 0.278 0.257 0.239 0.223 0.211 0.200 0.191 0.185 0.180 0.176 0.173 0.172 0.171 0.171 0.171 0.171 0.172 0.173 0.176 0.180 0.186 0.194 0.204 0.217 0.233 0.253 0.275 0.300 0.329 0.360 0.396 0.434 0.474 0.512 0.547 0.578 0.607 0.632 0.655 0.676 0.694 0.711 0.726 0.740 0.752 0.764 0.774 0.784 0.793 0.801 0.809 0.817 0.824 0.830 0.836 0.842 0.847 0.851 0.855 0.858 0.861 0.863 0.865 0.866 0.867 0.867 0.867 0.868 0.868 0.867 0.867 0.867 0.866 0.865 0.863 0.861 0.858 0.854 0.848 0.842 0.834 0.825 0.814 0.801 0.786 0.769 0.748 0.725 0.699 0.670 0.637 0.601 0.560 0.516 0.473 0.433 0.397 0.365 0.337 0.312 0.291 0.273 0.258 0.245 0.236 0.228 0.222 0.218 0.215 0.213 0.212 0.212 0.212 0.212 0.212 0.214 0.216 0.219 0.225 0.232 0.240 0.252 0.265 0.281 0.300 0.322 0.346 0.374 0.404 0.437 0.473 0.512 0.553 0.597 0.642 0.690 0.740 0.791 0.845 0.901 0.961 1.025 1.094 1.170 1.255 1.352 1.463 1.568 1.646 1.685 1.685 0.000 
0.000 1.067 1.067 1.035 0.971 0.878 0.769 0.676 0.599 0.534 0.477 0.428 0.384 0.347 0.314 0.285 0.259 0.238 0.219 0.203 0.190 0.179 0.169 0.162 0.157 0.153 0.150 0.148 0.148 0.147 0.147 0.147 0.148 0.149 0.152 0.155 0.161 0.168 0.177 0.189 0.203 0.220 0.241 0.265 0.291 0.321 0.354 0.390 0.429 0.465 0.498 0.527 0.555 0.579 0.601 0.621 0.639 0.655 0.669 0.682 0.694 0.705 0.715 0.725 0.733 0.742 0.749 0.756 0.763 0.769 0.775 0.780 0.785 0.789 0.792 0.795 0.798 0.800 0.801 0.803 0.803 0.804 0.804 0.804 0.804 0.804 0.804 0.804 0.803 0.802 0.800 0.798 0.795 0.792 0.787 0.781 0.774 0.766 0.756 0.744 0.731 0.715 0.696 0.676 0.652 0.625 0.595 0.562 0.525 0.485 0.444 0.406 0.372 0.341 0.314 0.291 0.270 0.253 0.238 0.226 0.216 0.208 0.202 0.198 0.194 0.192 0.191 0.191 0.191 0.191 0.191 0.192 0.193 0.196 0.200 0.206 0.213 0.223 0.235 0.249 0.266 0.286 0.309 0.335 0.363 0.395 0.429 0.466 0.506 0.549 0.595 0.642 0.692 0.744 0.799 0.857 0.919 0.986 1.059 1.140 1.231 1.336 1.458 1.572 1.656 1.700 1.700 0.000 
0.000 1.070 1.070 1.052 0.987 0.889 0.772 0.674 0.592 0.523 0.463 0.411 0.366 0.328 0.294 0.264 0.239 0.216 0.197 0.181 0.167 0.156 0.146 0.139 0.134 0.130 0.128 0.126 0.126 0.125 0.125 0.125 0.126 0.127 0.129 0.132 0.137 0.143 0.151 0.161 0.174 0.189 0.207 0.228 0.252 0.279 0.310 0.343 0.379 0.413 0.444 0.472 0.497 0.520 0.541 0.560 0.577 0.592 0.606 0.618 0.629 0.640 0.649 0.658 0.667 0.674 0.682 0.688 0.694 0.700 0.705 0.710 0.714 0.718 0.722 0.724 0.727 0.729 0.730 0.731 0.732 0.732 0.733 0.733 0.733 0.733 0.733 0.732 0.732 0.731 0.729 0.727 0.725 0.722 0.717 0.712 0.706 0.699 0.690 0.679 0.667 0.653 0.637 0.618 0.597 0.574 0.547 0.517 0.485 0.449 0.411 0.375 0.343 0.315 0.289 0.266 0.247 0.230 0.216 0.204 0.194 0.187 0.181 0.176 0.173 0.171 0.169 0.168 0.168 0.168 0.168 0.169 0.170 0.172 0.175 0.179 0.185 0.193 0.203 0.216 0.231 0.249 0.270 0.294 0.320 0.350 0.382 0.418 0.456 0.497 0.541 0.588 0.638 0.690 0.746 0.804 0.868 0.936 1.012 1.096 1.193 1.305 1.438 1.565 1.655 1.700 1.700 0.000 
0.000 1.072 1.072 1.055 0.992 0.890 0.769 0.665 0.579 0.506 0.444 0.391 0.345 0.305 0.271 0.241 0.215 0.193 0.174 0.158 0.144 0.133 0.124 0.117 0.113 0.109 0.107 0.106 0.105 0.105 0.105 0.105 0.105 0.106 0.108 0.111 0.115 0.120 0.127 0.135 0.146 0.159 0.174 0.192 0.212 0.236 0.263 0.292 0.325 0.356 0.385 0.411 0.435 0.456 0.475 0.492 0.508 0.522 0.535 0.547 0.557 0.567 0.576 0.584 0.592 0.599 0.606 0.612 0.617 0.623 0.627 0.632 0.636 0.639 0.642 0.644 0.647 0.648 0.650 0.651 0.651 0.652 0.652 0.652 0.652 0.652 0.652 0.652 0.651 0.650 0.649 0.647 0.645 0.642 0.639 0.634 0.629 0.623 0.615 0.606 0.595 0.583 0.569 0.553 0.535 0.515 0.492 0.466 0.438 0.406 0.372 0.340 0.311 0.284 0.260 0.239 0.221 0.205 0.192 0.181 0.171 0.164 0.158 0.153 0.150 0.147 0.146 0.145 0.144 0.144 0.144 0.144 0.145 0.146 0.148 0.152 0.157 0.163 0.172 0.183 0.196 0.211 0.229 0.251 0.275 0.302 0.332 0.365 0.402 0.441 0.483 0.528 0.576 0.628 0.682 0.741 0.805 0.874 0.951 1.037 1.137 1.254 1.393 1.540 1.647 1.700 1.700 0.000 
0.000 1.075 1.075 1.057 0.990 0.882 0.755 0.647 0.557 0.482 0.419 0.365 0.318 0.279 0.245 0.215 0.190 0.168 0.149 0.133 0.120 0.110 0.103 0.097 0.093 0.090 0.088 0.087 0.086 0.086 0.086 0.086 0.086 0.087 0.089 0.091 0.094 0.099 0.104 0.111 0.120 0.131 0.143 0.158 0.175 0.194 0.216 0.241 0.268 0.295 0.321 0.344 0.365 0.385 0.402 0.418 0.432 0.445 0.456 0.467 0.477 0.485 0.494 0.501 0.508 0.515 0.521 0.526 0.531 0.536 0.540 0.544 0.547 0.550 0.553 0.555 0.557 0.558 0.559 0.560 0.561 0.561 0.561 0.561 0.561 0.561 0.561 0.561 0.561 0.560 0.559 0.558 0.556 0.553 0.550 0.547 0.542 0.537 0.531 0.523 0.515 0.505 0.493 0.480 0.465 0.448 0.429 0.407 0.384 0.357 0.328 0.299 0.273 0.249 0.228 0.209 0.192 0.178 0.165 0.155 0.146 0.139 0.133 0.128 0.125 0.122 0.121 0.120 0.119 0.119 0.119 0.119 0.120 0.121 0.123 0.126 0.130 0.135 0.142 0.151 0.162 0.175 0.190 0.208 0.228 0.252 0.279 0.309 0.342 0.379 0.418 0.460 0.506 0.556 0.609 0.666 0.729 0.797 0.873 0.959 1.058 1.175 1.315 1.480 1.625 1.700 1.700 0.000 
0.000 1.078 1.078 1.057 0.978 0.854 0.723 0.614 0.524 0.449 0.385 0.332 0.287 0.248 0.214 0.186 0.161 0.140 0.123 0.109 0.098 0.089 0.083 0.078 0.075 0.072 0.071 0.070 0.069 0.069 0.069 0.069 0.069 0.070 0.071 0.073 0.076 0.079 0.084 0.089 0.096 0.105 0.115 0.127 0.141 0.156 0.174 0.193 0.215 0.237 0.258 0.277 0.294 0.310 0.324 0.338 0.350 0.361 0.371 0.380 0.388 0.396 0.403 0.409 0.415 0.421 0.426 0.431 0.435 0.439 0.442 0.445 0.448 0.451 0.453 0.455 0.456 0.457 0.458 0.459 0.459 0.460 0.460 0.460 0.460 0.460 0.460 0.460 0.459 0.459 0.458 0.457 0.456 0.454 0.452 0.449 0.445 0.441 0.436 0.431 0.424 0.416 0.407 0.397 0.385 0.372 0.357 0.341 0.322 0.301 0.278 0.253 0.231 0.210 0.191 0.175 0.160 0.147 0.136 0.127 0.119 0.112 0.107 0.103 0.101 0.099 0.097 0.097 0.096 0.096 0.096 0.096 0.097 0.098 0.099 0.102 0.105 0.109 0.115 0.122 0.131 0.141 0.153 0.168 0.185 0.204 0.226 0.250 0.279 0.311 0.346 0.385 0.428 0.474 0.524 0.579 0.638 0.704 0.777 0.859 0.952 1.061 1.194 1.363 1.564 1.700 1.700 0.000 
0.000 1.080 1.080 1.050 0.940 0.795 0.666 0.562 0.475 0.403 0.343 0.292 0.248 0.211 0.180 0.153 0.130 0.112 0.097 0.086 0.077 0.070 0.065 0.061 0.058 0.056 0.055 0.054 0.054 0.054 0.054 0.054 0.054 0.054 0.055 0.057 0.059 0.062 0.065 0.070 0.075 0.082 0.090 0.099 0.110 0.122 0.135 0.151 0.168 0.185 0.201 0.216 0.230 0.242 0.253 0.263 0.273 0.281 0.289 0.296 0.303 0.309 0.314 0.319 0.324 0.328 0.332 0.336 0.339 0.342 0.345 0.348 0.350 0.352 0.353 0.355 0.356 0.357 0.357 0.358 0.358 0.359 0.359 0.359 0.359 0.359 0.359 0.359 0.358 0.358 0.357 0.357 0.355 0.354 0.352 0.350 0.348 0.345 0.341 0.336 0.331 0.325 0.319 0.311 0.302 0.292 0.281 0.268 0.254 0.238 0.221 0.202 0.183 0.166 0.151 0.138 0.126 0.115 0.106 0.099 0.093 0.088 0.084 0.081 0.079 0.077 0.076 0.076 0.075 0.075 0.075 0.075 0.076 0.076 0.078 0.079 0.082 0.085 0.090 0.095 0.102 0.110 0.120 0.131 0.144 0.159 0.177 0.196 0.218 0.244 0.272 0.304 0.341 0.381 0.427 0.477 0.532 0.592 0.659 0.732 0.813 0.904 1.014 1.159 1.379 1.700 1.700 0.000 
0.000 1.024 1.024 1.008 0.842 0.693 0.579 0.487 0.409 0.344 0.289 0.242 0.202 0.169 0.141 0.117 0.099 0.085 0.074 0.065 0.058 0.053 0.049 0.046 0.044 0.042 0.041 0.041 0.040 0.040 0.040 0.040 0.040 0.041 0.041 0.042 0.044 0.046 0.049 0.052 0.056 0.061 0.067 0.074 0.082 0.091 0.102 0.113 0.126 0.139 0.151 0.162 0.172 0.182 0.190 0.198 0.205 0.211 0.217 0.222 0.227 0.232 0.236 0.240 0.243 0.246 0.249 0.252 0.255 0.257 0.259 0.261 0.262 0.264 0.265 0.266 0.267 0.268 0.268 0.269 0.269 0.269 0.269 0.269 0.269 0.269 0.269 0.269 0.269 0.269 0.268 0.268 0.267 0.266 0.264 0.263 0.261 0.259 0.256 0.252 0.249 0.244 0.239 0.233 0.227 0.219 0.211 0.201 0.191 0.179 0.166 0.152 0.138 0.125 0.114 0.103 0.094 0.087 0.080 0.074 0.070 0.066 0.063 0.061 0.059 0.058 0.057 0.057 0.057 0.057 0.057 0.057 0.057 0.057 0.058 0.060 0.062 0.064 0.067 0.072 0.077 0.083 0.090 0.099 0.109 0.120 0.133 0.148 0.164 0.183 0.205 0.229 0.257 0.288 0.323 0.364 0.410 0.461 0.518 0.577 0.636 0.695 0.755 0.825 0.923 1.059 1.059 0.000 
0.000 0.477 0.477 0.759 0.636 0.533 0.454 0.385 0.323 0.268 0.221 0.182 0.149 0.123 0.101 0.085 0.071 0.061 0.053 0.046 0.042 0.038 0.035 0.033 0.031 0.030 0.029 0.029 0.029 0.029 0.029 0.029 0.029 0.029 0.029 0.030 0.031 0.033 0.035 0.037 0.040 0.044 0.048 0.053 0.059 0.065 0.072 0.080 0.089 0.099 0.108 0.116 0.123 0.129 0.135 0.141 0.146 0.151 0.155 0.158 0.162 0.165 0.168 0.171 0.173 0.176 0.178 0.180 0.182 0.183 0.185 0.186 0.187 0.188 0.189 0.190 0.190 0.191 0.191 0.191 0.192 0.192 0.192 0.192 0.192 0.192 0.192 0.192 0.192 0.191 0.191 0.191 0.190 0.189 0.188 0.187 0.186 0.184 0.182 0.180 0.177 0.174 0.170 0.166 0.162 0.156 0.150 0.143 0.136 0.128 0.118 0.108 0.098 0.089 0.081 0.074 0.067 0.062 0.057 0.053 0.050 0.047 0.045 0.043 0.042 0.041 0.041 0.041 0.040 0.040 0.040 0.040 0.041 0.041 0.042 0.043 0.044 0.046 0.048 0.051 0.055 0.059 0.064 0.070 0.078 0.086 0.095 0.105 0.117 0.131 0.146 0.164 0.183 0.206 0.231 0.261 0.294 0.332 0.373 0.412 0.444 0.468 0.480 0.467 0.386 0.199 0.199 0.000 
0.000 0.000 0.000 0.245 0.329 0.320 0.295 0.261 0.221 0.182 0.149 0.122 0.100 0.082 0.068 0.056 0.048 0.041 0.035 0.031 0.028 0.025 0.023 0.022 0.021 0.020 0.019 0.019 0.019 0.019 0.019 0.019 0.019 0.019 0.020 0.020 0.021 0.022 0.023 0.025 0.027 0.029 0.032 0.035 0.039 0.043 0.048 0.053 0.059 0.066 0.071 0.077 0.081 0.086 0.090 0.093 0.097 0.100 0.103 0.105 0.107 0.110 0.111 0.113 0.115 0.116 0.118 0.119 0.120 0.121 0.122 0.123 0.124 0.125 0.125 0.126 0.126 0.126 0.127 0.127 0.127 0.127 0.127 0.127 0.127 0.127 0.127 0.127 0.127 0.127 0.127 0.126 0.126 0.126 0.125 0.124 0.123 0.122 0.121 0.119 0.118 0.115 0.113 0.110 0.107 0.104 0.100 0.095 0.090 0.085 0.079 0.072 0.065 0.059 0.054 0.049 0.045 0.041 0.038 0.035 0.033 0.031 0.030 0.029 0.028 0.027 0.027 0.027 0.027 0.027 0.027 0.027 0.027 0.027 0.028 0.028 0.029 0.030 0.032 0.034 0.036 0.039 0.043 0.047 0.051 0.057 0.063 0.070 0.078 0.087 0.097 0.109 0.122 0.137 0.154 0.174 0.196 0.223 0.250 0.272 0.286 0.291 0.285 0.251 0.145 0.000 0.000 0.000 
0.000 0.000 0.000 0.052 0.144 0.166 0.166 0.154 0.134 0.110 0.089 0.073 0.059 0.049 0.040 0.034 0.028 0.024 0.021 0.018 0.016 0.015 0.014 0.013 0.012 0.012 0.012 0.011 0.011 0.011 0.011 0.011 0.011 0.011 0.012 0.012 0.012 0.013 0.014 0.015 0.016 0.017 0.019 0.021 0.023 0.026 0.028 0.032 0.035 0.039 0.042 0.045 0.048 0.051 0.053 0.056 0.057 0.059 0.061 0.062 0.064 0.065 0.066 0.067 0.068 0.069 0.070 0.071 0.071 0.072 0.073 0.073 0.074 0.074 0.074 0.075 0.075 0.075 0.075 0.075 0.075 0.075 0.075 0.076 0.076 0.076 0.075 0.075 0.075 0.075 0.075 0.075 0.075 0.075 0.074 0.074 0.073 0.073 0.072 0.071 0.070 0.069 0.067 0.066 0.064 0.062 0.059 0.057 0.054 0.050 0.047 0.043 0.039 0.035 0.032 0.029 0.026 0.024 0.022 0.021 0.020 0.019 0.018 0.017 0.017 0.016 0.016 0.016 0.016 0.016 0.016 0.016 0.016 0.016 0.016 0.017 0.017 0.018 0.019 0.020 0.022 0.023 0.025 0.028 0.031 0.034 0.037 0.042 0.046 0.052 0.058 0.065 0.072 0.081 0.092 0.103 0.117 0.134 0.149 0.160 0.165 0.165 0.157 0.129 0.062 0.000 0.000 0.000 
0.000 0.000 0.000 0.016 0.058 0.075 0.077 0.075 0.067 0.055 0.044 0.036 0.029 0.024 0.020 0.017 0.014 0.012 0.010 0.009 0.008 0.007 0.007 0.006 0.006 0.006 0.006 0.006 0.006 0.006 0.006 0.006 0.006 0.006 0.006 0.006 0.006 0.006 0.007 0.007 0.008 0.008 0.009 0.010 0.011 0.013 0.014 0.016 0.017 0.019 0.021 0.022 0.024 0.025 0.026 0.027 0.028 0.029 0.030 0.031 0.031 0.032 0.033 0.033 0.034 0.034 0.034 0.035 0.035 0.035 0.036 0.036 0.036 0.036 0.037 0.037 0.037 0.037 0.037 0.037 0.037 0.037 0.037 0.037 0.037 0.037 0.037 0.037 0.037 0.037 0.037 0.037 0.037 0.037 0.036 0.036 0.036 0.036 0.035 0.035 0.034 0.034 0.033 0.032 0.031 0.030 0.029 0.028 0.026 0.025 0.023 0.021 0.019 0.017 0.016 0.014 0.013 0.012 0.011 0.010 0.010 0.009 0.009 0.008 0.008 0.008 0.008 0.008 0.008 0.008 0.008 0.008 0.008 0.008 0.008 0.008 0.008 0.009 0.009 0.010 0.011 0.011 0.012 0.014 0.015 0.017 0.018 0.020 0.023 0.025 0.028 0.032 0.036 0.040 0.045 0.051 0.058 0.066 0.074 0.078 0.079 0.079 0.074 0.058 0.025 0.000 0.000 0.000 
0.000 0.000 0.000 0.004 0.017 0.023 0.024 0.024 0.022 0.018 0.014 0.011 0.009 0.008 0.006 0.005 0.004 0.004 0.003 0.003 0.003 0.002 0.002 0.002 0.002 0.002 0.002 0.002 0.002 0.002 0.002 0.002 0.002 0.002 0.002 0.002 0.002 0.002 0.002 0.002 0.002 0.003 0.003 0.003 0.004 0.004 0.004 0.005 0.006 0.006 0.007 0.007 0.008 0.008 0.008 0.009 0.009 0.009 0.010 0.010 0.010 0.010 0.010 0.011 0.011 0.011 0.011 0.011 0.011 0.011 0.011 0.012 0.012 0.012 0.012 0.012 0.012 0.012 0.012 0.012 0.012 0.012 0.012 0.012 0.012 0.012 0.012 0.012 0.012 0.012 0.012 0.012 0.012 0.012 0.012 0.012 0.012 0.011 0.011 0.011 0.011 0.011 0.011 0.010 0.010 0.010 0.009 0.009 0.008 0.008 0.007 0.007 0.006 0.006 0.005 0.005 0.004 0.004 0.004 0.003 0.003 0.003 0.003 0.003 0.003 0.003 0.003 0.003 0.003 0.003 0.003 0.003 0.003 0.003 0.003 0.003 0.003 0.003 0.003 0.003 0.003 0.004 0.004 0.004 0.005 0.005 0.006 0.007 0.007 0.008 0.009 0.010 0.011 0.013 0.014 0.016 0.019 0.021 0.024 0.025 0.025 0.025 0.023 0.018 0.007 0.000 0.000 0.000 
0.000 0.000 0.000 0.000 0.000 0.000 0.000 0.000 0.000 0.000 0.000 0.000 0.000 0.000 0.000 0.000 0.000 0.000 0.000 0.000 0.000 0.000 0.000 0.000 0.000 0.000 0.000 0.000 0.000 0.000 0.000 0.000 0.000 0.000 0.000 0.000 0.000 0.000 0.000 0.000 0.000 0.000 0.000 0.000 0.000 0.000 0.000 0.000 0.000 0.000 0.000 0.000 0.000 0.000 0.000 0.000 0.000 0.000 0.000 0.000 0.000 0.000 0.000 0.000 0.000 0.000 0.000 0.000 0.000 0.000 0.000 0.000 0.000 0.000 0.000 0.000 0.000 0.000 0.000 0.000 0.000 0.000 0.000 0.000 0.000 0.000 0.000 0.000 0.000 0.000 0.000 0.000 0.000 0.000 0.000 0.000 0.000 0.000 0.000 0.000 0.000 0.000 0.000 0.000 0.000 0.000 0.000 0.000 0.000 0.000 0.000 0.000 0.000 0.000 0.000 0.000 0.000 0.000 0.000 0.000 0.000 0.000 0.000 0.000 0.000 0.000 0.000 0.000 0.000 0.000 0.000 0.000 0.000 0.000 0.000 0.000 0.000 0.000 0.000 0.000 0.000 0.000 0.000 0.000 0.000 0.000 0.000 0.000 0.000 0.000 0.000 0.000 0.000 0.000 0.000 0.000 0.000 0.000 0.000 0.000 0.000 0.000 0.000 0.000 0.000 0.000 0.000 0.000 
0.000 0.089 0.089 0.077 0.065 0.049 0.049 0.029 0.010 0.010 0.001 0.003 0.005 0.005 0.005 0.005 0.005 0.005 0.004 0.002 0.002 0.001 0.000 0.001 0.001 0.001 0.001 0.001 0.001 0.001 0.001 0.001 0.001 0.001 0.001 0.001 0.001 0.001 0.001 0.001 0.000 0.000 0.000 0.001 0.004 0.008 0.008 0.021 0.046 0.046 0.070 0.087 0.098 0.098 0.108 0.116 0.122 0.122 0.127 0.122 0.122 0.106 0.089 0.081 0.081 0.081 0.080 0.079 0.079 0.078 0.077 0.077 0.076 0.077 0.077 0.077 0.077 0.076 0.074 0.074 0.073 0.071 0.071 0.069 0.069 0.073 0.073 0.076 0.062 0.031 0.031 0.001 0.000 0.000 0.007 0.022 0.025 0.025 0.018 0.011 0.017 0.017 0.035 0.053 0.053 0.059 0.055 0.051 0.051 0.046 0.039 0.033 0.033 0.025 0.015 0.015 0.006 0.001 0.002 0.002 0.002 0.002 0.002 0.002 0.001 0.001 0.001 0.001 0.001 0.001 0.001 0.001 0.000 0.000 0.001 0.003 0.004 0.004 0.007 0.012 0.016 0.016 0.018 0.017 0.017 0.016 0.015 0.014 0.014 0.013 0.011 0.009 0.009 0.007 0.005 0.005 0.003 0.002 0.000 0.000 0.000 0.000 0.000 0.000 0.007 0.014 0.014 0.000 
0.000 0.000 0.000 0.000 0.000 0.000 0.000 0.000 0.000 0.000 0.000 0.000 0.000 0.000 0.000 0.000 0.000 0.000 0.000 0.000 0.000 0.000 0.000 0.000 0.000 0.000 0.000 0.000 0.000 0.000 0.000 0.000 0.000 0.000 0.000 0.000 0.000 0.000 0.000 0.000 0.000 0.000 0.000 0.000 0.000 0.000 0.000 0.000 0.000 0.000 0.000 0.000 0.000 0.000 0.000 0.000 0.000 0.000 0.000 0.000 0.000 0.000 0.000 0.000 0.000 0.000 0.000 0.000 0.000 0.000 0.000 0.000 0.000 0.000 0.000 0.000 0.000 0.000 0.000 0.000 0.000 0.000 0.000 0.000 0.000 0.000 0.000 0.000 0.000 0.000 0.000 0.000 0.000 0.000 0.000 0.000 0.000 0.000 0.000 0.000 0.000 0.000 0.000 0.000 0.000 0.000 0.000 0.000 0.000 0.000 0.000 0.000 0.000 0.000 0.000 0.000 0.000 0.000 0.000 0.000 0.000 0.000 0.000 0.000 0.000 0.000 0.000 0.000 0.000 0.000 0.000 0.000 0.000 0.000 0.000 0.000 0.000 0.000 0.000 0.000 0.000 0.000 0.000 0.000 0.000 0.000 0.000 0.000 0.000 0.000 0.000 0.000 0.000 0.000 0.000 0.000 0.000 0.000 0.000 0.000 0.000 0.000 0.000 0.000 0.000 0.000 0.000 0.000 
