ncols 168
nrows 121
xllcenter 640304.69
yllcenter 1081277.12
cellsize 46.59
NODATA_value -9999.000
0.000 0.000 0.000 0.000 0.000 0.000 0.000 0.000 0.000 0.000 0.000 0.000 0.000 0.000 0.000 0.000 0.000 0.000 0.000 0.000 0.000 0.000 0.000 0.000 0.000 0.000 0.000 0.000 0.000 0.000 0.000 0.000 0.000 0.000 0.000 0.000 0.000 0.000 0.000 0.000 0.000 0.000 0.000 0.000 0.000 0.000 0.000 0.000 0.000 0.000 0.000 0.000 0.000 0.000 0.000 0.000 0.000 0.000 0.000 0.000 0.000 0.000 0.000 0.000 0.000 0.000 0.000 0.000 0.000 0.000 0.000 0.000 0.000 0.000 0.000 0.000 0.000 0.000 0.000 0.000 0.000 0.000 0.000 0.000 0.000 0.000 0.000 0.000 0.000 0.000 0.000 0.000 0.000 0.000 0.000 0.000 0.000 0.000 0.000 0.000 0.000 0.000 0.000 0.000 0.000 0.000 0.000 0.000 0.000 0.000 0.000 0.000 0.000 0.000 0.000 0.000 0.000 0.000 0.000 0.000 0.000 0.000 0.000 0.000 0.000 0.000 0.000 0.000 0.000 0.000 0.000 0.000 0.000 0.000 0.000 0.000 0.000 0.000 0.000 0.000 0.000 0.000 0.000 0.000 0.000 0.000 0.000 0.000 0.000 0.000 0.000 0.000 0.000 0.000 0.000 0.000 0.000 0.000 0.000 0.000 0.000 0.000 0.000 0.000 0.000 0.000 0.000 0.000 
0.000 0.397 0.397 0.397 0.296 0.018 0.018 0.000 0.000 0.000 0.024 0.303 0.397 0.397 0.397 0.397 0.397 0.397 0.397 0.397 0.397 0.397 0.397 0.397 0.397 0.397 0.397 0.397 0.397 0.397 0.397 0.397 0.397 0.397 0.481 0.481 0.614 0.784 0.955 0.955 1.032 1.061 1.061 1.061 1.061 1.054 1.054 1.036 1.033 1.033 1.012 0.958 0.784 0.784 0.609 0.498 0.519 0.519 0.678 0.853 0.853 0.986 0.311 0.501 0.501 1.060 1.047 0.944 0.944 0.815 0.686 0.686 0.644 0.691 0.821 0.821 0.950 0.580 0.251 0.251 0.931 1.064 1.064 1.064 1.064 1.064 1.064 1.068 1.081 1.131 1.131 1.181 1.199 1.199 1.127 0.921 0.684 0.684 0.439 0.472 0.334 0.334 0.188 0.856 0.856 0.930 0.757 0.571 0.571 0.460 0.485 0.671 0.671 0.857 1.018 1.018 1.156 1.258 0.760 0.760 0.516 1.272 1.263 1.263 1.162 1.067 1.067 1.067 1.067 1.067 1.067 1.067 1.067 1.067 1.068 1.068 1.068 1.068 1.068 1.068 1.068 1.068 1.068 1.068 1.068 1.068 1.068 1.069 1.069 1.069 1.069 1.069 1.069 1.013 0.445 0.445 0.644 1.038 0.914 0.914 0.730 0.531 0.328 0.328 0.101 0.000 0.000 0.000 
0.000 0.234 0.234 0.233 0.174 0.011 0.011 0.000 0.000 0.000 0.013 0.164 0.220 0.220 0.225 0.224 0.223 0.223 0.222 0.221 0.221 0.220 0.219 0.218 0.218 0.217 0.216 0.212 0.212 0.202 0.200 0.200 0.203 0.211 0.339 0.339 0.521 0.744 0.968 0.968 1.056 1.080 1.080 1.080 1.080 0.900 0.900 0.500 0.497 0.497 0.687 0.918 0.691 0.691 0.464 0.330 0.397 0.397 0.608 0.835 0.835 1.038 0.730 0.820 0.820 1.075 1.045 0.909 0.909 0.741 0.573 0.573 0.543 0.618 0.786 0.786 0.954 0.845 0.718 0.718 1.023 1.082 1.082 1.083 1.083 1.083 1.083 1.091 1.112 1.176 1.176 1.240 1.257 1.257 1.136 0.866 0.544 0.544 0.191 0.199 0.308 0.308 0.525 0.939 0.939 0.896 0.663 0.424 0.424 0.312 0.363 0.602 0.602 0.841 1.044 1.044 1.214 1.345 1.240 1.240 1.186 1.415 1.324 1.324 1.199 1.086 1.086 1.086 1.086 1.086 1.086 1.086 1.086 1.086 1.086 1.086 1.087 1.087 1.087 1.087 1.087 1.087 1.087 1.087 1.087 1.087 1.087 1.087 1.087 1.087 1.088 1.088 1.088 1.069 0.877 0.877 0.945 1.045 0.869 0.869 0.633 0.377 0.112 0.112 0.033 0.000 0.000 0.000 
0.000 0.046 0.046 0.140 0.146 0.075 0.021 0.011 0.007 0.007 0.017 0.083 0.178 0.207 0.217 0.222 0.223 0.223 0.223 0.222 0.222 0.221 0.221 0.220 0.219 0.219 0.218 0.216 0.215 0.211 0.206 0.206 0.208 0.218 0.276 0.344 0.430 0.630 0.852 0.945 0.998 1.051 1.062 1.062 1.057 0.982 0.871 0.688 0.542 0.534 0.596 0.771 0.768 0.688 0.583 0.423 0.398 0.422 0.502 0.720 0.824 0.901 0.882 0.819 0.846 0.947 1.022 0.967 0.901 0.826 0.663 0.598 0.583 0.597 0.700 0.784 0.859 0.888 0.812 0.792 0.888 1.032 1.069 1.077 1.079 1.080 1.081 1.085 1.099 1.137 1.167 1.195 1.228 1.231 1.182 1.007 0.708 0.546 0.378 0.249 0.283 0.334 0.435 0.733 0.880 0.875 0.777 0.551 0.452 0.399 0.376 0.482 0.597 0.712 0.934 1.037 1.126 1.262 1.272 1.241 1.232 1.297 1.342 1.314 1.263 1.146 1.103 1.094 1.090 1.088 1.087 1.086 1.086 1.086 1.086 1.086 1.086 1.086 1.086 1.086 1.086 1.086 1.086 1.087 1.087 1.087 1.087 1.087 1.086 1.086 1.086 1.085 1.082 1.067 0.986 0.917 0.923 0.975 0.944 0.864 0.761 0.529 0.278 0.182 0.158 0.171 0.171 0.000 
0.000 0.014 0.014 0.047 0.072 0.064 0.043 0.033 0.031 0.035 0.055 0.103 0.163 0.197 0.213 0.221 0.224 0.225 0.226 0.226 0.226 0.225 0.225 0.225 0.225 0.225 0.225 0.225 0.224 0.224 0.225 0.228 0.238 0.262 0.306 0.379 0.484 0.640 0.794 0.890 0.950 0.983 0.996 0.996 0.980 0.937 0.847 0.721 0.651 0.637 0.659 0.706 0.716 0.685 0.604 0.534 0.509 0.518 0.575 0.693 0.799 0.844 0.852 0.854 0.870 0.914 0.934 0.928 0.887 0.813 0.726 0.678 0.667 0.675 0.714 0.786 0.836 0.853 0.855 0.866 0.912 0.988 1.032 1.054 1.065 1.071 1.075 1.081 1.093 1.112 1.134 1.148 1.151 1.137 1.085 0.962 0.759 0.582 0.466 0.415 0.404 0.438 0.534 0.682 0.755 0.762 0.723 0.618 0.536 0.504 0.505 0.532 0.613 0.733 0.883 1.012 1.116 1.186 1.221 1.231 1.236 1.258 1.275 1.269 1.228 1.163 1.122 1.104 1.095 1.090 1.087 1.086 1.085 1.085 1.085 1.085 1.085 1.085 1.085 1.085 1.085 1.085 1.085 1.085 1.085 1.084 1.084 1.084 1.083 1.082 1.079 1.074 1.063 1.039 0.993 0.955 0.942 0.934 0.915 0.860 0.760 0.606 0.480 0.433 0.441 0.493 0.493 0.000 
0.000 0.001 0.001 0.017 0.046 0.059 0.061 0.061 0.064 0.074 0.094 0.127 0.168 0.196 0.213 0.221 0.226 0.229 0.230 0.231 0.232 0.232 0.233 0.234 0.234 0.235 0.236 0.238 0.241 0.245 0.252 0.263 0.283 0.316 0.363 0.433 0.532 0.658 0.769 0.845 0.893 0.917 0.926 0.926 0.916 0.888 0.830 0.755 0.710 0.695 0.694 0.701 0.700 0.682 0.639 0.608 0.600 0.606 0.638 0.708 0.781 0.822 0.843 0.859 0.876 0.892 0.896 0.892 0.871 0.822 0.770 0.744 0.736 0.738 0.752 0.789 0.827 0.850 0.869 0.892 0.927 0.975 1.009 1.030 1.045 1.055 1.063 1.070 1.076 1.084 1.089 1.088 1.080 1.057 1.008 0.917 0.775 0.646 0.571 0.540 0.535 0.548 0.597 0.671 0.706 0.711 0.697 0.650 0.608 0.594 0.594 0.609 0.654 0.741 0.861 0.980 1.068 1.127 1.168 1.195 1.209 1.215 1.214 1.210 1.192 1.157 1.125 1.107 1.096 1.091 1.087 1.085 1.084 1.084 1.083 1.083 1.083 1.083 1.083 1.083 1.082 1.082 1.082 1.082 1.081 1.081 1.080 1.079 1.077 1.074 1.069 1.060 1.046 1.025 0.994 0.966 0.945 0.925 0.900 0.857 0.783 0.706 0.665 0.655 0.670 0.707 0.707 0.000 
0.000 0.000 0.000 0.009 0.039 0.064 0.080 0.091 0.101 0.114 0.131 0.153 0.180 0.201 0.215 0.225 0.231 0.235 0.237 0.239 0.241 0.242 0.244 0.245 0.247 0.250 0.253 0.257 0.263 0.272 0.286 0.306 0.334 0.371 0.420 0.484 0.569 0.671 0.756 0.816 0.854 0.874 0.881 0.882 0.877 0.860 0.827 0.779 0.745 0.726 0.716 0.709 0.702 0.690 0.670 0.659 0.658 0.664 0.685 0.726 0.779 0.817 0.842 0.860 0.873 0.880 0.881 0.878 0.864 0.835 0.803 0.787 0.782 0.782 0.787 0.803 0.827 0.852 0.877 0.905 0.937 0.970 0.996 1.014 1.027 1.037 1.045 1.050 1.052 1.052 1.051 1.046 1.033 1.007 0.963 0.890 0.787 0.698 0.645 0.620 0.614 0.618 0.639 0.675 0.694 0.698 0.691 0.671 0.653 0.649 0.652 0.666 0.700 0.759 0.847 0.944 1.018 1.074 1.116 1.145 1.161 1.166 1.167 1.165 1.158 1.143 1.123 1.107 1.096 1.090 1.086 1.084 1.082 1.081 1.081 1.080 1.080 1.080 1.079 1.079 1.079 1.078 1.078 1.078 1.077 1.076 1.075 1.072 1.069 1.065 1.057 1.047 1.034 1.016 0.992 0.968 0.946 0.924 0.899 0.866 0.827 0.801 0.792 0.797 0.817 0.833 0.833 0.000 
0.000 0.000 0.000 0.009 0.042 0.077 0.103 0.123 0.139 0.153 0.167 0.182 0.198 0.212 0.224 0.232 0.239 0.244 0.247 0.250 0.253 0.255 0.258 0.260 0.264 0.268 0.273 0.281 0.291 0.305 0.324 0.348 0.378 0.416 0.463 0.523 0.598 0.681 0.748 0.797 0.829 0.847 0.854 0.856 0.854 0.845 0.826 0.797 0.769 0.750 0.735 0.723 0.714 0.707 0.701 0.700 0.702 0.708 0.723 0.749 0.785 0.818 0.843 0.861 0.871 0.876 0.876 0.874 0.865 0.847 0.828 0.819 0.815 0.815 0.817 0.823 0.837 0.858 0.885 0.913 0.943 0.969 0.988 1.003 1.013 1.021 1.025 1.028 1.028 1.027 1.024 1.016 1.000 0.975 0.935 0.876 0.798 0.734 0.694 0.673 0.665 0.664 0.670 0.684 0.694 0.696 0.694 0.687 0.683 0.684 0.690 0.704 0.732 0.776 0.840 0.916 0.980 1.030 1.068 1.095 1.112 1.122 1.127 1.129 1.128 1.124 1.115 1.104 1.095 1.089 1.084 1.082 1.080 1.078 1.077 1.077 1.076 1.076 1.075 1.075 1.074 1.074 1.073 1.072 1.071 1.070 1.068 1.065 1.060 1.054 1.046 1.036 1.023 1.007 0.989 0.968 0.947 0.926 0.906 0.887 0.875 0.870 0.873 0.890 0.922 0.934 0.934 0.000 
0.000 0.034 0.034 0.022 0.056 0.101 0.135 0.159 0.178 0.192 0.203 0.213 0.222 0.230 0.238 0.245 0.251 0.256 0.260 0.264 0.267 0.271 0.274 0.278 0.283 0.290 0.297 0.308 0.322 0.339 0.359 0.385 0.415 0.453 0.498 0.554 0.621 0.689 0.744 0.785 0.813 0.830 0.839 0.842 0.841 0.838 0.827 0.809 0.788 0.770 0.755 0.743 0.736 0.733 0.733 0.736 0.740 0.747 0.757 0.774 0.797 0.824 0.846 0.862 0.871 0.875 0.876 0.874 0.869 0.859 0.849 0.844 0.843 0.842 0.844 0.848 0.855 0.870 0.893 0.921 0.948 0.969 0.984 0.995 1.003 1.008 1.011 1.012 1.011 1.009 1.004 0.994 0.978 0.953 0.917 0.868 0.808 0.760 0.729 0.710 0.700 0.696 0.695 0.697 0.700 0.701 0.702 0.703 0.705 0.709 0.717 0.731 0.754 0.788 0.836 0.895 0.950 0.994 1.028 1.053 1.071 1.084 1.093 1.099 1.102 1.103 1.101 1.096 1.090 1.085 1.081 1.078 1.076 1.074 1.073 1.072 1.071 1.071 1.070 1.069 1.069 1.068 1.067 1.066 1.064 1.062 1.060 1.056 1.051 1.044 1.035 1.025 1.013 0.999 0.983 0.966 0.948 0.932 0.921 0.915 0.913 0.915 0.924 0.947 0.988 1.015 1.015 0.000 
0.000 0.071 0.071 0.060 0.094 0.141 0.176 0.202 0.220 0.232 0.240 0.245 0.250 0.254 0.258 0.263 0.268 0.272 0.276 0.280 0.284 0.289 0.294 0.299 0.306 0.314 0.324 0.337 0.352 0.369 0.391 0.416 0.447 0.483 0.526 0.578 0.638 0.696 0.743 0.778 0.804 0.821 0.831 0.835 0.836 0.835 0.830 0.820 0.805 0.790 0.778 0.769 0.766 0.765 0.767 0.771 0.775 0.781 0.790 0.800 0.815 0.834 0.852 0.865 0.872 0.876 0.877 0.877 0.876 0.872 0.868 0.866 0.866 0.867 0.869 0.873 0.878 0.888 0.905 0.929 0.952 0.970 0.983 0.991 0.997 0.999 1.001 1.001 1.000 0.996 0.990 0.979 0.962 0.939 0.906 0.864 0.817 0.779 0.753 0.736 0.726 0.720 0.716 0.714 0.713 0.713 0.715 0.718 0.723 0.729 0.737 0.750 0.768 0.795 0.832 0.878 0.925 0.964 0.995 1.019 1.037 1.051 1.062 1.071 1.077 1.082 1.084 1.084 1.082 1.078 1.075 1.072 1.070 1.068 1.067 1.066 1.065 1.065 1.064 1.063 1.062 1.061 1.060 1.059 1.057 1.054 1.051 1.047 1.041 1.034 1.026 1.016 1.005 0.992 0.978 0.964 0.952 0.943 0.939 0.938 0.938 0.943 0.955 0.979 1.018 1.047 1.047 0.000 
0.000 0.210 0.210 0.137 0.165 0.202 0.232 0.253 0.267 0.276 0.280 0.282 0.282 0.283 0.284 0.286 0.289 0.292 0.296 0.300 0.304 0.309 0.315 0.322 0.330 0.339 0.350 0.363 0.379 0.397 0.419 0.444 0.474 0.509 0.550 0.598 0.652 0.702 0.743 0.775 0.799 0.815 0.826 0.832 0.835 0.835 0.834 0.829 0.821 0.810 0.803 0.800 0.799 0.800 0.802 0.805 0.809 0.814 0.820 0.827 0.836 0.848 0.861 0.871 0.877 0.880 0.882 0.884 0.886 0.886 0.886 0.887 0.888 0.890 0.893 0.896 0.902 0.909 0.921 0.938 0.957 0.972 0.982 0.989 0.993 0.994 0.994 0.994 0.992 0.987 0.979 0.968 0.951 0.929 0.899 0.862 0.824 0.794 0.771 0.756 0.746 0.739 0.735 0.732 0.730 0.730 0.731 0.734 0.738 0.744 0.752 0.763 0.779 0.800 0.829 0.865 0.904 0.938 0.967 0.989 1.008 1.023 1.035 1.045 1.054 1.061 1.066 1.069 1.070 1.069 1.067 1.065 1.063 1.062 1.060 1.059 1.058 1.058 1.057 1.056 1.055 1.054 1.052 1.051 1.048 1.046 1.042 1.037 1.032 1.025 1.017 1.008 0.997 0.985 0.974 0.964 0.957 0.953 0.951 0.951 0.954 0.960 0.973 0.996 1.027 1.044 1.044 0.000 
0.000 0.354 0.354 0.278 0.274 0.289 0.304 0.314 0.320 0.321 0.321 0.319 0.317 0.315 0.314 0.314 0.315 0.317 0.319 0.323 0.327 0.332 0.339 0.346 0.354 0.363 0.374 0.388 0.403 0.422 0.443 0.469 0.498 0.531 0.570 0.615 0.663 0.707 0.744 0.774 0.796 0.813 0.824 0.832 0.836 0.838 0.839 0.839 0.836 0.833 0.830 0.830 0.831 0.833 0.835 0.839 0.842 0.846 0.850 0.854 0.859 0.866 0.874 0.880 0.885 0.888 0.892 0.895 0.898 0.902 0.905 0.907 0.909 0.912 0.915 0.919 0.924 0.930 0.938 0.950 0.964 0.975 0.983 0.988 0.991 0.991 0.991 0.990 0.986 0.981 0.972 0.959 0.943 0.922 0.895 0.862 0.830 0.804 0.785 0.771 0.761 0.754 0.750 0.747 0.746 0.746 0.747 0.748 0.751 0.756 0.763 0.773 0.786 0.803 0.826 0.854 0.886 0.917 0.943 0.964 0.982 0.998 1.011 1.022 1.031 1.040 1.047 1.052 1.055 1.056 1.056 1.055 1.054 1.053 1.052 1.051 1.050 1.049 1.049 1.048 1.046 1.045 1.044 1.042 1.039 1.036 1.033 1.028 1.022 1.016 1.009 1.000 0.990 0.980 0.971 0.964 0.960 0.958 0.958 0.959 0.962 0.970 0.983 1.005 1.029 1.042 1.042 0.000 
0.000 0.479 0.479 0.414 0.402 0.388 0.380 0.373 0.368 0.362 0.356 0.352 0.348 0.345 0.344 0.343 0.343 0.344 0.345 0.348 0.351 0.355 0.361 0.367 0.375 0.385 0.396 0.410 0.426 0.444 0.466 0.491 0.519 0.551 0.587 0.629 0.673 0.712 0.746 0.773 0.795 0.812 0.824 0.832 0.839 0.844 0.848 0.851 0.853 0.854 0.856 0.858 0.861 0.864 0.867 0.870 0.873 0.876 0.878 0.881 0.884 0.887 0.890 0.894 0.897 0.901 0.904 0.909 0.914 0.919 0.924 0.927 0.930 0.933 0.937 0.940 0.944 0.949 0.955 0.963 0.972 0.980 0.986 0.989 0.990 0.991 0.990 0.987 0.983 0.976 0.966 0.954 0.937 0.917 0.891 0.862 0.834 0.812 0.795 0.783 0.773 0.767 0.763 0.760 0.759 0.759 0.759 0.760 0.763 0.766 0.772 0.780 0.791 0.805 0.823 0.845 0.871 0.898 0.922 0.943 0.960 0.976 0.989 1.000 1.011 1.020 1.027 1.034 1.038 1.041 1.043 1.044 1.044 1.043 1.043 1.042 1.041 1.040 1.039 1.038 1.037 1.036 1.034 1.032 1.030 1.027 1.023 1.019 1.014 1.008 1.001 0.993 0.984 0.976 0.969 0.964 0.962 0.961 0.961 0.963 0.966 0.974 0.988 1.008 1.028 1.039 1.039 0.000 
0.000 0.603 0.603 0.537 0.496 0.462 0.438 0.420 0.406 0.395 0.386 0.380 0.375 0.371 0.369 0.368 0.368 0.368 0.369 0.370 0.373 0.376 0.381 0.387 0.395 0.405 0.417 0.431 0.447 0.465 0.487 0.511 0.538 0.568 0.603 0.641 0.681 0.717 0.748 0.774 0.795 0.812 0.824 0.835 0.843 0.851 0.858 0.865 0.871 0.876 0.881 0.885 0.889 0.893 0.897 0.900 0.903 0.905 0.907 0.908 0.909 0.909 0.910 0.912 0.914 0.917 0.921 0.926 0.932 0.938 0.943 0.948 0.951 0.955 0.958 0.961 0.964 0.968 0.972 0.977 0.982 0.986 0.989 0.991 0.991 0.991 0.989 0.986 0.981 0.973 0.963 0.950 0.933 0.913 0.889 0.862 0.838 0.819 0.804 0.792 0.783 0.777 0.773 0.771 0.770 0.770 0.770 0.770 0.772 0.775 0.779 0.786 0.794 0.806 0.821 0.838 0.859 0.882 0.904 0.923 0.941 0.956 0.969 0.981 0.991 1.001 1.009 1.015 1.021 1.025 1.028 1.030 1.031 1.032 1.031 1.031 1.031 1.030 1.029 1.028 1.027 1.026 1.025 1.023 1.020 1.017 1.014 1.010 1.005 1.000 0.994 0.987 0.979 0.973 0.968 0.964 0.962 0.962 0.962 0.964 0.968 0.976 0.989 1.009 1.027 1.036 1.036 0.000 
0.000 0.640 0.640 0.609 0.560 0.512 0.478 0.454 0.435 0.421 0.410 0.403 0.397 0.393 0.391 0.389 0.389 0.389 0.389 0.390 0.392 0.395 0.399 0.406 0.414 0.424 0.436 0.450 0.466 0.485 0.505 0.529 0.555 0.584 0.616 0.652 0.689 0.722 0.750 0.775 0.795 0.812 0.827 0.839 0.851 0.861 0.872 0.881 0.890 0.898 0.905 0.911 0.916 0.921 0.925 0.929 0.931 0.933 0.934 0.934 0.934 0.934 0.934 0.934 0.935 0.938 0.941 0.946 0.952 0.959 0.964 0.969 0.973 0.976 0.978 0.981 0.983 0.986 0.988 0.991 0.993 0.994 0.995 0.994 0.993 0.992 0.989 0.985 0.979 0.971 0.960 0.947 0.930 0.911 0.888 0.863 0.842 0.824 0.810 0.799 0.791 0.785 0.782 0.779 0.778 0.778 0.778 0.778 0.779 0.781 0.785 0.790 0.797 0.807 0.818 0.833 0.849 0.868 0.888 0.906 0.923 0.938 0.951 0.963 0.974 0.983 0.991 0.998 1.004 1.009 1.012 1.015 1.017 1.018 1.019 1.019 1.019 1.019 1.018 1.018 1.017 1.016 1.014 1.012 1.010 1.008 1.005 1.001 0.997 0.993 0.987 0.981 0.975 0.970 0.966 0.963 0.962 0.962 0.962 0.964 0.968 0.976 0.989 1.008 1.025 1.034 1.034 0.000 
0.000 0.675 0.675 0.647 0.595 0.542 0.504 0.477 0.456 0.441 0.429 0.421 0.415 0.411 0.408 0.407 0.406 0.406 0.406 0.407 0.409 0.412 0.416 0.423 0.431 0.441 0.454 0.468 0.484 0.502 0.523 0.546 0.571 0.598 0.628 0.662 0.696 0.726 0.753 0.777 0.797 0.815 0.831 0.847 0.861 0.874 0.887 0.899 0.910 0.920 0.928 0.935 0.941 0.947 0.951 0.955 0.958 0.960 0.961 0.961 0.961 0.961 0.960 0.960 0.960 0.962 0.965 0.969 0.974 0.981 0.986 0.991 0.994 0.997 0.999 1.001 1.002 1.003 1.004 1.005 1.005 1.004 1.002 1.000 0.997 0.994 0.990 0.985 0.979 0.970 0.959 0.945 0.928 0.909 0.887 0.864 0.845 0.829 0.816 0.806 0.798 0.792 0.788 0.786 0.785 0.784 0.784 0.785 0.785 0.787 0.790 0.794 0.799 0.807 0.816 0.828 0.842 0.857 0.874 0.891 0.907 0.922 0.935 0.947 0.957 0.967 0.975 0.982 0.988 0.993 0.997 1.000 1.003 1.004 1.006 1.006 1.006 1.007 1.006 1.006 1.005 1.005 1.003 1.002 1.000 0.998 0.996 0.993 0.990 0.986 0.981 0.976 0.971 0.967 0.964 0.962 0.961 0.961 0.961 0.963 0.967 0.974 0.987 1.005 1.022 1.031 1.031 0.000 
0.000 0.650 0.650 0.652 0.608 0.557 0.519 0.491 0.470 0.455 0.443 0.435 0.429 0.425 0.423 0.421 0.421 0.421 0.421 0.422 0.423 0.427 0.432 0.439 0.447 0.458 0.470 0.485 0.501 0.519 0.539 0.561 0.585 0.611 0.640 0.671 0.702 0.731 0.757 0.780 0.801 0.821 0.839 0.856 0.873 0.889 0.904 0.918 0.931 0.941 0.950 0.958 0.965 0.971 0.976 0.980 0.983 0.985 0.987 0.988 0.988 0.988 0.988 0.988 0.988 0.989 0.991 0.994 0.999 1.005 1.010 1.013 1.016 1.018 1.019 1.020 1.021 1.021 1.020 1.019 1.017 1.015 1.011 1.007 1.002 0.998 0.992 0.986 0.978 0.969 0.957 0.943 0.927 0.908 0.886 0.866 0.848 0.833 0.821 0.811 0.803 0.798 0.794 0.792 0.790 0.790 0.790 0.790 0.790 0.791 0.793 0.796 0.801 0.807 0.815 0.824 0.835 0.848 0.862 0.878 0.893 0.907 0.920 0.932 0.942 0.952 0.960 0.967 0.973 0.979 0.983 0.986 0.989 0.991 0.993 0.994 0.994 0.994 0.994 0.994 0.994 0.993 0.993 0.992 0.990 0.989 0.987 0.985 0.982 0.979 0.975 0.970 0.966 0.963 0.961 0.960 0.959 0.958 0.959 0.960 0.963 0.970 0.981 0.999 1.019 1.029 1.029 0.000 
0.000 0.624 0.624 0.632 0.607 0.563 0.526 0.499 0.479 0.464 0.453 0.446 0.440 0.437 0.434 0.433 0.433 0.433 0.433 0.434 0.436 0.440 0.446 0.453 0.462 0.473 0.486 0.500 0.517 0.534 0.554 0.575 0.599 0.624 0.650 0.679 0.709 0.736 0.761 0.785 0.807 0.828 0.849 0.869 0.888 0.906 0.923 0.938 0.951 0.962 0.972 0.980 0.988 0.994 0.999 1.004 1.007 1.010 1.012 1.013 1.014 1.015 1.015 1.016 1.017 1.018 1.019 1.022 1.025 1.029 1.033 1.035 1.037 1.038 1.039 1.039 1.039 1.038 1.037 1.035 1.031 1.027 1.022 1.016 1.010 1.003 0.996 0.988 0.979 0.969 0.957 0.943 0.926 0.907 0.886 0.867 0.850 0.836 0.825 0.815 0.808 0.803 0.799 0.796 0.795 0.794 0.794 0.794 0.794 0.795 0.796 0.799 0.802 0.807 0.813 0.821 0.830 0.841 0.853 0.866 0.880 0.894 0.906 0.918 0.929 0.938 0.946 0.954 0.960 0.966 0.970 0.974 0.977 0.979 0.981 0.982 0.983 0.983 0.983 0.983 0.983 0.983 0.983 0.982 0.981 0.980 0.978 0.977 0.975 0.972 0.969 0.965 0.962 0.960 0.958 0.956 0.955 0.954 0.953 0.954 0.955 0.960 0.971 0.989 1.013 1.026 1.026 0.000 
0.000 0.598 0.598 0.608 0.594 0.564 0.528 0.501 0.483 0.469 0.460 0.453 0.448 0.445 0.444 0.443 0.442 0.443 0.443 0.445 0.448 0.453 0.459 0.467 0.477 0.488 0.501 0.515 0.531 0.549 0.568 0.589 0.611 0.635 0.661 0.688 0.716 0.742 0.768 0.792 0.816 0.839 0.862 0.884 0.904 0.923 0.941 0.956 0.969 0.981 0.992 1.001 1.009 1.015 1.021 1.026 1.030 1.033 1.035 1.037 1.038 1.039 1.040 1.041 1.042 1.044 1.045 1.047 1.050 1.053 1.055 1.056 1.057 1.058 1.058 1.058 1.057 1.056 1.054 1.050 1.046 1.040 1.034 1.026 1.018 1.010 1.001 0.991 0.981 0.969 0.957 0.942 0.925 0.907 0.887 0.869 0.853 0.839 0.828 0.819 0.812 0.807 0.803 0.800 0.798 0.797 0.797 0.797 0.797 0.798 0.799 0.801 0.803 0.807 0.812 0.818 0.826 0.835 0.845 0.856 0.869 0.881 0.894 0.905 0.916 0.926 0.934 0.941 0.948 0.954 0.958 0.962 0.965 0.968 0.970 0.971 0.972 0.973 0.973 0.973 0.973 0.973 0.973 0.973 0.972 0.971 0.970 0.969 0.967 0.965 0.963 0.960 0.958 0.956 0.954 0.952 0.950 0.947 0.945 0.943 0.942 0.944 0.952 0.971 1.004 1.023 1.023 0.000 
0.000 0.572 0.572 0.583 0.575 0.556 0.527 0.502 0.484 0.472 0.463 0.458 0.454 0.452 0.451 0.450 0.450 0.451 0.452 0.455 0.459 0.464 0.471 0.480 0.490 0.501 0.514 0.529 0.544 0.562 0.581 0.601 0.623 0.646 0.670 0.696 0.723 0.749 0.775 0.801 0.827 0.852 0.876 0.900 0.921 0.940 0.958 0.973 0.987 1.000 1.011 1.020 1.028 1.036 1.042 1.047 1.051 1.054 1.057 1.059 1.061 1.063 1.064 1.065 1.066 1.068 1.069 1.071 1.072 1.074 1.076 1.076 1.077 1.077 1.077 1.076 1.075 1.073 1.070 1.066 1.061 1.054 1.047 1.038 1.028 1.018 1.007 0.995 0.983 0.971 0.957 0.942 0.925 0.906 0.887 0.870 0.855 0.842 0.832 0.823 0.816 0.810 0.806 0.803 0.801 0.800 0.800 0.800 0.800 0.800 0.801 0.802 0.804 0.807 0.811 0.816 0.823 0.830 0.839 0.848 0.859 0.870 0.882 0.894 0.904 0.914 0.923 0.930 0.937 0.943 0.947 0.951 0.955 0.958 0.960 0.961 0.962 0.963 0.964 0.964 0.964 0.964 0.964 0.964 0.963 0.963 0.962 0.961 0.960 0.959 0.957 0.955 0.953 0.951 0.949 0.946 0.943 0.939 0.933 0.927 0.921 0.918 0.921 0.936 0.985 1.042 1.042 0.000 
0.000 0.546 0.546 0.558 0.553 0.542 0.523 0.500 0.484 0.472 0.465 0.461 0.458 0.457 0.456 0.456 0.456 0.458 0.460 0.464 0.469 0.475 0.483 0.492 0.502 0.513 0.527 0.541 0.557 0.574 0.592 0.612 0.634 0.656 0.680 0.705 0.731 0.757 0.785 0.813 0.840 0.866 0.891 0.914 0.936 0.955 0.973 0.989 1.004 1.017 1.028 1.038 1.047 1.055 1.061 1.066 1.071 1.075 1.078 1.080 1.082 1.084 1.086 1.087 1.088 1.090 1.091 1.092 1.093 1.094 1.095 1.095 1.095 1.095 1.095 1.094 1.092 1.090 1.086 1.082 1.076 1.069 1.060 1.050 1.039 1.027 1.015 1.001 0.988 0.973 0.958 0.942 0.925 0.906 0.888 0.872 0.858 0.845 0.835 0.826 0.819 0.813 0.809 0.806 0.804 0.803 0.802 0.802 0.802 0.802 0.802 0.803 0.805 0.807 0.810 0.815 0.820 0.826 0.833 0.842 0.851 0.861 0.872 0.883 0.894 0.903 0.912 0.920 0.927 0.932 0.938 0.942 0.945 0.948 0.950 0.952 0.953 0.954 0.955 0.955 0.955 0.955 0.955 0.955 0.955 0.955 0.954 0.954 0.953 0.952 0.950 0.949 0.947 0.945 0.943 0.940 0.936 0.930 0.923 0.914 0.902 0.888 0.873 0.864 0.908 1.069 1.069 0.000 
0.000 0.520 0.520 0.533 0.530 0.523 0.512 0.496 0.481 0.471 0.465 0.462 0.460 0.460 0.459 0.460 0.461 0.464 0.467 0.472 0.478 0.485 0.493 0.502 0.513 0.525 0.538 0.552 0.568 0.585 0.603 0.622 0.643 0.665 0.689 0.714 0.740 0.767 0.795 0.824 0.852 0.879 0.904 0.928 0.950 0.970 0.988 1.004 1.019 1.033 1.044 1.055 1.064 1.072 1.079 1.085 1.090 1.094 1.097 1.100 1.102 1.104 1.106 1.107 1.109 1.110 1.111 1.112 1.112 1.113 1.113 1.113 1.113 1.113 1.112 1.111 1.109 1.106 1.102 1.097 1.091 1.083 1.074 1.063 1.051 1.038 1.024 1.009 0.993 0.977 0.960 0.943 0.925 0.907 0.890 0.874 0.861 0.849 0.838 0.829 0.822 0.816 0.812 0.808 0.806 0.805 0.804 0.803 0.803 0.803 0.804 0.804 0.805 0.807 0.810 0.813 0.817 0.823 0.829 0.836 0.844 0.853 0.863 0.874 0.884 0.894 0.903 0.910 0.917 0.923 0.929 0.933 0.937 0.940 0.942 0.944 0.945 0.946 0.947 0.947 0.947 0.947 0.948 0.947 0.947 0.947 0.947 0.946 0.946 0.945 0.944 0.943 0.941 0.939 0.937 0.933 0.929 0.923 0.916 0.906 0.893 0.872 0.838 0.772 0.680 0.679 0.679 0.000 
0.000 0.495 0.495 0.507 0.506 0.503 0.497 0.487 0.477 0.469 0.464 0.462 0.461 0.461 0.462 0.464 0.466 0.470 0.474 0.480 0.486 0.494 0.502 0.512 0.523 0.535 0.548 0.562 0.578 0.594 0.612 0.632 0.652 0.674 0.697 0.722 0.748 0.775 0.804 0.834 0.863 0.890 0.916 0.940 0.962 0.982 1.001 1.018 1.034 1.047 1.060 1.071 1.080 1.089 1.096 1.102 1.107 1.112 1.115 1.118 1.121 1.123 1.125 1.126 1.127 1.128 1.129 1.130 1.130 1.131 1.131 1.131 1.130 1.130 1.129 1.127 1.124 1.121 1.117 1.111 1.105 1.097 1.087 1.076 1.064 1.049 1.034 1.017 1.000 0.982 0.963 0.945 0.926 0.908 0.892 0.877 0.863 0.852 0.841 0.832 0.825 0.819 0.814 0.811 0.808 0.806 0.805 0.805 0.805 0.805 0.805 0.805 0.806 0.807 0.809 0.812 0.815 0.820 0.825 0.831 0.839 0.847 0.855 0.865 0.875 0.885 0.894 0.902 0.909 0.915 0.920 0.925 0.929 0.932 0.934 0.936 0.938 0.939 0.939 0.940 0.940 0.940 0.940 0.940 0.940 0.940 0.940 0.939 0.939 0.938 0.937 0.936 0.935 0.933 0.930 0.927 0.923 0.918 0.911 0.902 0.890 0.869 0.831 0.751 0.556 0.134 0.134 0.000 
0.000 0.469 0.469 0.482 0.481 0.480 0.478 0.475 0.469 0.465 0.462 0.461 0.461 0.462 0.464 0.467 0.470 0.475 0.480 0.487 0.494 0.502 0.511 0.521 0.532 0.544 0.557 0.571 0.587 0.603 0.621 0.640 0.660 0.682 0.705 0.729 0.755 0.783 0.812 0.843 0.872 0.900 0.926 0.951 0.973 0.994 1.013 1.031 1.047 1.061 1.074 1.085 1.095 1.104 1.111 1.118 1.124 1.128 1.132 1.135 1.138 1.140 1.142 1.144 1.145 1.145 1.146 1.147 1.147 1.147 1.147 1.147 1.146 1.145 1.144 1.142 1.139 1.136 1.131 1.125 1.118 1.110 1.100 1.089 1.075 1.061 1.044 1.026 1.007 0.988 0.967 0.947 0.928 0.911 0.895 0.880 0.867 0.855 0.844 0.835 0.828 0.822 0.817 0.813 0.810 0.808 0.807 0.806 0.806 0.806 0.806 0.806 0.806 0.807 0.809 0.811 0.814 0.818 0.822 0.827 0.834 0.841 0.849 0.858 0.867 0.877 0.886 0.894 0.901 0.908 0.913 0.918 0.922 0.925 0.927 0.929 0.931 0.932 0.933 0.933 0.933 0.933 0.933 0.933 0.933 0.933 0.933 0.932 0.932 0.931 0.930 0.929 0.927 0.926 0.923 0.921 0.917 0.913 0.908 0.901 0.890 0.872 0.840 0.776 0.642 0.435 0.435 0.000 
0.000 0.443 0.443 0.456 0.456 0.457 0.458 0.458 0.458 0.457 0.458 0.459 0.460 0.463 0.466 0.469 0.474 0.480 0.486 0.493 0.500 0.509 0.518 0.529 0.540 0.552 0.565 0.579 0.594 0.611 0.628 0.647 0.667 0.688 0.711 0.736 0.762 0.790 0.819 0.850 0.880 0.909 0.935 0.960 0.983 1.005 1.024 1.042 1.059 1.073 1.087 1.098 1.109 1.118 1.126 1.133 1.139 1.144 1.148 1.151 1.154 1.156 1.158 1.159 1.161 1.161 1.162 1.162 1.162 1.162 1.162 1.162 1.161 1.160 1.159 1.156 1.153 1.149 1.145 1.139 1.131 1.123 1.112 1.101 1.087 1.072 1.055 1.036 1.016 0.994 0.972 0.951 0.932 0.914 0.898 0.883 0.870 0.858 0.848 0.839 0.831 0.824 0.819 0.815 0.812 0.810 0.808 0.807 0.807 0.806 0.806 0.806 0.807 0.807 0.809 0.810 0.813 0.816 0.820 0.824 0.830 0.836 0.843 0.851 0.860 0.870 0.879 0.887 0.894 0.901 0.907 0.911 0.915 0.919 0.921 0.923 0.925 0.926 0.926 0.927 0.927 0.927 0.927 0.927 0.927 0.927 0.926 0.926 0.925 0.924 0.923 0.921 0.920 0.919 0.917 0.914 0.911 0.909 0.905 0.901 0.896 0.888 0.879 0.875 0.903 1.014 1.014 0.000 
0.000 0.417 0.417 0.430 0.432 0.434 0.436 0.439 0.443 0.447 0.451 0.455 0.458 0.462 0.467 0.472 0.478 0.484 0.491 0.498 0.507 0.516 0.525 0.536 0.547 0.559 0.572 0.586 0.601 0.617 0.634 0.653 0.673 0.694 0.717 0.742 0.768 0.796 0.826 0.857 0.887 0.916 0.943 0.969 0.992 1.014 1.034 1.053 1.070 1.085 1.099 1.111 1.121 1.131 1.139 1.146 1.153 1.158 1.162 1.166 1.169 1.171 1.173 1.174 1.175 1.176 1.176 1.176 1.176 1.176 1.176 1.176 1.175 1.174 1.172 1.170 1.167 1.163 1.157 1.151 1.144 1.135 1.124 1.112 1.098 1.083 1.065 1.046 1.025 1.002 0.978 0.956 0.936 0.918 0.902 0.887 0.874 0.862 0.851 0.842 0.834 0.827 0.822 0.817 0.814 0.811 0.809 0.808 0.807 0.807 0.807 0.807 0.807 0.808 0.808 0.810 0.812 0.814 0.817 0.822 0.826 0.832 0.838 0.846 0.854 0.863 0.872 0.881 0.888 0.895 0.901 0.905 0.910 0.913 0.916 0.918 0.919 0.920 0.921 0.921 0.922 0.922 0.922 0.922 0.922 0.921 0.921 0.920 0.919 0.917 0.916 0.914 0.913 0.911 0.909 0.908 0.906 0.904 0.903 0.903 0.905 0.911 0.925 0.957 1.034 1.132 1.132 0.000 
0.000 0.391 0.391 0.405 0.408 0.411 0.416 0.421 0.428 0.436 0.443 0.450 0.456 0.462 0.468 0.474 0.481 0.488 0.495 0.503 0.512 0.521 0.531 0.542 0.553 0.565 0.578 0.592 0.607 0.623 0.640 0.658 0.678 0.700 0.723 0.747 0.774 0.801 0.831 0.862 0.893 0.923 0.950 0.976 1.000 1.023 1.043 1.062 1.080 1.095 1.109 1.122 1.133 1.143 1.152 1.159 1.165 1.171 1.175 1.179 1.182 1.184 1.186 1.188 1.189 1.189 1.190 1.190 1.190 1.190 1.189 1.189 1.188 1.187 1.185 1.183 1.179 1.175 1.170 1.163 1.155 1.146 1.136 1.123 1.109 1.094 1.076 1.056 1.034 1.010 0.985 0.963 0.942 0.923 0.907 0.891 0.878 0.865 0.854 0.845 0.837 0.830 0.824 0.819 0.815 0.813 0.810 0.809 0.808 0.808 0.807 0.807 0.807 0.808 0.808 0.809 0.811 0.813 0.816 0.819 0.824 0.829 0.834 0.841 0.849 0.857 0.866 0.875 0.883 0.889 0.895 0.900 0.904 0.908 0.911 0.913 0.914 0.915 0.916 0.917 0.917 0.917 0.917 0.917 0.916 0.916 0.915 0.914 0.913 0.911 0.909 0.907 0.905 0.903 0.902 0.901 0.900 0.900 0.901 0.903 0.909 0.922 0.947 0.991 1.064 1.116 1.116 0.000 
0.000 0.365 0.365 0.380 0.384 0.390 0.397 0.406 0.417 0.428 0.437 0.446 0.454 0.461 0.469 0.476 0.483 0.491 0.499 0.508 0.517 0.526 0.536 0.547 0.558 0.570 0.583 0.597 0.611 0.627 0.644 0.663 0.683 0.704 0.727 0.752 0.778 0.806 0.836 0.867 0.898 0.928 0.957 0.983 1.008 1.030 1.052 1.071 1.089 1.105 1.119 1.132 1.144 1.154 1.163 1.170 1.177 1.183 1.187 1.191 1.194 1.197 1.199 1.200 1.201 1.202 1.202 1.202 1.202 1.202 1.202 1.201 1.200 1.199 1.197 1.194 1.191 1.187 1.181 1.175 1.167 1.158 1.147 1.134 1.120 1.104 1.086 1.066 1.044 1.019 0.993 0.970 0.949 0.929 0.912 0.896 0.882 0.869 0.858 0.848 0.840 0.832 0.826 0.821 0.817 0.814 0.812 0.810 0.809 0.808 0.808 0.808 0.808 0.808 0.808 0.809 0.810 0.812 0.814 0.817 0.821 0.826 0.831 0.837 0.844 0.852 0.861 0.870 0.878 0.885 0.891 0.896 0.900 0.903 0.906 0.908 0.910 0.911 0.912 0.912 0.912 0.912 0.912 0.912 0.912 0.911 0.911 0.909 0.908 0.905 0.903 0.900 0.897 0.896 0.894 0.894 0.894 0.895 0.897 0.901 0.909 0.925 0.953 1.003 1.069 1.107 1.107 0.000 
0.000 0.339 0.339 0.355 0.362 0.371 0.381 0.395 0.409 0.422 0.434 0.444 0.453 0.461 0.469 0.477 0.486 0.494 0.502 0.511 0.521 0.530 0.541 0.551 0.562 0.574 0.587 0.601 0.615 0.631 0.648 0.667 0.687 0.708 0.732 0.756 0.782 0.810 0.840 0.871 0.903 0.933 0.962 0.989 1.014 1.037 1.059 1.079 1.097 1.113 1.128 1.141 1.153 1.164 1.173 1.181 1.188 1.194 1.199 1.203 1.206 1.208 1.210 1.212 1.212 1.213 1.213 1.213 1.213 1.213 1.213 1.213 1.212 1.210 1.208 1.205 1.202 1.198 1.192 1.185 1.177 1.168 1.157 1.145 1.131 1.115 1.096 1.076 1.053 1.029 1.003 0.978 0.956 0.936 0.918 0.902 0.887 0.874 0.862 0.852 0.843 0.835 0.829 0.823 0.819 0.815 0.813 0.811 0.810 0.809 0.808 0.808 0.808 0.808 0.808 0.809 0.810 0.811 0.813 0.816 0.819 0.823 0.828 0.834 0.841 0.848 0.856 0.865 0.873 0.880 0.886 0.892 0.896 0.900 0.902 0.905 0.906 0.907 0.908 0.908 0.909 0.909 0.909 0.908 0.908 0.907 0.906 0.905 0.903 0.900 0.897 0.894 0.890 0.888 0.887 0.886 0.887 0.888 0.890 0.896 0.905 0.923 0.953 1.004 1.066 1.099 1.099 0.000 
0.000 0.314 0.314 0.330 0.340 0.353 0.368 0.387 0.404 0.419 0.432 0.443 0.452 0.461 0.470 0.479 0.488 0.496 0.505 0.515 0.524 0.534 0.544 0.555 0.566 0.578 0.590 0.604 0.619 0.635 0.652 0.670 0.690 0.712 0.735 0.760 0.786 0.813 0.843 0.874 0.906 0.937 0.966 0.994 1.019 1.043 1.065 1.085 1.104 1.121 1.136 1.150 1.162 1.173 1.182 1.190 1.198 1.204 1.209 1.213 1.216 1.219 1.221 1.222 1.223 1.224 1.224 1.224 1.224 1.224 1.224 1.223 1.222 1.221 1.219 1.216 1.212 1.208 1.202 1.196 1.188 1.178 1.167 1.155 1.141 1.125 1.107 1.086 1.064 1.039 1.012 0.987 0.964 0.943 0.924 0.907 0.892 0.878 0.866 0.855 0.846 0.838 0.831 0.825 0.821 0.817 0.814 0.812 0.810 0.809 0.809 0.808 0.808 0.808 0.809 0.809 0.810 0.811 0.813 0.815 0.818 0.822 0.826 0.831 0.837 0.844 0.852 0.861 0.869 0.876 0.883 0.888 0.893 0.896 0.899 0.901 0.903 0.904 0.905 0.905 0.905 0.905 0.905 0.905 0.905 0.904 0.903 0.901 0.899 0.896 0.893 0.888 0.884 0.881 0.879 0.877 0.877 0.878 0.880 0.885 0.896 0.914 0.945 0.996 1.060 1.095 1.095 0.000 
0.000 0.288 0.288 0.305 0.319 0.337 0.359 0.382 0.402 0.418 0.431 0.442 0.453 0.462 0.471 0.481 0.490 0.499 0.508 0.517 0.527 0.537 0.547 0.557 0.568 0.580 0.593 0.606 0.621 0.637 0.655 0.673 0.693 0.715 0.738 0.763 0.789 0.816 0.846 0.877 0.909 0.940 0.970 0.998 1.024 1.048 1.071 1.091 1.110 1.127 1.143 1.157 1.170 1.181 1.191 1.199 1.206 1.213 1.218 1.222 1.225 1.228 1.230 1.232 1.233 1.233 1.233 1.233 1.233 1.233 1.233 1.233 1.232 1.230 1.228 1.225 1.222 1.217 1.212 1.205 1.197 1.188 1.177 1.165 1.150 1.134 1.116 1.096 1.074 1.050 1.023 0.997 0.973 0.951 0.931 0.913 0.897 0.883 0.870 0.859 0.849 0.841 0.834 0.827 0.822 0.818 0.815 0.813 0.811 0.810 0.809 0.809 0.809 0.809 0.809 0.809 0.810 0.811 0.812 0.814 0.817 0.820 0.824 0.829 0.835 0.841 0.849 0.857 0.866 0.873 0.879 0.885 0.889 0.893 0.896 0.899 0.900 0.901 0.902 0.903 0.903 0.903 0.903 0.902 0.902 0.901 0.900 0.898 0.896 0.892 0.888 0.884 0.878 0.873 0.869 0.867 0.865 0.864 0.865 0.868 0.876 0.892 0.920 0.970 1.045 1.092 1.092 0.000 
0.000 0.262 0.262 0.280 0.299 0.324 0.354 0.380 0.401 0.418 0.431 0.443 0.453 0.463 0.473 0.482 0.491 0.501 0.510 0.520 0.529 0.539 0.549 0.559 0.570 0.582 0.595 0.609 0.624 0.640 0.657 0.676 0.696 0.717 0.740 0.765 0.791 0.819 0.848 0.879 0.911 0.943 0.973 1.001 1.028 1.053 1.075 1.096 1.116 1.133 1.149 1.164 1.177 1.188 1.198 1.207 1.214 1.221 1.226 1.230 1.234 1.237 1.239 1.240 1.241 1.242 1.242 1.242 1.242 1.242 1.242 1.241 1.240 1.239 1.237 1.234 1.231 1.226 1.221 1.214 1.206 1.197 1.186 1.174 1.160 1.144 1.126 1.106 1.084 1.060 1.034 1.007 0.982 0.959 0.938 0.920 0.903 0.888 0.875 0.863 0.853 0.844 0.836 0.830 0.824 0.820 0.816 0.814 0.812 0.811 0.810 0.809 0.809 0.809 0.809 0.809 0.810 0.810 0.812 0.813 0.816 0.819 0.822 0.827 0.832 0.839 0.846 0.854 0.862 0.870 0.876 0.882 0.887 0.891 0.894 0.896 0.898 0.899 0.900 0.900 0.900 0.900 0.900 0.900 0.900 0.899 0.898 0.896 0.893 0.889 0.885 0.880 0.873 0.867 0.860 0.854 0.849 0.846 0.843 0.841 0.843 0.851 0.871 0.915 1.004 1.090 1.090 0.000 
0.000 0.236 0.236 0.256 0.281 0.316 0.353 0.380 0.401 0.418 0.432 0.444 0.455 0.465 0.475 0.484 0.493 0.503 0.512 0.521 0.531 0.540 0.550 0.561 0.572 0.584 0.596 0.610 0.625 0.642 0.659 0.678 0.698 0.719 0.742 0.767 0.793 0.820 0.849 0.880 0.913 0.945 0.976 1.004 1.031 1.056 1.080 1.101 1.121 1.139 1.155 1.170 1.183 1.194 1.205 1.214 1.221 1.228 1.233 1.238 1.242 1.244 1.247 1.248 1.249 1.250 1.250 1.250 1.250 1.250 1.250 1.249 1.249 1.247 1.245 1.242 1.239 1.235 1.229 1.223 1.215 1.205 1.195 1.183 1.169 1.153 1.135 1.116 1.094 1.070 1.044 1.017 0.991 0.967 0.946 0.926 0.909 0.893 0.879 0.867 0.856 0.847 0.839 0.832 0.826 0.821 0.818 0.815 0.813 0.811 0.810 0.810 0.809 0.809 0.809 0.809 0.810 0.810 0.811 0.813 0.815 0.818 0.821 0.825 0.831 0.836 0.843 0.851 0.859 0.867 0.874 0.880 0.885 0.889 0.892 0.894 0.896 0.897 0.898 0.899 0.899 0.899 0.899 0.898 0.898 0.897 0.896 0.894 0.891 0.887 0.882 0.876 0.869 0.861 0.852 0.843 0.833 0.823 0.813 0.803 0.793 0.786 0.785 0.806 0.885 1.087 1.087 0.000 
0.000 0.210 0.210 0.232 0.267 0.315 0.353 0.382 0.403 0.420 0.434 0.446 0.457 0.467 0.477 0.486 0.496 0.505 0.514 0.523 0.532 0.541 0.551 0.561 0.573 0.585 0.598 0.612 0.627 0.643 0.661 0.680 0.700 0.721 0.744 0.768 0.794 0.822 0.851 0.882 0.914 0.947 0.978 1.007 1.034 1.059 1.083 1.105 1.125 1.143 1.160 1.175 1.188 1.200 1.211 1.220 1.228 1.234 1.240 1.245 1.249 1.252 1.254 1.255 1.256 1.257 1.257 1.258 1.258 1.258 1.257 1.257 1.256 1.255 1.253 1.250 1.247 1.242 1.237 1.230 1.223 1.214 1.203 1.191 1.177 1.162 1.144 1.125 1.104 1.080 1.055 1.027 1.000 0.976 0.954 0.933 0.915 0.899 0.884 0.871 0.860 0.850 0.841 0.834 0.828 0.823 0.819 0.816 0.814 0.812 0.811 0.810 0.810 0.809 0.809 0.809 0.810 0.810 0.811 0.813 0.815 0.817 0.820 0.824 0.829 0.835 0.841 0.848 0.857 0.865 0.871 0.877 0.883 0.887 0.890 0.893 0.895 0.896 0.897 0.897 0.897 0.897 0.897 0.897 0.897 0.896 0.894 0.892 0.889 0.885 0.880 0.874 0.866 0.857 0.846 0.833 0.819 0.803 0.785 0.763 0.738 0.705 0.664 0.618 0.577 0.612 0.612 0.000 
0.000 0.184 0.184 0.210 0.263 0.318 0.358 0.387 0.408 0.425 0.439 0.451 0.461 0.471 0.480 0.489 0.498 0.506 0.515 0.524 0.532 0.542 0.552 0.562 0.574 0.586 0.599 0.613 0.628 0.645 0.662 0.681 0.701 0.722 0.745 0.769 0.795 0.823 0.852 0.882 0.915 0.948 0.979 1.009 1.036 1.062 1.086 1.108 1.128 1.147 1.164 1.179 1.193 1.205 1.216 1.225 1.233 1.240 1.246 1.251 1.255 1.258 1.260 1.262 1.263 1.264 1.264 1.264 1.264 1.264 1.264 1.263 1.263 1.261 1.259 1.257 1.253 1.249 1.244 1.238 1.230 1.221 1.211 1.199 1.185 1.170 1.153 1.134 1.113 1.090 1.065 1.037 1.010 0.985 0.961 0.940 0.921 0.904 0.889 0.875 0.863 0.853 0.844 0.836 0.830 0.825 0.820 0.817 0.814 0.813 0.811 0.810 0.810 0.810 0.810 0.810 0.810 0.810 0.811 0.813 0.814 0.817 0.820 0.823 0.828 0.833 0.839 0.846 0.854 0.862 0.869 0.876 0.881 0.885 0.889 0.891 0.893 0.895 0.896 0.896 0.896 0.896 0.896 0.896 0.896 0.895 0.893 0.891 0.888 0.884 0.879 0.872 0.864 0.854 0.841 0.827 0.809 0.789 0.764 0.735 0.698 0.650 0.582 0.476 0.284 0.063 0.063 0.000 
0.000 0.193 0.193 0.206 0.272 0.330 0.370 0.398 0.418 0.434 0.446 0.457 0.467 0.475 0.484 0.492 0.500 0.508 0.516 0.524 0.533 0.542 0.552 0.563 0.574 0.586 0.600 0.614 0.629 0.646 0.663 0.682 0.702 0.723 0.746 0.770 0.796 0.823 0.852 0.883 0.916 0.949 0.980 1.010 1.038 1.064 1.088 1.111 1.131 1.150 1.167 1.183 1.197 1.209 1.220 1.230 1.238 1.245 1.251 1.256 1.260 1.263 1.266 1.268 1.269 1.270 1.270 1.270 1.270 1.270 1.270 1.269 1.269 1.267 1.266 1.263 1.260 1.256 1.250 1.244 1.237 1.228 1.218 1.206 1.193 1.178 1.161 1.142 1.121 1.099 1.074 1.047 1.019 0.993 0.969 0.947 0.928 0.910 0.894 0.880 0.867 0.856 0.847 0.839 0.832 0.826 0.822 0.818 0.815 0.813 0.812 0.811 0.810 0.810 0.810 0.810 0.810 0.811 0.811 0.812 0.814 0.816 0.819 0.822 0.827 0.832 0.838 0.844 0.852 0.860 0.868 0.874 0.879 0.884 0.887 0.890 0.892 0.894 0.895 0.895 0.896 0.896 0.896 0.895 0.895 0.894 0.893 0.891 0.887 0.883 0.878 0.871 0.862 0.851 0.838 0.822 0.803 0.779 0.751 0.716 0.673 0.618 0.546 0.434 0.217 0.000 0.000 0.000 
0.000 0.306 0.306 0.251 0.303 0.358 0.394 0.418 0.435 0.448 0.458 0.466 0.474 0.481 0.488 0.495 0.502 0.509 0.517 0.525 0.533 0.542 0.552 0.563 0.575 0.587 0.600 0.615 0.630 0.646 0.664 0.683 0.703 0.724 0.746 0.771 0.796 0.824 0.853 0.883 0.916 0.949 0.981 1.011 1.039 1.066 1.090 1.113 1.134 1.153 1.170 1.186 1.200 1.213 1.224 1.234 1.242 1.250 1.256 1.261 1.265 1.268 1.271 1.273 1.274 1.275 1.275 1.275 1.276 1.275 1.275 1.275 1.274 1.273 1.271 1.269 1.266 1.262 1.256 1.250 1.243 1.234 1.224 1.213 1.200 1.185 1.168 1.150 1.130 1.107 1.083 1.057 1.029 1.002 0.977 0.955 0.934 0.916 0.899 0.884 0.871 0.860 0.850 0.841 0.834 0.828 0.823 0.820 0.817 0.814 0.813 0.812 0.811 0.811 0.810 0.810 0.811 0.811 0.811 0.812 0.814 0.816 0.819 0.822 0.826 0.831 0.836 0.843 0.850 0.859 0.866 0.872 0.878 0.882 0.886 0.889 0.891 0.893 0.894 0.895 0.895 0.895 0.895 0.895 0.895 0.894 0.892 0.890 0.887 0.883 0.878 0.870 0.862 0.850 0.837 0.820 0.799 0.774 0.743 0.705 0.657 0.601 0.536 0.446 0.277 0.000 0.000 0.000 
0.000 0.436 0.436 0.368 0.380 0.412 0.435 0.450 0.461 0.468 0.474 0.479 0.483 0.488 0.493 0.498 0.504 0.510 0.517 0.525 0.533 0.543 0.553 0.564 0.575 0.588 0.601 0.615 0.631 0.647 0.665 0.683 0.703 0.724 0.747 0.771 0.797 0.824 0.853 0.884 0.916 0.950 0.982 1.012 1.040 1.067 1.092 1.115 1.136 1.155 1.173 1.189 1.203 1.216 1.227 1.237 1.246 1.254 1.260 1.265 1.269 1.273 1.275 1.277 1.279 1.279 1.280 1.280 1.280 1.280 1.280 1.280 1.279 1.278 1.276 1.274 1.271 1.267 1.262 1.256 1.249 1.240 1.231 1.219 1.206 1.192 1.176 1.158 1.138 1.116 1.092 1.066 1.038 1.010 0.985 0.962 0.941 0.921 0.904 0.889 0.875 0.863 0.853 0.844 0.837 0.830 0.825 0.821 0.818 0.815 0.813 0.812 0.811 0.811 0.811 0.811 0.811 0.811 0.812 0.813 0.814 0.816 0.818 0.821 0.825 0.830 0.835 0.842 0.849 0.857 0.864 0.871 0.877 0.881 0.885 0.888 0.891 0.893 0.894 0.895 0.895 0.895 0.895 0.895 0.894 0.894 0.892 0.890 0.887 0.883 0.877 0.870 0.861 0.850 0.836 0.819 0.798 0.772 0.740 0.699 0.648 0.590 0.543 0.517 0.519 0.492 0.492 0.000 
0.000 0.611 0.611 0.516 0.506 0.499 0.495 0.491 0.489 0.488 0.488 0.489 0.491 0.494 0.497 0.501 0.505 0.511 0.518 0.525 0.534 0.543 0.553 0.564 0.576 0.588 0.602 0.616 0.631 0.647 0.665 0.683 0.703 0.724 0.747 0.771 0.797 0.824 0.853 0.884 0.916 0.950 0.982 1.013 1.041 1.068 1.093 1.116 1.137 1.157 1.175 1.191 1.206 1.219 1.230 1.240 1.249 1.257 1.263 1.269 1.273 1.277 1.279 1.281 1.283 1.284 1.284 1.284 1.284 1.284 1.284 1.284 1.283 1.282 1.281 1.278 1.275 1.272 1.267 1.261 1.254 1.246 1.236 1.225 1.213 1.198 1.182 1.165 1.145 1.123 1.100 1.074 1.047 1.019 0.993 0.969 0.947 0.927 0.910 0.894 0.880 0.867 0.856 0.847 0.839 0.832 0.827 0.823 0.819 0.816 0.814 0.813 0.812 0.812 0.811 0.811 0.811 0.812 0.812 0.813 0.814 0.816 0.818 0.821 0.825 0.829 0.834 0.841 0.847 0.855 0.863 0.870 0.876 0.881 0.885 0.888 0.890 0.892 0.894 0.894 0.895 0.895 0.895 0.895 0.894 0.894 0.892 0.890 0.887 0.883 0.877 0.870 0.861 0.850 0.836 0.819 0.798 0.772 0.739 0.698 0.646 0.586 0.547 0.543 0.627 1.033 1.033 0.000 
0.000 0.785 0.785 0.688 0.639 0.582 0.543 0.520 0.507 0.500 0.497 0.496 0.497 0.498 0.499 0.502 0.506 0.512 0.518 0.526 0.534 0.543 0.553 0.564 0.576 0.589 0.602 0.616 0.632 0.648 0.665 0.683 0.703 0.724 0.747 0.771 0.797 0.824 0.853 0.884 0.916 0.950 0.982 1.013 1.042 1.069 1.094 1.117 1.139 1.158 1.176 1.193 1.208 1.221 1.233 1.243 1.252 1.260 1.266 1.272 1.276 1.280 1.283 1.285 1.286 1.287 1.288 1.288 1.288 1.288 1.288 1.288 1.287 1.286 1.285 1.283 1.280 1.276 1.271 1.266 1.259 1.251 1.241 1.231 1.218 1.204 1.189 1.171 1.152 1.131 1.108 1.083 1.056 1.027 1.001 0.976 0.954 0.933 0.915 0.898 0.884 0.871 0.860 0.850 0.842 0.835 0.829 0.824 0.820 0.818 0.815 0.814 0.813 0.812 0.812 0.812 0.812 0.812 0.813 0.813 0.814 0.816 0.818 0.821 0.825 0.829 0.834 0.840 0.846 0.854 0.862 0.869 0.875 0.880 0.884 0.887 0.890 0.892 0.893 0.894 0.895 0.895 0.895 0.895 0.894 0.894 0.892 0.890 0.887 0.883 0.878 0.871 0.862 0.851 0.837 0.819 0.798 0.772 0.740 0.699 0.648 0.589 0.541 0.511 0.503 0.568 0.568 0.000 
0.000 0.955 0.955 0.846 0.721 0.624 0.567 0.534 0.515 0.506 0.501 0.500 0.500 0.500 0.501 0.504 0.508 0.513 0.519 0.526 0.535 0.544 0.554 0.565 0.577 0.589 0.602 0.617 0.632 0.648 0.665 0.683 0.703 0.724 0.747 0.771 0.797 0.824 0.853 0.884 0.916 0.950 0.982 1.013 1.042 1.069 1.094 1.118 1.139 1.159 1.178 1.194 1.209 1.223 1.234 1.245 1.254 1.262 1.269 1.274 1.279 1.283 1.286 1.288 1.289 1.290 1.291 1.291 1.291 1.291 1.291 1.291 1.291 1.290 1.288 1.286 1.283 1.280 1.275 1.270 1.263 1.255 1.246 1.236 1.224 1.210 1.195 1.177 1.159 1.138 1.115 1.090 1.064 1.036 1.008 0.983 0.960 0.939 0.920 0.903 0.888 0.875 0.863 0.853 0.844 0.837 0.831 0.826 0.822 0.819 0.817 0.815 0.814 0.813 0.813 0.813 0.813 0.813 0.813 0.814 0.815 0.816 0.818 0.821 0.824 0.828 0.833 0.839 0.845 0.853 0.860 0.868 0.874 0.879 0.883 0.887 0.890 0.892 0.893 0.894 0.895 0.895 0.895 0.895 0.895 0.894 0.893 0.891 0.888 0.884 0.878 0.871 0.863 0.852 0.838 0.821 0.800 0.775 0.743 0.704 0.656 0.599 0.532 0.440 0.265 0.026 0.026 0.000 
0.000 1.004 1.004 0.925 0.747 0.636 0.573 0.537 0.518 0.508 0.503 0.501 0.501 0.501 0.503 0.505 0.509 0.514 0.520 0.527 0.535 0.545 0.555 0.565 0.577 0.589 0.603 0.617 0.632 0.648 0.665 0.683 0.703 0.724 0.747 0.771 0.797 0.824 0.853 0.884 0.916 0.950 0.982 1.013 1.042 1.069 1.095 1.118 1.140 1.160 1.178 1.195 1.210 1.224 1.236 1.247 1.256 1.264 1.271 1.276 1.281 1.285 1.288 1.290 1.292 1.293 1.294 1.294 1.294 1.294 1.294 1.294 1.293 1.293 1.291 1.289 1.287 1.283 1.279 1.274 1.267 1.259 1.251 1.240 1.228 1.215 1.200 1.183 1.165 1.144 1.122 1.098 1.072 1.043 1.016 0.990 0.967 0.945 0.926 0.908 0.893 0.879 0.867 0.856 0.847 0.840 0.833 0.828 0.824 0.821 0.818 0.816 0.815 0.814 0.814 0.814 0.814 0.814 0.814 0.814 0.815 0.817 0.819 0.821 0.824 0.828 0.833 0.838 0.844 0.852 0.859 0.866 0.873 0.878 0.883 0.886 0.889 0.892 0.893 0.894 0.895 0.895 0.895 0.895 0.895 0.894 0.893 0.891 0.888 0.885 0.880 0.873 0.864 0.854 0.841 0.824 0.805 0.780 0.751 0.714 0.670 0.615 0.541 0.429 0.214 0.000 0.000 0.000 
0.000 0.785 0.785 0.875 0.740 0.631 0.570 0.535 0.517 0.507 0.503 0.501 0.501 0.502 0.504 0.506 0.510 0.515 0.521 0.528 0.536 0.545 0.555 0.566 0.578 0.590 0.603 0.617 0.632 0.648 0.665 0.683 0.703 0.724 0.747 0.771 0.797 0.824 0.853 0.884 0.916 0.950 0.982 1.013 1.042 1.069 1.095 1.118 1.140 1.161 1.179 1.196 1.211 1.225 1.237 1.248 1.257 1.265 1.272 1.278 1.283 1.287 1.290 1.292 1.294 1.295 1.296 1.296 1.297 1.297 1.297 1.296 1.296 1.295 1.294 1.292 1.289 1.286 1.282 1.277 1.271 1.263 1.254 1.244 1.233 1.220 1.205 1.189 1.170 1.150 1.128 1.105 1.079 1.051 1.023 0.997 0.973 0.952 0.932 0.914 0.898 0.883 0.871 0.860 0.851 0.843 0.836 0.830 0.826 0.822 0.820 0.818 0.816 0.815 0.815 0.815 0.815 0.815 0.815 0.815 0.816 0.817 0.819 0.821 0.824 0.828 0.833 0.838 0.844 0.851 0.858 0.865 0.872 0.877 0.882 0.886 0.889 0.892 0.893 0.895 0.895 0.896 0.896 0.896 0.895 0.895 0.894 0.892 0.890 0.886 0.881 0.875 0.867 0.858 0.845 0.830 0.812 0.790 0.764 0.732 0.693 0.644 0.576 0.472 0.284 0.000 0.000 0.000 
0.000 0.571 0.571 0.683 0.662 0.600 0.552 0.525 0.511 0.504 0.501 0.501 0.501 0.502 0.504 0.508 0.512 0.517 0.523 0.530 0.538 0.547 0.556 0.567 0.578 0.590 0.603 0.617 0.632 0.647 0.665 0.683 0.703 0.724 0.746 0.771 0.796 0.824 0.853 0.883 0.916 0.950 0.982 1.013 1.042 1.069 1.095 1.118 1.141 1.161 1.179 1.196 1.212 1.226 1.238 1.249 1.258 1.267 1.274 1.280 1.285 1.289 1.292 1.294 1.296 1.297 1.298 1.298 1.299 1.299 1.299 1.298 1.298 1.297 1.296 1.294 1.292 1.289 1.285 1.280 1.274 1.266 1.258 1.248 1.237 1.224 1.210 1.193 1.176 1.156 1.134 1.111 1.086 1.058 1.030 1.004 0.980 0.958 0.937 0.919 0.902 0.888 0.875 0.864 0.854 0.846 0.839 0.833 0.828 0.824 0.821 0.819 0.818 0.817 0.816 0.816 0.816 0.816 0.816 0.816 0.817 0.818 0.819 0.822 0.825 0.828 0.832 0.837 0.843 0.850 0.857 0.864 0.871 0.877 0.882 0.886 0.889 0.892 0.894 0.895 0.896 0.896 0.896 0.896 0.896 0.896 0.895 0.894 0.892 0.889 0.884 0.879 0.872 0.863 0.852 0.839 0.823 0.805 0.783 0.758 0.729 0.695 0.656 0.614 0.571 0.520 0.520 0.000 
0.000 0.366 0.366 0.474 0.507 0.519 0.509 0.501 0.497 0.496 0.496 0.498 0.500 0.502 0.505 0.509 0.514 0.519 0.525 0.532 0.540 0.548 0.558 0.568 0.579 0.590 0.603 0.617 0.631 0.647 0.664 0.683 0.702 0.723 0.746 0.770 0.796 0.823 0.852 0.883 0.915 0.949 0.982 1.013 1.042 1.069 1.095 1.119 1.141 1.161 1.180 1.197 1.212 1.226 1.238 1.249 1.259 1.267 1.275 1.281 1.286 1.290 1.293 1.296 1.297 1.299 1.300 1.300 1.300 1.300 1.300 1.300 1.300 1.299 1.298 1.296 1.294 1.291 1.287 1.282 1.276 1.269 1.261 1.251 1.240 1.228 1.214 1.198 1.180 1.161 1.140 1.117 1.092 1.065 1.037 1.011 0.986 0.964 0.943 0.924 0.907 0.892 0.879 0.867 0.857 0.849 0.841 0.835 0.830 0.826 0.823 0.821 0.819 0.818 0.818 0.817 0.817 0.817 0.817 0.817 0.818 0.819 0.820 0.822 0.825 0.828 0.832 0.837 0.843 0.849 0.856 0.864 0.870 0.876 0.881 0.885 0.889 0.892 0.894 0.895 0.897 0.897 0.898 0.898 0.898 0.898 0.897 0.896 0.894 0.892 0.888 0.884 0.878 0.870 0.862 0.851 0.838 0.824 0.810 0.795 0.781 0.773 0.772 0.792 0.868 1.054 1.054 0.000 
0.000 0.213 0.213 0.304 0.376 0.421 0.447 0.463 0.474 0.482 0.488 0.493 0.497 0.502 0.506 0.511 0.516 0.522 0.528 0.535 0.542 0.550 0.559 0.569 0.579 0.591 0.603 0.616 0.631 0.647 0.664 0.682 0.702 0.723 0.745 0.769 0.795 0.823 0.852 0.882 0.915 0.949 0.982 1.013 1.042 1.069 1.095 1.118 1.141 1.161 1.180 1.197 1.212 1.226 1.239 1.250 1.260 1.268 1.275 1.282 1.287 1.291 1.294 1.297 1.299 1.300 1.301 1.301 1.302 1.302 1.302 1.301 1.301 1.300 1.299 1.298 1.296 1.293 1.289 1.284 1.278 1.272 1.264 1.254 1.243 1.231 1.217 1.202 1.185 1.166 1.145 1.122 1.098 1.071 1.044 1.017 0.992 0.970 0.949 0.930 0.913 0.897 0.883 0.871 0.861 0.852 0.845 0.838 0.833 0.829 0.826 0.823 0.821 0.820 0.819 0.819 0.819 0.819 0.819 0.819 0.819 0.820 0.821 0.823 0.825 0.829 0.832 0.837 0.842 0.848 0.855 0.863 0.869 0.875 0.881 0.885 0.889 0.892 0.894 0.896 0.898 0.899 0.899 0.900 0.900 0.900 0.899 0.899 0.898 0.896 0.893 0.890 0.886 0.880 0.874 0.866 0.858 0.850 0.843 0.839 0.838 0.843 0.858 0.894 0.974 1.054 1.054 0.000 
0.000 0.154 0.154 0.208 0.288 0.358 0.406 0.437 0.457 0.471 0.482 0.490 0.496 0.502 0.507 0.513 0.518 0.524 0.530 0.537 0.544 0.552 0.561 0.570 0.579 0.590 0.602 0.616 0.630 0.646 0.663 0.681 0.701 0.722 0.744 0.769 0.794 0.822 0.851 0.882 0.914 0.948 0.981 1.012 1.041 1.069 1.095 1.118 1.141 1.161 1.180 1.197 1.212 1.226 1.239 1.250 1.260 1.269 1.276 1.282 1.287 1.292 1.295 1.298 1.299 1.301 1.302 1.302 1.303 1.303 1.303 1.303 1.302 1.302 1.301 1.299 1.297 1.294 1.290 1.286 1.280 1.274 1.266 1.257 1.246 1.234 1.221 1.206 1.189 1.170 1.150 1.127 1.103 1.077 1.050 1.023 0.998 0.975 0.954 0.935 0.918 0.902 0.888 0.876 0.865 0.856 0.848 0.841 0.836 0.831 0.828 0.825 0.823 0.822 0.821 0.820 0.820 0.820 0.820 0.820 0.821 0.821 0.822 0.824 0.826 0.829 0.833 0.837 0.842 0.848 0.855 0.862 0.869 0.875 0.880 0.885 0.889 0.892 0.895 0.897 0.899 0.900 0.901 0.902 0.902 0.903 0.903 0.902 0.902 0.901 0.900 0.898 0.895 0.892 0.888 0.884 0.880 0.877 0.876 0.877 0.881 0.892 0.912 0.950 1.011 1.051 1.051 0.000 
0.000 0.096 0.096 0.148 0.238 0.329 0.386 0.424 0.449 0.466 0.479 0.488 0.496 0.502 0.508 0.514 0.520 0.526 0.532 0.539 0.546 0.553 0.561 0.570 0.579 0.590 0.602 0.615 0.629 0.645 0.662 0.680 0.700 0.721 0.743 0.767 0.793 0.821 0.850 0.881 0.913 0.947 0.980 1.012 1.041 1.068 1.094 1.118 1.140 1.161 1.180 1.197 1.212 1.227 1.239 1.250 1.260 1.269 1.276 1.282 1.288 1.292 1.295 1.298 1.300 1.302 1.303 1.303 1.303 1.303 1.303 1.303 1.303 1.303 1.302 1.300 1.298 1.295 1.292 1.287 1.282 1.276 1.268 1.259 1.249 1.237 1.224 1.209 1.192 1.174 1.154 1.132 1.108 1.083 1.055 1.028 1.003 0.980 0.959 0.940 0.922 0.907 0.893 0.880 0.869 0.860 0.852 0.845 0.839 0.834 0.831 0.828 0.826 0.824 0.823 0.822 0.822 0.822 0.822 0.822 0.822 0.823 0.824 0.825 0.827 0.830 0.833 0.837 0.842 0.848 0.854 0.861 0.868 0.874 0.880 0.885 0.889 0.892 0.895 0.898 0.900 0.902 0.903 0.904 0.905 0.906 0.907 0.907 0.907 0.907 0.907 0.906 0.906 0.904 0.903 0.901 0.900 0.900 0.902 0.906 0.913 0.926 0.948 0.983 1.025 1.048 1.048 0.000 
0.000 0.036 0.036 0.100 0.226 0.321 0.380 0.419 0.446 0.465 0.478 0.488 0.496 0.503 0.509 0.516 0.522 0.528 0.534 0.540 0.547 0.554 0.562 0.570 0.579 0.590 0.601 0.614 0.628 0.644 0.660 0.679 0.698 0.719 0.742 0.766 0.792 0.819 0.848 0.879 0.912 0.946 0.979 1.011 1.040 1.068 1.094 1.118 1.140 1.161 1.180 1.197 1.212 1.227 1.239 1.250 1.260 1.269 1.276 1.283 1.288 1.292 1.296 1.299 1.301 1.302 1.303 1.304 1.304 1.304 1.304 1.304 1.304 1.303 1.302 1.301 1.299 1.296 1.293 1.289 1.283 1.277 1.269 1.261 1.251 1.239 1.226 1.212 1.195 1.177 1.158 1.136 1.113 1.088 1.060 1.034 1.009 0.985 0.964 0.945 0.927 0.911 0.897 0.884 0.873 0.864 0.855 0.848 0.842 0.837 0.833 0.830 0.828 0.826 0.825 0.825 0.824 0.824 0.824 0.824 0.824 0.825 0.825 0.827 0.828 0.831 0.834 0.837 0.842 0.847 0.853 0.860 0.867 0.874 0.879 0.884 0.889 0.893 0.896 0.899 0.901 0.903 0.905 0.907 0.908 0.909 0.911 0.912 0.912 0.913 0.914 0.914 0.915 0.915 0.915 0.916 0.917 0.919 0.922 0.928 0.937 0.951 0.972 1.002 1.031 1.046 1.046 0.000 
0.000 0.134 0.134 0.118 0.243 0.325 0.381 0.419 0.446 0.465 0.478 0.489 0.497 0.504 0.511 0.517 0.523 0.529 0.535 0.542 0.548 0.554 0.562 0.570 0.579 0.589 0.600 0.613 0.627 0.642 0.659 0.677 0.696 0.717 0.740 0.764 0.790 0.817 0.847 0.878 0.910 0.945 0.978 1.010 1.039 1.067 1.093 1.117 1.140 1.160 1.179 1.197 1.212 1.226 1.239 1.250 1.260 1.269 1.276 1.283 1.288 1.293 1.296 1.299 1.301 1.302 1.303 1.304 1.304 1.304 1.304 1.304 1.304 1.304 1.303 1.301 1.300 1.297 1.294 1.289 1.284 1.278 1.271 1.262 1.252 1.241 1.228 1.214 1.198 1.180 1.161 1.140 1.117 1.092 1.065 1.038 1.013 0.990 0.969 0.949 0.931 0.915 0.901 0.888 0.877 0.867 0.859 0.851 0.845 0.840 0.836 0.833 0.831 0.829 0.828 0.827 0.826 0.826 0.826 0.826 0.826 0.827 0.827 0.828 0.830 0.832 0.835 0.838 0.842 0.847 0.853 0.860 0.867 0.873 0.879 0.884 0.889 0.893 0.896 0.899 0.902 0.905 0.907 0.909 0.911 0.912 0.914 0.915 0.917 0.918 0.919 0.921 0.922 0.923 0.925 0.927 0.930 0.933 0.938 0.945 0.955 0.969 0.988 1.013 1.033 1.043 1.043 0.000 
0.000 0.471 0.471 0.301 0.317 0.347 0.386 0.422 0.448 0.467 0.480 0.491 0.499 0.507 0.513 0.519 0.525 0.531 0.537 0.542 0.548 0.554 0.561 0.569 0.578 0.588 0.599 0.612 0.626 0.641 0.657 0.675 0.694 0.715 0.738 0.762 0.788 0.815 0.845 0.876 0.908 0.943 0.976 1.008 1.038 1.066 1.092 1.117 1.139 1.160 1.179 1.196 1.212 1.226 1.239 1.250 1.260 1.269 1.276 1.283 1.288 1.293 1.296 1.299 1.301 1.303 1.304 1.304 1.305 1.305 1.305 1.305 1.304 1.304 1.303 1.302 1.300 1.297 1.294 1.290 1.285 1.279 1.272 1.264 1.254 1.243 1.230 1.216 1.201 1.183 1.164 1.143 1.121 1.096 1.070 1.043 1.018 0.994 0.973 0.953 0.935 0.919 0.905 0.892 0.880 0.870 0.862 0.854 0.848 0.843 0.839 0.836 0.833 0.831 0.830 0.829 0.829 0.828 0.828 0.828 0.828 0.829 0.829 0.830 0.831 0.833 0.836 0.839 0.843 0.847 0.853 0.859 0.866 0.873 0.878 0.884 0.889 0.893 0.897 0.900 0.903 0.906 0.908 0.910 0.912 0.914 0.916 0.918 0.920 0.922 0.924 0.926 0.928 0.930 0.933 0.936 0.940 0.944 0.950 0.958 0.969 0.982 0.999 1.019 1.033 1.041 1.041 0.000 
0.000 0.524 0.524 0.446 0.380 0.380 0.402 0.433 0.456 0.473 0.485 0.495 0.503 0.510 0.516 0.522 0.527 0.532 0.537 0.543 0.548 0.554 0.561 0.569 0.577 0.587 0.598 0.610 0.624 0.639 0.655 0.673 0.692 0.713 0.735 0.760 0.785 0.813 0.842 0.873 0.906 0.940 0.974 1.006 1.036 1.065 1.091 1.116 1.138 1.159 1.178 1.196 1.212 1.226 1.239 1.250 1.260 1.269 1.276 1.283 1.288 1.293 1.296 1.299 1.301 1.303 1.304 1.304 1.305 1.305 1.305 1.305 1.305 1.304 1.303 1.302 1.300 1.298 1.295 1.291 1.286 1.280 1.273 1.264 1.255 1.244 1.232 1.218 1.203 1.185 1.167 1.146 1.124 1.100 1.074 1.047 1.021 0.998 0.976 0.957 0.939 0.922 0.908 0.895 0.883 0.873 0.865 0.857 0.851 0.846 0.841 0.838 0.835 0.833 0.832 0.831 0.830 0.830 0.830 0.830 0.830 0.830 0.831 0.831 0.833 0.834 0.837 0.840 0.843 0.848 0.853 0.859 0.865 0.872 0.878 0.884 0.888 0.893 0.897 0.900 0.903 0.906 0.909 0.911 0.914 0.916 0.918 0.921 0.923 0.925 0.927 0.930 0.932 0.935 0.938 0.942 0.947 0.953 0.960 0.969 0.979 0.992 1.008 1.022 1.032 1.038 1.038 0.000 
0.000 0.187 0.187 0.362 0.392 0.413 0.432 0.454 0.472 0.485 0.495 0.503 0.509 0.515 0.520 0.525 0.529 0.534 0.538 0.543 0.548 0.554 0.560 0.568 0.576 0.586 0.597 0.609 0.622 0.637 0.653 0.670 0.690 0.710 0.733 0.757 0.783 0.810 0.839 0.870 0.903 0.938 0.972 1.004 1.035 1.063 1.090 1.114 1.137 1.158 1.178 1.195 1.211 1.226 1.239 1.250 1.260 1.269 1.276 1.283 1.288 1.293 1.296 1.299 1.301 1.303 1.304 1.304 1.305 1.305 1.305 1.305 1.305 1.304 1.303 1.302 1.300 1.298 1.295 1.291 1.286 1.280 1.273 1.265 1.256 1.245 1.233 1.219 1.204 1.187 1.169 1.149 1.127 1.103 1.077 1.050 1.025 1.002 0.980 0.960 0.942 0.926 0.911 0.898 0.886 0.876 0.867 0.860 0.853 0.848 0.843 0.840 0.837 0.835 0.834 0.833 0.832 0.832 0.831 0.831 0.831 0.832 0.832 0.833 0.834 0.835 0.838 0.840 0.844 0.848 0.853 0.858 0.865 0.872 0.878 0.883 0.888 0.893 0.897 0.900 0.904 0.907 0.910 0.912 0.915 0.917 0.920 0.922 0.925 0.927 0.930 0.933 0.936 0.939 0.943 0.947 0.952 0.959 0.967 0.977 0.988 1.001 1.013 1.024 1.031 1.035 1.035 0.000 
0.000 0.200 0.200 0.269 0.408 0.455 0.475 0.487 0.497 0.504 0.509 0.514 0.518 0.522 0.525 0.528 0.531 0.535 0.538 0.542 0.547 0.553 0.559 0.567 0.575 0.584 0.595 0.607 0.620 0.634 0.650 0.668 0.687 0.707 0.730 0.754 0.779 0.807 0.836 0.867 0.900 0.935 0.969 1.002 1.032 1.061 1.088 1.113 1.136 1.157 1.177 1.194 1.210 1.225 1.238 1.250 1.260 1.269 1.276 1.283 1.288 1.293 1.296 1.299 1.301 1.303 1.304 1.304 1.305 1.305 1.305 1.305 1.305 1.304 1.303 1.302 1.300 1.298 1.295 1.291 1.286 1.281 1.274 1.266 1.257 1.246 1.234 1.221 1.206 1.189 1.171 1.151 1.129 1.106 1.080 1.054 1.028 1.005 0.983 0.963 0.945 0.928 0.914 0.900 0.889 0.878 0.869 0.862 0.855 0.850 0.845 0.842 0.839 0.837 0.835 0.834 0.833 0.833 0.833 0.833 0.833 0.833 0.833 0.834 0.835 0.836 0.838 0.841 0.844 0.848 0.853 0.858 0.864 0.871 0.877 0.883 0.888 0.893 0.897 0.901 0.904 0.907 0.910 0.913 0.916 0.918 0.921 0.924 0.926 0.929 0.932 0.935 0.938 0.941 0.945 0.950 0.956 0.963 0.972 0.982 0.995 1.007 1.017 1.025 1.030 1.033 1.033 0.000 
0.000 0.650 0.650 0.420 0.489 0.523 0.533 0.533 0.530 0.528 0.527 0.527 0.527 0.528 0.529 0.531 0.533 0.535 0.538 0.542 0.546 0.552 0.558 0.565 0.573 0.582 0.593 0.604 0.617 0.632 0.647 0.665 0.684 0.704 0.726 0.750 0.776 0.803 0.833 0.864 0.896 0.931 0.966 0.999 1.030 1.059 1.086 1.111 1.134 1.156 1.175 1.193 1.209 1.224 1.237 1.249 1.259 1.268 1.276 1.282 1.288 1.292 1.296 1.299 1.301 1.303 1.304 1.304 1.305 1.305 1.305 1.305 1.305 1.304 1.303 1.302 1.300 1.298 1.295 1.291 1.286 1.281 1.274 1.266 1.257 1.247 1.235 1.221 1.207 1.190 1.172 1.153 1.131 1.108 1.083 1.056 1.031 1.007 0.986 0.966 0.947 0.931 0.916 0.903 0.891 0.880 0.871 0.863 0.857 0.851 0.847 0.843 0.840 0.838 0.836 0.835 0.834 0.834 0.834 0.834 0.834 0.834 0.834 0.835 0.836 0.837 0.839 0.841 0.845 0.848 0.853 0.858 0.864 0.871 0.877 0.883 0.888 0.893 0.897 0.901 0.904 0.907 0.911 0.913 0.916 0.919 0.922 0.924 0.927 0.930 0.933 0.936 0.939 0.943 0.947 0.952 0.958 0.965 0.974 0.986 1.000 1.012 1.021 1.026 1.029 1.030 1.030 0.000 
0.000 0.925 0.925 0.762 0.668 0.626 0.598 0.576 0.559 0.548 0.540 0.536 0.533 0.532 0.532 0.533 0.533 0.535 0.537 0.541 0.545 0.550 0.556 0.563 0.571 0.580 0.590 0.602 0.615 0.629 0.644 0.662 0.680 0.701 0.723 0.747 0.772 0.799 0.829 0.860 0.893 0.927 0.962 0.995 1.026 1.056 1.083 1.108 1.132 1.154 1.174 1.192 1.208 1.223 1.236 1.248 1.258 1.268 1.275 1.282 1.287 1.292 1.296 1.299 1.301 1.302 1.304 1.304 1.305 1.305 1.305 1.305 1.305 1.304 1.303 1.302 1.300 1.298 1.295 1.291 1.286 1.281 1.274 1.266 1.257 1.247 1.235 1.222 1.208 1.191 1.174 1.154 1.133 1.110 1.085 1.059 1.033 1.010 0.988 0.968 0.950 0.933 0.918 0.904 0.893 0.882 0.873 0.865 0.858 0.853 0.848 0.844 0.841 0.839 0.837 0.836 0.835 0.835 0.835 0.834 0.834 0.835 0.835 0.835 0.836 0.838 0.839 0.842 0.845 0.848 0.853 0.858 0.864 0.870 0.877 0.883 0.888 0.893 0.897 0.901 0.904 0.908 0.911 0.914 0.917 0.919 0.922 0.925 0.928 0.930 0.933 0.936 0.940 0.943 0.948 0.953 0.959 0.966 0.976 0.987 1.003 1.017 1.026 1.030 1.030 1.028 1.028 0.000 
0.000 0.999 0.999 0.924 0.789 0.698 0.641 0.603 0.577 0.560 0.548 0.541 0.536 0.534 0.533 0.533 0.534 0.535 0.537 0.540 0.543 0.548 0.554 0.561 0.568 0.577 0.587 0.599 0.612 0.626 0.641 0.658 0.677 0.697 0.719 0.743 0.768 0.795 0.824 0.855 0.888 0.923 0.958 0.991 1.023 1.052 1.080 1.106 1.130 1.151 1.172 1.190 1.207 1.222 1.235 1.247 1.258 1.267 1.275 1.281 1.287 1.292 1.295 1.298 1.301 1.302 1.303 1.304 1.304 1.305 1.305 1.305 1.304 1.304 1.303 1.302 1.300 1.298 1.295 1.291 1.286 1.281 1.274 1.266 1.257 1.247 1.236 1.223 1.208 1.192 1.175 1.155 1.134 1.112 1.087 1.061 1.035 1.012 0.990 0.970 0.951 0.935 0.920 0.906 0.894 0.884 0.874 0.866 0.859 0.854 0.849 0.845 0.842 0.840 0.838 0.837 0.836 0.835 0.835 0.835 0.835 0.835 0.835 0.836 0.837 0.838 0.840 0.842 0.845 0.849 0.853 0.858 0.863 0.870 0.876 0.882 0.888 0.892 0.897 0.901 0.904 0.908 0.911 0.914 0.917 0.919 0.922 0.925 0.928 0.931 0.934 0.937 0.940 0.944 0.948 0.953 0.959 0.967 0.976 0.988 1.003 1.019 1.031 1.037 1.037 1.030 1.030 0.000 
0.000 0.994 0.994 0.960 0.834 0.729 0.662 0.617 0.586 0.566 0.552 0.543 0.538 0.535 0.534 0.533 0.534 0.534 0.536 0.538 0.541 0.546 0.551 0.558 0.565 0.574 0.584 0.596 0.608 0.622 0.637 0.654 0.673 0.693 0.715 0.738 0.764 0.791 0.820 0.851 0.883 0.918 0.953 0.987 1.019 1.049 1.077 1.103 1.127 1.149 1.169 1.188 1.205 1.220 1.234 1.246 1.256 1.266 1.274 1.280 1.286 1.291 1.295 1.298 1.300 1.302 1.303 1.304 1.304 1.304 1.304 1.304 1.304 1.304 1.303 1.302 1.300 1.298 1.295 1.291 1.286 1.281 1.274 1.266 1.257 1.247 1.236 1.223 1.209 1.193 1.175 1.156 1.135 1.113 1.089 1.063 1.037 1.014 0.992 0.971 0.953 0.936 0.921 0.907 0.895 0.885 0.875 0.867 0.860 0.855 0.850 0.846 0.843 0.840 0.839 0.837 0.836 0.836 0.836 0.836 0.836 0.836 0.836 0.836 0.837 0.838 0.840 0.842 0.845 0.849 0.853 0.858 0.863 0.869 0.876 0.882 0.887 0.892 0.897 0.901 0.904 0.908 0.911 0.914 0.917 0.920 0.922 0.925 0.928 0.931 0.934 0.937 0.940 0.944 0.948 0.953 0.959 0.966 0.976 0.987 1.002 1.020 1.038 1.051 1.058 1.064 1.064 0.000 
0.000 0.908 0.908 0.935 0.841 0.737 0.668 0.621 0.589 0.568 0.553 0.544 0.538 0.535 0.534 0.533 0.533 0.533 0.534 0.536 0.539 0.543 0.548 0.555 0.562 0.571 0.581 0.592 0.604 0.618 0.634 0.650 0.669 0.689 0.710 0.734 0.759 0.786 0.815 0.846 0.878 0.913 0.948 0.982 1.015 1.045 1.073 1.099 1.123 1.146 1.166 1.185 1.202 1.218 1.232 1.244 1.255 1.264 1.272 1.279 1.285 1.290 1.294 1.297 1.299 1.301 1.302 1.303 1.304 1.304 1.304 1.304 1.304 1.303 1.303 1.301 1.300 1.298 1.295 1.291 1.286 1.281 1.274 1.266 1.257 1.247 1.236 1.223 1.209 1.193 1.176 1.157 1.136 1.114 1.090 1.064 1.039 1.015 0.993 0.973 0.954 0.937 0.922 0.909 0.896 0.886 0.876 0.868 0.861 0.855 0.850 0.846 0.843 0.841 0.839 0.838 0.837 0.836 0.836 0.836 0.836 0.836 0.836 0.837 0.837 0.839 0.840 0.842 0.845 0.849 0.853 0.857 0.863 0.869 0.876 0.882 0.887 0.892 0.897 0.901 0.904 0.908 0.911 0.914 0.917 0.920 0.922 0.925 0.928 0.931 0.934 0.937 0.940 0.943 0.948 0.952 0.958 0.966 0.975 0.986 1.001 1.019 1.042 1.068 1.089 1.098 1.098 0.000 
0.000 0.809 0.809 0.854 0.812 0.734 0.667 0.621 0.590 0.568 0.553 0.544 0.538 0.535 0.533 0.532 0.532 0.532 0.533 0.534 0.537 0.540 0.545 0.551 0.558 0.567 0.577 0.588 0.600 0.614 0.629 0.646 0.664 0.684 0.706 0.729 0.754 0.781 0.810 0.840 0.873 0.907 0.943 0.977 1.010 1.040 1.069 1.095 1.120 1.142 1.163 1.182 1.200 1.215 1.229 1.242 1.253 1.263 1.271 1.278 1.284 1.289 1.293 1.296 1.299 1.300 1.302 1.302 1.303 1.303 1.303 1.303 1.303 1.303 1.302 1.301 1.299 1.297 1.294 1.291 1.286 1.281 1.274 1.266 1.257 1.247 1.236 1.223 1.209 1.193 1.176 1.157 1.137 1.115 1.091 1.065 1.040 1.016 0.994 0.974 0.955 0.938 0.923 0.909 0.897 0.886 0.877 0.869 0.862 0.856 0.851 0.847 0.844 0.841 0.839 0.838 0.837 0.836 0.836 0.836 0.836 0.836 0.836 0.837 0.837 0.839 0.840 0.842 0.845 0.848 0.853 0.857 0.863 0.869 0.875 0.881 0.887 0.892 0.896 0.900 0.904 0.908 0.911 0.914 0.917 0.919 0.922 0.925 0.928 0.930 0.933 0.936 0.939 0.943 0.947 0.951 0.957 0.964 0.972 0.983 0.997 1.016 1.041 1.076 1.110 1.123 1.123 0.000 
0.000 0.698 0.698 0.754 0.743 0.707 0.659 0.617 0.587 0.566 0.552 0.542 0.536 0.533 0.531 0.530 0.530 0.530 0.530 0.531 0.534 0.537 0.541 0.547 0.554 0.563 0.573 0.584 0.596 0.610 0.625 0.641 0.660 0.679 0.701 0.724 0.749 0.776 0.804 0.835 0.867 0.901 0.937 0.972 1.004 1.035 1.064 1.091 1.116 1.139 1.160 1.179 1.197 1.213 1.227 1.239 1.251 1.260 1.269 1.276 1.282 1.287 1.292 1.295 1.297 1.299 1.301 1.301 1.302 1.302 1.302 1.302 1.302 1.302 1.301 1.300 1.299 1.296 1.294 1.290 1.286 1.280 1.274 1.266 1.257 1.247 1.236 1.223 1.209 1.193 1.176 1.158 1.137 1.115 1.092 1.066 1.041 1.017 0.995 0.975 0.956 0.939 0.924 0.910 0.898 0.887 0.877 0.869 0.862 0.856 0.851 0.847 0.844 0.841 0.839 0.838 0.837 0.837 0.836 0.836 0.836 0.836 0.836 0.837 0.838 0.839 0.840 0.842 0.845 0.848 0.852 0.857 0.862 0.868 0.875 0.881 0.887 0.892 0.896 0.900 0.904 0.907 0.911 0.914 0.917 0.919 0.922 0.925 0.927 0.930 0.933 0.935 0.938 0.941 0.945 0.949 0.954 0.960 0.967 0.977 0.990 1.009 1.035 1.074 1.121 1.146 1.146 0.000 
0.000 0.594 0.594 0.647 0.652 0.651 0.634 0.606 0.580 0.561 0.548 0.539 0.533 0.529 0.527 0.527 0.526 0.526 0.527 0.528 0.530 0.533 0.538 0.543 0.550 0.559 0.568 0.579 0.591 0.605 0.620 0.637 0.655 0.675 0.696 0.719 0.744 0.771 0.799 0.829 0.861 0.895 0.930 0.965 0.998 1.030 1.059 1.086 1.111 1.134 1.156 1.175 1.193 1.209 1.224 1.237 1.248 1.258 1.267 1.274 1.280 1.286 1.290 1.293 1.296 1.298 1.299 1.300 1.301 1.301 1.301 1.301 1.301 1.301 1.300 1.299 1.298 1.296 1.293 1.289 1.285 1.280 1.273 1.266 1.257 1.247 1.236 1.223 1.209 1.193 1.176 1.158 1.138 1.116 1.092 1.067 1.041 1.018 0.996 0.975 0.957 0.940 0.924 0.910 0.898 0.887 0.878 0.869 0.862 0.856 0.851 0.847 0.844 0.841 0.839 0.838 0.837 0.837 0.836 0.836 0.836 0.836 0.836 0.837 0.838 0.839 0.840 0.842 0.845 0.848 0.852 0.857 0.862 0.868 0.874 0.881 0.886 0.891 0.896 0.900 0.904 0.907 0.910 0.913 0.916 0.919 0.922 0.924 0.927 0.929 0.931 0.934 0.936 0.939 0.942 0.945 0.949 0.954 0.960 0.968 0.979 0.995 1.021 1.062 1.119 1.154 1.154 0.000 
0.000 0.494 0.494 0.548 0.572 0.586 0.590 0.583 0.567 0.551 0.540 0.532 0.527 0.524 0.522 0.521 0.521 0.521 0.522 0.524 0.526 0.529 0.534 0.539 0.546 0.554 0.564 0.575 0.587 0.601 0.616 0.633 0.651 0.670 0.692 0.714 0.739 0.765 0.793 0.823 0.855 0.888 0.924 0.959 0.992 1.024 1.053 1.080 1.106 1.130 1.151 1.171 1.189 1.206 1.220 1.233 1.245 1.255 1.264 1.272 1.278 1.284 1.288 1.291 1.294 1.296 1.298 1.299 1.299 1.300 1.300 1.300 1.300 1.299 1.299 1.298 1.296 1.294 1.292 1.288 1.284 1.279 1.273 1.265 1.257 1.247 1.236 1.223 1.209 1.193 1.176 1.158 1.138 1.116 1.093 1.067 1.042 1.018 0.996 0.976 0.957 0.940 0.925 0.911 0.898 0.887 0.878 0.869 0.862 0.856 0.851 0.847 0.844 0.841 0.839 0.838 0.837 0.837 0.836 0.836 0.836 0.836 0.836 0.837 0.837 0.839 0.840 0.842 0.845 0.848 0.852 0.856 0.862 0.867 0.874 0.880 0.886 0.891 0.895 0.900 0.903 0.907 0.910 0.913 0.916 0.918 0.921 0.923 0.925 0.928 0.930 0.932 0.934 0.936 0.938 0.940 0.942 0.945 0.948 0.953 0.960 0.971 0.992 1.031 1.099 1.158 1.158 0.000 
0.000 0.436 0.436 0.475 0.510 0.531 0.543 0.547 0.544 0.535 0.527 0.521 0.517 0.515 0.514 0.514 0.514 0.515 0.516 0.518 0.521 0.524 0.529 0.535 0.542 0.550 0.560 0.571 0.583 0.597 0.612 0.629 0.647 0.666 0.687 0.710 0.734 0.760 0.787 0.817 0.848 0.881 0.916 0.952 0.986 1.017 1.047 1.075 1.100 1.124 1.146 1.166 1.185 1.201 1.216 1.230 1.242 1.252 1.261 1.269 1.276 1.281 1.286 1.289 1.292 1.294 1.296 1.297 1.297 1.298 1.298 1.298 1.298 1.298 1.297 1.296 1.295 1.293 1.290 1.287 1.283 1.278 1.272 1.264 1.256 1.246 1.235 1.223 1.209 1.193 1.176 1.158 1.138 1.116 1.093 1.068 1.042 1.018 0.996 0.976 0.957 0.940 0.925 0.911 0.898 0.887 0.878 0.870 0.862 0.856 0.851 0.847 0.844 0.841 0.839 0.838 0.837 0.837 0.836 0.836 0.836 0.836 0.836 0.837 0.837 0.838 0.840 0.842 0.845 0.848 0.852 0.856 0.861 0.867 0.873 0.880 0.885 0.890 0.895 0.899 0.903 0.906 0.910 0.912 0.915 0.917 0.920 0.922 0.924 0.926 0.927 0.929 0.930 0.931 0.932 0.933 0.933 0.933 0.932 0.932 0.931 0.931 0.939 0.964 1.032 1.142 1.142 0.000 
0.000 0.410 0.410 0.433 0.463 0.484 0.498 0.508 0.512 0.512 0.508 0.505 0.504 0.503 0.503 0.504 0.505 0.506 0.508 0.511 0.515 0.519 0.524 0.530 0.538 0.546 0.556 0.567 0.580 0.593 0.608 0.625 0.643 0.662 0.682 0.705 0.729 0.754 0.781 0.810 0.841 0.874 0.909 0.944 0.978 1.010 1.040 1.068 1.095 1.119 1.141 1.161 1.180 1.197 1.212 1.226 1.238 1.248 1.258 1.266 1.272 1.278 1.283 1.287 1.290 1.292 1.293 1.295 1.295 1.296 1.296 1.296 1.296 1.295 1.295 1.294 1.293 1.291 1.289 1.285 1.281 1.276 1.270 1.263 1.255 1.245 1.234 1.222 1.208 1.193 1.176 1.158 1.138 1.116 1.093 1.068 1.043 1.019 0.997 0.976 0.957 0.940 0.925 0.911 0.899 0.888 0.878 0.870 0.862 0.856 0.851 0.847 0.844 0.841 0.839 0.838 0.837 0.836 0.836 0.836 0.836 0.836 0.836 0.837 0.837 0.838 0.840 0.842 0.844 0.847 0.851 0.855 0.860 0.866 0.873 0.879 0.885 0.890 0.894 0.898 0.902 0.906 0.909 0.911 0.914 0.916 0.918 0.920 0.922 0.923 0.924 0.925 0.925 0.925 0.925 0.923 0.921 0.917 0.912 0.904 0.894 0.879 0.860 0.842 0.865 1.006 1.006 0.000 
0.000 0.384 0.384 0.404 0.425 0.443 0.457 0.468 0.477 0.482 0.484 0.485 0.486 0.487 0.489 0.491 0.493 0.496 0.499 0.503 0.508 0.513 0.519 0.526 0.534 0.542 0.552 0.564 0.576 0.590 0.605 0.621 0.639 0.658 0.678 0.700 0.723 0.748 0.775 0.804 0.834 0.867 0.901 0.937 0.971 1.003 1.033 1.062 1.088 1.113 1.135 1.156 1.175 1.192 1.207 1.221 1.233 1.244 1.254 1.262 1.269 1.275 1.280 1.284 1.287 1.289 1.291 1.292 1.293 1.293 1.293 1.293 1.293 1.293 1.293 1.292 1.291 1.289 1.286 1.283 1.279 1.275 1.269 1.262 1.254 1.244 1.234 1.221 1.208 1.193 1.176 1.158 1.138 1.116 1.093 1.068 1.043 1.019 0.997 0.976 0.957 0.940 0.925 0.911 0.899 0.888 0.878 0.870 0.862 0.856 0.851 0.847 0.844 0.841 0.839 0.838 0.837 0.836 0.836 0.836 0.836 0.836 0.836 0.836 0.837 0.838 0.839 0.841 0.844 0.847 0.851 0.855 0.860 0.865 0.872 0.878 0.884 0.889 0.893 0.898 0.901 0.905 0.908 0.910 0.912 0.914 0.916 0.918 0.919 0.919 0.920 0.920 0.919 0.918 0.916 0.912 0.907 0.901 0.892 0.881 0.866 0.844 0.808 0.742 0.595 0.435 0.435 0.000 
0.000 0.358 0.358 0.376 0.391 0.406 0.419 0.430 0.440 0.448 0.455 0.460 0.464 0.468 0.472 0.475 0.480 0.484 0.489 0.494 0.500 0.506 0.513 0.521 0.529 0.538 0.549 0.560 0.573 0.587 0.601 0.617 0.635 0.654 0.674 0.695 0.718 0.743 0.769 0.797 0.827 0.859 0.893 0.928 0.963 0.995 1.026 1.055 1.081 1.106 1.129 1.150 1.169 1.186 1.202 1.216 1.229 1.240 1.249 1.258 1.265 1.271 1.276 1.280 1.283 1.286 1.288 1.289 1.290 1.290 1.290 1.290 1.290 1.290 1.290 1.289 1.288 1.286 1.284 1.281 1.277 1.272 1.267 1.260 1.252 1.243 1.232 1.220 1.207 1.192 1.176 1.157 1.138 1.116 1.093 1.068 1.043 1.019 0.997 0.976 0.957 0.940 0.925 0.911 0.898 0.888 0.878 0.869 0.862 0.856 0.851 0.847 0.844 0.841 0.839 0.838 0.837 0.836 0.836 0.836 0.835 0.836 0.836 0.836 0.837 0.838 0.839 0.841 0.843 0.846 0.850 0.854 0.859 0.864 0.871 0.877 0.883 0.888 0.892 0.896 0.900 0.903 0.906 0.908 0.910 0.912 0.913 0.914 0.915 0.915 0.915 0.914 0.913 0.910 0.907 0.901 0.895 0.886 0.876 0.863 0.846 0.825 0.792 0.725 0.542 0.132 0.132 0.000 
0.000 0.332 0.332 0.349 0.360 0.372 0.384 0.394 0.404 0.413 0.422 0.430 0.437 0.444 0.451 0.457 0.464 0.470 0.477 0.484 0.491 0.499 0.507 0.515 0.525 0.534 0.545 0.557 0.570 0.583 0.598 0.614 0.631 0.649 0.669 0.690 0.713 0.737 0.763 0.791 0.820 0.852 0.885 0.920 0.954 0.987 1.018 1.047 1.074 1.099 1.122 1.143 1.163 1.180 1.196 1.211 1.223 1.235 1.245 1.253 1.261 1.267 1.272 1.276 1.279 1.282 1.284 1.285 1.286 1.287 1.287 1.287 1.287 1.287 1.286 1.286 1.285 1.283 1.281 1.278 1.274 1.270 1.264 1.258 1.250 1.241 1.231 1.219 1.206 1.191 1.175 1.157 1.137 1.116 1.093 1.068 1.043 1.019 0.997 0.976 0.957 0.940 0.925 0.911 0.898 0.887 0.878 0.869 0.862 0.856 0.851 0.847 0.843 0.841 0.839 0.837 0.836 0.836 0.835 0.835 0.835 0.835 0.835 0.835 0.836 0.837 0.838 0.840 0.842 0.845 0.849 0.853 0.858 0.863 0.870 0.876 0.881 0.887 0.891 0.895 0.899 0.902 0.904 0.906 0.908 0.909 0.910 0.910 0.911 0.910 0.910 0.908 0.906 0.902 0.898 0.892 0.884 0.875 0.863 0.849 0.833 0.816 0.795 0.764 0.715 0.686 0.686 0.000 
0.000 0.307 0.307 0.322 0.331 0.341 0.351 0.362 0.371 0.381 0.391 0.401 0.411 0.420 0.429 0.438 0.447 0.455 0.464 0.472 0.481 0.490 0.500 0.510 0.520 0.530 0.542 0.553 0.566 0.580 0.595 0.610 0.627 0.645 0.665 0.685 0.708 0.731 0.757 0.784 0.813 0.844 0.876 0.911 0.946 0.979 1.010 1.039 1.066 1.091 1.115 1.136 1.156 1.174 1.190 1.205 1.218 1.229 1.239 1.248 1.256 1.262 1.267 1.272 1.275 1.278 1.280 1.281 1.282 1.283 1.283 1.283 1.283 1.283 1.283 1.282 1.281 1.280 1.278 1.275 1.271 1.267 1.262 1.255 1.248 1.239 1.229 1.217 1.204 1.190 1.174 1.156 1.137 1.116 1.093 1.068 1.043 1.019 0.997 0.976 0.957 0.940 0.925 0.911 0.898 0.887 0.877 0.869 0.862 0.856 0.850 0.846 0.843 0.840 0.838 0.837 0.836 0.835 0.835 0.834 0.834 0.834 0.834 0.835 0.835 0.836 0.837 0.839 0.841 0.844 0.848 0.852 0.857 0.862 0.868 0.874 0.880 0.885 0.889 0.893 0.897 0.899 0.902 0.903 0.905 0.906 0.906 0.906 0.906 0.905 0.904 0.902 0.899 0.895 0.889 0.883 0.875 0.865 0.853 0.838 0.822 0.811 0.806 0.819 0.898 1.094 1.094 0.000 
0.000 0.281 0.281 0.296 0.303 0.312 0.322 0.332 0.342 0.352 0.363 0.376 0.388 0.400 0.411 0.421 0.432 0.442 0.452 0.462 0.472 0.482 0.493 0.504 0.515 0.526 0.538 0.550 0.563 0.577 0.591 0.607 0.623 0.641 0.660 0.681 0.702 0.726 0.751 0.777 0.806 0.836 0.868 0.902 0.937 0.970 1.001 1.030 1.058 1.083 1.107 1.129 1.149 1.167 1.183 1.198 1.211 1.223 1.233 1.242 1.250 1.257 1.262 1.267 1.270 1.273 1.275 1.277 1.278 1.278 1.279 1.279 1.279 1.279 1.278 1.278 1.277 1.276 1.274 1.271 1.268 1.263 1.258 1.252 1.245 1.236 1.226 1.215 1.202 1.188 1.172 1.155 1.136 1.115 1.092 1.068 1.043 1.019 0.996 0.976 0.957 0.940 0.924 0.910 0.898 0.887 0.877 0.869 0.861 0.855 0.850 0.846 0.842 0.839 0.837 0.836 0.835 0.834 0.834 0.833 0.833 0.833 0.834 0.834 0.834 0.835 0.836 0.838 0.840 0.843 0.846 0.850 0.855 0.860 0.867 0.873 0.878 0.883 0.887 0.891 0.894 0.897 0.899 0.900 0.901 0.901 0.901 0.901 0.900 0.899 0.898 0.895 0.892 0.887 0.882 0.876 0.868 0.858 0.846 0.831 0.816 0.807 0.806 0.823 0.909 1.092 1.092 0.000 
0.000 0.255 0.255 0.270 0.277 0.285 0.294 0.304 0.315 0.327 0.340 0.355 0.369 0.383 0.395 0.407 0.419 0.430 0.441 0.453 0.464 0.475 0.486 0.498 0.510 0.522 0.534 0.546 0.560 0.573 0.588 0.603 0.620 0.637 0.656 0.676 0.697 0.720 0.744 0.770 0.798 0.828 0.859 0.892 0.927 0.961 0.992 1.022 1.049 1.075 1.099 1.121 1.141 1.159 1.176 1.191 1.204 1.216 1.227 1.236 1.244 1.251 1.256 1.261 1.265 1.268 1.270 1.272 1.273 1.273 1.274 1.274 1.274 1.274 1.274 1.273 1.272 1.271 1.269 1.267 1.263 1.259 1.254 1.248 1.241 1.233 1.223 1.212 1.200 1.186 1.170 1.153 1.134 1.114 1.092 1.068 1.042 1.018 0.996 0.976 0.957 0.940 0.924 0.910 0.897 0.886 0.877 0.868 0.861 0.854 0.849 0.845 0.841 0.838 0.836 0.835 0.834 0.833 0.832 0.832 0.832 0.832 0.832 0.833 0.833 0.834 0.835 0.837 0.839 0.841 0.845 0.849 0.853 0.859 0.865 0.871 0.876 0.881 0.885 0.888 0.891 0.893 0.895 0.896 0.896 0.896 0.896 0.896 0.895 0.894 0.892 0.889 0.885 0.881 0.875 0.869 0.861 0.852 0.841 0.828 0.813 0.800 0.789 0.779 0.799 0.934 0.934 0.000 
0.000 0.229 0.229 0.244 0.251 0.259 0.269 0.279 0.291 0.305 0.321 0.338 0.354 0.368 0.382 0.395 0.408 0.420 0.432 0.444 0.456 0.468 0.480 0.493 0.505 0.517 0.530 0.543 0.556 0.570 0.584 0.600 0.616 0.633 0.651 0.671 0.692 0.714 0.738 0.764 0.791 0.820 0.850 0.883 0.917 0.951 0.983 1.012 1.040 1.066 1.090 1.112 1.133 1.151 1.168 1.183 1.197 1.209 1.220 1.229 1.237 1.244 1.250 1.255 1.259 1.262 1.264 1.266 1.267 1.268 1.268 1.268 1.268 1.268 1.268 1.268 1.267 1.266 1.264 1.262 1.259 1.255 1.250 1.244 1.237 1.229 1.220 1.209 1.197 1.183 1.168 1.151 1.133 1.113 1.091 1.067 1.042 1.018 0.996 0.975 0.956 0.939 0.923 0.909 0.897 0.886 0.876 0.867 0.860 0.853 0.848 0.844 0.840 0.837 0.835 0.833 0.832 0.831 0.831 0.831 0.831 0.831 0.831 0.831 0.831 0.832 0.833 0.835 0.837 0.840 0.843 0.847 0.851 0.856 0.862 0.868 0.874 0.878 0.882 0.885 0.888 0.889 0.890 0.891 0.891 0.891 0.891 0.890 0.889 0.888 0.885 0.882 0.879 0.875 0.869 0.863 0.856 0.848 0.838 0.826 0.813 0.796 0.769 0.713 0.566 0.383 0.383 0.000 
0.000 0.203 0.203 0.219 0.226 0.235 0.245 0.257 0.271 0.287 0.306 0.325 0.342 0.357 0.372 0.386 0.399 0.412 0.425 0.438 0.450 0.463 0.475 0.488 0.500 0.513 0.526 0.539 0.552 0.566 0.581 0.596 0.612 0.629 0.647 0.666 0.686 0.708 0.732 0.757 0.783 0.811 0.842 0.874 0.907 0.941 0.973 1.003 1.031 1.057 1.081 1.103 1.124 1.143 1.160 1.175 1.189 1.201 1.212 1.222 1.230 1.237 1.243 1.248 1.252 1.255 1.258 1.260 1.261 1.262 1.262 1.262 1.262 1.262 1.262 1.262 1.261 1.260 1.258 1.256 1.253 1.250 1.245 1.239 1.233 1.225 1.216 1.205 1.193 1.180 1.165 1.149 1.131 1.111 1.089 1.066 1.041 1.017 0.995 0.974 0.956 0.938 0.923 0.908 0.896 0.885 0.875 0.866 0.858 0.852 0.847 0.842 0.838 0.836 0.833 0.832 0.830 0.830 0.829 0.829 0.829 0.829 0.829 0.829 0.830 0.830 0.831 0.833 0.835 0.837 0.840 0.844 0.849 0.854 0.860 0.866 0.871 0.875 0.879 0.881 0.883 0.885 0.885 0.886 0.886 0.886 0.885 0.885 0.883 0.882 0.879 0.877 0.873 0.869 0.864 0.858 0.851 0.844 0.835 0.825 0.813 0.797 0.768 0.706 0.535 0.166 0.166 0.000 
0.000 0.178 0.178 0.193 0.201 0.211 0.223 0.237 0.254 0.274 0.296 0.315 0.333 0.349 0.364 0.378 0.392 0.406 0.419 0.432 0.444 0.457 0.470 0.483 0.496 0.509 0.522 0.535 0.549 0.563 0.577 0.592 0.608 0.624 0.642 0.661 0.681 0.702 0.725 0.749 0.775 0.803 0.833 0.864 0.897 0.931 0.963 0.993 1.021 1.047 1.071 1.094 1.115 1.134 1.151 1.166 1.180 1.193 1.204 1.214 1.222 1.229 1.236 1.241 1.245 1.248 1.251 1.253 1.254 1.255 1.255 1.256 1.256 1.256 1.255 1.255 1.255 1.254 1.252 1.250 1.247 1.244 1.239 1.234 1.227 1.220 1.211 1.201 1.189 1.176 1.162 1.146 1.128 1.109 1.088 1.065 1.041 1.016 0.994 0.973 0.955 0.937 0.921 0.907 0.894 0.883 0.873 0.864 0.857 0.850 0.845 0.840 0.837 0.834 0.831 0.830 0.828 0.827 0.827 0.827 0.827 0.827 0.827 0.827 0.827 0.828 0.829 0.830 0.832 0.835 0.838 0.841 0.846 0.851 0.857 0.862 0.867 0.871 0.874 0.877 0.879 0.880 0.880 0.880 0.880 0.880 0.879 0.879 0.877 0.876 0.874 0.871 0.868 0.864 0.859 0.853 0.847 0.840 0.833 0.826 0.817 0.805 0.788 0.759 0.719 0.712 0.712 0.000 
0.000 0.152 0.152 0.168 0.177 0.189 0.203 0.220 0.242 0.266 0.288 0.308 0.326 0.343 0.358 0.373 0.387 0.400 0.413 0.427 0.440 0.453 0.466 0.478 0.491 0.505 0.518 0.531 0.545 0.559 0.573 0.588 0.603 0.620 0.637 0.656 0.675 0.696 0.718 0.742 0.768 0.795 0.823 0.854 0.887 0.920 0.952 0.982 1.010 1.037 1.061 1.084 1.105 1.124 1.141 1.157 1.171 1.184 1.195 1.205 1.214 1.221 1.227 1.233 1.237 1.240 1.243 1.245 1.246 1.247 1.248 1.248 1.248 1.248 1.248 1.248 1.247 1.246 1.245 1.243 1.241 1.237 1.233 1.228 1.221 1.214 1.206 1.196 1.185 1.172 1.158 1.142 1.125 1.106 1.085 1.063 1.039 1.015 0.993 0.972 0.953 0.936 0.920 0.906 0.893 0.881 0.871 0.863 0.855 0.848 0.843 0.838 0.834 0.831 0.829 0.827 0.826 0.825 0.824 0.824 0.824 0.824 0.824 0.824 0.824 0.825 0.826 0.827 0.829 0.832 0.834 0.838 0.842 0.847 0.853 0.858 0.863 0.867 0.870 0.872 0.873 0.874 0.874 0.874 0.874 0.874 0.874 0.873 0.872 0.870 0.868 0.866 0.863 0.859 0.854 0.849 0.843 0.837 0.831 0.827 0.824 0.823 0.827 0.850 0.926 1.079 1.079 0.000 
0.000 0.126 0.126 0.142 0.154 0.167 0.185 0.207 0.234 0.260 0.283 0.304 0.322 0.339 0.354 0.368 0.382 0.396 0.409 0.422 0.435 0.448 0.461 0.474 0.487 0.500 0.514 0.527 0.540 0.554 0.569 0.583 0.599 0.615 0.632 0.650 0.669 0.690 0.712 0.735 0.760 0.786 0.814 0.844 0.876 0.909 0.941 0.971 0.999 1.026 1.050 1.073 1.094 1.114 1.131 1.147 1.161 1.174 1.186 1.196 1.205 1.212 1.218 1.224 1.228 1.232 1.235 1.237 1.238 1.239 1.240 1.240 1.240 1.240 1.240 1.240 1.240 1.239 1.237 1.236 1.233 1.230 1.226 1.221 1.215 1.208 1.200 1.190 1.179 1.167 1.153 1.138 1.121 1.103 1.083 1.061 1.037 1.014 0.991 0.970 0.951 0.934 0.918 0.904 0.891 0.879 0.869 0.860 0.852 0.846 0.840 0.835 0.832 0.828 0.826 0.824 0.823 0.822 0.821 0.821 0.821 0.821 0.821 0.821 0.821 0.822 0.823 0.824 0.826 0.828 0.831 0.834 0.838 0.843 0.849 0.854 0.858 0.861 0.864 0.866 0.867 0.868 0.868 0.868 0.868 0.868 0.868 0.867 0.866 0.865 0.863 0.861 0.858 0.855 0.850 0.846 0.840 0.834 0.830 0.828 0.828 0.831 0.845 0.884 0.979 1.076 1.076 0.000 
0.000 0.100 0.100 0.117 0.131 0.147 0.170 0.199 0.230 0.257 0.281 0.301 0.320 0.336 0.351 0.366 0.379 0.393 0.406 0.419 0.432 0.445 0.458 0.471 0.483 0.496 0.509 0.523 0.536 0.550 0.564 0.579 0.594 0.610 0.627 0.644 0.663 0.683 0.705 0.727 0.751 0.777 0.805 0.834 0.865 0.898 0.930 0.960 0.988 1.015 1.039 1.062 1.083 1.103 1.120 1.136 1.151 1.164 1.176 1.186 1.195 1.202 1.209 1.214 1.219 1.223 1.225 1.228 1.229 1.230 1.231 1.231 1.231 1.232 1.231 1.231 1.231 1.230 1.229 1.227 1.225 1.222 1.218 1.213 1.208 1.201 1.193 1.184 1.173 1.161 1.148 1.133 1.117 1.099 1.079 1.058 1.035 1.011 0.989 0.968 0.949 0.932 0.916 0.901 0.888 0.877 0.866 0.857 0.850 0.843 0.837 0.832 0.828 0.825 0.823 0.821 0.819 0.818 0.817 0.817 0.817 0.817 0.817 0.817 0.817 0.818 0.819 0.820 0.821 0.824 0.826 0.830 0.834 0.838 0.843 0.848 0.852 0.855 0.858 0.860 0.861 0.862 0.862 0.862 0.862 0.862 0.862 0.861 0.861 0.859 0.858 0.856 0.854 0.851 0.847 0.843 0.838 0.833 0.829 0.828 0.828 0.831 0.846 0.885 0.980 1.073 1.073 0.000 
0.000 0.075 0.075 0.092 0.108 0.130 0.161 0.196 0.228 0.256 0.280 0.300 0.319 0.335 0.350 0.364 0.377 0.390 0.403 0.416 0.429 0.441 0.454 0.467 0.480 0.492 0.505 0.518 0.531 0.545 0.559 0.574 0.589 0.604 0.621 0.638 0.657 0.676 0.697 0.719 0.743 0.768 0.795 0.824 0.854 0.886 0.918 0.948 0.976 1.003 1.028 1.051 1.072 1.091 1.109 1.125 1.140 1.153 1.165 1.175 1.184 1.192 1.198 1.204 1.209 1.212 1.215 1.218 1.219 1.221 1.221 1.222 1.222 1.222 1.222 1.222 1.221 1.221 1.220 1.218 1.216 1.213 1.209 1.205 1.200 1.193 1.185 1.177 1.166 1.155 1.142 1.128 1.112 1.094 1.075 1.055 1.032 1.009 0.986 0.966 0.946 0.929 0.913 0.898 0.885 0.874 0.863 0.854 0.846 0.839 0.833 0.829 0.824 0.821 0.819 0.816 0.815 0.814 0.813 0.813 0.813 0.813 0.813 0.813 0.813 0.813 0.814 0.815 0.817 0.819 0.821 0.824 0.828 0.833 0.838 0.842 0.846 0.849 0.851 0.853 0.854 0.855 0.856 0.856 0.857 0.857 0.856 0.856 0.856 0.855 0.853 0.852 0.850 0.847 0.844 0.840 0.836 0.832 0.828 0.826 0.825 0.825 0.833 0.859 0.934 1.071 1.071 0.000 
0.000 0.049 0.049 0.067 0.088 0.118 0.158 0.196 0.228 0.256 0.279 0.300 0.318 0.335 0.349 0.363 0.376 0.389 0.401 0.414 0.426 0.439 0.451 0.463 0.476 0.488 0.501 0.514 0.527 0.540 0.554 0.568 0.583 0.599 0.615 0.632 0.650 0.669 0.690 0.711 0.734 0.759 0.785 0.813 0.843 0.874 0.906 0.936 0.964 0.991 1.015 1.038 1.060 1.079 1.097 1.113 1.128 1.141 1.153 1.163 1.173 1.181 1.187 1.193 1.198 1.202 1.205 1.207 1.209 1.210 1.211 1.211 1.212 1.212 1.212 1.212 1.211 1.211 1.210 1.208 1.206 1.204 1.200 1.196 1.191 1.184 1.177 1.169 1.159 1.148 1.135 1.121 1.106 1.089 1.071 1.050 1.029 1.006 0.983 0.962 0.943 0.926 0.910 0.895 0.882 0.870 0.860 0.850 0.842 0.835 0.829 0.824 0.820 0.817 0.814 0.812 0.810 0.809 0.808 0.808 0.808 0.808 0.808 0.808 0.808 0.808 0.809 0.810 0.811 0.813 0.816 0.819 0.822 0.826 0.831 0.835 0.838 0.841 0.843 0.845 0.847 0.848 0.849 0.850 0.851 0.851 0.851 0.851 0.851 0.850 0.849 0.848 0.846 0.844 0.842 0.838 0.835 0.831 0.827 0.823 0.817 0.810 0.797 0.778 0.768 0.869 0.869 0.000 
0.000 0.028 0.028 0.045 0.072 0.113 0.158 0.196 0.228 0.256 0.279 0.300 0.318 0.335 0.349 0.363 0.376 0.388 0.400 0.412 0.424 0.436 0.448 0.460 0.472 0.484 0.496 0.509 0.522 0.535 0.548 0.562 0.577 0.592 0.608 0.625 0.643 0.662 0.682 0.703 0.726 0.750 0.775 0.802 0.831 0.862 0.893 0.923 0.951 0.978 1.002 1.025 1.047 1.066 1.084 1.101 1.115 1.129 1.141 1.151 1.160 1.168 1.175 1.181 1.186 1.190 1.193 1.196 1.198 1.199 1.200 1.200 1.200 1.201 1.201 1.200 1.200 1.200 1.199 1.197 1.196 1.193 1.190 1.186 1.181 1.175 1.168 1.160 1.150 1.140 1.128 1.114 1.099 1.083 1.065 1.045 1.024 1.002 0.979 0.959 0.939 0.922 0.906 0.891 0.878 0.866 0.855 0.846 0.838 0.830 0.824 0.819 0.815 0.811 0.809 0.806 0.805 0.804 0.803 0.802 0.802 0.802 0.802 0.802 0.802 0.802 0.803 0.804 0.805 0.807 0.809 0.812 0.815 0.819 0.823 0.827 0.830 0.833 0.835 0.838 0.839 0.841 0.843 0.844 0.845 0.846 0.846 0.846 0.846 0.846 0.845 0.844 0.843 0.841 0.839 0.837 0.834 0.830 0.826 0.821 0.814 0.801 0.775 0.715 0.558 0.328 0.328 0.000 
0.000 0.010 0.010 0.028 0.066 0.114 0.159 0.197 0.230 0.257 0.281 0.301 0.319 0.335 0.350 0.363 0.376 0.388 0.399 0.411 0.422 0.434 0.445 0.457 0.468 0.480 0.492 0.504 0.516 0.529 0.542 0.556 0.570 0.585 0.601 0.618 0.635 0.654 0.673 0.694 0.716 0.740 0.765 0.791 0.819 0.849 0.880 0.910 0.938 0.964 0.989 1.012 1.033 1.053 1.071 1.087 1.102 1.115 1.127 1.138 1.147 1.155 1.162 1.168 1.173 1.177 1.181 1.183 1.185 1.187 1.188 1.188 1.188 1.188 1.189 1.188 1.188 1.188 1.187 1.186 1.184 1.182 1.179 1.175 1.170 1.164 1.158 1.150 1.141 1.131 1.119 1.106 1.092 1.076 1.059 1.040 1.019 0.997 0.975 0.954 0.935 0.917 0.901 0.886 0.873 0.861 0.850 0.841 0.832 0.825 0.819 0.814 0.809 0.806 0.803 0.800 0.799 0.797 0.796 0.796 0.796 0.795 0.795 0.795 0.796 0.796 0.796 0.797 0.798 0.800 0.802 0.804 0.807 0.811 0.814 0.818 0.821 0.824 0.827 0.829 0.831 0.834 0.836 0.838 0.839 0.840 0.841 0.842 0.842 0.842 0.842 0.841 0.840 0.839 0.838 0.836 0.833 0.830 0.826 0.821 0.814 0.801 0.774 0.712 0.548 0.210 0.210 0.000 
0.000 0.030 0.030 0.029 0.068 0.119 0.164 0.201 0.233 0.260 0.283 0.303 0.321 0.336 0.351 0.364 0.376 0.387 0.399 0.410 0.420 0.431 0.442 0.453 0.464 0.476 0.487 0.499 0.511 0.523 0.536 0.549 0.563 0.578 0.594 0.610 0.627 0.645 0.664 0.685 0.706 0.729 0.754 0.780 0.807 0.836 0.867 0.896 0.924 0.950 0.975 0.998 1.019 1.039 1.057 1.073 1.088 1.101 1.113 1.124 1.133 1.142 1.149 1.155 1.160 1.164 1.167 1.170 1.172 1.173 1.174 1.175 1.175 1.176 1.176 1.175 1.175 1.175 1.174 1.173 1.171 1.169 1.166 1.163 1.158 1.153 1.147 1.139 1.131 1.121 1.110 1.097 1.083 1.068 1.051 1.033 1.013 0.992 0.969 0.949 0.929 0.912 0.895 0.881 0.867 0.855 0.844 0.835 0.826 0.819 0.813 0.807 0.803 0.799 0.796 0.793 0.792 0.790 0.789 0.789 0.788 0.788 0.788 0.788 0.788 0.788 0.789 0.789 0.791 0.792 0.794 0.796 0.799 0.802 0.805 0.808 0.811 0.814 0.817 0.820 0.823 0.826 0.828 0.831 0.833 0.835 0.836 0.838 0.839 0.839 0.839 0.839 0.838 0.837 0.836 0.835 0.833 0.830 0.826 0.822 0.816 0.807 0.792 0.765 0.734 0.746 0.746 0.000 
0.000 0.062 0.062 0.052 0.085 0.131 0.173 0.209 0.240 0.266 0.288 0.307 0.324 0.339 0.352 0.365 0.377 0.388 0.398 0.409 0.419 0.429 0.440 0.450 0.461 0.471 0.482 0.493 0.505 0.517 0.529 0.542 0.556 0.570 0.586 0.602 0.618 0.636 0.655 0.675 0.696 0.719 0.742 0.768 0.794 0.823 0.853 0.882 0.910 0.936 0.960 0.983 1.004 1.024 1.042 1.058 1.073 1.086 1.098 1.109 1.119 1.127 1.134 1.140 1.145 1.149 1.153 1.156 1.158 1.159 1.160 1.161 1.161 1.162 1.162 1.162 1.161 1.161 1.160 1.159 1.158 1.156 1.153 1.150 1.146 1.141 1.135 1.127 1.119 1.110 1.099 1.087 1.074 1.059 1.043 1.025 1.006 0.985 0.963 0.943 0.923 0.905 0.889 0.874 0.861 0.848 0.838 0.828 0.819 0.812 0.805 0.800 0.795 0.791 0.788 0.786 0.784 0.782 0.781 0.781 0.780 0.780 0.780 0.780 0.780 0.780 0.780 0.781 0.782 0.783 0.785 0.787 0.789 0.792 0.795 0.798 0.801 0.804 0.807 0.811 0.814 0.817 0.820 0.823 0.826 0.829 0.831 0.833 0.835 0.836 0.836 0.836 0.836 0.836 0.835 0.834 0.833 0.830 0.827 0.825 0.823 0.822 0.827 0.848 0.920 1.058 1.058 0.000 
0.000 0.157 0.157 0.110 0.133 0.158 0.188 0.222 0.251 0.275 0.295 0.313 0.329 0.343 0.355 0.367 0.378 0.389 0.399 0.408 0.418 0.428 0.437 0.447 0.457 0.467 0.477 0.488 0.499 0.510 0.522 0.535 0.548 0.562 0.577 0.593 0.609 0.627 0.645 0.665 0.685 0.707 0.730 0.755 0.781 0.809 0.838 0.867 0.895 0.920 0.945 0.967 0.988 1.008 1.026 1.042 1.057 1.070 1.082 1.093 1.103 1.111 1.118 1.124 1.130 1.134 1.138 1.140 1.142 1.144 1.145 1.146 1.146 1.147 1.147 1.147 1.146 1.146 1.146 1.145 1.143 1.141 1.139 1.136 1.132 1.127 1.121 1.115 1.107 1.098 1.087 1.076 1.063 1.049 1.033 1.016 0.998 0.978 0.956 0.936 0.916 0.898 0.882 0.867 0.853 0.841 0.830 0.820 0.812 0.804 0.797 0.792 0.787 0.783 0.780 0.777 0.775 0.774 0.772 0.772 0.771 0.771 0.771 0.771 0.771 0.771 0.771 0.772 0.772 0.773 0.775 0.776 0.778 0.781 0.784 0.787 0.790 0.793 0.797 0.800 0.804 0.808 0.812 0.815 0.819 0.823 0.826 0.829 0.831 0.833 0.834 0.835 0.835 0.835 0.835 0.834 0.833 0.831 0.828 0.827 0.827 0.830 0.841 0.877 0.965 1.055 1.055 0.000 
0.000 0.270 0.270 0.208 0.189 0.192 0.212 0.241 0.267 0.288 0.306 0.322 0.336 0.348 0.360 0.370 0.380 0.390 0.399 0.408 0.417 0.426 0.435 0.444 0.453 0.462 0.472 0.482 0.492 0.503 0.515 0.527 0.540 0.553 0.568 0.583 0.599 0.616 0.634 0.653 0.674 0.695 0.718 0.742 0.767 0.794 0.823 0.852 0.879 0.904 0.928 0.951 0.972 0.991 1.009 1.025 1.040 1.053 1.065 1.076 1.086 1.094 1.101 1.108 1.113 1.117 1.121 1.124 1.126 1.128 1.129 1.130 1.130 1.130 1.130 1.130 1.130 1.130 1.130 1.129 1.128 1.126 1.124 1.121 1.117 1.112 1.107 1.100 1.093 1.084 1.075 1.064 1.051 1.038 1.023 1.006 0.988 0.969 0.948 0.928 0.908 0.890 0.874 0.859 0.845 0.833 0.822 0.812 0.803 0.795 0.788 0.783 0.778 0.774 0.770 0.768 0.765 0.764 0.763 0.762 0.761 0.761 0.761 0.761 0.761 0.761 0.761 0.761 0.762 0.763 0.764 0.765 0.767 0.769 0.772 0.775 0.778 0.781 0.785 0.789 0.793 0.797 0.802 0.807 0.811 0.816 0.820 0.824 0.827 0.830 0.832 0.833 0.834 0.834 0.834 0.834 0.833 0.831 0.829 0.828 0.828 0.830 0.842 0.876 0.963 1.053 1.053 0.000 
0.000 0.175 0.175 0.219 0.215 0.229 0.247 0.269 0.290 0.307 0.322 0.334 0.346 0.356 0.366 0.375 0.384 0.392 0.400 0.408 0.416 0.424 0.432 0.440 0.448 0.457 0.466 0.475 0.485 0.496 0.507 0.518 0.531 0.544 0.558 0.573 0.589 0.605 0.623 0.642 0.661 0.682 0.705 0.728 0.753 0.779 0.807 0.835 0.862 0.888 0.911 0.934 0.954 0.973 0.991 1.007 1.022 1.035 1.047 1.058 1.068 1.076 1.084 1.090 1.095 1.100 1.103 1.106 1.109 1.110 1.112 1.112 1.113 1.113 1.113 1.113 1.113 1.113 1.113 1.112 1.111 1.109 1.107 1.104 1.101 1.096 1.091 1.085 1.078 1.070 1.061 1.050 1.038 1.025 1.011 0.995 0.978 0.959 0.939 0.918 0.899 0.881 0.865 0.850 0.836 0.823 0.812 0.802 0.793 0.785 0.778 0.773 0.768 0.763 0.760 0.757 0.755 0.753 0.752 0.751 0.750 0.750 0.749 0.749 0.749 0.749 0.750 0.750 0.750 0.751 0.752 0.753 0.755 0.757 0.759 0.762 0.765 0.769 0.773 0.777 0.782 0.787 0.792 0.797 0.803 0.808 0.814 0.818 0.823 0.827 0.830 0.832 0.834 0.834 0.834 0.834 0.834 0.832 0.830 0.828 0.826 0.825 0.828 0.847 0.911 1.050 1.050 0.000 
0.000 0.027 0.027 0.143 0.238 0.272 0.292 0.307 0.320 0.332 0.342 0.351 0.359 0.367 0.374 0.381 0.388 0.395 0.402 0.409 0.416 0.423 0.429 0.437 0.444 0.452 0.460 0.469 0.478 0.488 0.498 0.510 0.522 0.534 0.548 0.562 0.577 0.594 0.611 0.629 0.648 0.669 0.691 0.714 0.738 0.763 0.791 0.818 0.845 0.870 0.893 0.915 0.936 0.955 0.972 0.988 1.003 1.016 1.028 1.039 1.049 1.057 1.064 1.071 1.076 1.081 1.084 1.087 1.090 1.092 1.093 1.094 1.094 1.095 1.095 1.095 1.095 1.095 1.094 1.094 1.092 1.091 1.089 1.086 1.083 1.079 1.074 1.069 1.062 1.054 1.045 1.035 1.024 1.012 0.998 0.983 0.966 0.948 0.929 0.908 0.889 0.871 0.855 0.839 0.826 0.813 0.802 0.791 0.782 0.774 0.767 0.761 0.756 0.752 0.748 0.745 0.743 0.741 0.740 0.739 0.738 0.737 0.737 0.737 0.737 0.737 0.737 0.737 0.738 0.738 0.739 0.740 0.742 0.744 0.746 0.749 0.752 0.755 0.760 0.764 0.769 0.775 0.780 0.787 0.793 0.800 0.806 0.812 0.818 0.823 0.827 0.831 0.833 0.834 0.835 0.835 0.835 0.834 0.832 0.829 0.823 0.812 0.794 0.764 0.728 0.805 0.805 0.000 
0.000 0.312 0.312 0.190 0.294 0.334 0.349 0.355 0.360 0.364 0.367 0.371 0.375 0.380 0.384 0.389 0.394 0.399 0.405 0.410 0.415 0.421 0.427 0.433 0.439 0.446 0.454 0.462 0.471 0.480 0.490 0.500 0.512 0.524 0.537 0.551 0.565 0.581 0.598 0.616 0.635 0.655 0.676 0.698 0.722 0.747 0.773 0.800 0.826 0.851 0.874 0.896 0.916 0.935 0.952 0.968 0.983 0.996 1.008 1.019 1.028 1.037 1.044 1.050 1.056 1.060 1.064 1.067 1.070 1.072 1.073 1.074 1.074 1.075 1.075 1.075 1.075 1.075 1.074 1.074 1.073 1.072 1.070 1.067 1.064 1.061 1.056 1.051 1.044 1.037 1.029 1.019 1.008 0.996 0.983 0.969 0.953 0.935 0.917 0.897 0.878 0.860 0.843 0.828 0.814 0.801 0.790 0.780 0.770 0.762 0.755 0.749 0.744 0.739 0.736 0.732 0.730 0.728 0.726 0.725 0.725 0.724 0.724 0.724 0.724 0.724 0.724 0.724 0.724 0.724 0.725 0.726 0.728 0.729 0.732 0.734 0.738 0.741 0.746 0.750 0.756 0.762 0.768 0.775 0.782 0.790 0.798 0.806 0.813 0.819 0.825 0.829 0.833 0.835 0.836 0.837 0.837 0.836 0.834 0.830 0.823 0.808 0.777 0.711 0.547 0.275 0.275 0.000 
0.000 0.692 0.692 0.493 0.441 0.430 0.421 0.413 0.406 0.400 0.396 0.395 0.394 0.395 0.396 0.398 0.401 0.404 0.407 0.411 0.415 0.419 0.424 0.429 0.434 0.441 0.447 0.455 0.463 0.471 0.480 0.490 0.501 0.513 0.525 0.539 0.553 0.568 0.584 0.602 0.620 0.640 0.660 0.682 0.705 0.729 0.755 0.782 0.807 0.831 0.854 0.876 0.896 0.914 0.931 0.947 0.962 0.975 0.987 0.997 1.007 1.015 1.022 1.029 1.034 1.039 1.043 1.046 1.048 1.050 1.052 1.053 1.053 1.054 1.054 1.054 1.054 1.054 1.053 1.053 1.052 1.051 1.049 1.047 1.044 1.041 1.036 1.031 1.025 1.018 1.010 1.001 0.991 0.980 0.967 0.953 0.938 0.921 0.904 0.884 0.865 0.847 0.831 0.815 0.801 0.789 0.777 0.767 0.757 0.749 0.742 0.736 0.730 0.725 0.722 0.718 0.716 0.714 0.712 0.711 0.710 0.709 0.709 0.709 0.709 0.709 0.709 0.709 0.709 0.710 0.710 0.711 0.713 0.714 0.716 0.719 0.722 0.726 0.731 0.736 0.742 0.748 0.755 0.763 0.771 0.779 0.789 0.798 0.807 0.815 0.822 0.828 0.833 0.836 0.839 0.840 0.840 0.840 0.838 0.834 0.826 0.810 0.778 0.712 0.557 0.253 0.253 0.000 
0.000 0.746 0.746 0.682 0.580 0.522 0.487 0.462 0.444 0.431 0.422 0.415 0.411 0.408 0.407 0.407 0.407 0.408 0.410 0.411 0.414 0.417 0.420 0.425 0.429 0.435 0.441 0.447 0.454 0.462 0.471 0.480 0.490 0.501 0.513 0.526 0.540 0.554 0.570 0.587 0.605 0.623 0.644 0.665 0.687 0.711 0.736 0.762 0.787 0.811 0.833 0.854 0.874 0.892 0.909 0.925 0.939 0.952 0.964 0.974 0.984 0.992 0.999 1.006 1.011 1.016 1.020 1.023 1.025 1.027 1.029 1.030 1.030 1.031 1.031 1.031 1.031 1.031 1.031 1.030 1.030 1.029 1.027 1.025 1.022 1.019 1.015 1.010 1.005 0.998 0.991 0.982 0.972 0.962 0.950 0.936 0.922 0.906 0.889 0.870 0.851 0.833 0.817 0.801 0.787 0.774 0.763 0.752 0.743 0.734 0.727 0.721 0.715 0.710 0.706 0.703 0.700 0.698 0.696 0.695 0.694 0.694 0.693 0.693 0.693 0.693 0.693 0.693 0.693 0.694 0.694 0.695 0.696 0.698 0.700 0.703 0.706 0.710 0.715 0.720 0.726 0.733 0.741 0.749 0.758 0.768 0.778 0.789 0.799 0.809 0.818 0.826 0.833 0.838 0.842 0.845 0.846 0.846 0.845 0.842 0.834 0.821 0.798 0.768 0.744 0.778 0.778 0.000 
0.000 0.737 0.737 0.720 0.643 0.577 0.531 0.498 0.474 0.456 0.443 0.433 0.425 0.420 0.416 0.413 0.412 0.411 0.411 0.412 0.413 0.415 0.417 0.420 0.424 0.428 0.433 0.439 0.446 0.453 0.461 0.469 0.479 0.489 0.500 0.513 0.526 0.540 0.555 0.571 0.588 0.606 0.626 0.646 0.668 0.691 0.715 0.741 0.765 0.789 0.811 0.831 0.851 0.869 0.885 0.901 0.915 0.928 0.939 0.950 0.959 0.967 0.975 0.981 0.987 0.991 0.995 0.998 1.001 1.003 1.004 1.005 1.006 1.007 1.007 1.007 1.007 1.007 1.007 1.006 1.006 1.005 1.003 1.001 0.999 0.996 0.992 0.988 0.983 0.976 0.969 0.961 0.952 0.942 0.930 0.918 0.904 0.889 0.872 0.854 0.836 0.818 0.801 0.786 0.772 0.759 0.747 0.737 0.727 0.719 0.711 0.704 0.699 0.694 0.690 0.686 0.684 0.681 0.680 0.678 0.677 0.676 0.676 0.676 0.676 0.676 0.676 0.676 0.676 0.676 0.677 0.678 0.679 0.681 0.683 0.686 0.689 0.693 0.698 0.704 0.710 0.718 0.726 0.735 0.744 0.755 0.766 0.778 0.790 0.802 0.814 0.824 0.833 0.841 0.847 0.851 0.854 0.855 0.856 0.855 0.852 0.847 0.847 0.865 0.925 1.037 1.037 0.000 
0.000 0.714 0.714 0.714 0.666 0.606 0.560 0.524 0.497 0.476 0.460 0.447 0.437 0.429 0.423 0.418 0.415 0.413 0.412 0.411 0.411 0.412 0.414 0.416 0.418 0.422 0.426 0.431 0.437 0.443 0.450 0.458 0.467 0.476 0.487 0.498 0.511 0.524 0.539 0.554 0.571 0.588 0.607 0.627 0.648 0.670 0.694 0.718 0.742 0.765 0.787 0.807 0.826 0.844 0.860 0.875 0.889 0.902 0.913 0.924 0.933 0.941 0.949 0.955 0.960 0.965 0.969 0.972 0.975 0.977 0.978 0.979 0.980 0.981 0.981 0.981 0.981 0.981 0.981 0.981 0.980 0.979 0.978 0.976 0.974 0.971 0.968 0.964 0.959 0.953 0.946 0.938 0.930 0.920 0.909 0.897 0.884 0.870 0.854 0.837 0.819 0.801 0.784 0.769 0.755 0.742 0.730 0.719 0.710 0.701 0.694 0.687 0.681 0.676 0.672 0.668 0.665 0.663 0.661 0.660 0.659 0.658 0.657 0.657 0.657 0.657 0.657 0.657 0.657 0.658 0.658 0.659 0.660 0.662 0.665 0.667 0.671 0.675 0.680 0.686 0.693 0.701 0.709 0.719 0.729 0.741 0.753 0.766 0.780 0.794 0.808 0.821 0.834 0.844 0.853 0.860 0.865 0.869 0.873 0.876 0.880 0.887 0.903 0.934 0.988 1.035 1.035 0.000 
0.000 0.688 0.688 0.695 0.668 0.620 0.577 0.542 0.514 0.492 0.474 0.459 0.447 0.437 0.429 0.422 0.417 0.414 0.411 0.410 0.410 0.409 0.410 0.411 0.413 0.415 0.418 0.422 0.427 0.433 0.439 0.446 0.454 0.463 0.473 0.484 0.495 0.508 0.522 0.537 0.552 0.569 0.587 0.607 0.627 0.648 0.671 0.695 0.718 0.740 0.762 0.781 0.800 0.817 0.834 0.848 0.862 0.875 0.886 0.896 0.905 0.914 0.921 0.927 0.933 0.937 0.941 0.944 0.947 0.949 0.951 0.952 0.953 0.953 0.953 0.953 0.953 0.953 0.953 0.953 0.953 0.952 0.951 0.949 0.947 0.945 0.941 0.938 0.933 0.927 0.921 0.914 0.906 0.897 0.886 0.875 0.862 0.849 0.834 0.818 0.800 0.782 0.766 0.750 0.736 0.723 0.711 0.701 0.691 0.682 0.674 0.668 0.662 0.657 0.652 0.649 0.646 0.643 0.641 0.640 0.639 0.638 0.638 0.637 0.637 0.637 0.637 0.637 0.637 0.638 0.638 0.639 0.641 0.643 0.645 0.648 0.652 0.656 0.661 0.668 0.675 0.683 0.692 0.702 0.713 0.726 0.739 0.753 0.768 0.784 0.801 0.817 0.832 0.847 0.860 0.871 0.880 0.888 0.896 0.904 0.915 0.931 0.952 0.982 1.015 1.035 1.035 0.000 
0.000 0.662 0.662 0.672 0.656 0.624 0.586 0.554 0.528 0.505 0.486 0.470 0.456 0.443 0.433 0.425 0.419 0.414 0.411 0.409 0.407 0.406 0.406 0.406 0.407 0.408 0.410 0.413 0.417 0.422 0.427 0.434 0.441 0.449 0.458 0.468 0.479 0.491 0.504 0.518 0.533 0.549 0.567 0.585 0.604 0.625 0.647 0.669 0.692 0.714 0.735 0.754 0.773 0.790 0.805 0.820 0.833 0.846 0.857 0.867 0.876 0.884 0.891 0.897 0.903 0.907 0.911 0.915 0.917 0.919 0.921 0.922 0.923 0.924 0.924 0.924 0.924 0.924 0.924 0.924 0.923 0.923 0.922 0.920 0.918 0.916 0.913 0.910 0.905 0.900 0.894 0.888 0.880 0.871 0.861 0.851 0.839 0.826 0.812 0.796 0.780 0.762 0.746 0.730 0.716 0.703 0.691 0.680 0.670 0.662 0.654 0.647 0.641 0.636 0.631 0.628 0.625 0.622 0.620 0.619 0.617 0.617 0.616 0.616 0.616 0.616 0.616 0.616 0.616 0.616 0.617 0.618 0.620 0.621 0.624 0.627 0.631 0.636 0.641 0.648 0.655 0.664 0.673 0.684 0.696 0.709 0.724 0.739 0.755 0.773 0.791 0.810 0.830 0.849 0.868 0.884 0.898 0.911 0.924 0.938 0.955 0.974 0.996 1.018 1.034 1.038 1.038 0.000 
0.000 0.636 0.636 0.647 0.638 0.617 0.589 0.562 0.539 0.517 0.497 0.479 0.463 0.449 0.437 0.427 0.419 0.414 0.409 0.406 0.404 0.402 0.401 0.400 0.400 0.401 0.402 0.404 0.407 0.411 0.415 0.421 0.427 0.434 0.442 0.452 0.462 0.473 0.485 0.498 0.513 0.528 0.544 0.562 0.580 0.600 0.621 0.643 0.665 0.686 0.706 0.725 0.743 0.760 0.775 0.790 0.803 0.815 0.826 0.836 0.845 0.853 0.860 0.866 0.871 0.876 0.880 0.883 0.886 0.888 0.889 0.891 0.891 0.892 0.892 0.893 0.893 0.893 0.893 0.892 0.892 0.891 0.891 0.889 0.888 0.885 0.883 0.879 0.875 0.871 0.865 0.859 0.852 0.844 0.835 0.824 0.813 0.801 0.787 0.773 0.757 0.740 0.724 0.708 0.694 0.681 0.669 0.658 0.648 0.639 0.632 0.625 0.618 0.613 0.609 0.605 0.602 0.599 0.597 0.596 0.594 0.594 0.593 0.593 0.593 0.593 0.593 0.593 0.593 0.593 0.594 0.595 0.597 0.599 0.602 0.605 0.609 0.614 0.620 0.627 0.634 0.643 0.654 0.665 0.678 0.692 0.707 0.723 0.741 0.760 0.781 0.802 0.825 0.848 0.872 0.897 0.919 0.939 0.958 0.976 0.995 1.015 1.034 1.049 1.057 1.059 1.059 0.000 
0.000 0.611 0.611 0.622 0.615 0.603 0.586 0.566 0.547 0.528 0.508 0.488 0.469 0.453 0.439 0.428 0.420 0.413 0.407 0.403 0.399 0.397 0.395 0.394 0.393 0.393 0.393 0.394 0.396 0.399 0.402 0.407 0.412 0.419 0.426 0.435 0.444 0.454 0.465 0.478 0.491 0.506 0.521 0.538 0.555 0.574 0.594 0.614 0.636 0.657 0.676 0.695 0.712 0.728 0.743 0.757 0.770 0.782 0.793 0.803 0.811 0.819 0.826 0.832 0.837 0.842 0.846 0.849 0.852 0.854 0.856 0.857 0.858 0.858 0.859 0.859 0.859 0.859 0.859 0.859 0.859 0.858 0.857 0.856 0.855 0.853 0.850 0.847 0.844 0.839 0.834 0.828 0.822 0.814 0.805 0.796 0.785 0.774 0.761 0.747 0.732 0.716 0.700 0.684 0.670 0.657 0.645 0.634 0.624 0.615 0.608 0.600 0.594 0.589 0.584 0.581 0.577 0.575 0.573 0.571 0.570 0.569 0.569 0.568 0.568 0.568 0.568 0.568 0.569 0.569 0.570 0.571 0.573 0.575 0.578 0.581 0.586 0.591 0.597 0.604 0.612 0.622 0.632 0.644 0.658 0.673 0.689 0.707 0.726 0.747 0.769 0.793 0.818 0.845 0.873 0.905 0.938 0.968 0.993 1.015 1.035 1.054 1.070 1.081 1.090 1.097 1.097 0.000 
0.000 0.585 0.585 0.597 0.593 0.587 0.580 0.569 0.554 0.537 0.517 0.495 0.474 0.456 0.441 0.429 0.419 0.411 0.404 0.399 0.394 0.391 0.388 0.386 0.385 0.384 0.384 0.384 0.385 0.387 0.389 0.393 0.397 0.403 0.409 0.417 0.425 0.434 0.445 0.456 0.469 0.482 0.497 0.512 0.529 0.546 0.565 0.584 0.605 0.625 0.644 0.662 0.679 0.695 0.710 0.723 0.736 0.747 0.758 0.767 0.776 0.784 0.790 0.796 0.802 0.806 0.810 0.813 0.816 0.818 0.820 0.821 0.822 0.823 0.823 0.823 0.823 0.823 0.823 0.823 0.823 0.823 0.822 0.821 0.820 0.818 0.816 0.813 0.809 0.805 0.801 0.795 0.789 0.782 0.774 0.765 0.755 0.744 0.732 0.719 0.705 0.690 0.674 0.659 0.645 0.631 0.619 0.609 0.599 0.590 0.582 0.575 0.568 0.563 0.558 0.554 0.551 0.548 0.546 0.545 0.544 0.543 0.542 0.542 0.542 0.542 0.542 0.542 0.542 0.543 0.544 0.545 0.547 0.549 0.552 0.556 0.561 0.566 0.573 0.580 0.589 0.599 0.610 0.623 0.637 0.652 0.669 0.688 0.709 0.731 0.755 0.782 0.810 0.840 0.873 0.909 0.950 0.990 1.024 1.051 1.073 1.091 1.105 1.116 1.124 1.129 1.129 0.000 
0.000 0.559 0.559 0.573 0.577 0.579 0.577 0.571 0.560 0.545 0.525 0.502 0.478 0.458 0.442 0.428 0.417 0.408 0.400 0.393 0.388 0.383 0.380 0.377 0.375 0.374 0.373 0.373 0.373 0.374 0.376 0.378 0.382 0.386 0.391 0.398 0.405 0.414 0.423 0.433 0.445 0.457 0.471 0.485 0.500 0.517 0.534 0.553 0.572 0.592 0.610 0.628 0.644 0.659 0.674 0.687 0.699 0.710 0.721 0.730 0.738 0.746 0.752 0.758 0.763 0.768 0.772 0.775 0.778 0.780 0.782 0.783 0.784 0.785 0.785 0.785 0.785 0.785 0.785 0.785 0.785 0.785 0.784 0.783 0.782 0.780 0.778 0.776 0.773 0.769 0.765 0.760 0.754 0.747 0.740 0.732 0.723 0.712 0.701 0.689 0.675 0.661 0.646 0.631 0.617 0.604 0.592 0.581 0.571 0.562 0.554 0.547 0.540 0.535 0.530 0.526 0.523 0.520 0.518 0.517 0.516 0.515 0.514 0.514 0.514 0.514 0.514 0.514 0.515 0.515 0.516 0.518 0.520 0.522 0.526 0.530 0.534 0.540 0.547 0.555 0.564 0.574 0.586 0.599 0.614 0.630 0.649 0.669 0.690 0.714 0.740 0.769 0.800 0.833 0.870 0.910 0.955 1.006 1.051 1.085 1.110 1.129 1.142 1.151 1.156 1.157 1.157 0.000 
0.000 0.533 0.533 0.551 0.570 0.577 0.577 0.574 0.565 0.551 0.531 0.505 0.480 0.459 0.441 0.427 0.414 0.403 0.394 0.387 0.380 0.375 0.371 0.367 0.365 0.363 0.362 0.361 0.361 0.361 0.361 0.363 0.365 0.368 0.373 0.378 0.385 0.392 0.400 0.410 0.420 0.431 0.443 0.457 0.471 0.486 0.502 0.519 0.537 0.556 0.574 0.591 0.607 0.622 0.635 0.648 0.660 0.671 0.681 0.690 0.698 0.706 0.712 0.718 0.723 0.727 0.731 0.734 0.737 0.739 0.741 0.742 0.743 0.744 0.744 0.745 0.745 0.745 0.745 0.745 0.745 0.744 0.744 0.743 0.742 0.741 0.739 0.737 0.734 0.730 0.726 0.722 0.717 0.711 0.704 0.696 0.687 0.678 0.667 0.656 0.643 0.630 0.615 0.601 0.587 0.574 0.562 0.551 0.541 0.532 0.524 0.517 0.511 0.505 0.500 0.497 0.493 0.491 0.489 0.487 0.486 0.485 0.485 0.484 0.484 0.484 0.484 0.485 0.485 0.486 0.487 0.489 0.491 0.493 0.497 0.501 0.506 0.512 0.519 0.528 0.537 0.548 0.560 0.574 0.590 0.607 0.626 0.647 0.670 0.696 0.724 0.754 0.788 0.824 0.864 0.908 0.956 1.013 1.070 1.115 1.147 1.168 1.181 1.187 1.189 1.187 1.187 0.000 
0.000 0.550 0.550 0.549 0.571 0.580 0.581 0.579 0.571 0.556 0.535 0.507 0.480 0.458 0.440 0.424 0.410 0.398 0.388 0.379 0.371 0.365 0.360 0.356 0.353 0.350 0.348 0.347 0.346 0.346 0.346 0.347 0.348 0.350 0.353 0.358 0.363 0.369 0.376 0.385 0.394 0.404 0.415 0.427 0.439 0.453 0.468 0.484 0.500 0.518 0.535 0.552 0.567 0.581 0.595 0.607 0.619 0.629 0.639 0.648 0.656 0.663 0.669 0.675 0.680 0.684 0.688 0.691 0.694 0.696 0.697 0.699 0.700 0.701 0.701 0.701 0.702 0.702 0.702 0.702 0.702 0.701 0.701 0.700 0.699 0.698 0.696 0.694 0.692 0.689 0.685 0.681 0.676 0.671 0.665 0.657 0.650 0.641 0.631 0.620 0.609 0.596 0.583 0.568 0.554 0.542 0.530 0.519 0.509 0.500 0.492 0.485 0.479 0.473 0.469 0.465 0.462 0.459 0.457 0.455 0.454 0.454 0.453 0.453 0.453 0.453 0.453 0.453 0.454 0.455 0.456 0.457 0.460 0.463 0.466 0.471 0.476 0.483 0.490 0.499 0.509 0.520 0.533 0.548 0.564 0.582 0.602 0.624 0.649 0.675 0.705 0.738 0.773 0.813 0.856 0.903 0.955 1.014 1.079 1.139 1.182 1.208 1.223 1.228 1.227 1.219 1.219 0.000 
0.000 0.570 0.570 0.566 0.583 0.591 0.592 0.588 0.578 0.561 0.537 0.507 0.480 0.457 0.437 0.419 0.404 0.391 0.379 0.370 0.361 0.354 0.348 0.343 0.339 0.336 0.334 0.332 0.331 0.330 0.329 0.329 0.330 0.331 0.333 0.336 0.340 0.345 0.351 0.358 0.366 0.375 0.385 0.395 0.406 0.419 0.432 0.446 0.461 0.478 0.494 0.510 0.525 0.539 0.552 0.564 0.575 0.585 0.594 0.603 0.611 0.618 0.624 0.629 0.634 0.638 0.642 0.645 0.647 0.650 0.651 0.653 0.654 0.655 0.655 0.655 0.656 0.656 0.656 0.656 0.656 0.655 0.655 0.655 0.654 0.653 0.651 0.650 0.647 0.645 0.642 0.638 0.633 0.628 0.623 0.616 0.609 0.601 0.592 0.582 0.571 0.560 0.547 0.533 0.520 0.507 0.496 0.485 0.475 0.466 0.458 0.451 0.445 0.439 0.435 0.431 0.428 0.425 0.423 0.422 0.421 0.420 0.420 0.419 0.419 0.419 0.420 0.420 0.420 0.421 0.423 0.425 0.427 0.430 0.434 0.439 0.445 0.451 0.459 0.468 0.479 0.491 0.504 0.519 0.536 0.555 0.576 0.599 0.625 0.653 0.684 0.719 0.756 0.798 0.844 0.895 0.950 1.012 1.081 1.153 1.212 1.250 1.270 1.278 1.279 1.278 1.278 0.000 
0.000 0.664 0.664 0.612 0.619 0.620 0.615 0.605 0.588 0.566 0.537 0.506 0.478 0.454 0.432 0.413 0.397 0.382 0.370 0.359 0.349 0.341 0.335 0.329 0.324 0.320 0.317 0.315 0.313 0.312 0.311 0.311 0.311 0.311 0.312 0.314 0.317 0.321 0.326 0.331 0.338 0.345 0.353 0.362 0.372 0.382 0.394 0.407 0.420 0.435 0.451 0.466 0.480 0.494 0.506 0.518 0.528 0.538 0.547 0.555 0.563 0.569 0.575 0.581 0.585 0.589 0.593 0.596 0.598 0.601 0.602 0.604 0.605 0.606 0.606 0.606 0.607 0.607 0.607 0.607 0.607 0.607 0.606 0.606 0.605 0.604 0.603 0.602 0.600 0.597 0.595 0.591 0.587 0.583 0.578 0.572 0.565 0.558 0.550 0.541 0.531 0.520 0.509 0.496 0.483 0.470 0.459 0.448 0.439 0.430 0.422 0.415 0.409 0.403 0.399 0.395 0.392 0.389 0.387 0.386 0.385 0.384 0.384 0.384 0.384 0.384 0.384 0.384 0.385 0.386 0.388 0.390 0.392 0.396 0.400 0.405 0.411 0.418 0.427 0.436 0.447 0.459 0.473 0.489 0.506 0.526 0.548 0.572 0.598 0.628 0.661 0.697 0.736 0.780 0.829 0.882 0.941 1.006 1.077 1.156 1.232 1.292 1.328 1.346 1.352 1.353 1.353 0.000 
0.000 0.760 0.760 0.704 0.686 0.671 0.653 0.629 0.601 0.569 0.536 0.503 0.474 0.448 0.425 0.405 0.387 0.372 0.358 0.346 0.336 0.327 0.319 0.313 0.308 0.303 0.300 0.297 0.294 0.293 0.291 0.290 0.290 0.290 0.290 0.291 0.293 0.295 0.299 0.303 0.308 0.313 0.320 0.327 0.335 0.344 0.354 0.365 0.377 0.390 0.404 0.419 0.433 0.446 0.458 0.469 0.479 0.488 0.497 0.505 0.512 0.518 0.524 0.529 0.534 0.538 0.541 0.544 0.546 0.549 0.550 0.552 0.553 0.553 0.554 0.554 0.555 0.555 0.555 0.555 0.555 0.555 0.555 0.554 0.554 0.553 0.552 0.551 0.549 0.547 0.545 0.542 0.538 0.534 0.530 0.525 0.519 0.512 0.505 0.497 0.488 0.478 0.467 0.456 0.443 0.431 0.420 0.409 0.400 0.391 0.383 0.377 0.370 0.365 0.361 0.357 0.354 0.351 0.350 0.348 0.347 0.347 0.346 0.346 0.346 0.346 0.347 0.347 0.348 0.349 0.351 0.353 0.356 0.359 0.364 0.369 0.376 0.383 0.392 0.402 0.413 0.426 0.440 0.457 0.475 0.495 0.517 0.542 0.570 0.600 0.634 0.672 0.713 0.759 0.809 0.865 0.927 0.994 1.069 1.151 1.239 1.321 1.386 1.428 1.449 1.452 1.452 0.000 
0.000 0.878 0.878 0.810 0.783 0.744 0.700 0.656 0.612 0.571 0.533 0.499 0.468 0.441 0.416 0.395 0.376 0.359 0.344 0.331 0.320 0.311 0.302 0.295 0.289 0.284 0.280 0.276 0.274 0.271 0.269 0.268 0.267 0.267 0.266 0.266 0.267 0.268 0.270 0.273 0.276 0.280 0.285 0.290 0.297 0.304 0.313 0.322 0.333 0.345 0.357 0.371 0.383 0.395 0.407 0.417 0.427 0.436 0.444 0.451 0.458 0.464 0.470 0.474 0.479 0.483 0.486 0.489 0.491 0.493 0.495 0.496 0.497 0.498 0.499 0.499 0.499 0.500 0.500 0.500 0.500 0.500 0.500 0.499 0.499 0.498 0.498 0.497 0.495 0.494 0.491 0.489 0.486 0.483 0.479 0.474 0.469 0.463 0.457 0.449 0.441 0.433 0.423 0.412 0.401 0.389 0.378 0.368 0.359 0.350 0.343 0.336 0.330 0.325 0.320 0.317 0.314 0.312 0.310 0.309 0.308 0.307 0.307 0.307 0.307 0.307 0.307 0.308 0.309 0.310 0.312 0.314 0.317 0.321 0.326 0.331 0.338 0.346 0.355 0.365 0.377 0.390 0.405 0.422 0.441 0.461 0.484 0.510 0.538 0.570 0.604 0.643 0.686 0.733 0.785 0.843 0.907 0.977 1.055 1.141 1.234 1.334 1.427 1.499 1.544 1.566 1.566 0.000 
0.000 0.993 0.993 0.927 0.872 0.809 0.739 0.675 0.619 0.571 0.529 0.492 0.460 0.431 0.405 0.382 0.362 0.344 0.328 0.315 0.303 0.293 0.284 0.276 0.269 0.263 0.258 0.254 0.251 0.248 0.246 0.244 0.243 0.242 0.241 0.240 0.240 0.241 0.241 0.243 0.244 0.247 0.251 0.255 0.260 0.267 0.274 0.282 0.292 0.302 0.313 0.324 0.336 0.347 0.357 0.366 0.375 0.382 0.390 0.396 0.403 0.408 0.413 0.417 0.421 0.425 0.428 0.431 0.433 0.435 0.437 0.438 0.439 0.440 0.440 0.441 0.441 0.441 0.441 0.441 0.441 0.441 0.441 0.441 0.441 0.440 0.440 0.439 0.438 0.437 0.435 0.433 0.430 0.427 0.424 0.420 0.416 0.411 0.405 0.399 0.392 0.384 0.375 0.366 0.355 0.344 0.334 0.324 0.315 0.308 0.301 0.295 0.289 0.285 0.281 0.278 0.275 0.273 0.272 0.271 0.270 0.270 0.269 0.269 0.269 0.269 0.270 0.270 0.271 0.272 0.273 0.276 0.278 0.282 0.286 0.292 0.299 0.307 0.316 0.327 0.339 0.353 0.368 0.385 0.404 0.425 0.449 0.475 0.503 0.535 0.571 0.610 0.654 0.702 0.756 0.816 0.881 0.954 1.035 1.124 1.223 1.334 1.447 1.543 1.609 1.636 1.636 0.000 
0.000 1.031 1.031 0.996 0.934 0.853 0.763 0.686 0.622 0.568 0.523 0.483 0.448 0.418 0.391 0.367 0.345 0.327 0.310 0.296 0.283 0.272 0.263 0.254 0.247 0.241 0.235 0.230 0.226 0.223 0.220 0.218 0.216 0.215 0.213 0.213 0.212 0.212 0.212 0.212 0.213 0.215 0.218 0.222 0.226 0.232 0.238 0.245 0.253 0.262 0.271 0.281 0.291 0.301 0.310 0.318 0.325 0.332 0.339 0.344 0.350 0.355 0.359 0.363 0.366 0.369 0.372 0.374 0.376 0.378 0.379 0.381 0.381 0.382 0.383 0.383 0.383 0.383 0.384 0.384 0.384 0.384 0.384 0.383 0.383 0.383 0.382 0.382 0.381 0.379 0.378 0.376 0.374 0.372 0.369 0.365 0.362 0.357 0.352 0.347 0.341 0.334 0.326 0.318 0.309 0.299 0.290 0.282 0.274 0.267 0.261 0.256 0.251 0.247 0.244 0.241 0.239 0.237 0.236 0.235 0.234 0.234 0.234 0.234 0.234 0.234 0.234 0.234 0.235 0.236 0.237 0.239 0.242 0.245 0.249 0.254 0.260 0.267 0.276 0.287 0.299 0.313 0.328 0.345 0.365 0.386 0.410 0.436 0.465 0.498 0.534 0.573 0.618 0.667 0.721 0.782 0.849 0.924 1.007 1.101 1.206 1.325 1.452 1.562 1.644 1.685 1.685 0.000 
0.000 1.067 1.067 1.036 0.971 0.879 0.775 0.689 0.620 0.563 0.514 0.471 0.434 0.402 0.373 0.348 0.326 0.307 0.290 0.275 0.261 0.250 0.239 0.230 0.223 0.216 0.210 0.204 0.200 0.196 0.193 0.190 0.188 0.186 0.185 0.184 0.183 0.183 0.183 0.183 0.184 0.186 0.188 0.191 0.194 0.199 0.204 0.210 0.217 0.224 0.232 0.241 0.250 0.258 0.266 0.273 0.279 0.285 0.291 0.296 0.300 0.305 0.308 0.312 0.315 0.317 0.320 0.322 0.323 0.325 0.326 0.327 0.328 0.328 0.329 0.329 0.329 0.329 0.330 0.330 0.330 0.330 0.329 0.329 0.329 0.329 0.328 0.328 0.327 0.326 0.325 0.323 0.321 0.319 0.317 0.314 0.311 0.307 0.303 0.298 0.293 0.287 0.280 0.273 0.265 0.257 0.249 0.242 0.235 0.229 0.224 0.220 0.216 0.212 0.209 0.207 0.205 0.204 0.202 0.202 0.201 0.201 0.201 0.201 0.201 0.201 0.201 0.201 0.202 0.203 0.204 0.206 0.208 0.211 0.214 0.219 0.224 0.230 0.238 0.247 0.258 0.271 0.286 0.303 0.323 0.344 0.368 0.394 0.424 0.456 0.492 0.532 0.576 0.625 0.680 0.741 0.809 0.885 0.971 1.068 1.178 1.305 1.445 1.566 1.654 1.700 1.700 0.000 
0.000 1.070 1.070 1.052 0.988 0.890 0.779 0.688 0.615 0.553 0.500 0.455 0.416 0.382 0.352 0.327 0.304 0.284 0.266 0.251 0.237 0.225 0.214 0.204 0.196 0.189 0.182 0.176 0.171 0.167 0.164 0.161 0.159 0.158 0.157 0.156 0.156 0.156 0.156 0.156 0.157 0.158 0.159 0.162 0.165 0.168 0.173 0.178 0.183 0.189 0.196 0.204 0.211 0.218 0.225 0.231 0.236 0.242 0.246 0.251 0.254 0.258 0.261 0.264 0.267 0.269 0.271 0.272 0.274 0.275 0.276 0.277 0.278 0.278 0.279 0.279 0.279 0.279 0.279 0.279 0.279 0.279 0.279 0.279 0.279 0.279 0.278 0.278 0.277 0.276 0.275 0.274 0.272 0.270 0.268 0.266 0.263 0.260 0.256 0.252 0.248 0.243 0.237 0.231 0.225 0.218 0.211 0.205 0.199 0.194 0.190 0.186 0.183 0.180 0.177 0.175 0.174 0.172 0.171 0.171 0.170 0.170 0.170 0.170 0.170 0.170 0.170 0.170 0.171 0.172 0.173 0.174 0.176 0.179 0.182 0.185 0.190 0.196 0.202 0.210 0.220 0.231 0.244 0.260 0.278 0.299 0.323 0.349 0.378 0.410 0.445 0.485 0.528 0.577 0.632 0.693 0.761 0.838 0.925 1.024 1.138 1.271 1.423 1.558 1.653 1.700 1.700 0.000 
0.000 1.072 1.072 1.055 0.992 0.891 0.776 0.680 0.602 0.536 0.481 0.433 0.393 0.358 0.328 0.301 0.278 0.258 0.240 0.224 0.210 0.197 0.186 0.176 0.167 0.160 0.153 0.148 0.143 0.140 0.137 0.135 0.133 0.132 0.131 0.131 0.130 0.130 0.130 0.131 0.131 0.132 0.133 0.135 0.137 0.140 0.144 0.148 0.153 0.158 0.163 0.170 0.176 0.182 0.187 0.192 0.197 0.201 0.205 0.209 0.212 0.215 0.218 0.220 0.222 0.224 0.226 0.227 0.228 0.229 0.230 0.231 0.232 0.232 0.232 0.233 0.233 0.233 0.233 0.233 0.233 0.233 0.233 0.233 0.233 0.232 0.232 0.232 0.231 0.230 0.229 0.228 0.227 0.226 0.224 0.222 0.219 0.217 0.214 0.210 0.207 0.202 0.198 0.193 0.187 0.181 0.176 0.171 0.166 0.162 0.158 0.155 0.152 0.150 0.148 0.146 0.145 0.144 0.143 0.142 0.142 0.142 0.142 0.142 0.142 0.142 0.142 0.142 0.142 0.143 0.144 0.145 0.147 0.149 0.152 0.155 0.159 0.164 0.169 0.176 0.184 0.194 0.205 0.218 0.234 0.253 0.274 0.299 0.327 0.359 0.393 0.432 0.474 0.522 0.576 0.635 0.703 0.779 0.866 0.966 1.081 1.217 1.377 1.533 1.645 1.700 1.700 0.000 
0.000 1.075 1.075 1.057 0.991 0.883 0.762 0.662 0.580 0.512 0.454 0.406 0.364 0.329 0.298 0.271 0.248 0.228 0.210 0.194 0.179 0.167 0.156 0.146 0.138 0.131 0.126 0.121 0.118 0.115 0.112 0.111 0.109 0.108 0.108 0.107 0.107 0.107 0.107 0.107 0.107 0.108 0.109 0.110 0.112 0.115 0.117 0.121 0.125 0.129 0.133 0.139 0.144 0.149 0.153 0.157 0.161 0.165 0.168 0.171 0.174 0.176 0.178 0.180 0.182 0.183 0.185 0.186 0.187 0.188 0.188 0.189 0.189 0.190 0.190 0.190 0.190 0.190 0.191 0.191 0.191 0.191 0.190 0.190 0.190 0.190 0.190 0.189 0.189 0.188 0.188 0.187 0.186 0.185 0.183 0.181 0.179 0.177 0.175 0.172 0.169 0.166 0.162 0.158 0.153 0.148 0.144 0.140 0.136 0.132 0.129 0.127 0.124 0.122 0.121 0.119 0.118 0.117 0.117 0.116 0.116 0.116 0.116 0.116 0.116 0.116 0.116 0.116 0.116 0.117 0.118 0.119 0.120 0.122 0.124 0.127 0.130 0.134 0.139 0.144 0.151 0.159 0.169 0.180 0.193 0.208 0.226 0.248 0.273 0.303 0.336 0.372 0.413 0.459 0.511 0.568 0.634 0.708 0.792 0.890 1.003 1.136 1.295 1.473 1.623 1.700 1.700 0.000 
0.000 1.078 1.078 1.057 0.978 0.856 0.731 0.629 0.546 0.477 0.419 0.370 0.329 0.294 0.263 0.237 0.214 0.194 0.176 0.160 0.147 0.135 0.125 0.117 0.111 0.105 0.101 0.097 0.094 0.092 0.090 0.088 0.087 0.087 0.086 0.086 0.086 0.086 0.086 0.086 0.086 0.087 0.087 0.088 0.090 0.092 0.094 0.096 0.099 0.103 0.107 0.111 0.115 0.119 0.122 0.126 0.129 0.132 0.134 0.137 0.139 0.141 0.142 0.144 0.145 0.147 0.148 0.149 0.149 0.150 0.151 0.151 0.151 0.152 0.152 0.152 0.152 0.152 0.152 0.152 0.152 0.152 0.152 0.152 0.152 0.152 0.152 0.151 0.151 0.151 0.150 0.149 0.148 0.147 0.146 0.145 0.143 0.142 0.140 0.137 0.135 0.132 0.129 0.126 0.122 0.119 0.115 0.111 0.108 0.106 0.103 0.101 0.099 0.098 0.096 0.095 0.094 0.094 0.093 0.093 0.093 0.092 0.092 0.092 0.092 0.092 0.093 0.093 0.093 0.093 0.094 0.095 0.096 0.097 0.099 0.101 0.104 0.107 0.111 0.116 0.121 0.128 0.135 0.144 0.155 0.167 0.182 0.200 0.220 0.245 0.273 0.307 0.345 0.388 0.436 0.491 0.552 0.622 0.701 0.793 0.898 1.022 1.170 1.354 1.563 1.700 1.700 0.000 
0.000 1.080 1.080 1.050 0.940 0.798 0.675 0.576 0.496 0.429 0.373 0.326 0.286 0.252 0.223 0.197 0.175 0.156 0.140 0.126 0.115 0.106 0.098 0.092 0.086 0.082 0.079 0.076 0.073 0.071 0.070 0.069 0.068 0.067 0.067 0.067 0.067 0.067 0.067 0.067 0.067 0.067 0.068 0.069 0.070 0.071 0.073 0.075 0.077 0.080 0.083 0.086 0.089 0.092 0.095 0.098 0.100 0.102 0.104 0.106 0.108 0.109 0.111 0.112 0.113 0.114 0.115 0.115 0.116 0.116 0.117 0.117 0.118 0.118 0.118 0.118 0.118 0.118 0.118 0.118 0.118 0.118 0.118 0.118 0.118 0.118 0.118 0.118 0.117 0.117 0.116 0.116 0.115 0.114 0.114 0.113 0.111 0.110 0.108 0.107 0.105 0.103 0.100 0.098 0.095 0.092 0.089 0.086 0.084 0.082 0.080 0.078 0.077 0.076 0.075 0.074 0.073 0.073 0.072 0.072 0.072 0.072 0.072 0.072 0.072 0.072 0.072 0.072 0.072 0.072 0.073 0.074 0.075 0.076 0.077 0.079 0.081 0.083 0.086 0.090 0.094 0.099 0.105 0.112 0.121 0.131 0.142 0.156 0.172 0.191 0.214 0.240 0.272 0.309 0.351 0.401 0.457 0.520 0.591 0.672 0.763 0.866 0.989 1.147 1.377 1.700 1.700 0.000 
0.000 1.024 1.024 1.008 0.843 0.698 0.588 0.500 0.427 0.366 0.314 0.271 0.234 0.202 0.175 0.152 0.133 0.118 0.105 0.095 0.086 0.079 0.074 0.069 0.065 0.062 0.059 0.057 0.055 0.053 0.052 0.051 0.051 0.050 0.050 0.050 0.050 0.050 0.050 0.050 0.050 0.050 0.051 0.051 0.052 0.053 0.054 0.056 0.058 0.060 0.062 0.064 0.067 0.069 0.071 0.073 0.075 0.076 0.078 0.079 0.080 0.082 0.083 0.084 0.084 0.085 0.086 0.086 0.087 0.087 0.087 0.088 0.088 0.088 0.088 0.088 0.088 0.088 0.088 0.088 0.088 0.088 0.088 0.088 0.088 0.088 0.088 0.088 0.088 0.087 0.087 0.087 0.086 0.086 0.085 0.084 0.083 0.082 0.081 0.080 0.078 0.077 0.075 0.073 0.071 0.069 0.067 0.065 0.063 0.061 0.060 0.059 0.058 0.057 0.056 0.055 0.055 0.054 0.054 0.054 0.054 0.054 0.054 0.054 0.054 0.054 0.054 0.054 0.054 0.054 0.055 0.055 0.056 0.057 0.058 0.059 0.060 0.062 0.065 0.067 0.071 0.074 0.079 0.084 0.091 0.098 0.107 0.117 0.129 0.144 0.161 0.181 0.204 0.232 0.265 0.304 0.349 0.402 0.461 0.527 0.594 0.662 0.731 0.811 0.918 1.059 1.059 0.000 
0.000 0.477 0.477 0.759 0.638 0.538 0.462 0.396 0.337 0.286 0.242 0.204 0.173 0.147 0.126 0.109 0.096 0.085 0.075 0.068 0.062 0.057 0.053 0.049 0.046 0.044 0.042 0.040 0.039 0.038 0.037 0.037 0.036 0.036 0.036 0.036 0.035 0.035 0.035 0.035 0.036 0.036 0.036 0.036 0.037 0.038 0.039 0.040 0.041 0.042 0.044 0.045 0.047 0.049 0.050 0.052 0.053 0.054 0.055 0.056 0.057 0.058 0.059 0.059 0.060 0.060 0.061 0.061 0.062 0.062 0.062 0.062 0.062 0.063 0.063 0.063 0.063 0.063 0.063 0.063 0.063 0.063 0.063 0.063 0.063 0.063 0.063 0.062 0.062 0.062 0.062 0.062 0.061 0.061 0.060 0.060 0.059 0.058 0.058 0.057 0.056 0.055 0.053 0.052 0.050 0.049 0.047 0.046 0.045 0.044 0.043 0.042 0.041 0.040 0.040 0.039 0.039 0.039 0.038 0.038 0.038 0.038 0.038 0.038 0.038 0.038 0.038 0.038 0.038 0.038 0.039 0.039 0.040 0.040 0.041 0.042 0.043 0.044 0.046 0.048 0.050 0.053 0.056 0.060 0.064 0.070 0.076 0.083 0.092 0.102 0.115 0.129 0.146 0.166 0.190 0.217 0.250 0.289 0.332 0.377 0.415 0.445 0.461 0.456 0.382 0.199 0.199 0.000 
0.000 0.000 0.000 0.245 0.331 0.323 0.301 0.269 0.231 0.194 0.163 0.137 0.115 0.098 0.084 0.073 0.064 0.056 0.050 0.045 0.041 0.038 0.035 0.033 0.031 0.029 0.028 0.027 0.026 0.025 0.025 0.024 0.024 0.024 0.024 0.024 0.023 0.023 0.023 0.023 0.024 0.024 0.024 0.024 0.024 0.025 0.026 0.026 0.027 0.028 0.029 0.030 0.031 0.032 0.033 0.034 0.035 0.036 0.037 0.037 0.038 0.038 0.039 0.039 0.040 0.040 0.040 0.041 0.041 0.041 0.041 0.041 0.041 0.041 0.041 0.041 0.042 0.042 0.042 0.042 0.042 0.042 0.042 0.042 0.041 0.041 0.041 0.041 0.041 0.041 0.041 0.041 0.041 0.040 0.040 0.040 0.039 0.039 0.038 0.038 0.037 0.036 0.035 0.034 0.033 0.032 0.031 0.030 0.030 0.029 0.028 0.028 0.027 0.027 0.026 0.026 0.026 0.026 0.025 0.025 0.025 0.025 0.025 0.025 0.025 0.025 0.025 0.025 0.025 0.025 0.026 0.026 0.026 0.027 0.027 0.028 0.028 0.029 0.030 0.032 0.033 0.035 0.037 0.040 0.043 0.046 0.050 0.055 0.061 0.068 0.076 0.086 0.097 0.110 0.126 0.145 0.167 0.193 0.223 0.249 0.268 0.276 0.272 0.243 0.143 0.000 0.000 0.000 
0.000 0.000 0.000 0.052 0.145 0.168 0.169 0.159 0.140 0.117 0.097 0.081 0.069 0.058 0.050 0.043 0.038 0.033 0.030 0.027 0.024 0.022 0.021 0.019 0.018 0.017 0.016 0.016 0.015 0.015 0.015 0.014 0.014 0.014 0.014 0.014 0.014 0.014 0.014 0.014 0.014 0.014 0.014 0.014 0.015 0.015 0.015 0.016 0.016 0.017 0.017 0.018 0.019 0.019 0.020 0.020 0.021 0.021 0.022 0.022 0.022 0.023 0.023 0.023 0.024 0.024 0.024 0.024 0.024 0.024 0.024 0.024 0.025 0.025 0.025 0.025 0.025 0.025 0.025 0.025 0.025 0.025 0.025 0.025 0.025 0.025 0.025 0.025 0.024 0.024 0.024 0.024 0.024 0.024 0.024 0.023 0.023 0.023 0.023 0.022 0.022 0.021 0.021 0.020 0.020 0.019 0.019 0.018 0.018 0.017 0.017 0.016 0.016 0.016 0.016 0.015 0.015 0.015 0.015 0.015 0.015 0.015 0.015 0.015 0.015 0.015 0.015 0.015 0.015 0.015 0.015 0.015 0.016 0.016 0.016 0.016 0.017 0.017 0.018 0.019 0.020 0.021 0.022 0.024 0.025 0.027 0.030 0.033 0.036 0.040 0.045 0.051 0.058 0.065 0.075 0.086 0.100 0.116 0.134 0.147 0.154 0.155 0.149 0.124 0.061 0.000 0.000 0.000 
0.000 0.000 0.000 0.016 0.059 0.076 0.079 0.077 0.069 0.058 0.048 0.040 0.034 0.029 0.025 0.021 0.019 0.016 0.015 0.013 0.012 0.011 0.010 0.009 0.009 0.008 0.008 0.008 0.008 0.007 0.007 0.007 0.007 0.007 0.007 0.007 0.007 0.007 0.007 0.007 0.007 0.007 0.007 0.007 0.007 0.007 0.007 0.008 0.008 0.008 0.008 0.009 0.009 0.009 0.010 0.010 0.010 0.010 0.011 0.011 0.011 0.011 0.011 0.011 0.012 0.012 0.012 0.012 0.012 0.012 0.012 0.012 0.012 0.012 0.012 0.012 0.012 0.012 0.012 0.012 0.012 0.012 0.012 0.012 0.012 0.012 0.012 0.012 0.012 0.012 0.012 0.012 0.012 0.012 0.012 0.012 0.011 0.011 0.011 0.011 0.011 0.010 0.010 0.010 0.010 0.009 0.009 0.009 0.009 0.008 0.008 0.008 0.008 0.008 0.008 0.008 0.007 0.007 0.007 0.007 0.007 0.007 0.007 0.007 0.007 0.007 0.007 0.007 0.007 0.007 0.007 0.008 0.008 0.008 0.008 0.008 0.008 0.009 0.009 0.009 0.010 0.010 0.011 0.012 0.012 0.013 0.015 0.016 0.018 0.020 0.022 0.025 0.028 0.032 0.037 0.042 0.049 0.058 0.066 0.072 0.074 0.074 0.070 0.056 0.025 0.000 0.000 0.000 
0.000 0.000 0.000 0.004 0.018 0.024 0.025 0.025 0.023 0.019 0.015 0.013 0.011 0.009 0.008 0.007 0.006 0.005 0.005 0.004 0.004 0.004 0.003 0.003 0.003 0.003 0.003 0.002 0.002 0.002 0.002 0.002 0.002 0.002 0.002 0.002 0.002 0.002 0.002 0.002 0.002 0.002 0.002 0.002 0.002 0.002 0.002 0.002 0.003 0.003 0.003 0.003 0.003 0.003 0.003 0.003 0.003 0.003 0.003 0.003 0.004 0.004 0.004 0.004 0.004 0.004 0.004 0.004 0.004 0.004 0.004 0.004 0.004 0.004 0.004 0.004 0.004 0.004 0.004 0.004 0.004 0.004 0.004 0.004 0.004 0.004 0.004 0.004 0.004 0.004 0.004 0.004 0.004 0.004 0.004 0.004 0.004 0.004 0.004 0.004 0.003 0.003 0.003 0.003 0.003 0.003 0.003 0.003 0.003 0.003 0.003 0.003 0.003 0.002 0.002 0.002 0.002 0.002 0.002 0.002 0.002 0.002 0.002 0.002 0.002 0.002 0.002 0.002 0.002 0.002 0.002 0.002 0.002 0.002 0.003 0.003 0.003 0.003 0.003 0.003 0.003 0.003 0.003 0.004 0.004 0.004 0.005 0.005 0.006 0.006 0.007 0.008 0.009 0.010 0.012 0.014 0.016 0.019 0.021 0.023 0.024 0.023 0.022 0.017 0.007 0.000 0.000 0.000 
0.000 0.000 0.000 0.000 0.000 0.000 0.000 0.000 0.000 0.000 0.000 0.000 0.000 0.000 0.000 0.000 0.000 0.000 0.000 0.000 0.000 0.000 0.000 0.000 0.000 0.000 0.000 0.000 0.000 0.000 0.000 0.000 0.000 0.000 0.000 0.000 0.000 0.000 0.000 0.000 0.000 0.000 0.000 0.000 0.000 0.000 0.000 0.000 0.000 0.000 0.000 0.000 0.000 0.000 0.000 0.000 0.000 0.000 0.000 0.000 0.000 0.000 0.000 0.000 0.000 0.000 0.000 0.000 0.000 0.000 0.000 0.000 0.000 0.000 0.000 0.000 0.000 0.000 0.000 0.000 0.000 0.000 0.000 0.000 0.000 0.000 0.000 0.000 0.000 0.000 0.000 0.000 0.000 0.000 0.000 0.000 0.000 0.000 0.000 0.000 0.000 0.000 0.000 0.000 0.000 0.000 0.000 0.000 0.000 0.000 0.000 0.000 0.000 0.000 0.000 0.000 0.000 0.000 0.000 0.000 0.000 0.000 0.000 0.000 0.000 0.000 0.000 0.000 0.000 0.000 0.000 0.000 0.000 0.000 0.000 0.000 0.000 0.000 0.000 0.000 0.000 0.000 0.000 0.000 0.000 0.000 0.000 0.000 0.000 0.000 0.000 0.000 0.000 0.000 0.000 0.000 0.000 0.000 0.000 0.000 0.000 0.000 0.000 0.000 0.000 0.000 0.000 0.000 
0.000 0.089 0.089 0.077 0.065 0.049 0.049 0.029 0.010 0.010 0.001 0.003 0.005 0.005 0.005 0.005 0.005 0.005 0.004 0.002 0.002 0.001 0.000 0.001 0.001 0.001 0.001 0.001 0.001 0.001 0.001 0.001 0.001 0.001 0.001 0.001 0.001 0.001 0.001 0.001 0.000 0.000 0.000 0.001 0.004 0.008 0.008 0.021 0.046 0.046 0.070 0.087 0.098 0.098 0.108 0.116 0.122 0.122 0.127 0.122 0.122 0.106 0.089 0.081 0.081 0.081 0.080 0.079 0.079 0.078 0.077 0.077 0.076 0.077 0.077 0.077 0.077 0.076 0.074 0.074 0.073 0.071 0.071 0.069 0.069 0.073 0.073 0.076 0.062 0.031 0.031 0.001 0.000 0.000 0.007 0.022 0.025 0.025 0.018 0.011 0.017 0.017 0.035 0.053 0.053 0.059 0.055 0.051 0.051 0.046 0.039 0.033 0.033 0.025 0.015 0.015 0.006 0.001 0.002 0.002 0.002 0.002 0.002 0.002 0.001 0.001 0.001 0.001 0.001 0.001 0.001 0.001 0.000 0.000 0.001 0.003 0.004 0.004 0.007 0.012 0.016 0.016 0.018 0.017 0.017 0.016 0.015 0.014 0.014 0.013 0.011 0.009 0.009 0.007 0.005 0.005 0.003 0.002 0.000 0.000 0.000 0.000 0.000 0.000 0.007 0.014 0.014 0.000 
0.000 0.000 0.000 0.000 0.000 0.000 0.000 0.000 0.000 0.000 0.000 0.000 0.000 0.000 0.000 0.000 0.000 0.000 0.000 0.000 0.000 0.000 0.000 0.000 0.000 0.000 0.000 0.000 0.000 0.000 0.000 0.000 0.000 0.000 0.000 0.000 0.000 0.000 0.000 0.000 0.000 0.000 0.000 0.000 0.000 0.000 0.000 0.000 0.000 0.000 0.000 0.000 0.000 0.000 0.000 0.000 0.000 0.000 0.000 0.000 0.000 0.000 0.000 0.000 0.000 0.000 0.000 0.000 0.000 0.000 0.000 0.000 0.000 0.000 0.000 0.000 0.000 0.000 0.000 0.000 0.000 0.000 0.000 0.000 0.000 0.000 0.000 0.000 0.000 0.000 0.000 0.000 0.000 0.000 0.000 0.000 0.000 0.000 0.000 0.000 0.000 0.000 0.000 0.000 0.000 0.000 0.000 0.000 0.000 0.000 0.000 0.000 0.000 0.000 0.000 0.000 0.000 0.000 0.000 0.000 0.000 0.000 0.000 0.000 0.000 0.000 0.000 0.000 0.000 0.000 0.000 0.000 0.000 0.000 0.000 0.000 0.000 0.000 0.000 0.000 0.000 0.000 0.000 0.000 0.000 0.000 0.000 0.000 0.000 0.000 0.000 0.000 0.000 0.000 0.000 0.000 0.000 0.000 0.000 0.000 0.000 0.000 0.000 0.000 0.000 0.000 0.000 0.000 
