ncols 168
nrows 121
xllcenter 640304.69
yllcenter 1081277.12
cellsize 46.59
NODATA_value -9999.000
0.000 0.000 0.000 0.000 0.000 0.000 0.000 0.000 0.000 0.000 0.000 0.000 0.000 0.000 0.000 0.000 0.000 0.000 0.000 0.000 0.000 0.000 0.000 0.000 0.000 0.000 0.000 0.000 0.000 0.000 0.000 0.000 0.000 0.000 0.000 0.000 0.000 0.000 0.000 0.000 0.000 0.000 0.000 0.000 0.000 0.000 0.000 0.000 0.000 0.000 0.000 0.000 0.000 0.000 0.000 0.000 0.000 0.000 0.000 0.000 0.000 0.000 0.000 0.000 0.000 0.000 0.000 0.000 0.000 0.000 0.000 0.000 0.000 0.000 0.000 0.000 0.000 0.000 0.000 0.000 0.000 0.000 0.000 0.000 0.000 0.000 0.000 0.000 0.000 0.000 0.000 0.000 0.000 0.000 0.000 0.000 0.000 0.000 0.000 0.000 0.000 0.000 0.000 0.000 0.000 0.000 0.000 0.000 0.000 0.000 0.000 0.000 0.000 0.000 0.000 0.000 0.000 0.000 0.000 0.000 0.000 0.000 0.000 0.000 0.000 0.000 0.000 0.000 0.000 0.000 0.000 0.000 0.000 0.000 0.000 0.000 0.000 0.000 0.000 0.000 0.000 0.000 0.000 0.000 0.000 0.000 0.000 0.000 0.000 0.000 0.000 0.000 0.000 0.000 0.000 0.000 0.000 0.000 0.000 0.000 0.000 0.000 0.000 0.000 0.000 0.000 0.000 0.000 
0.000 0.397 0.397 0.397 0.296 0.018 0.018 0.000 0.000 0.000 0.024 0.303 0.397 0.397 0.397 0.397 0.397 0.397 0.397 0.397 0.397 0.397 0.397 0.397 0.397 0.397 0.397 0.397 0.397 0.397 0.397 0.397 0.397 0.397 0.481 0.481 0.614 0.784 0.955 0.955 1.032 1.061 1.061 1.061 1.061 1.054 1.054 1.036 1.033 1.033 1.012 0.958 0.784 0.784 0.609 0.498 0.519 0.519 0.678 0.853 0.853 0.986 0.311 0.501 0.501 1.060 1.047 0.944 0.944 0.815 0.686 0.686 0.644 0.691 0.821 0.821 0.950 0.580 0.251 0.251 0.931 1.064 1.064 1.064 1.064 1.064 1.064 1.068 1.081 1.131 1.131 1.181 1.199 1.199 1.127 0.921 0.684 0.684 0.439 0.472 0.334 0.334 0.188 0.856 0.856 0.930 0.757 0.571 0.571 0.460 0.485 0.671 0.671 0.857 1.018 1.018 1.156 1.258 0.760 0.760 0.516 1.272 1.263 1.263 1.162 1.067 1.067 1.067 1.067 1.067 1.067 1.067 1.067 1.067 1.068 1.068 1.068 1.068 1.068 1.068 1.068 1.068 1.068 1.068 1.068 1.068 1.068 1.069 1.069 1.069 1.069 1.069 1.069 1.013 0.445 0.445 0.644 1.038 0.914 0.914 0.730 0.531 0.328 0.328 0.101 0.000 0.000 0.000 
0.000 0.234 0.234 0.233 0.174 0.011 0.011 0.000 0.000 0.000 0.013 0.164 0.220 0.220 0.225 0.224 0.223 0.223 0.222 0.221 0.221 0.220 0.219 0.218 0.218 0.217 0.216 0.212 0.212 0.202 0.200 0.200 0.203 0.211 0.339 0.339 0.521 0.744 0.968 0.968 1.056 1.080 1.080 1.080 1.080 0.900 0.900 0.500 0.497 0.497 0.687 0.918 0.691 0.691 0.464 0.330 0.397 0.397 0.608 0.835 0.835 1.038 0.730 0.820 0.820 1.075 1.045 0.909 0.909 0.741 0.573 0.573 0.543 0.618 0.786 0.786 0.954 0.845 0.718 0.718 1.023 1.082 1.082 1.083 1.083 1.083 1.083 1.091 1.112 1.176 1.176 1.240 1.257 1.257 1.136 0.866 0.544 0.544 0.191 0.199 0.308 0.308 0.525 0.939 0.939 0.896 0.663 0.424 0.424 0.312 0.363 0.602 0.602 0.841 1.044 1.044 1.214 1.345 1.240 1.240 1.186 1.415 1.324 1.324 1.199 1.086 1.086 1.086 1.086 1.086 1.086 1.086 1.086 1.086 1.086 1.086 1.087 1.087 1.087 1.087 1.087 1.087 1.087 1.087 1.087 1.087 1.087 1.087 1.087 1.087 1.088 1.088 1.088 1.069 0.877 0.877 0.945 1.045 0.869 0.869 0.633 0.377 0.112 0.112 0.033 0.000 0.000 0.000 
0.000 0.046 0.046 0.140 0.146 0.075 0.021 0.011 0.007 0.007 0.017 0.083 0.178 0.207 0.218 0.222 0.223 0.223 0.223 0.222 0.222 0.221 0.221 0.220 0.219 0.219 0.218 0.216 0.215 0.211 0.206 0.205 0.208 0.218 0.276 0.344 0.430 0.630 0.853 0.946 0.999 1.052 1.063 1.063 1.057 0.983 0.874 0.691 0.543 0.534 0.598 0.774 0.771 0.691 0.585 0.422 0.397 0.422 0.503 0.722 0.828 0.905 0.885 0.824 0.851 0.951 1.024 0.969 0.904 0.828 0.663 0.598 0.583 0.596 0.701 0.787 0.862 0.891 0.814 0.794 0.891 1.034 1.069 1.077 1.080 1.081 1.083 1.087 1.101 1.139 1.167 1.196 1.228 1.231 1.182 1.007 0.707 0.545 0.377 0.249 0.282 0.333 0.434 0.731 0.879 0.874 0.776 0.549 0.451 0.399 0.375 0.480 0.595 0.711 0.932 1.034 1.124 1.261 1.271 1.240 1.231 1.296 1.342 1.314 1.263 1.145 1.103 1.095 1.091 1.089 1.088 1.088 1.088 1.088 1.088 1.088 1.088 1.088 1.088 1.088 1.089 1.089 1.089 1.089 1.089 1.089 1.089 1.088 1.088 1.088 1.087 1.086 1.083 1.069 0.989 0.920 0.925 0.976 0.945 0.865 0.762 0.529 0.278 0.182 0.158 0.171 0.171 0.000 
0.000 0.014 0.014 0.047 0.072 0.064 0.043 0.033 0.031 0.035 0.055 0.103 0.164 0.197 0.213 0.221 0.224 0.225 0.226 0.226 0.226 0.226 0.225 0.225 0.225 0.225 0.225 0.225 0.224 0.224 0.224 0.227 0.237 0.261 0.305 0.378 0.484 0.642 0.799 0.897 0.957 0.990 1.003 1.003 0.988 0.946 0.857 0.731 0.659 0.645 0.667 0.717 0.727 0.695 0.611 0.539 0.513 0.521 0.581 0.704 0.813 0.859 0.869 0.871 0.889 0.933 0.951 0.944 0.901 0.823 0.733 0.682 0.669 0.677 0.718 0.793 0.847 0.864 0.866 0.876 0.923 1.000 1.041 1.059 1.069 1.076 1.081 1.087 1.099 1.118 1.138 1.151 1.153 1.138 1.086 0.961 0.756 0.578 0.461 0.411 0.400 0.432 0.525 0.669 0.742 0.749 0.711 0.607 0.526 0.496 0.497 0.525 0.604 0.720 0.868 1.000 1.107 1.180 1.216 1.226 1.232 1.257 1.275 1.269 1.227 1.161 1.121 1.105 1.098 1.095 1.093 1.092 1.091 1.091 1.092 1.092 1.092 1.092 1.093 1.093 1.093 1.093 1.093 1.093 1.093 1.092 1.092 1.091 1.090 1.089 1.086 1.081 1.072 1.051 1.007 0.966 0.951 0.941 0.920 0.863 0.761 0.606 0.479 0.432 0.441 0.493 0.493 0.000 
0.000 0.001 0.001 0.017 0.046 0.059 0.061 0.061 0.064 0.074 0.094 0.127 0.168 0.197 0.213 0.222 0.227 0.229 0.231 0.232 0.232 0.233 0.233 0.234 0.234 0.235 0.236 0.238 0.240 0.244 0.250 0.261 0.281 0.313 0.361 0.432 0.532 0.661 0.778 0.859 0.910 0.937 0.947 0.947 0.939 0.912 0.854 0.778 0.733 0.716 0.714 0.722 0.721 0.703 0.660 0.630 0.622 0.629 0.659 0.728 0.805 0.849 0.872 0.889 0.908 0.925 0.930 0.924 0.897 0.842 0.789 0.762 0.754 0.755 0.768 0.805 0.845 0.868 0.889 0.912 0.949 0.998 1.030 1.048 1.060 1.068 1.075 1.082 1.088 1.095 1.099 1.097 1.088 1.062 1.008 0.913 0.768 0.636 0.560 0.527 0.521 0.533 0.579 0.648 0.681 0.685 0.670 0.625 0.584 0.571 0.571 0.586 0.632 0.714 0.829 0.953 1.046 1.109 1.154 1.185 1.201 1.209 1.210 1.206 1.188 1.153 1.124 1.108 1.101 1.098 1.097 1.096 1.096 1.096 1.097 1.098 1.098 1.099 1.099 1.099 1.099 1.099 1.099 1.099 1.098 1.098 1.097 1.096 1.094 1.091 1.086 1.079 1.068 1.048 1.018 0.986 0.961 0.937 0.909 0.862 0.785 0.707 0.666 0.656 0.670 0.707 0.707 0.000 
0.000 0.000 0.000 0.009 0.039 0.064 0.080 0.091 0.102 0.114 0.131 0.154 0.181 0.202 0.216 0.226 0.232 0.235 0.238 0.240 0.241 0.243 0.244 0.246 0.247 0.250 0.252 0.256 0.262 0.271 0.284 0.303 0.331 0.368 0.417 0.483 0.569 0.675 0.768 0.835 0.880 0.905 0.915 0.917 0.913 0.898 0.865 0.817 0.783 0.763 0.751 0.742 0.735 0.725 0.711 0.703 0.704 0.710 0.729 0.765 0.813 0.852 0.880 0.902 0.917 0.925 0.927 0.922 0.903 0.870 0.840 0.824 0.818 0.818 0.821 0.833 0.855 0.881 0.907 0.936 0.970 1.003 1.028 1.044 1.054 1.061 1.067 1.071 1.072 1.072 1.069 1.061 1.044 1.013 0.963 0.884 0.775 0.682 0.625 0.598 0.591 0.594 0.612 0.643 0.658 0.660 0.654 0.634 0.616 0.611 0.612 0.624 0.655 0.712 0.795 0.893 0.974 1.037 1.087 1.124 1.145 1.152 1.154 1.154 1.149 1.137 1.119 1.107 1.101 1.099 1.099 1.100 1.101 1.103 1.104 1.105 1.106 1.106 1.107 1.107 1.107 1.107 1.107 1.106 1.106 1.105 1.103 1.101 1.098 1.094 1.088 1.080 1.067 1.049 1.025 0.997 0.968 0.940 0.910 0.872 0.832 0.806 0.796 0.800 0.818 0.833 0.833 0.000 
0.000 0.000 0.000 0.009 0.042 0.077 0.104 0.124 0.140 0.154 0.168 0.183 0.199 0.214 0.225 0.234 0.240 0.245 0.248 0.251 0.254 0.256 0.258 0.261 0.264 0.268 0.273 0.280 0.289 0.302 0.321 0.345 0.375 0.413 0.461 0.521 0.597 0.687 0.764 0.821 0.861 0.886 0.899 0.903 0.903 0.895 0.877 0.849 0.823 0.804 0.789 0.776 0.768 0.765 0.765 0.769 0.774 0.781 0.793 0.810 0.836 0.867 0.895 0.915 0.926 0.929 0.929 0.926 0.917 0.900 0.885 0.877 0.873 0.872 0.872 0.874 0.883 0.902 0.928 0.957 0.987 1.012 1.031 1.044 1.052 1.057 1.059 1.060 1.059 1.056 1.048 1.035 1.014 0.982 0.935 0.868 0.782 0.712 0.667 0.642 0.631 0.629 0.634 0.646 0.652 0.652 0.649 0.640 0.633 0.632 0.634 0.645 0.668 0.708 0.768 0.844 0.914 0.972 1.018 1.052 1.076 1.091 1.102 1.109 1.113 1.113 1.108 1.103 1.100 1.099 1.100 1.102 1.106 1.110 1.112 1.114 1.115 1.116 1.116 1.117 1.117 1.117 1.116 1.116 1.115 1.114 1.112 1.109 1.105 1.099 1.092 1.082 1.069 1.052 1.030 1.004 0.975 0.947 0.920 0.899 0.886 0.881 0.883 0.896 0.923 0.934 0.934 0.000 
0.000 0.034 0.034 0.022 0.056 0.101 0.135 0.160 0.179 0.193 0.205 0.214 0.223 0.232 0.240 0.247 0.253 0.258 0.262 0.265 0.269 0.272 0.275 0.279 0.284 0.290 0.297 0.307 0.320 0.336 0.357 0.383 0.413 0.450 0.496 0.552 0.620 0.697 0.763 0.813 0.850 0.875 0.891 0.898 0.900 0.898 0.890 0.876 0.860 0.844 0.831 0.821 0.817 0.818 0.824 0.833 0.840 0.847 0.853 0.861 0.873 0.892 0.915 0.930 0.937 0.940 0.940 0.940 0.937 0.933 0.928 0.925 0.924 0.923 0.923 0.922 0.924 0.934 0.953 0.979 1.003 1.022 1.036 1.046 1.052 1.054 1.055 1.054 1.051 1.044 1.034 1.018 0.994 0.962 0.918 0.859 0.789 0.733 0.694 0.670 0.656 0.650 0.648 0.650 0.651 0.650 0.648 0.644 0.642 0.642 0.645 0.654 0.673 0.703 0.748 0.805 0.864 0.914 0.955 0.988 1.014 1.035 1.053 1.067 1.078 1.086 1.091 1.093 1.095 1.097 1.100 1.104 1.110 1.116 1.121 1.124 1.126 1.127 1.128 1.128 1.128 1.128 1.128 1.127 1.126 1.124 1.122 1.118 1.113 1.106 1.097 1.086 1.073 1.056 1.035 1.010 0.983 0.960 0.943 0.935 0.933 0.933 0.939 0.956 0.990 1.015 1.015 0.000 
0.000 0.071 0.071 0.060 0.094 0.141 0.177 0.203 0.222 0.234 0.242 0.248 0.252 0.256 0.261 0.266 0.270 0.274 0.278 0.282 0.286 0.291 0.295 0.301 0.307 0.315 0.324 0.336 0.351 0.369 0.391 0.416 0.446 0.482 0.525 0.576 0.637 0.705 0.763 0.809 0.845 0.870 0.887 0.897 0.903 0.905 0.905 0.901 0.894 0.885 0.879 0.876 0.876 0.880 0.887 0.896 0.903 0.908 0.911 0.914 0.919 0.928 0.941 0.951 0.956 0.958 0.960 0.962 0.965 0.968 0.970 0.971 0.971 0.972 0.972 0.972 0.973 0.975 0.985 1.002 1.020 1.033 1.043 1.049 1.053 1.054 1.054 1.051 1.045 1.037 1.023 1.005 0.981 0.948 0.906 0.853 0.794 0.747 0.712 0.688 0.672 0.663 0.657 0.654 0.652 0.650 0.648 0.647 0.646 0.647 0.650 0.658 0.673 0.697 0.731 0.774 0.822 0.865 0.902 0.933 0.960 0.984 1.006 1.026 1.044 1.058 1.070 1.079 1.086 1.092 1.098 1.105 1.113 1.121 1.128 1.133 1.137 1.139 1.141 1.141 1.141 1.141 1.141 1.140 1.139 1.137 1.133 1.129 1.123 1.115 1.106 1.094 1.079 1.061 1.041 1.017 0.994 0.979 0.971 0.968 0.967 0.969 0.975 0.990 1.020 1.047 1.047 0.000 
0.000 0.210 0.210 0.137 0.165 0.202 0.233 0.255 0.270 0.278 0.283 0.285 0.286 0.286 0.287 0.290 0.292 0.295 0.299 0.303 0.307 0.312 0.318 0.324 0.332 0.341 0.352 0.365 0.381 0.399 0.421 0.446 0.475 0.510 0.550 0.597 0.652 0.712 0.765 0.808 0.842 0.868 0.886 0.899 0.909 0.917 0.923 0.927 0.929 0.929 0.929 0.932 0.936 0.941 0.948 0.956 0.961 0.965 0.967 0.968 0.969 0.970 0.975 0.980 0.983 0.986 0.989 0.993 1.000 1.007 1.012 1.015 1.017 1.018 1.018 1.019 1.019 1.020 1.023 1.029 1.039 1.047 1.053 1.055 1.056 1.055 1.054 1.049 1.042 1.031 1.016 0.996 0.971 0.939 0.899 0.850 0.799 0.757 0.724 0.700 0.683 0.671 0.662 0.657 0.653 0.650 0.648 0.648 0.648 0.649 0.652 0.659 0.672 0.691 0.716 0.748 0.786 0.823 0.856 0.885 0.912 0.938 0.963 0.986 1.009 1.029 1.047 1.061 1.074 1.084 1.094 1.104 1.114 1.125 1.134 1.141 1.146 1.150 1.152 1.154 1.154 1.155 1.154 1.154 1.153 1.150 1.147 1.142 1.135 1.127 1.116 1.103 1.088 1.069 1.047 1.025 1.009 0.999 0.993 0.991 0.990 0.992 0.997 1.009 1.029 1.044 1.044 0.000 
0.000 0.354 0.354 0.278 0.274 0.289 0.306 0.316 0.322 0.324 0.324 0.322 0.321 0.319 0.319 0.319 0.319 0.321 0.323 0.327 0.331 0.336 0.342 0.349 0.357 0.367 0.378 0.392 0.408 0.427 0.448 0.473 0.501 0.534 0.572 0.615 0.665 0.719 0.767 0.808 0.841 0.867 0.888 0.905 0.920 0.933 0.945 0.955 0.963 0.970 0.976 0.982 0.989 0.996 1.003 1.010 1.015 1.018 1.019 1.020 1.019 1.018 1.017 1.018 1.019 1.022 1.026 1.032 1.040 1.048 1.055 1.058 1.060 1.061 1.062 1.062 1.062 1.061 1.061 1.061 1.063 1.065 1.065 1.064 1.062 1.059 1.055 1.049 1.040 1.028 1.011 0.990 0.965 0.933 0.894 0.848 0.802 0.763 0.732 0.708 0.689 0.675 0.665 0.658 0.653 0.650 0.649 0.648 0.648 0.649 0.653 0.659 0.669 0.684 0.703 0.728 0.756 0.786 0.816 0.844 0.870 0.896 0.921 0.947 0.973 0.999 1.022 1.042 1.059 1.074 1.088 1.101 1.114 1.126 1.137 1.146 1.153 1.159 1.162 1.165 1.166 1.167 1.167 1.166 1.166 1.164 1.161 1.156 1.150 1.141 1.130 1.116 1.099 1.080 1.057 1.037 1.023 1.014 1.008 1.006 1.006 1.006 1.010 1.018 1.032 1.042 1.042 0.000 
0.000 0.479 0.479 0.414 0.402 0.388 0.381 0.375 0.370 0.364 0.360 0.355 0.352 0.350 0.349 0.348 0.348 0.349 0.350 0.352 0.356 0.360 0.366 0.372 0.381 0.391 0.403 0.417 0.433 0.452 0.473 0.498 0.525 0.556 0.592 0.631 0.676 0.725 0.770 0.808 0.841 0.869 0.892 0.914 0.934 0.953 0.970 0.985 0.998 1.009 1.019 1.028 1.037 1.045 1.052 1.059 1.063 1.067 1.068 1.069 1.069 1.068 1.065 1.064 1.064 1.066 1.070 1.076 1.084 1.092 1.097 1.100 1.101 1.102 1.102 1.102 1.101 1.099 1.097 1.094 1.090 1.086 1.081 1.076 1.071 1.065 1.058 1.050 1.039 1.026 1.008 0.986 0.960 0.928 0.891 0.847 0.804 0.767 0.737 0.712 0.693 0.678 0.667 0.659 0.653 0.650 0.648 0.648 0.648 0.649 0.652 0.657 0.665 0.676 0.691 0.709 0.731 0.756 0.781 0.807 0.832 0.857 0.883 0.910 0.938 0.967 0.995 1.020 1.043 1.063 1.081 1.097 1.113 1.127 1.139 1.150 1.159 1.166 1.171 1.174 1.176 1.177 1.177 1.177 1.177 1.175 1.173 1.169 1.163 1.155 1.145 1.131 1.114 1.093 1.070 1.051 1.036 1.026 1.019 1.016 1.015 1.015 1.017 1.022 1.032 1.039 1.039 0.000 
0.000 0.603 0.603 0.537 0.496 0.463 0.439 0.421 0.408 0.397 0.389 0.383 0.379 0.376 0.374 0.373 0.373 0.373 0.374 0.375 0.378 0.382 0.387 0.394 0.402 0.413 0.425 0.439 0.456 0.475 0.496 0.520 0.547 0.577 0.610 0.647 0.688 0.732 0.773 0.810 0.843 0.873 0.901 0.927 0.952 0.976 0.997 1.016 1.032 1.046 1.058 1.070 1.080 1.089 1.096 1.103 1.108 1.111 1.113 1.115 1.115 1.115 1.114 1.114 1.114 1.115 1.118 1.123 1.129 1.134 1.138 1.139 1.140 1.140 1.140 1.139 1.137 1.134 1.130 1.125 1.118 1.110 1.101 1.092 1.083 1.074 1.064 1.052 1.040 1.025 1.006 0.984 0.957 0.925 0.889 0.847 0.805 0.770 0.740 0.715 0.695 0.680 0.668 0.659 0.653 0.650 0.648 0.647 0.647 0.648 0.650 0.654 0.660 0.668 0.679 0.693 0.710 0.729 0.751 0.774 0.797 0.822 0.848 0.875 0.904 0.935 0.967 0.998 1.025 1.050 1.072 1.092 1.110 1.126 1.140 1.153 1.163 1.171 1.177 1.182 1.184 1.186 1.186 1.186 1.186 1.185 1.183 1.180 1.175 1.168 1.158 1.146 1.130 1.110 1.087 1.066 1.048 1.035 1.026 1.021 1.019 1.019 1.020 1.024 1.031 1.036 1.036 0.000 
0.000 0.640 0.640 0.609 0.560 0.512 0.479 0.454 0.437 0.423 0.413 0.406 0.400 0.397 0.395 0.394 0.394 0.394 0.394 0.395 0.397 0.401 0.406 0.413 0.422 0.433 0.446 0.460 0.477 0.496 0.518 0.541 0.567 0.596 0.627 0.661 0.699 0.739 0.777 0.813 0.848 0.881 0.913 0.944 0.973 1.000 1.025 1.045 1.064 1.080 1.094 1.107 1.118 1.128 1.136 1.143 1.148 1.152 1.155 1.156 1.158 1.158 1.159 1.159 1.160 1.161 1.163 1.166 1.170 1.173 1.175 1.176 1.176 1.176 1.175 1.173 1.170 1.166 1.161 1.154 1.146 1.136 1.124 1.111 1.098 1.085 1.071 1.057 1.042 1.025 1.005 0.982 0.955 0.923 0.887 0.847 0.807 0.772 0.742 0.717 0.696 0.680 0.668 0.659 0.652 0.649 0.646 0.645 0.645 0.646 0.647 0.649 0.653 0.659 0.667 0.677 0.691 0.706 0.724 0.744 0.766 0.790 0.815 0.843 0.873 0.905 0.940 0.975 1.007 1.036 1.062 1.086 1.106 1.124 1.140 1.154 1.166 1.175 1.182 1.187 1.191 1.193 1.194 1.194 1.194 1.194 1.192 1.189 1.185 1.179 1.170 1.158 1.144 1.126 1.104 1.080 1.059 1.042 1.031 1.024 1.020 1.019 1.020 1.023 1.029 1.034 1.034 0.000 
0.000 0.675 0.675 0.647 0.595 0.542 0.504 0.477 0.457 0.442 0.431 0.423 0.418 0.415 0.412 0.411 0.411 0.411 0.411 0.412 0.414 0.418 0.424 0.431 0.440 0.451 0.465 0.480 0.497 0.516 0.537 0.560 0.586 0.613 0.643 0.675 0.710 0.746 0.783 0.820 0.856 0.892 0.929 0.963 0.995 1.024 1.050 1.073 1.093 1.111 1.126 1.140 1.153 1.163 1.172 1.179 1.185 1.189 1.192 1.194 1.196 1.197 1.198 1.199 1.200 1.201 1.203 1.205 1.207 1.209 1.209 1.210 1.209 1.209 1.207 1.204 1.200 1.195 1.189 1.181 1.171 1.160 1.147 1.132 1.116 1.099 1.081 1.064 1.046 1.026 1.005 0.981 0.954 0.922 0.886 0.846 0.807 0.773 0.743 0.718 0.697 0.680 0.668 0.658 0.651 0.646 0.644 0.642 0.641 0.641 0.642 0.643 0.645 0.649 0.655 0.662 0.673 0.685 0.700 0.718 0.738 0.760 0.785 0.813 0.843 0.876 0.913 0.951 0.988 1.021 1.051 1.078 1.101 1.121 1.139 1.154 1.167 1.178 1.186 1.192 1.196 1.199 1.200 1.200 1.200 1.200 1.199 1.197 1.193 1.187 1.179 1.169 1.155 1.138 1.118 1.094 1.069 1.049 1.034 1.025 1.020 1.019 1.019 1.021 1.027 1.031 1.031 0.000 
0.000 0.650 0.650 0.652 0.607 0.557 0.519 0.491 0.470 0.455 0.445 0.437 0.432 0.428 0.426 0.425 0.425 0.425 0.425 0.427 0.429 0.433 0.439 0.447 0.457 0.468 0.482 0.497 0.515 0.534 0.555 0.578 0.603 0.630 0.659 0.689 0.722 0.756 0.792 0.828 0.867 0.906 0.946 0.983 1.016 1.046 1.073 1.098 1.119 1.138 1.155 1.170 1.183 1.194 1.204 1.211 1.218 1.222 1.226 1.229 1.231 1.232 1.234 1.235 1.236 1.237 1.238 1.239 1.240 1.241 1.241 1.241 1.240 1.238 1.236 1.232 1.228 1.222 1.214 1.205 1.194 1.182 1.168 1.152 1.134 1.115 1.094 1.073 1.051 1.029 1.006 0.981 0.953 0.921 0.886 0.846 0.808 0.774 0.744 0.718 0.697 0.680 0.667 0.656 0.648 0.643 0.639 0.637 0.636 0.635 0.635 0.635 0.637 0.639 0.642 0.648 0.656 0.666 0.678 0.694 0.712 0.734 0.758 0.785 0.816 0.850 0.887 0.927 0.968 1.006 1.039 1.069 1.095 1.117 1.137 1.153 1.167 1.179 1.188 1.195 1.200 1.203 1.205 1.205 1.206 1.205 1.205 1.203 1.199 1.194 1.187 1.177 1.164 1.148 1.129 1.105 1.079 1.054 1.036 1.024 1.017 1.015 1.015 1.017 1.023 1.029 1.029 0.000 
0.000 0.624 0.624 0.632 0.607 0.563 0.525 0.498 0.478 0.464 0.454 0.447 0.442 0.439 0.437 0.436 0.436 0.436 0.437 0.439 0.442 0.447 0.453 0.462 0.472 0.484 0.498 0.514 0.531 0.550 0.571 0.594 0.618 0.645 0.673 0.703 0.735 0.768 0.803 0.840 0.880 0.922 0.963 1.000 1.035 1.066 1.095 1.120 1.143 1.163 1.181 1.197 1.211 1.223 1.232 1.241 1.247 1.252 1.256 1.260 1.262 1.264 1.265 1.266 1.267 1.268 1.269 1.269 1.270 1.270 1.270 1.269 1.268 1.266 1.262 1.258 1.253 1.246 1.237 1.227 1.216 1.202 1.187 1.170 1.151 1.131 1.108 1.084 1.060 1.035 1.009 0.982 0.953 0.921 0.886 0.847 0.808 0.774 0.744 0.719 0.697 0.679 0.665 0.653 0.645 0.638 0.633 0.630 0.628 0.627 0.626 0.626 0.627 0.628 0.630 0.634 0.639 0.647 0.658 0.672 0.689 0.709 0.733 0.760 0.790 0.824 0.862 0.904 0.948 0.989 1.027 1.059 1.088 1.113 1.134 1.152 1.167 1.179 1.190 1.197 1.203 1.206 1.208 1.209 1.209 1.209 1.209 1.207 1.204 1.200 1.193 1.183 1.171 1.156 1.137 1.115 1.088 1.061 1.037 1.020 1.011 1.007 1.006 1.009 1.017 1.026 1.026 0.000 
0.000 0.598 0.598 0.608 0.594 0.563 0.527 0.500 0.482 0.468 0.459 0.453 0.449 0.447 0.446 0.445 0.445 0.445 0.447 0.449 0.453 0.459 0.466 0.475 0.486 0.498 0.512 0.528 0.545 0.565 0.585 0.608 0.632 0.658 0.686 0.716 0.748 0.781 0.816 0.853 0.893 0.936 0.978 1.016 1.052 1.084 1.114 1.140 1.164 1.186 1.205 1.221 1.235 1.248 1.258 1.267 1.274 1.279 1.284 1.287 1.290 1.292 1.293 1.294 1.295 1.296 1.296 1.296 1.296 1.296 1.296 1.295 1.293 1.290 1.286 1.281 1.275 1.268 1.258 1.248 1.235 1.221 1.205 1.187 1.167 1.146 1.122 1.097 1.070 1.042 1.013 0.984 0.954 0.921 0.885 0.847 0.809 0.775 0.744 0.718 0.696 0.677 0.662 0.649 0.639 0.632 0.626 0.622 0.619 0.617 0.616 0.616 0.615 0.616 0.617 0.619 0.623 0.630 0.640 0.652 0.668 0.687 0.710 0.736 0.766 0.800 0.839 0.881 0.927 0.972 1.013 1.049 1.080 1.108 1.131 1.150 1.166 1.179 1.190 1.198 1.204 1.208 1.211 1.212 1.212 1.212 1.212 1.210 1.208 1.203 1.197 1.188 1.176 1.161 1.143 1.121 1.096 1.067 1.038 1.014 0.998 0.990 0.989 0.993 1.010 1.023 1.023 0.000 
0.000 0.572 0.572 0.583 0.575 0.556 0.527 0.501 0.482 0.470 0.462 0.457 0.454 0.452 0.452 0.451 0.452 0.453 0.455 0.458 0.463 0.469 0.477 0.487 0.498 0.511 0.525 0.541 0.558 0.577 0.598 0.620 0.644 0.670 0.698 0.728 0.759 0.793 0.828 0.866 0.906 0.949 0.991 1.030 1.067 1.100 1.131 1.158 1.183 1.205 1.225 1.242 1.257 1.270 1.281 1.290 1.297 1.303 1.308 1.312 1.314 1.316 1.318 1.319 1.320 1.320 1.320 1.320 1.320 1.320 1.319 1.318 1.315 1.312 1.308 1.303 1.296 1.287 1.278 1.266 1.253 1.238 1.221 1.203 1.182 1.160 1.135 1.109 1.081 1.051 1.020 0.988 0.956 0.922 0.886 0.847 0.809 0.775 0.745 0.718 0.694 0.675 0.658 0.644 0.633 0.624 0.617 0.612 0.608 0.606 0.604 0.603 0.603 0.603 0.603 0.605 0.608 0.614 0.623 0.634 0.649 0.667 0.689 0.715 0.744 0.778 0.816 0.859 0.906 0.955 0.999 1.038 1.072 1.101 1.126 1.148 1.165 1.179 1.190 1.199 1.205 1.210 1.212 1.214 1.214 1.214 1.214 1.212 1.210 1.206 1.200 1.191 1.180 1.165 1.147 1.126 1.101 1.072 1.041 1.010 0.983 0.963 0.955 0.960 0.992 1.042 1.042 0.000 
0.000 0.546 0.546 0.558 0.553 0.541 0.522 0.499 0.482 0.471 0.463 0.459 0.457 0.456 0.456 0.456 0.457 0.458 0.462 0.466 0.472 0.479 0.487 0.497 0.509 0.522 0.536 0.552 0.569 0.588 0.609 0.631 0.655 0.681 0.709 0.738 0.770 0.803 0.839 0.877 0.917 0.960 1.003 1.043 1.080 1.114 1.146 1.174 1.200 1.223 1.243 1.261 1.276 1.290 1.301 1.310 1.318 1.324 1.329 1.333 1.336 1.338 1.340 1.341 1.341 1.342 1.342 1.342 1.342 1.341 1.340 1.338 1.336 1.332 1.327 1.322 1.314 1.305 1.295 1.283 1.269 1.254 1.236 1.217 1.196 1.173 1.147 1.121 1.092 1.061 1.028 0.994 0.959 0.924 0.886 0.848 0.810 0.776 0.744 0.716 0.692 0.671 0.652 0.637 0.624 0.614 0.606 0.600 0.595 0.592 0.591 0.590 0.589 0.589 0.590 0.591 0.594 0.599 0.607 0.618 0.631 0.649 0.670 0.694 0.723 0.757 0.795 0.838 0.886 0.937 0.984 1.026 1.062 1.094 1.121 1.144 1.163 1.178 1.190 1.199 1.206 1.210 1.213 1.215 1.215 1.215 1.215 1.214 1.212 1.208 1.202 1.193 1.182 1.168 1.150 1.128 1.103 1.075 1.043 1.009 0.974 0.938 0.905 0.885 0.918 1.069 1.069 0.000 
0.000 0.520 0.520 0.533 0.530 0.523 0.511 0.495 0.480 0.470 0.463 0.460 0.458 0.458 0.458 0.459 0.461 0.463 0.467 0.473 0.479 0.487 0.496 0.506 0.518 0.531 0.546 0.562 0.579 0.598 0.618 0.640 0.664 0.690 0.718 0.747 0.779 0.812 0.848 0.886 0.927 0.970 1.013 1.054 1.092 1.127 1.159 1.188 1.214 1.238 1.259 1.277 1.293 1.307 1.319 1.329 1.337 1.343 1.348 1.352 1.355 1.358 1.359 1.360 1.361 1.361 1.361 1.361 1.360 1.360 1.358 1.357 1.354 1.350 1.345 1.339 1.331 1.322 1.311 1.298 1.284 1.268 1.250 1.230 1.208 1.185 1.159 1.131 1.102 1.070 1.037 1.001 0.965 0.927 0.888 0.849 0.812 0.777 0.744 0.715 0.689 0.666 0.646 0.629 0.615 0.604 0.595 0.588 0.583 0.580 0.578 0.577 0.576 0.576 0.577 0.578 0.581 0.586 0.593 0.602 0.615 0.632 0.652 0.676 0.704 0.737 0.775 0.817 0.865 0.918 0.968 1.013 1.052 1.087 1.116 1.140 1.160 1.176 1.189 1.199 1.206 1.210 1.213 1.215 1.216 1.216 1.216 1.215 1.212 1.209 1.203 1.194 1.183 1.169 1.151 1.130 1.105 1.076 1.044 1.010 0.972 0.928 0.873 0.791 0.688 0.679 0.679 0.000 
0.000 0.495 0.495 0.507 0.505 0.502 0.496 0.486 0.475 0.467 0.462 0.460 0.459 0.459 0.459 0.461 0.464 0.468 0.472 0.478 0.486 0.494 0.503 0.514 0.526 0.539 0.554 0.570 0.587 0.606 0.626 0.648 0.672 0.698 0.725 0.755 0.787 0.820 0.856 0.894 0.935 0.978 1.022 1.063 1.102 1.137 1.170 1.200 1.227 1.251 1.273 1.292 1.308 1.322 1.334 1.344 1.353 1.360 1.365 1.369 1.372 1.375 1.376 1.377 1.377 1.378 1.378 1.378 1.377 1.376 1.375 1.373 1.370 1.366 1.361 1.354 1.346 1.336 1.325 1.312 1.298 1.281 1.263 1.242 1.220 1.196 1.170 1.142 1.112 1.080 1.046 1.010 0.972 0.932 0.891 0.851 0.814 0.778 0.745 0.714 0.686 0.662 0.640 0.622 0.607 0.595 0.585 0.577 0.572 0.568 0.566 0.565 0.565 0.565 0.565 0.566 0.569 0.573 0.579 0.588 0.601 0.616 0.635 0.658 0.686 0.718 0.755 0.798 0.845 0.898 0.952 1.000 1.042 1.078 1.109 1.135 1.157 1.174 1.188 1.198 1.205 1.210 1.213 1.215 1.216 1.216 1.216 1.215 1.213 1.209 1.203 1.195 1.184 1.169 1.151 1.130 1.105 1.076 1.045 1.010 0.972 0.927 0.868 0.771 0.561 0.134 0.134 0.000 
0.000 0.469 0.469 0.481 0.481 0.480 0.477 0.473 0.467 0.462 0.459 0.458 0.458 0.459 0.460 0.463 0.466 0.471 0.477 0.483 0.491 0.500 0.510 0.520 0.533 0.546 0.560 0.576 0.593 0.612 0.633 0.655 0.679 0.704 0.732 0.761 0.793 0.827 0.863 0.901 0.942 0.985 1.029 1.071 1.110 1.147 1.180 1.210 1.238 1.263 1.284 1.304 1.321 1.335 1.348 1.358 1.367 1.374 1.379 1.384 1.387 1.389 1.391 1.392 1.392 1.392 1.392 1.392 1.392 1.391 1.390 1.387 1.384 1.380 1.375 1.368 1.360 1.350 1.338 1.325 1.310 1.293 1.275 1.254 1.231 1.207 1.180 1.152 1.121 1.089 1.055 1.018 0.979 0.938 0.896 0.855 0.816 0.780 0.745 0.714 0.685 0.659 0.636 0.617 0.600 0.587 0.576 0.568 0.562 0.558 0.556 0.554 0.554 0.554 0.554 0.555 0.557 0.561 0.567 0.576 0.587 0.602 0.620 0.642 0.669 0.701 0.737 0.779 0.826 0.879 0.935 0.985 1.030 1.069 1.102 1.130 1.153 1.171 1.186 1.197 1.205 1.210 1.213 1.215 1.216 1.216 1.216 1.215 1.213 1.209 1.203 1.195 1.184 1.169 1.151 1.130 1.105 1.076 1.044 1.011 0.974 0.933 0.880 0.799 0.650 0.435 0.435 0.000 
0.000 0.443 0.443 0.456 0.456 0.456 0.456 0.456 0.455 0.454 0.454 0.455 0.456 0.458 0.461 0.464 0.469 0.474 0.480 0.488 0.496 0.505 0.515 0.526 0.538 0.551 0.566 0.581 0.599 0.617 0.638 0.660 0.684 0.710 0.737 0.767 0.798 0.832 0.868 0.907 0.947 0.991 1.035 1.078 1.118 1.154 1.188 1.219 1.247 1.272 1.295 1.314 1.332 1.347 1.359 1.370 1.379 1.386 1.392 1.397 1.400 1.402 1.404 1.405 1.405 1.405 1.405 1.405 1.405 1.404 1.402 1.400 1.397 1.393 1.387 1.380 1.372 1.362 1.350 1.337 1.322 1.304 1.285 1.265 1.242 1.217 1.190 1.161 1.131 1.098 1.063 1.026 0.987 0.946 0.902 0.860 0.820 0.782 0.747 0.714 0.684 0.657 0.633 0.612 0.595 0.581 0.569 0.560 0.554 0.549 0.546 0.545 0.544 0.544 0.544 0.545 0.547 0.551 0.556 0.564 0.575 0.589 0.606 0.628 0.654 0.684 0.720 0.761 0.807 0.860 0.917 0.971 1.018 1.059 1.094 1.124 1.148 1.168 1.183 1.195 1.204 1.209 1.213 1.215 1.216 1.216 1.216 1.215 1.213 1.209 1.203 1.195 1.184 1.169 1.151 1.129 1.103 1.074 1.043 1.013 0.982 0.952 0.924 0.904 0.914 1.014 1.014 0.000 
0.000 0.417 0.417 0.430 0.431 0.432 0.434 0.436 0.439 0.442 0.446 0.449 0.453 0.457 0.460 0.465 0.470 0.476 0.483 0.491 0.499 0.508 0.519 0.530 0.542 0.555 0.570 0.585 0.603 0.622 0.642 0.664 0.688 0.714 0.741 0.771 0.803 0.837 0.873 0.911 0.952 0.996 1.041 1.084 1.124 1.161 1.195 1.226 1.255 1.280 1.303 1.323 1.341 1.356 1.370 1.381 1.390 1.397 1.403 1.408 1.411 1.414 1.415 1.416 1.417 1.417 1.417 1.417 1.416 1.415 1.414 1.411 1.408 1.404 1.398 1.391 1.383 1.373 1.361 1.348 1.332 1.315 1.296 1.275 1.252 1.227 1.200 1.171 1.140 1.107 1.072 1.035 0.995 0.954 0.909 0.865 0.824 0.785 0.748 0.715 0.684 0.656 0.631 0.609 0.591 0.575 0.563 0.553 0.546 0.541 0.538 0.536 0.536 0.535 0.536 0.536 0.538 0.541 0.546 0.553 0.563 0.577 0.593 0.614 0.639 0.669 0.704 0.744 0.790 0.841 0.899 0.955 1.005 1.048 1.085 1.117 1.143 1.164 1.180 1.193 1.202 1.208 1.212 1.214 1.215 1.215 1.215 1.214 1.212 1.209 1.203 1.195 1.183 1.168 1.150 1.127 1.101 1.070 1.041 1.016 0.997 0.984 0.980 0.991 1.042 1.132 1.132 0.000 
0.000 0.391 0.391 0.405 0.407 0.409 0.413 0.417 0.423 0.430 0.436 0.443 0.448 0.454 0.460 0.465 0.471 0.478 0.485 0.493 0.502 0.511 0.522 0.533 0.545 0.558 0.573 0.588 0.606 0.625 0.645 0.667 0.691 0.717 0.745 0.774 0.806 0.840 0.876 0.915 0.956 0.999 1.045 1.088 1.129 1.166 1.201 1.233 1.261 1.287 1.311 1.331 1.349 1.365 1.378 1.389 1.399 1.406 1.413 1.417 1.421 1.423 1.425 1.426 1.427 1.427 1.427 1.427 1.426 1.425 1.424 1.421 1.418 1.414 1.408 1.401 1.393 1.383 1.371 1.357 1.342 1.325 1.305 1.284 1.261 1.236 1.209 1.180 1.149 1.116 1.081 1.043 1.004 0.962 0.917 0.872 0.829 0.788 0.751 0.716 0.684 0.655 0.629 0.607 0.587 0.571 0.558 0.548 0.540 0.535 0.531 0.529 0.528 0.528 0.528 0.528 0.530 0.533 0.537 0.544 0.554 0.566 0.582 0.602 0.626 0.655 0.689 0.728 0.773 0.824 0.881 0.939 0.991 1.036 1.076 1.109 1.136 1.158 1.176 1.190 1.199 1.206 1.211 1.213 1.214 1.214 1.214 1.213 1.212 1.208 1.202 1.194 1.182 1.167 1.148 1.124 1.095 1.064 1.037 1.018 1.007 1.004 1.007 1.025 1.070 1.116 1.116 0.000 
0.000 0.365 0.365 0.379 0.383 0.388 0.393 0.401 0.410 0.420 0.429 0.437 0.444 0.451 0.458 0.465 0.472 0.479 0.487 0.495 0.504 0.513 0.524 0.535 0.547 0.560 0.575 0.590 0.608 0.627 0.647 0.669 0.693 0.719 0.747 0.777 0.809 0.843 0.879 0.918 0.959 1.002 1.048 1.092 1.132 1.170 1.205 1.238 1.267 1.293 1.317 1.337 1.356 1.372 1.385 1.397 1.406 1.414 1.421 1.425 1.429 1.432 1.434 1.435 1.435 1.435 1.435 1.435 1.435 1.434 1.432 1.430 1.427 1.423 1.417 1.410 1.402 1.392 1.380 1.366 1.351 1.334 1.315 1.293 1.270 1.245 1.218 1.189 1.158 1.124 1.089 1.052 1.012 0.970 0.925 0.879 0.834 0.793 0.754 0.718 0.685 0.656 0.629 0.605 0.585 0.568 0.554 0.543 0.535 0.529 0.525 0.523 0.522 0.521 0.521 0.522 0.523 0.525 0.529 0.536 0.545 0.557 0.572 0.591 0.614 0.642 0.675 0.713 0.757 0.807 0.863 0.922 0.977 1.024 1.065 1.100 1.129 1.153 1.171 1.186 1.196 1.204 1.209 1.211 1.212 1.213 1.213 1.212 1.210 1.206 1.201 1.192 1.180 1.164 1.144 1.119 1.087 1.056 1.032 1.017 1.011 1.010 1.016 1.035 1.075 1.107 1.107 0.000 
0.000 0.339 0.339 0.354 0.360 0.368 0.377 0.388 0.401 0.413 0.424 0.433 0.442 0.450 0.457 0.465 0.472 0.480 0.488 0.496 0.505 0.515 0.525 0.536 0.548 0.561 0.576 0.592 0.609 0.628 0.649 0.671 0.695 0.721 0.749 0.778 0.810 0.845 0.881 0.920 0.961 1.005 1.051 1.094 1.136 1.174 1.209 1.241 1.271 1.298 1.321 1.343 1.361 1.377 1.391 1.403 1.413 1.421 1.427 1.433 1.436 1.439 1.441 1.442 1.443 1.443 1.443 1.443 1.442 1.441 1.440 1.438 1.435 1.430 1.425 1.418 1.410 1.400 1.388 1.375 1.359 1.342 1.323 1.302 1.279 1.254 1.227 1.197 1.166 1.133 1.098 1.060 1.021 0.979 0.934 0.887 0.841 0.797 0.757 0.720 0.687 0.656 0.629 0.605 0.584 0.566 0.551 0.540 0.531 0.524 0.520 0.517 0.516 0.515 0.515 0.516 0.517 0.519 0.523 0.529 0.537 0.548 0.563 0.581 0.604 0.631 0.663 0.700 0.743 0.792 0.847 0.906 0.962 1.011 1.054 1.091 1.121 1.146 1.166 1.181 1.192 1.200 1.206 1.209 1.210 1.210 1.210 1.210 1.208 1.204 1.198 1.189 1.177 1.161 1.139 1.112 1.079 1.049 1.027 1.014 1.010 1.010 1.016 1.036 1.073 1.099 1.099 0.000 
0.000 0.314 0.314 0.329 0.338 0.349 0.363 0.380 0.396 0.409 0.421 0.431 0.440 0.448 0.457 0.464 0.472 0.480 0.489 0.497 0.506 0.515 0.526 0.537 0.549 0.562 0.577 0.593 0.610 0.629 0.649 0.672 0.696 0.722 0.750 0.780 0.812 0.846 0.882 0.921 0.962 1.006 1.052 1.096 1.138 1.176 1.212 1.245 1.274 1.301 1.325 1.347 1.366 1.382 1.396 1.408 1.418 1.427 1.433 1.438 1.442 1.445 1.447 1.448 1.449 1.449 1.449 1.449 1.449 1.448 1.447 1.445 1.441 1.437 1.432 1.425 1.417 1.407 1.396 1.383 1.367 1.350 1.331 1.310 1.287 1.262 1.235 1.206 1.175 1.142 1.107 1.069 1.029 0.987 0.942 0.895 0.847 0.803 0.761 0.723 0.689 0.657 0.629 0.605 0.583 0.564 0.549 0.537 0.528 0.521 0.516 0.513 0.511 0.511 0.510 0.511 0.512 0.513 0.517 0.522 0.530 0.541 0.555 0.572 0.594 0.620 0.652 0.688 0.730 0.778 0.832 0.891 0.948 0.998 1.042 1.080 1.112 1.139 1.159 1.176 1.188 1.196 1.202 1.205 1.207 1.207 1.207 1.207 1.205 1.201 1.195 1.186 1.173 1.156 1.134 1.106 1.072 1.041 1.020 1.007 1.002 1.003 1.009 1.029 1.067 1.095 1.095 0.000 
0.000 0.288 0.288 0.305 0.317 0.333 0.353 0.375 0.392 0.407 0.419 0.430 0.439 0.448 0.456 0.464 0.472 0.481 0.489 0.497 0.506 0.516 0.526 0.537 0.549 0.563 0.577 0.593 0.610 0.629 0.650 0.672 0.696 0.722 0.750 0.780 0.812 0.847 0.883 0.922 0.963 1.007 1.054 1.098 1.140 1.178 1.214 1.247 1.277 1.304 1.328 1.350 1.369 1.386 1.400 1.413 1.423 1.431 1.438 1.443 1.448 1.450 1.453 1.454 1.454 1.455 1.455 1.455 1.454 1.454 1.452 1.450 1.447 1.443 1.438 1.432 1.424 1.414 1.403 1.390 1.375 1.358 1.339 1.318 1.295 1.271 1.244 1.215 1.184 1.150 1.115 1.078 1.038 0.996 0.951 0.903 0.854 0.808 0.766 0.727 0.691 0.659 0.630 0.605 0.583 0.564 0.548 0.535 0.525 0.518 0.513 0.509 0.507 0.507 0.506 0.507 0.507 0.509 0.512 0.517 0.524 0.535 0.548 0.565 0.586 0.611 0.642 0.677 0.718 0.765 0.818 0.877 0.935 0.986 1.031 1.070 1.103 1.130 1.152 1.169 1.182 1.191 1.197 1.201 1.203 1.203 1.203 1.203 1.201 1.197 1.191 1.182 1.168 1.151 1.128 1.100 1.066 1.034 1.009 0.992 0.983 0.982 0.987 1.006 1.052 1.092 1.092 0.000 
0.000 0.262 0.262 0.280 0.297 0.320 0.348 0.372 0.391 0.406 0.419 0.429 0.439 0.448 0.456 0.464 0.472 0.481 0.489 0.497 0.506 0.516 0.526 0.537 0.549 0.563 0.577 0.593 0.610 0.629 0.650 0.672 0.696 0.722 0.750 0.780 0.813 0.847 0.884 0.923 0.964 1.008 1.054 1.099 1.141 1.180 1.215 1.249 1.279 1.306 1.331 1.353 1.372 1.389 1.403 1.416 1.426 1.435 1.442 1.448 1.452 1.455 1.457 1.458 1.459 1.459 1.460 1.460 1.459 1.459 1.457 1.455 1.453 1.449 1.444 1.438 1.430 1.420 1.409 1.397 1.382 1.365 1.347 1.326 1.303 1.279 1.252 1.223 1.192 1.159 1.124 1.087 1.047 1.005 0.960 0.912 0.862 0.815 0.771 0.730 0.694 0.661 0.631 0.605 0.583 0.563 0.547 0.534 0.523 0.516 0.510 0.506 0.504 0.503 0.503 0.503 0.504 0.505 0.508 0.513 0.520 0.529 0.542 0.558 0.579 0.604 0.633 0.668 0.708 0.754 0.806 0.864 0.923 0.975 1.021 1.060 1.094 1.122 1.145 1.162 1.176 1.185 1.192 1.196 1.198 1.198 1.198 1.198 1.196 1.192 1.186 1.176 1.163 1.145 1.122 1.094 1.061 1.026 0.995 0.968 0.949 0.939 0.939 0.955 1.013 1.090 1.090 0.000 
0.000 0.236 0.236 0.255 0.279 0.313 0.346 0.372 0.391 0.406 0.419 0.430 0.439 0.448 0.456 0.464 0.472 0.481 0.489 0.497 0.506 0.516 0.526 0.537 0.549 0.563 0.577 0.593 0.610 0.629 0.650 0.672 0.696 0.722 0.750 0.780 0.813 0.847 0.884 0.923 0.964 1.008 1.055 1.099 1.141 1.180 1.216 1.250 1.280 1.308 1.332 1.354 1.374 1.391 1.406 1.419 1.429 1.438 1.445 1.451 1.455 1.459 1.461 1.462 1.463 1.464 1.464 1.464 1.463 1.463 1.462 1.460 1.457 1.454 1.449 1.443 1.435 1.426 1.415 1.403 1.388 1.372 1.354 1.334 1.311 1.287 1.260 1.232 1.201 1.168 1.133 1.095 1.056 1.013 0.968 0.921 0.870 0.822 0.776 0.735 0.697 0.663 0.633 0.606 0.583 0.564 0.547 0.533 0.522 0.514 0.508 0.504 0.502 0.501 0.501 0.501 0.501 0.502 0.505 0.509 0.516 0.525 0.537 0.553 0.573 0.597 0.626 0.660 0.699 0.744 0.796 0.853 0.912 0.965 1.011 1.051 1.085 1.114 1.137 1.155 1.169 1.179 1.186 1.190 1.192 1.192 1.192 1.192 1.190 1.186 1.180 1.170 1.156 1.138 1.115 1.087 1.054 1.016 0.977 0.937 0.900 0.869 0.849 0.846 0.898 1.087 1.087 0.000 
0.000 0.210 0.210 0.231 0.266 0.311 0.347 0.373 0.392 0.407 0.420 0.430 0.439 0.448 0.456 0.464 0.472 0.480 0.488 0.497 0.506 0.515 0.526 0.537 0.549 0.562 0.577 0.593 0.610 0.629 0.650 0.672 0.696 0.722 0.750 0.780 0.813 0.847 0.884 0.923 0.964 1.009 1.055 1.100 1.142 1.181 1.217 1.250 1.281 1.309 1.333 1.356 1.375 1.393 1.408 1.421 1.432 1.441 1.448 1.454 1.458 1.462 1.464 1.466 1.467 1.467 1.467 1.467 1.467 1.466 1.465 1.464 1.461 1.458 1.453 1.447 1.440 1.431 1.421 1.409 1.395 1.379 1.361 1.341 1.319 1.295 1.268 1.240 1.209 1.177 1.142 1.104 1.065 1.022 0.977 0.929 0.879 0.829 0.782 0.740 0.701 0.666 0.635 0.608 0.584 0.564 0.547 0.533 0.522 0.513 0.507 0.503 0.500 0.499 0.499 0.499 0.499 0.500 0.503 0.507 0.513 0.522 0.533 0.549 0.568 0.591 0.619 0.653 0.691 0.736 0.786 0.843 0.902 0.955 1.002 1.043 1.078 1.107 1.130 1.149 1.163 1.173 1.180 1.184 1.186 1.187 1.187 1.186 1.184 1.181 1.174 1.164 1.151 1.132 1.109 1.080 1.045 1.004 0.958 0.906 0.850 0.790 0.723 0.652 0.589 0.612 0.612 0.000 
0.000 0.184 0.184 0.210 0.262 0.314 0.350 0.376 0.396 0.410 0.422 0.432 0.441 0.449 0.457 0.464 0.472 0.480 0.488 0.496 0.505 0.515 0.525 0.536 0.548 0.562 0.576 0.592 0.610 0.629 0.649 0.672 0.696 0.722 0.750 0.780 0.812 0.847 0.884 0.923 0.964 1.009 1.055 1.100 1.142 1.181 1.217 1.251 1.281 1.309 1.334 1.357 1.376 1.394 1.409 1.422 1.433 1.442 1.450 1.456 1.461 1.464 1.467 1.468 1.469 1.470 1.470 1.470 1.470 1.469 1.469 1.467 1.465 1.461 1.457 1.451 1.444 1.436 1.426 1.414 1.401 1.385 1.368 1.348 1.326 1.303 1.277 1.248 1.218 1.186 1.151 1.113 1.074 1.032 0.987 0.939 0.888 0.837 0.789 0.745 0.705 0.669 0.637 0.609 0.585 0.564 0.547 0.533 0.522 0.513 0.506 0.502 0.499 0.498 0.497 0.497 0.498 0.499 0.501 0.505 0.511 0.519 0.530 0.545 0.564 0.587 0.614 0.647 0.685 0.728 0.778 0.834 0.893 0.947 0.995 1.036 1.071 1.101 1.125 1.144 1.158 1.168 1.175 1.179 1.182 1.182 1.182 1.182 1.180 1.176 1.170 1.160 1.146 1.128 1.103 1.073 1.037 0.993 0.941 0.882 0.815 0.736 0.638 0.505 0.289 0.063 0.063 0.000 
0.000 0.193 0.193 0.206 0.271 0.325 0.361 0.386 0.403 0.417 0.427 0.436 0.443 0.450 0.457 0.464 0.471 0.479 0.486 0.495 0.504 0.513 0.524 0.535 0.547 0.561 0.575 0.591 0.609 0.628 0.648 0.671 0.695 0.721 0.749 0.780 0.812 0.846 0.883 0.923 0.964 1.009 1.055 1.100 1.142 1.181 1.218 1.251 1.282 1.309 1.335 1.357 1.377 1.395 1.410 1.423 1.434 1.444 1.452 1.458 1.463 1.466 1.469 1.471 1.472 1.472 1.472 1.472 1.472 1.472 1.471 1.470 1.468 1.465 1.460 1.455 1.448 1.440 1.431 1.419 1.406 1.391 1.374 1.355 1.334 1.310 1.285 1.257 1.227 1.195 1.160 1.123 1.083 1.041 0.996 0.948 0.897 0.845 0.796 0.751 0.710 0.673 0.641 0.612 0.587 0.565 0.548 0.533 0.522 0.513 0.506 0.502 0.499 0.497 0.497 0.496 0.497 0.498 0.500 0.503 0.509 0.517 0.528 0.542 0.560 0.583 0.610 0.642 0.679 0.722 0.771 0.827 0.886 0.941 0.989 1.030 1.066 1.096 1.120 1.139 1.154 1.164 1.171 1.176 1.178 1.179 1.179 1.178 1.177 1.173 1.166 1.157 1.143 1.124 1.100 1.069 1.031 0.984 0.929 0.864 0.789 0.703 0.600 0.462 0.222 0.000 0.000 0.000 
0.000 0.306 0.306 0.251 0.302 0.352 0.383 0.403 0.417 0.427 0.435 0.441 0.447 0.453 0.459 0.464 0.470 0.477 0.485 0.493 0.502 0.511 0.522 0.533 0.545 0.559 0.573 0.590 0.607 0.626 0.647 0.669 0.694 0.720 0.748 0.779 0.811 0.846 0.883 0.922 0.964 1.008 1.055 1.100 1.142 1.181 1.218 1.251 1.282 1.310 1.335 1.357 1.377 1.395 1.411 1.424 1.435 1.445 1.453 1.459 1.464 1.468 1.471 1.472 1.474 1.474 1.474 1.475 1.474 1.474 1.473 1.472 1.470 1.467 1.463 1.458 1.452 1.444 1.435 1.424 1.411 1.397 1.380 1.362 1.341 1.318 1.293 1.265 1.236 1.204 1.169 1.132 1.093 1.051 1.006 0.958 0.907 0.854 0.804 0.758 0.716 0.678 0.644 0.614 0.589 0.567 0.549 0.534 0.522 0.513 0.506 0.501 0.498 0.497 0.496 0.496 0.496 0.497 0.499 0.502 0.508 0.516 0.526 0.540 0.558 0.580 0.606 0.638 0.675 0.717 0.766 0.821 0.880 0.935 0.983 1.025 1.061 1.091 1.116 1.135 1.150 1.161 1.168 1.173 1.175 1.176 1.176 1.176 1.174 1.170 1.164 1.154 1.141 1.122 1.097 1.066 1.027 0.980 0.922 0.853 0.771 0.681 0.588 0.475 0.285 0.000 0.000 0.000 
0.000 0.436 0.436 0.368 0.378 0.404 0.422 0.432 0.438 0.443 0.446 0.449 0.452 0.456 0.459 0.464 0.469 0.475 0.482 0.490 0.499 0.508 0.519 0.530 0.543 0.556 0.571 0.587 0.605 0.624 0.645 0.667 0.692 0.718 0.746 0.777 0.810 0.844 0.882 0.921 0.963 1.008 1.055 1.100 1.142 1.181 1.217 1.251 1.282 1.310 1.335 1.357 1.378 1.395 1.411 1.424 1.436 1.445 1.453 1.460 1.465 1.469 1.472 1.474 1.475 1.476 1.476 1.476 1.476 1.476 1.475 1.474 1.472 1.470 1.466 1.461 1.455 1.448 1.439 1.428 1.416 1.402 1.386 1.368 1.348 1.325 1.301 1.274 1.245 1.213 1.179 1.142 1.103 1.061 1.016 0.968 0.917 0.864 0.813 0.765 0.722 0.683 0.648 0.618 0.591 0.569 0.550 0.534 0.522 0.513 0.506 0.501 0.498 0.497 0.496 0.496 0.496 0.497 0.498 0.502 0.507 0.515 0.525 0.539 0.556 0.578 0.604 0.635 0.671 0.713 0.761 0.816 0.875 0.930 0.978 1.021 1.057 1.088 1.112 1.132 1.147 1.158 1.166 1.171 1.173 1.174 1.174 1.174 1.172 1.169 1.162 1.153 1.139 1.121 1.096 1.065 1.026 0.977 0.918 0.847 0.759 0.665 0.593 0.549 0.531 0.492 0.492 0.000 
0.000 0.611 0.611 0.515 0.502 0.490 0.479 0.469 0.462 0.458 0.456 0.455 0.456 0.457 0.459 0.463 0.467 0.473 0.479 0.487 0.495 0.505 0.515 0.526 0.539 0.552 0.567 0.584 0.601 0.621 0.642 0.664 0.689 0.715 0.744 0.775 0.807 0.842 0.880 0.920 0.962 1.007 1.054 1.099 1.141 1.181 1.217 1.251 1.282 1.310 1.335 1.357 1.378 1.395 1.411 1.425 1.436 1.446 1.454 1.461 1.466 1.470 1.473 1.475 1.476 1.477 1.477 1.477 1.477 1.477 1.477 1.476 1.474 1.472 1.468 1.464 1.458 1.451 1.443 1.433 1.421 1.407 1.392 1.374 1.355 1.333 1.309 1.282 1.254 1.222 1.189 1.152 1.113 1.071 1.027 0.979 0.928 0.874 0.822 0.773 0.729 0.689 0.653 0.622 0.594 0.571 0.551 0.536 0.523 0.513 0.506 0.501 0.498 0.497 0.496 0.496 0.496 0.497 0.498 0.502 0.507 0.514 0.524 0.538 0.555 0.576 0.602 0.633 0.669 0.710 0.758 0.812 0.870 0.926 0.975 1.018 1.054 1.085 1.110 1.130 1.145 1.156 1.164 1.169 1.172 1.173 1.173 1.172 1.171 1.167 1.162 1.152 1.139 1.120 1.096 1.064 1.025 0.977 0.918 0.845 0.756 0.660 0.594 0.576 0.640 1.033 1.033 0.000 
0.000 0.785 0.785 0.687 0.635 0.571 0.525 0.496 0.477 0.467 0.461 0.458 0.458 0.458 0.459 0.462 0.465 0.470 0.476 0.483 0.491 0.500 0.510 0.522 0.534 0.548 0.563 0.579 0.597 0.616 0.637 0.660 0.685 0.712 0.740 0.771 0.804 0.840 0.877 0.917 0.960 1.005 1.053 1.098 1.141 1.180 1.217 1.250 1.281 1.309 1.335 1.357 1.378 1.395 1.411 1.425 1.436 1.446 1.454 1.461 1.466 1.470 1.473 1.476 1.477 1.478 1.478 1.479 1.479 1.478 1.478 1.477 1.476 1.473 1.470 1.466 1.461 1.454 1.446 1.436 1.425 1.412 1.397 1.380 1.361 1.340 1.317 1.291 1.263 1.232 1.199 1.163 1.124 1.082 1.038 0.990 0.940 0.885 0.832 0.782 0.737 0.696 0.659 0.626 0.598 0.574 0.554 0.537 0.524 0.514 0.507 0.502 0.498 0.497 0.496 0.496 0.496 0.497 0.498 0.502 0.507 0.514 0.524 0.537 0.554 0.575 0.601 0.631 0.667 0.708 0.755 0.808 0.867 0.923 0.972 1.015 1.052 1.083 1.108 1.128 1.144 1.155 1.163 1.168 1.171 1.172 1.172 1.172 1.170 1.167 1.161 1.152 1.139 1.120 1.096 1.064 1.025 0.977 0.918 0.846 0.759 0.665 0.590 0.540 0.513 0.568 0.568 0.000 
0.000 0.955 0.955 0.846 0.717 0.612 0.547 0.508 0.484 0.470 0.463 0.459 0.458 0.458 0.458 0.460 0.463 0.467 0.472 0.478 0.486 0.495 0.505 0.516 0.528 0.542 0.557 0.573 0.591 0.611 0.632 0.655 0.680 0.707 0.736 0.767 0.800 0.836 0.874 0.915 0.958 1.003 1.051 1.097 1.139 1.179 1.216 1.250 1.281 1.309 1.334 1.357 1.377 1.395 1.411 1.425 1.436 1.446 1.454 1.461 1.467 1.471 1.474 1.476 1.478 1.479 1.479 1.479 1.479 1.479 1.479 1.478 1.477 1.475 1.472 1.468 1.463 1.457 1.449 1.440 1.429 1.416 1.402 1.386 1.367 1.347 1.324 1.299 1.272 1.242 1.209 1.173 1.135 1.094 1.050 1.002 0.952 0.897 0.843 0.792 0.745 0.703 0.665 0.631 0.602 0.577 0.557 0.539 0.526 0.515 0.508 0.502 0.499 0.497 0.496 0.496 0.496 0.497 0.498 0.502 0.507 0.514 0.524 0.537 0.554 0.575 0.600 0.630 0.666 0.707 0.753 0.806 0.864 0.920 0.970 1.013 1.050 1.081 1.107 1.127 1.143 1.154 1.162 1.167 1.170 1.171 1.172 1.171 1.170 1.167 1.161 1.152 1.139 1.120 1.096 1.065 1.026 0.979 0.921 0.852 0.770 0.679 0.584 0.467 0.271 0.026 0.026 0.000 
0.000 1.004 1.004 0.925 0.742 0.623 0.552 0.510 0.485 0.471 0.463 0.459 0.458 0.457 0.457 0.458 0.460 0.463 0.467 0.473 0.480 0.488 0.498 0.509 0.521 0.535 0.550 0.566 0.584 0.604 0.625 0.649 0.674 0.701 0.730 0.761 0.795 0.831 0.870 0.911 0.954 1.001 1.049 1.095 1.138 1.178 1.215 1.249 1.280 1.308 1.334 1.357 1.377 1.395 1.411 1.424 1.436 1.446 1.454 1.461 1.467 1.471 1.474 1.477 1.478 1.479 1.480 1.480 1.480 1.480 1.480 1.479 1.478 1.476 1.473 1.469 1.465 1.459 1.452 1.443 1.432 1.420 1.407 1.391 1.373 1.354 1.332 1.307 1.281 1.251 1.219 1.184 1.146 1.106 1.062 1.015 0.964 0.910 0.855 0.803 0.755 0.711 0.672 0.637 0.607 0.582 0.560 0.542 0.528 0.517 0.509 0.503 0.500 0.497 0.497 0.496 0.496 0.497 0.499 0.502 0.507 0.514 0.524 0.537 0.554 0.575 0.600 0.630 0.665 0.705 0.752 0.805 0.863 0.919 0.968 1.011 1.049 1.080 1.106 1.126 1.142 1.154 1.162 1.167 1.170 1.171 1.171 1.171 1.170 1.167 1.161 1.152 1.139 1.121 1.097 1.067 1.029 0.983 0.927 0.862 0.786 0.699 0.595 0.457 0.219 0.000 0.000 0.000 
0.000 0.785 0.785 0.875 0.735 0.618 0.549 0.508 0.484 0.470 0.462 0.458 0.456 0.455 0.455 0.455 0.457 0.459 0.462 0.467 0.474 0.481 0.490 0.501 0.513 0.526 0.541 0.558 0.576 0.596 0.617 0.641 0.666 0.693 0.723 0.755 0.789 0.825 0.864 0.906 0.950 0.997 1.046 1.092 1.135 1.176 1.213 1.247 1.279 1.307 1.333 1.356 1.377 1.395 1.411 1.424 1.436 1.446 1.454 1.461 1.467 1.471 1.474 1.477 1.478 1.479 1.480 1.480 1.480 1.480 1.480 1.479 1.478 1.477 1.474 1.471 1.466 1.461 1.454 1.446 1.436 1.424 1.411 1.396 1.379 1.360 1.339 1.315 1.289 1.261 1.229 1.195 1.158 1.118 1.075 1.028 0.978 0.924 0.868 0.814 0.765 0.720 0.680 0.644 0.613 0.587 0.564 0.546 0.531 0.519 0.511 0.505 0.501 0.498 0.497 0.497 0.497 0.498 0.499 0.502 0.507 0.514 0.524 0.537 0.554 0.574 0.600 0.629 0.664 0.705 0.751 0.804 0.861 0.917 0.967 1.010 1.048 1.079 1.105 1.126 1.142 1.154 1.162 1.167 1.170 1.171 1.171 1.171 1.170 1.167 1.161 1.153 1.140 1.122 1.099 1.070 1.034 0.990 0.938 0.878 0.809 0.730 0.633 0.503 0.293 0.000 0.000 0.000 
0.000 0.571 0.571 0.682 0.656 0.587 0.531 0.497 0.477 0.465 0.458 0.454 0.452 0.452 0.452 0.452 0.453 0.454 0.457 0.461 0.467 0.474 0.482 0.492 0.504 0.517 0.532 0.548 0.566 0.586 0.608 0.631 0.657 0.684 0.714 0.747 0.781 0.818 0.858 0.900 0.945 0.993 1.042 1.089 1.132 1.173 1.211 1.245 1.277 1.306 1.332 1.355 1.376 1.394 1.410 1.424 1.436 1.446 1.454 1.461 1.467 1.471 1.474 1.477 1.479 1.480 1.480 1.481 1.481 1.481 1.480 1.480 1.479 1.477 1.475 1.472 1.468 1.462 1.456 1.448 1.439 1.428 1.415 1.400 1.384 1.366 1.345 1.322 1.297 1.270 1.239 1.206 1.170 1.131 1.088 1.042 0.992 0.939 0.882 0.827 0.776 0.730 0.689 0.652 0.620 0.592 0.569 0.550 0.534 0.522 0.513 0.507 0.502 0.500 0.499 0.498 0.498 0.499 0.500 0.503 0.508 0.515 0.524 0.537 0.554 0.575 0.600 0.629 0.664 0.705 0.751 0.803 0.861 0.917 0.966 1.010 1.047 1.079 1.105 1.126 1.142 1.154 1.162 1.167 1.170 1.171 1.172 1.171 1.170 1.167 1.162 1.154 1.141 1.125 1.103 1.075 1.040 0.999 0.952 0.898 0.841 0.780 0.716 0.652 0.585 0.520 0.520 0.000 
0.000 0.366 0.366 0.472 0.500 0.505 0.487 0.471 0.460 0.453 0.450 0.448 0.447 0.446 0.447 0.447 0.448 0.449 0.452 0.455 0.460 0.466 0.473 0.482 0.493 0.506 0.520 0.537 0.555 0.574 0.596 0.620 0.646 0.674 0.704 0.737 0.772 0.810 0.850 0.893 0.939 0.987 1.037 1.084 1.129 1.170 1.208 1.243 1.275 1.304 1.330 1.354 1.375 1.393 1.409 1.423 1.435 1.445 1.454 1.461 1.467 1.471 1.474 1.477 1.479 1.480 1.480 1.481 1.481 1.481 1.481 1.480 1.479 1.478 1.476 1.473 1.469 1.464 1.458 1.450 1.441 1.431 1.418 1.405 1.389 1.371 1.351 1.329 1.305 1.278 1.249 1.217 1.182 1.143 1.102 1.056 1.007 0.954 0.897 0.841 0.789 0.741 0.699 0.661 0.627 0.599 0.575 0.554 0.538 0.526 0.516 0.509 0.505 0.502 0.501 0.500 0.500 0.500 0.502 0.504 0.509 0.516 0.525 0.538 0.554 0.575 0.600 0.629 0.664 0.705 0.751 0.803 0.860 0.916 0.966 1.009 1.047 1.078 1.105 1.125 1.142 1.154 1.162 1.167 1.170 1.172 1.172 1.172 1.171 1.168 1.163 1.155 1.144 1.128 1.108 1.081 1.049 1.011 0.968 0.924 0.884 0.853 0.836 0.835 0.882 1.054 1.054 0.000 
0.000 0.213 0.213 0.303 0.369 0.405 0.423 0.431 0.434 0.436 0.437 0.438 0.438 0.439 0.440 0.441 0.442 0.443 0.445 0.448 0.452 0.457 0.464 0.472 0.482 0.494 0.508 0.524 0.542 0.562 0.583 0.607 0.633 0.662 0.692 0.726 0.761 0.799 0.840 0.884 0.931 0.981 1.031 1.079 1.124 1.166 1.204 1.240 1.272 1.302 1.328 1.352 1.373 1.392 1.408 1.422 1.435 1.445 1.454 1.461 1.466 1.471 1.474 1.477 1.479 1.480 1.480 1.481 1.481 1.481 1.481 1.480 1.479 1.478 1.476 1.473 1.470 1.465 1.459 1.452 1.443 1.433 1.422 1.408 1.393 1.376 1.357 1.336 1.312 1.286 1.258 1.227 1.193 1.155 1.115 1.071 1.022 0.970 0.913 0.856 0.802 0.753 0.709 0.670 0.636 0.606 0.581 0.560 0.543 0.530 0.520 0.512 0.507 0.504 0.503 0.502 0.502 0.503 0.504 0.506 0.511 0.517 0.527 0.539 0.555 0.575 0.600 0.630 0.664 0.705 0.751 0.803 0.860 0.916 0.966 1.009 1.047 1.078 1.105 1.125 1.142 1.154 1.162 1.168 1.171 1.173 1.173 1.173 1.172 1.170 1.165 1.158 1.148 1.133 1.114 1.090 1.060 1.025 0.987 0.957 0.936 0.925 0.924 0.936 0.985 1.054 1.054 0.000 
0.000 0.154 0.154 0.207 0.282 0.342 0.380 0.402 0.414 0.421 0.426 0.428 0.430 0.432 0.433 0.434 0.436 0.437 0.439 0.441 0.445 0.449 0.455 0.462 0.471 0.482 0.495 0.510 0.528 0.547 0.569 0.593 0.619 0.648 0.679 0.713 0.749 0.788 0.830 0.874 0.922 0.973 1.024 1.073 1.118 1.161 1.200 1.236 1.269 1.299 1.326 1.350 1.371 1.390 1.407 1.421 1.434 1.444 1.453 1.460 1.466 1.471 1.474 1.477 1.479 1.480 1.480 1.481 1.481 1.481 1.481 1.480 1.480 1.478 1.476 1.474 1.470 1.466 1.460 1.453 1.445 1.436 1.424 1.412 1.397 1.381 1.362 1.342 1.319 1.294 1.267 1.236 1.203 1.167 1.128 1.084 1.038 0.986 0.931 0.872 0.817 0.766 0.721 0.680 0.645 0.614 0.588 0.566 0.549 0.535 0.524 0.516 0.511 0.508 0.506 0.505 0.505 0.506 0.507 0.509 0.513 0.519 0.528 0.541 0.557 0.576 0.601 0.630 0.665 0.705 0.751 0.803 0.860 0.916 0.966 1.009 1.047 1.078 1.105 1.126 1.142 1.154 1.163 1.169 1.172 1.174 1.175 1.174 1.174 1.172 1.168 1.162 1.152 1.139 1.122 1.100 1.072 1.040 1.010 0.990 0.978 0.975 0.976 0.987 1.019 1.051 1.051 0.000 
0.000 0.096 0.096 0.147 0.233 0.312 0.360 0.388 0.404 0.413 0.419 0.422 0.424 0.426 0.428 0.429 0.430 0.432 0.433 0.435 0.438 0.442 0.447 0.453 0.461 0.471 0.483 0.497 0.513 0.532 0.553 0.577 0.603 0.632 0.664 0.698 0.735 0.774 0.817 0.863 0.911 0.963 1.016 1.066 1.112 1.155 1.195 1.231 1.265 1.295 1.322 1.347 1.369 1.388 1.405 1.420 1.432 1.443 1.452 1.460 1.466 1.470 1.474 1.477 1.478 1.480 1.480 1.481 1.481 1.481 1.481 1.480 1.480 1.478 1.477 1.474 1.471 1.466 1.461 1.455 1.447 1.438 1.427 1.415 1.401 1.385 1.367 1.347 1.325 1.301 1.274 1.245 1.213 1.178 1.140 1.098 1.052 1.002 0.948 0.889 0.832 0.780 0.733 0.692 0.655 0.623 0.596 0.574 0.555 0.541 0.529 0.521 0.516 0.512 0.510 0.509 0.509 0.509 0.510 0.512 0.516 0.522 0.531 0.543 0.559 0.578 0.602 0.631 0.666 0.705 0.751 0.803 0.860 0.916 0.966 1.009 1.047 1.079 1.105 1.126 1.143 1.155 1.164 1.170 1.174 1.176 1.177 1.177 1.176 1.175 1.172 1.166 1.158 1.147 1.132 1.112 1.087 1.058 1.033 1.017 1.008 1.006 1.007 1.014 1.032 1.048 1.048 0.000 
0.000 0.036 0.036 0.099 0.220 0.305 0.354 0.383 0.400 0.410 0.416 0.419 0.421 0.422 0.424 0.425 0.426 0.427 0.428 0.430 0.432 0.436 0.440 0.445 0.452 0.461 0.472 0.485 0.500 0.517 0.537 0.560 0.586 0.615 0.647 0.681 0.719 0.759 0.803 0.849 0.900 0.953 1.007 1.057 1.104 1.148 1.189 1.226 1.260 1.291 1.319 1.344 1.366 1.386 1.403 1.418 1.431 1.442 1.451 1.459 1.465 1.470 1.473 1.476 1.478 1.479 1.480 1.481 1.481 1.481 1.481 1.480 1.480 1.478 1.477 1.474 1.471 1.467 1.462 1.455 1.448 1.439 1.429 1.417 1.404 1.388 1.371 1.352 1.331 1.308 1.282 1.253 1.222 1.188 1.151 1.110 1.066 1.017 0.965 0.907 0.849 0.795 0.747 0.704 0.666 0.633 0.605 0.582 0.563 0.547 0.536 0.527 0.521 0.517 0.515 0.514 0.514 0.514 0.515 0.517 0.520 0.526 0.534 0.546 0.561 0.581 0.604 0.633 0.667 0.707 0.752 0.803 0.861 0.917 0.966 1.010 1.047 1.079 1.105 1.127 1.144 1.156 1.166 1.172 1.176 1.179 1.180 1.180 1.179 1.178 1.176 1.172 1.165 1.156 1.143 1.125 1.103 1.077 1.054 1.039 1.029 1.026 1.026 1.029 1.038 1.046 1.046 0.000 
0.000 0.134 0.134 0.117 0.236 0.309 0.354 0.383 0.400 0.410 0.415 0.418 0.419 0.420 0.421 0.421 0.422 0.423 0.424 0.425 0.427 0.430 0.433 0.438 0.444 0.452 0.462 0.473 0.487 0.504 0.523 0.545 0.569 0.597 0.628 0.663 0.701 0.742 0.787 0.835 0.886 0.941 0.996 1.047 1.096 1.140 1.182 1.220 1.254 1.286 1.314 1.340 1.363 1.383 1.400 1.416 1.429 1.440 1.450 1.457 1.464 1.469 1.473 1.476 1.478 1.479 1.480 1.480 1.481 1.481 1.480 1.480 1.479 1.478 1.477 1.474 1.471 1.467 1.462 1.456 1.449 1.441 1.431 1.419 1.406 1.392 1.375 1.357 1.336 1.314 1.288 1.261 1.231 1.198 1.161 1.122 1.079 1.032 0.981 0.925 0.866 0.811 0.761 0.717 0.678 0.644 0.615 0.591 0.571 0.555 0.543 0.533 0.527 0.523 0.520 0.519 0.519 0.519 0.520 0.522 0.525 0.531 0.539 0.550 0.565 0.584 0.607 0.636 0.669 0.708 0.753 0.804 0.861 0.917 0.967 1.010 1.048 1.080 1.106 1.128 1.145 1.158 1.168 1.175 1.179 1.182 1.183 1.184 1.183 1.183 1.181 1.178 1.173 1.164 1.153 1.138 1.119 1.095 1.073 1.056 1.045 1.039 1.036 1.037 1.040 1.043 1.043 0.000 
0.000 0.471 0.471 0.300 0.308 0.331 0.361 0.386 0.402 0.411 0.416 0.418 0.419 0.419 0.419 0.419 0.419 0.419 0.420 0.421 0.422 0.424 0.427 0.431 0.437 0.444 0.453 0.463 0.476 0.492 0.510 0.531 0.554 0.581 0.612 0.646 0.683 0.724 0.769 0.818 0.871 0.927 0.984 1.037 1.086 1.132 1.174 1.213 1.248 1.281 1.310 1.336 1.359 1.379 1.397 1.413 1.427 1.438 1.448 1.456 1.463 1.468 1.472 1.475 1.477 1.479 1.480 1.480 1.480 1.480 1.480 1.480 1.479 1.478 1.477 1.474 1.471 1.467 1.463 1.457 1.450 1.442 1.432 1.421 1.409 1.394 1.378 1.361 1.341 1.319 1.295 1.268 1.239 1.206 1.171 1.133 1.091 1.045 0.995 0.941 0.883 0.827 0.776 0.731 0.691 0.656 0.626 0.601 0.580 0.563 0.551 0.541 0.534 0.530 0.527 0.526 0.525 0.526 0.526 0.528 0.531 0.536 0.544 0.555 0.570 0.588 0.611 0.639 0.672 0.711 0.756 0.806 0.863 0.918 0.968 1.011 1.049 1.081 1.107 1.129 1.147 1.160 1.171 1.178 1.183 1.186 1.187 1.188 1.188 1.188 1.186 1.184 1.179 1.172 1.161 1.148 1.131 1.110 1.088 1.070 1.057 1.048 1.042 1.040 1.040 1.041 1.041 0.000 
0.000 0.524 0.524 0.443 0.369 0.365 0.378 0.396 0.408 0.415 0.418 0.419 0.419 0.418 0.417 0.416 0.416 0.416 0.417 0.417 0.418 0.420 0.422 0.426 0.430 0.436 0.444 0.454 0.466 0.481 0.498 0.518 0.541 0.567 0.597 0.630 0.667 0.708 0.753 0.802 0.855 0.912 0.970 1.025 1.075 1.122 1.166 1.205 1.242 1.274 1.304 1.331 1.355 1.376 1.394 1.410 1.424 1.436 1.446 1.454 1.461 1.467 1.471 1.474 1.476 1.478 1.479 1.479 1.480 1.480 1.480 1.479 1.479 1.478 1.476 1.474 1.471 1.467 1.463 1.457 1.450 1.442 1.433 1.423 1.410 1.397 1.381 1.364 1.345 1.324 1.300 1.274 1.246 1.214 1.180 1.143 1.102 1.058 1.009 0.957 0.900 0.843 0.792 0.745 0.704 0.668 0.638 0.612 0.590 0.573 0.560 0.549 0.542 0.537 0.535 0.533 0.533 0.533 0.533 0.535 0.538 0.543 0.550 0.561 0.575 0.593 0.616 0.643 0.676 0.714 0.759 0.809 0.865 0.920 0.970 1.013 1.050 1.082 1.109 1.131 1.149 1.163 1.174 1.182 1.187 1.190 1.192 1.192 1.192 1.192 1.191 1.188 1.184 1.177 1.168 1.156 1.140 1.121 1.100 1.081 1.066 1.055 1.047 1.042 1.039 1.038 1.038 0.000 
0.000 0.187 0.187 0.360 0.382 0.397 0.407 0.416 0.422 0.424 0.424 0.422 0.420 0.418 0.416 0.415 0.414 0.414 0.414 0.414 0.414 0.416 0.417 0.420 0.424 0.430 0.437 0.446 0.457 0.471 0.487 0.506 0.528 0.554 0.583 0.616 0.653 0.694 0.739 0.788 0.841 0.897 0.956 1.012 1.064 1.112 1.156 1.197 1.234 1.268 1.298 1.326 1.350 1.372 1.390 1.407 1.421 1.433 1.444 1.452 1.459 1.465 1.469 1.473 1.475 1.477 1.478 1.479 1.479 1.479 1.479 1.479 1.478 1.477 1.476 1.474 1.471 1.467 1.463 1.457 1.451 1.443 1.434 1.424 1.412 1.399 1.384 1.367 1.348 1.328 1.305 1.280 1.252 1.222 1.188 1.152 1.112 1.069 1.022 0.970 0.915 0.859 0.807 0.760 0.718 0.681 0.650 0.623 0.601 0.583 0.569 0.559 0.551 0.546 0.543 0.542 0.541 0.541 0.542 0.543 0.546 0.551 0.558 0.568 0.582 0.600 0.622 0.649 0.681 0.719 0.763 0.812 0.868 0.923 0.972 1.015 1.053 1.085 1.112 1.134 1.152 1.167 1.177 1.185 1.191 1.194 1.195 1.196 1.196 1.196 1.195 1.192 1.188 1.181 1.173 1.161 1.146 1.129 1.110 1.091 1.075 1.061 1.050 1.042 1.038 1.035 1.035 0.000 
0.000 0.200 0.200 0.268 0.398 0.435 0.445 0.447 0.445 0.439 0.433 0.428 0.423 0.419 0.416 0.413 0.412 0.411 0.411 0.411 0.411 0.412 0.413 0.415 0.419 0.424 0.430 0.439 0.449 0.462 0.477 0.496 0.518 0.543 0.572 0.604 0.641 0.681 0.726 0.775 0.827 0.884 0.944 1.000 1.053 1.102 1.147 1.188 1.226 1.261 1.292 1.320 1.345 1.367 1.386 1.403 1.418 1.430 1.441 1.450 1.457 1.463 1.468 1.471 1.474 1.476 1.477 1.478 1.478 1.478 1.478 1.478 1.478 1.477 1.475 1.473 1.471 1.467 1.463 1.457 1.451 1.443 1.435 1.425 1.413 1.400 1.386 1.370 1.351 1.331 1.309 1.285 1.258 1.228 1.196 1.160 1.122 1.079 1.033 0.983 0.929 0.873 0.822 0.775 0.733 0.695 0.663 0.636 0.613 0.595 0.580 0.570 0.562 0.556 0.553 0.552 0.551 0.551 0.551 0.552 0.555 0.560 0.567 0.577 0.590 0.607 0.629 0.656 0.687 0.725 0.768 0.817 0.872 0.927 0.976 1.019 1.056 1.088 1.115 1.138 1.156 1.170 1.181 1.189 1.194 1.197 1.198 1.199 1.199 1.199 1.197 1.195 1.191 1.184 1.176 1.164 1.150 1.134 1.116 1.098 1.082 1.067 1.054 1.043 1.036 1.033 1.033 0.000 
0.000 0.650 0.650 0.420 0.478 0.499 0.499 0.490 0.476 0.460 0.447 0.436 0.427 0.420 0.415 0.412 0.410 0.408 0.408 0.408 0.408 0.408 0.409 0.411 0.414 0.418 0.424 0.432 0.442 0.454 0.469 0.487 0.508 0.533 0.561 0.594 0.630 0.670 0.715 0.763 0.816 0.872 0.932 0.989 1.043 1.092 1.138 1.180 1.219 1.254 1.286 1.314 1.340 1.362 1.382 1.399 1.414 1.427 1.438 1.447 1.455 1.461 1.466 1.470 1.472 1.474 1.476 1.477 1.477 1.477 1.477 1.477 1.477 1.476 1.475 1.473 1.470 1.467 1.463 1.457 1.451 1.444 1.435 1.425 1.414 1.402 1.387 1.372 1.354 1.334 1.313 1.289 1.263 1.234 1.202 1.168 1.130 1.089 1.044 0.995 0.942 0.887 0.835 0.788 0.746 0.709 0.677 0.649 0.626 0.607 0.593 0.581 0.573 0.568 0.564 0.562 0.562 0.562 0.562 0.563 0.566 0.570 0.577 0.586 0.599 0.616 0.638 0.664 0.695 0.732 0.774 0.822 0.877 0.931 0.980 1.023 1.060 1.092 1.119 1.142 1.160 1.174 1.184 1.192 1.196 1.199 1.201 1.201 1.201 1.201 1.200 1.197 1.193 1.186 1.177 1.166 1.152 1.136 1.119 1.103 1.088 1.073 1.058 1.045 1.035 1.030 1.030 0.000 
0.000 0.925 0.925 0.761 0.657 0.603 0.565 0.531 0.502 0.477 0.458 0.443 0.431 0.422 0.415 0.410 0.407 0.406 0.405 0.404 0.404 0.405 0.405 0.407 0.410 0.413 0.419 0.426 0.435 0.447 0.462 0.479 0.500 0.525 0.553 0.585 0.621 0.661 0.705 0.753 0.805 0.861 0.921 0.979 1.033 1.084 1.130 1.173 1.212 1.247 1.279 1.308 1.334 1.357 1.378 1.395 1.411 1.424 1.435 1.445 1.452 1.459 1.464 1.468 1.471 1.473 1.474 1.475 1.476 1.476 1.476 1.476 1.475 1.475 1.474 1.472 1.470 1.466 1.462 1.457 1.451 1.444 1.435 1.426 1.415 1.403 1.389 1.373 1.356 1.337 1.316 1.293 1.267 1.239 1.208 1.175 1.138 1.097 1.054 1.006 0.954 0.899 0.848 0.801 0.760 0.723 0.690 0.663 0.640 0.621 0.606 0.594 0.586 0.580 0.576 0.574 0.574 0.574 0.574 0.575 0.577 0.581 0.588 0.597 0.610 0.627 0.648 0.673 0.704 0.740 0.782 0.830 0.883 0.937 0.986 1.028 1.065 1.097 1.124 1.146 1.163 1.177 1.187 1.194 1.198 1.201 1.203 1.203 1.203 1.202 1.201 1.198 1.194 1.187 1.178 1.167 1.152 1.136 1.120 1.106 1.093 1.079 1.065 1.050 1.036 1.028 1.028 0.000 
0.000 0.999 0.999 0.923 0.782 0.679 0.609 0.558 0.519 0.489 0.465 0.447 0.433 0.422 0.415 0.409 0.405 0.403 0.402 0.401 0.401 0.401 0.402 0.403 0.405 0.409 0.414 0.421 0.430 0.441 0.455 0.473 0.493 0.518 0.546 0.577 0.613 0.653 0.696 0.744 0.795 0.851 0.911 0.970 1.025 1.076 1.123 1.166 1.205 1.241 1.274 1.303 1.329 1.352 1.373 1.391 1.407 1.420 1.432 1.441 1.449 1.456 1.461 1.465 1.469 1.471 1.472 1.473 1.474 1.474 1.474 1.474 1.474 1.473 1.472 1.471 1.469 1.466 1.462 1.457 1.451 1.444 1.435 1.426 1.415 1.403 1.390 1.375 1.358 1.339 1.319 1.296 1.271 1.244 1.214 1.181 1.145 1.105 1.062 1.016 0.965 0.911 0.860 0.813 0.772 0.735 0.703 0.676 0.653 0.634 0.619 0.608 0.599 0.593 0.590 0.588 0.587 0.587 0.587 0.588 0.590 0.594 0.601 0.610 0.622 0.638 0.659 0.684 0.714 0.750 0.791 0.838 0.891 0.945 0.993 1.035 1.071 1.103 1.128 1.150 1.166 1.179 1.189 1.196 1.200 1.203 1.204 1.204 1.204 1.204 1.202 1.199 1.195 1.188 1.179 1.167 1.152 1.136 1.120 1.107 1.096 1.085 1.074 1.060 1.045 1.030 1.030 0.000 
0.000 0.994 0.994 0.960 0.830 0.712 0.631 0.572 0.528 0.495 0.469 0.449 0.434 0.422 0.414 0.408 0.403 0.401 0.399 0.398 0.398 0.398 0.399 0.400 0.402 0.405 0.409 0.416 0.425 0.436 0.450 0.467 0.488 0.512 0.540 0.571 0.606 0.645 0.688 0.735 0.787 0.842 0.901 0.961 1.016 1.068 1.115 1.159 1.199 1.235 1.268 1.297 1.324 1.348 1.368 1.387 1.403 1.416 1.428 1.438 1.446 1.453 1.459 1.463 1.466 1.469 1.470 1.471 1.472 1.472 1.472 1.472 1.472 1.472 1.471 1.469 1.467 1.465 1.461 1.456 1.450 1.443 1.435 1.426 1.416 1.404 1.390 1.376 1.359 1.341 1.321 1.299 1.275 1.248 1.218 1.186 1.151 1.112 1.070 1.024 0.975 0.921 0.870 0.824 0.783 0.747 0.715 0.688 0.665 0.646 0.631 0.620 0.612 0.606 0.602 0.600 0.600 0.600 0.600 0.601 0.603 0.607 0.613 0.622 0.635 0.651 0.671 0.696 0.726 0.761 0.802 0.848 0.901 0.953 1.000 1.041 1.077 1.107 1.132 1.153 1.169 1.181 1.191 1.197 1.201 1.203 1.205 1.205 1.205 1.204 1.203 1.200 1.195 1.188 1.179 1.167 1.152 1.134 1.119 1.107 1.097 1.090 1.084 1.075 1.067 1.064 1.064 0.000 
0.000 0.908 0.908 0.935 0.837 0.721 0.638 0.577 0.532 0.497 0.470 0.450 0.434 0.422 0.413 0.406 0.401 0.398 0.396 0.395 0.395 0.395 0.395 0.396 0.398 0.401 0.405 0.412 0.420 0.432 0.446 0.463 0.484 0.508 0.535 0.566 0.601 0.639 0.682 0.728 0.779 0.834 0.893 0.953 1.009 1.061 1.109 1.153 1.193 1.229 1.262 1.292 1.319 1.343 1.364 1.382 1.399 1.413 1.425 1.435 1.443 1.450 1.456 1.460 1.464 1.466 1.468 1.469 1.470 1.470 1.470 1.470 1.470 1.470 1.469 1.468 1.466 1.463 1.460 1.455 1.450 1.443 1.435 1.426 1.416 1.404 1.391 1.376 1.360 1.343 1.323 1.301 1.277 1.251 1.222 1.191 1.156 1.119 1.078 1.033 0.984 0.931 0.881 0.835 0.793 0.757 0.725 0.698 0.676 0.657 0.643 0.631 0.623 0.617 0.614 0.612 0.611 0.611 0.611 0.612 0.615 0.619 0.625 0.634 0.646 0.662 0.682 0.707 0.737 0.771 0.812 0.858 0.909 0.961 1.007 1.047 1.082 1.111 1.135 1.155 1.171 1.183 1.192 1.198 1.202 1.204 1.205 1.205 1.205 1.204 1.203 1.200 1.195 1.188 1.178 1.166 1.150 1.132 1.116 1.105 1.097 1.092 1.091 1.091 1.095 1.098 1.098 0.000 
0.000 0.809 0.809 0.853 0.808 0.718 0.637 0.578 0.532 0.497 0.470 0.450 0.433 0.421 0.411 0.404 0.399 0.395 0.393 0.392 0.392 0.392 0.392 0.393 0.394 0.397 0.402 0.408 0.417 0.428 0.443 0.460 0.480 0.504 0.531 0.562 0.596 0.634 0.676 0.722 0.772 0.826 0.885 0.945 1.002 1.054 1.102 1.147 1.187 1.224 1.257 1.287 1.314 1.338 1.359 1.378 1.394 1.409 1.421 1.431 1.440 1.447 1.453 1.457 1.461 1.463 1.465 1.467 1.467 1.468 1.468 1.468 1.468 1.467 1.467 1.466 1.464 1.461 1.458 1.454 1.449 1.442 1.435 1.426 1.416 1.404 1.391 1.377 1.361 1.344 1.324 1.303 1.280 1.254 1.226 1.195 1.162 1.125 1.084 1.040 0.992 0.940 0.890 0.844 0.803 0.767 0.735 0.708 0.686 0.667 0.653 0.641 0.633 0.628 0.624 0.622 0.621 0.621 0.622 0.623 0.625 0.629 0.635 0.644 0.656 0.672 0.692 0.716 0.746 0.780 0.820 0.866 0.917 0.967 1.012 1.051 1.085 1.114 1.138 1.157 1.172 1.184 1.192 1.198 1.202 1.204 1.205 1.205 1.205 1.205 1.203 1.200 1.195 1.187 1.177 1.164 1.148 1.128 1.112 1.101 1.094 1.092 1.092 1.099 1.115 1.123 1.123 0.000 
0.000 0.698 0.698 0.752 0.736 0.691 0.630 0.574 0.531 0.497 0.470 0.448 0.432 0.419 0.409 0.401 0.396 0.392 0.390 0.389 0.389 0.388 0.389 0.389 0.391 0.394 0.399 0.405 0.414 0.426 0.440 0.458 0.478 0.501 0.528 0.558 0.592 0.629 0.671 0.716 0.766 0.819 0.878 0.938 0.995 1.048 1.096 1.141 1.182 1.219 1.252 1.282 1.309 1.333 1.355 1.374 1.390 1.404 1.417 1.427 1.436 1.443 1.449 1.454 1.458 1.460 1.462 1.464 1.465 1.465 1.465 1.465 1.465 1.465 1.464 1.463 1.462 1.459 1.456 1.452 1.447 1.441 1.434 1.425 1.415 1.404 1.391 1.377 1.362 1.345 1.326 1.305 1.282 1.257 1.229 1.199 1.166 1.130 1.090 1.047 1.000 0.949 0.898 0.853 0.812 0.776 0.744 0.717 0.695 0.676 0.662 0.650 0.642 0.637 0.633 0.631 0.630 0.630 0.631 0.631 0.634 0.638 0.644 0.653 0.665 0.680 0.700 0.724 0.753 0.788 0.827 0.872 0.923 0.973 1.017 1.055 1.088 1.116 1.139 1.158 1.173 1.184 1.193 1.199 1.202 1.204 1.205 1.205 1.205 1.205 1.203 1.199 1.194 1.187 1.176 1.162 1.145 1.124 1.106 1.094 1.089 1.088 1.090 1.099 1.125 1.146 1.146 0.000 
0.000 0.594 0.594 0.644 0.641 0.631 0.605 0.565 0.526 0.493 0.467 0.446 0.429 0.416 0.405 0.398 0.393 0.389 0.387 0.386 0.385 0.385 0.385 0.386 0.388 0.391 0.396 0.403 0.412 0.424 0.439 0.456 0.476 0.499 0.525 0.555 0.588 0.625 0.666 0.711 0.760 0.813 0.871 0.931 0.988 1.041 1.090 1.135 1.176 1.213 1.247 1.277 1.304 1.329 1.350 1.369 1.386 1.400 1.413 1.423 1.432 1.440 1.446 1.451 1.454 1.457 1.459 1.461 1.461 1.462 1.462 1.462 1.462 1.462 1.461 1.460 1.459 1.457 1.454 1.450 1.446 1.440 1.433 1.425 1.415 1.404 1.391 1.377 1.362 1.345 1.327 1.306 1.284 1.259 1.232 1.202 1.170 1.134 1.096 1.053 1.007 0.956 0.906 0.861 0.820 0.784 0.752 0.725 0.703 0.684 0.670 0.658 0.650 0.644 0.641 0.639 0.638 0.638 0.638 0.639 0.641 0.645 0.651 0.660 0.672 0.687 0.707 0.731 0.760 0.794 0.833 0.878 0.928 0.977 1.020 1.058 1.090 1.118 1.140 1.159 1.174 1.185 1.193 1.199 1.202 1.204 1.205 1.205 1.205 1.204 1.202 1.199 1.193 1.185 1.174 1.159 1.141 1.118 1.098 1.084 1.077 1.075 1.078 1.091 1.124 1.154 1.154 0.000 
0.000 0.494 0.494 0.545 0.557 0.562 0.558 0.543 0.515 0.486 0.461 0.441 0.424 0.411 0.401 0.394 0.389 0.385 0.383 0.382 0.382 0.382 0.382 0.383 0.385 0.388 0.394 0.401 0.411 0.423 0.438 0.455 0.475 0.497 0.523 0.552 0.585 0.622 0.662 0.706 0.755 0.807 0.864 0.925 0.982 1.035 1.084 1.130 1.171 1.208 1.242 1.272 1.300 1.324 1.346 1.365 1.382 1.396 1.409 1.419 1.428 1.436 1.442 1.447 1.451 1.454 1.456 1.457 1.458 1.459 1.459 1.459 1.459 1.459 1.458 1.457 1.456 1.454 1.452 1.448 1.444 1.438 1.431 1.423 1.414 1.403 1.391 1.377 1.362 1.346 1.327 1.307 1.285 1.261 1.234 1.205 1.174 1.139 1.100 1.059 1.013 0.964 0.914 0.868 0.827 0.791 0.759 0.732 0.710 0.691 0.677 0.665 0.657 0.651 0.647 0.645 0.645 0.644 0.645 0.646 0.648 0.651 0.657 0.666 0.678 0.693 0.712 0.736 0.765 0.798 0.837 0.882 0.931 0.979 1.022 1.059 1.092 1.119 1.141 1.159 1.174 1.185 1.193 1.199 1.202 1.204 1.205 1.205 1.205 1.204 1.202 1.198 1.192 1.183 1.171 1.156 1.136 1.113 1.089 1.070 1.056 1.050 1.050 1.064 1.106 1.158 1.158 0.000 
0.000 0.436 0.436 0.473 0.496 0.506 0.508 0.506 0.495 0.475 0.453 0.434 0.418 0.406 0.396 0.389 0.384 0.381 0.379 0.379 0.378 0.378 0.379 0.380 0.382 0.386 0.393 0.401 0.411 0.423 0.437 0.454 0.474 0.496 0.521 0.550 0.582 0.618 0.658 0.702 0.750 0.802 0.858 0.918 0.976 1.029 1.079 1.124 1.165 1.203 1.237 1.268 1.295 1.319 1.341 1.360 1.377 1.392 1.404 1.415 1.424 1.432 1.438 1.443 1.447 1.450 1.452 1.453 1.454 1.455 1.455 1.455 1.455 1.455 1.455 1.454 1.453 1.451 1.449 1.445 1.441 1.436 1.429 1.422 1.413 1.402 1.391 1.377 1.362 1.346 1.328 1.308 1.286 1.262 1.236 1.208 1.177 1.142 1.105 1.064 1.019 0.970 0.921 0.875 0.834 0.798 0.766 0.739 0.716 0.697 0.683 0.671 0.663 0.657 0.653 0.651 0.650 0.650 0.650 0.651 0.653 0.657 0.662 0.671 0.682 0.697 0.717 0.740 0.768 0.802 0.840 0.884 0.934 0.981 1.024 1.061 1.092 1.119 1.142 1.160 1.174 1.185 1.193 1.198 1.202 1.204 1.204 1.204 1.204 1.203 1.201 1.197 1.190 1.181 1.168 1.152 1.131 1.107 1.079 1.052 1.026 1.004 0.993 1.001 1.045 1.142 1.142 0.000 
0.000 0.410 0.410 0.432 0.452 0.461 0.465 0.466 0.464 0.456 0.440 0.424 0.409 0.398 0.390 0.384 0.379 0.377 0.375 0.374 0.374 0.374 0.375 0.377 0.380 0.385 0.392 0.400 0.410 0.423 0.437 0.454 0.473 0.495 0.520 0.548 0.580 0.616 0.655 0.698 0.745 0.797 0.853 0.912 0.970 1.024 1.073 1.119 1.160 1.198 1.232 1.263 1.290 1.315 1.337 1.356 1.373 1.387 1.400 1.411 1.420 1.427 1.434 1.439 1.443 1.446 1.448 1.449 1.450 1.451 1.451 1.451 1.451 1.451 1.451 1.450 1.449 1.447 1.445 1.442 1.438 1.433 1.427 1.420 1.411 1.401 1.390 1.377 1.362 1.346 1.328 1.308 1.287 1.264 1.238 1.210 1.180 1.146 1.109 1.069 1.025 0.977 0.927 0.881 0.840 0.804 0.772 0.745 0.722 0.703 0.688 0.676 0.667 0.661 0.657 0.655 0.654 0.654 0.654 0.655 0.657 0.661 0.666 0.675 0.686 0.701 0.720 0.743 0.771 0.804 0.843 0.886 0.935 0.983 1.025 1.061 1.093 1.120 1.142 1.160 1.174 1.185 1.193 1.198 1.201 1.203 1.203 1.204 1.203 1.202 1.199 1.195 1.188 1.178 1.164 1.147 1.125 1.098 1.067 1.032 0.993 0.950 0.908 0.875 0.879 1.006 1.006 0.000 
0.000 0.384 0.384 0.402 0.416 0.424 0.428 0.429 0.430 0.428 0.422 0.410 0.398 0.389 0.382 0.377 0.373 0.371 0.370 0.370 0.370 0.371 0.372 0.375 0.379 0.384 0.391 0.400 0.410 0.423 0.437 0.453 0.472 0.494 0.519 0.547 0.578 0.613 0.652 0.694 0.741 0.792 0.847 0.906 0.964 1.018 1.068 1.113 1.155 1.193 1.227 1.258 1.285 1.310 1.332 1.351 1.368 1.383 1.395 1.406 1.415 1.423 1.429 1.434 1.438 1.441 1.443 1.445 1.446 1.447 1.447 1.447 1.447 1.447 1.447 1.446 1.445 1.444 1.441 1.438 1.435 1.430 1.424 1.417 1.409 1.399 1.388 1.376 1.361 1.346 1.328 1.309 1.288 1.265 1.240 1.212 1.182 1.149 1.113 1.073 1.030 0.983 0.933 0.887 0.846 0.809 0.777 0.750 0.726 0.707 0.692 0.680 0.671 0.665 0.661 0.659 0.658 0.658 0.658 0.658 0.660 0.664 0.669 0.677 0.689 0.703 0.722 0.745 0.773 0.806 0.844 0.887 0.936 0.983 1.025 1.062 1.093 1.120 1.142 1.160 1.174 1.184 1.192 1.197 1.200 1.202 1.202 1.202 1.202 1.200 1.197 1.192 1.185 1.174 1.159 1.140 1.117 1.087 1.052 1.011 0.966 0.914 0.853 0.767 0.602 0.435 0.435 0.000 
0.000 0.358 0.358 0.374 0.384 0.390 0.394 0.396 0.397 0.398 0.397 0.392 0.384 0.377 0.372 0.369 0.366 0.365 0.365 0.365 0.366 0.367 0.370 0.373 0.378 0.384 0.391 0.400 0.410 0.423 0.437 0.453 0.472 0.494 0.518 0.545 0.576 0.611 0.649 0.691 0.737 0.787 0.842 0.900 0.958 1.012 1.062 1.108 1.149 1.187 1.222 1.253 1.281 1.305 1.327 1.346 1.363 1.378 1.391 1.401 1.410 1.418 1.424 1.429 1.433 1.436 1.439 1.440 1.441 1.442 1.442 1.443 1.443 1.443 1.442 1.442 1.441 1.439 1.437 1.434 1.431 1.426 1.421 1.414 1.406 1.397 1.386 1.374 1.360 1.345 1.328 1.309 1.288 1.266 1.241 1.214 1.184 1.152 1.116 1.077 1.035 0.988 0.939 0.893 0.851 0.814 0.782 0.754 0.730 0.711 0.695 0.683 0.674 0.668 0.664 0.661 0.660 0.660 0.660 0.661 0.663 0.666 0.671 0.679 0.690 0.705 0.724 0.746 0.774 0.807 0.845 0.888 0.937 0.984 1.025 1.062 1.093 1.119 1.141 1.159 1.173 1.183 1.191 1.196 1.198 1.200 1.200 1.200 1.200 1.198 1.195 1.189 1.181 1.169 1.153 1.133 1.107 1.075 1.036 0.992 0.943 0.892 0.836 0.749 0.549 0.132 0.132 0.000 
0.000 0.332 0.332 0.347 0.354 0.359 0.363 0.366 0.367 0.369 0.369 0.369 0.367 0.363 0.361 0.359 0.358 0.358 0.359 0.360 0.362 0.364 0.368 0.372 0.377 0.384 0.391 0.400 0.411 0.423 0.437 0.453 0.472 0.493 0.517 0.544 0.575 0.609 0.646 0.688 0.733 0.783 0.836 0.894 0.952 1.006 1.056 1.102 1.144 1.182 1.217 1.248 1.276 1.300 1.322 1.342 1.358 1.373 1.386 1.396 1.405 1.413 1.419 1.424 1.428 1.431 1.434 1.435 1.436 1.437 1.437 1.438 1.438 1.438 1.437 1.437 1.436 1.435 1.433 1.430 1.426 1.422 1.417 1.410 1.403 1.394 1.384 1.372 1.359 1.344 1.327 1.309 1.288 1.266 1.242 1.215 1.186 1.154 1.119 1.081 1.039 0.993 0.944 0.898 0.856 0.819 0.786 0.758 0.734 0.714 0.698 0.686 0.677 0.670 0.666 0.663 0.662 0.662 0.662 0.663 0.664 0.667 0.673 0.681 0.692 0.706 0.724 0.747 0.775 0.807 0.845 0.888 0.937 0.984 1.025 1.062 1.093 1.119 1.141 1.158 1.172 1.182 1.189 1.194 1.196 1.198 1.198 1.198 1.197 1.195 1.191 1.185 1.176 1.164 1.147 1.125 1.098 1.064 1.023 0.975 0.923 0.879 0.837 0.789 0.724 0.686 0.686 0.000 
0.000 0.307 0.307 0.321 0.326 0.330 0.334 0.337 0.340 0.342 0.345 0.346 0.347 0.347 0.348 0.348 0.349 0.351 0.353 0.356 0.359 0.362 0.366 0.371 0.377 0.384 0.392 0.401 0.411 0.423 0.437 0.453 0.472 0.493 0.516 0.543 0.573 0.606 0.643 0.684 0.729 0.778 0.831 0.888 0.946 1.001 1.051 1.097 1.139 1.177 1.211 1.243 1.270 1.295 1.317 1.336 1.353 1.368 1.380 1.391 1.400 1.408 1.414 1.419 1.423 1.426 1.428 1.430 1.431 1.432 1.432 1.432 1.432 1.432 1.432 1.432 1.431 1.429 1.427 1.425 1.422 1.418 1.413 1.406 1.399 1.391 1.381 1.370 1.357 1.343 1.326 1.308 1.288 1.266 1.243 1.217 1.188 1.157 1.122 1.085 1.044 0.998 0.950 0.903 0.861 0.823 0.790 0.761 0.737 0.717 0.701 0.688 0.679 0.672 0.667 0.665 0.663 0.663 0.663 0.664 0.665 0.668 0.674 0.681 0.692 0.706 0.725 0.747 0.775 0.807 0.845 0.888 0.937 0.984 1.025 1.061 1.092 1.118 1.140 1.157 1.170 1.180 1.187 1.191 1.194 1.195 1.195 1.195 1.194 1.192 1.188 1.181 1.171 1.158 1.141 1.118 1.090 1.056 1.014 0.963 0.910 0.870 0.848 0.848 0.908 1.094 1.094 0.000 
0.000 0.281 0.281 0.295 0.299 0.303 0.307 0.311 0.315 0.319 0.323 0.327 0.330 0.333 0.336 0.339 0.342 0.345 0.348 0.352 0.356 0.361 0.366 0.371 0.377 0.384 0.392 0.401 0.412 0.424 0.437 0.453 0.472 0.492 0.516 0.542 0.571 0.604 0.641 0.681 0.725 0.773 0.826 0.883 0.941 0.995 1.045 1.091 1.133 1.172 1.206 1.237 1.265 1.290 1.312 1.331 1.348 1.362 1.375 1.385 1.395 1.402 1.408 1.413 1.417 1.420 1.423 1.424 1.425 1.426 1.426 1.427 1.427 1.427 1.426 1.426 1.425 1.424 1.422 1.420 1.416 1.413 1.408 1.402 1.395 1.387 1.377 1.367 1.354 1.341 1.325 1.307 1.288 1.267 1.243 1.218 1.189 1.159 1.125 1.088 1.047 1.003 0.955 0.908 0.865 0.827 0.793 0.764 0.740 0.719 0.703 0.690 0.680 0.673 0.668 0.665 0.664 0.664 0.664 0.664 0.666 0.669 0.674 0.682 0.692 0.707 0.725 0.747 0.775 0.807 0.845 0.888 0.936 0.983 1.024 1.060 1.091 1.117 1.138 1.155 1.168 1.177 1.184 1.188 1.190 1.191 1.191 1.191 1.190 1.187 1.183 1.176 1.166 1.152 1.134 1.111 1.083 1.049 1.007 0.957 0.905 0.865 0.847 0.853 0.921 1.092 1.092 0.000 
0.000 0.255 0.255 0.269 0.273 0.277 0.282 0.286 0.292 0.298 0.304 0.311 0.317 0.322 0.326 0.331 0.335 0.340 0.345 0.349 0.354 0.359 0.365 0.371 0.378 0.385 0.393 0.402 0.412 0.424 0.438 0.454 0.472 0.492 0.515 0.541 0.570 0.602 0.638 0.678 0.721 0.769 0.821 0.877 0.935 0.989 1.039 1.085 1.128 1.166 1.201 1.232 1.259 1.284 1.306 1.325 1.342 1.356 1.369 1.380 1.388 1.396 1.402 1.407 1.411 1.414 1.416 1.418 1.419 1.420 1.420 1.420 1.420 1.420 1.420 1.420 1.419 1.418 1.416 1.414 1.411 1.407 1.402 1.397 1.390 1.382 1.373 1.363 1.351 1.338 1.323 1.306 1.287 1.266 1.243 1.218 1.191 1.161 1.127 1.091 1.051 1.007 0.960 0.912 0.869 0.830 0.796 0.767 0.742 0.721 0.704 0.691 0.681 0.674 0.669 0.666 0.664 0.664 0.664 0.665 0.666 0.669 0.674 0.682 0.692 0.707 0.725 0.747 0.775 0.807 0.845 0.888 0.936 0.982 1.023 1.059 1.089 1.115 1.135 1.152 1.164 1.174 1.180 1.184 1.186 1.187 1.187 1.186 1.185 1.183 1.178 1.171 1.160 1.146 1.128 1.104 1.076 1.042 1.002 0.955 0.905 0.862 0.828 0.805 0.810 0.934 0.934 0.000 
0.000 0.229 0.229 0.243 0.247 0.252 0.258 0.264 0.271 0.279 0.289 0.298 0.306 0.313 0.319 0.325 0.330 0.336 0.342 0.347 0.353 0.359 0.365 0.371 0.378 0.385 0.394 0.403 0.413 0.425 0.439 0.454 0.472 0.492 0.514 0.540 0.568 0.600 0.635 0.674 0.717 0.764 0.816 0.871 0.929 0.983 1.033 1.080 1.122 1.160 1.195 1.226 1.254 1.278 1.300 1.319 1.336 1.350 1.363 1.373 1.382 1.389 1.396 1.401 1.404 1.408 1.410 1.411 1.413 1.413 1.414 1.414 1.414 1.414 1.414 1.413 1.412 1.411 1.410 1.407 1.405 1.401 1.397 1.391 1.385 1.377 1.369 1.359 1.348 1.335 1.320 1.304 1.286 1.266 1.243 1.219 1.192 1.162 1.130 1.094 1.055 1.012 0.964 0.916 0.873 0.834 0.799 0.769 0.744 0.723 0.705 0.692 0.681 0.674 0.669 0.666 0.665 0.664 0.664 0.665 0.666 0.669 0.674 0.682 0.692 0.706 0.725 0.747 0.774 0.806 0.844 0.886 0.934 0.981 1.021 1.056 1.086 1.111 1.132 1.148 1.160 1.169 1.175 1.179 1.181 1.181 1.182 1.181 1.180 1.177 1.172 1.165 1.154 1.139 1.121 1.097 1.069 1.035 0.997 0.953 0.906 0.860 0.810 0.736 0.572 0.383 0.383 0.000 
0.000 0.203 0.203 0.218 0.223 0.228 0.235 0.243 0.253 0.265 0.277 0.288 0.297 0.306 0.313 0.320 0.327 0.333 0.339 0.346 0.352 0.358 0.365 0.371 0.378 0.386 0.395 0.404 0.414 0.426 0.439 0.455 0.472 0.491 0.513 0.538 0.567 0.598 0.633 0.671 0.714 0.760 0.810 0.865 0.923 0.977 1.027 1.074 1.116 1.154 1.189 1.220 1.247 1.272 1.294 1.313 1.329 1.344 1.356 1.366 1.375 1.383 1.389 1.394 1.397 1.400 1.403 1.404 1.406 1.406 1.407 1.407 1.407 1.407 1.407 1.406 1.406 1.404 1.403 1.401 1.398 1.395 1.390 1.385 1.379 1.372 1.364 1.354 1.343 1.331 1.317 1.302 1.284 1.265 1.243 1.219 1.192 1.163 1.131 1.096 1.058 1.015 0.969 0.921 0.876 0.837 0.802 0.771 0.745 0.724 0.706 0.692 0.682 0.674 0.669 0.666 0.665 0.664 0.664 0.665 0.666 0.669 0.674 0.681 0.692 0.706 0.724 0.746 0.773 0.805 0.842 0.885 0.932 0.978 1.018 1.053 1.083 1.107 1.127 1.143 1.155 1.164 1.169 1.173 1.175 1.175 1.176 1.175 1.174 1.171 1.166 1.158 1.147 1.133 1.114 1.090 1.062 1.029 0.991 0.950 0.907 0.862 0.810 0.728 0.541 0.166 0.166 0.000 
0.000 0.178 0.178 0.192 0.199 0.206 0.214 0.225 0.238 0.254 0.268 0.280 0.291 0.301 0.309 0.317 0.324 0.331 0.338 0.345 0.351 0.358 0.365 0.372 0.379 0.387 0.395 0.405 0.415 0.427 0.440 0.455 0.472 0.491 0.513 0.537 0.565 0.596 0.630 0.668 0.710 0.755 0.805 0.859 0.916 0.971 1.021 1.067 1.109 1.147 1.182 1.213 1.240 1.265 1.287 1.306 1.322 1.336 1.349 1.359 1.368 1.375 1.381 1.386 1.390 1.393 1.395 1.397 1.398 1.399 1.399 1.399 1.399 1.399 1.399 1.399 1.398 1.397 1.396 1.394 1.391 1.388 1.383 1.379 1.373 1.366 1.358 1.349 1.339 1.327 1.314 1.299 1.282 1.263 1.242 1.219 1.193 1.164 1.133 1.099 1.061 1.019 0.973 0.925 0.880 0.840 0.804 0.773 0.747 0.725 0.707 0.692 0.682 0.674 0.669 0.666 0.664 0.664 0.664 0.664 0.666 0.669 0.673 0.681 0.691 0.705 0.723 0.745 0.771 0.803 0.839 0.882 0.929 0.974 1.014 1.048 1.077 1.102 1.122 1.137 1.149 1.157 1.163 1.166 1.168 1.169 1.169 1.168 1.167 1.164 1.159 1.151 1.140 1.125 1.106 1.083 1.054 1.021 0.983 0.944 0.907 0.870 0.831 0.784 0.727 0.712 0.712 0.000 
0.000 0.152 0.152 0.167 0.175 0.184 0.195 0.210 0.227 0.246 0.262 0.275 0.287 0.297 0.306 0.315 0.322 0.330 0.337 0.344 0.351 0.358 0.365 0.372 0.380 0.388 0.396 0.405 0.416 0.427 0.440 0.455 0.472 0.490 0.512 0.536 0.563 0.593 0.627 0.665 0.706 0.751 0.800 0.853 0.910 0.964 1.015 1.061 1.103 1.141 1.175 1.206 1.233 1.258 1.279 1.298 1.314 1.329 1.341 1.351 1.360 1.367 1.373 1.378 1.382 1.385 1.387 1.389 1.390 1.391 1.391 1.391 1.391 1.391 1.391 1.391 1.390 1.389 1.388 1.386 1.383 1.380 1.376 1.372 1.366 1.360 1.352 1.343 1.334 1.322 1.310 1.295 1.279 1.261 1.241 1.218 1.193 1.165 1.134 1.101 1.063 1.022 0.977 0.929 0.883 0.842 0.806 0.775 0.748 0.725 0.707 0.692 0.682 0.674 0.669 0.665 0.664 0.663 0.663 0.664 0.665 0.668 0.673 0.680 0.690 0.703 0.721 0.742 0.768 0.800 0.836 0.877 0.924 0.969 1.008 1.042 1.071 1.095 1.114 1.130 1.141 1.150 1.155 1.159 1.160 1.161 1.161 1.160 1.159 1.156 1.151 1.143 1.132 1.117 1.099 1.075 1.046 1.011 0.971 0.936 0.907 0.887 0.876 0.881 0.935 1.079 1.079 0.000 
0.000 0.126 0.126 0.142 0.152 0.163 0.178 0.198 0.220 0.240 0.257 0.272 0.284 0.295 0.305 0.313 0.321 0.329 0.336 0.344 0.351 0.358 0.365 0.372 0.380 0.388 0.397 0.406 0.416 0.428 0.440 0.455 0.471 0.490 0.511 0.535 0.561 0.591 0.624 0.661 0.702 0.746 0.795 0.847 0.903 0.958 1.008 1.053 1.095 1.133 1.167 1.198 1.225 1.250 1.271 1.290 1.306 1.320 1.332 1.343 1.351 1.359 1.365 1.370 1.373 1.377 1.379 1.380 1.382 1.382 1.383 1.383 1.383 1.383 1.383 1.383 1.382 1.381 1.380 1.378 1.376 1.373 1.369 1.364 1.359 1.353 1.346 1.337 1.328 1.317 1.305 1.292 1.276 1.259 1.239 1.217 1.193 1.166 1.136 1.102 1.066 1.025 0.981 0.933 0.887 0.845 0.808 0.776 0.749 0.726 0.707 0.692 0.681 0.673 0.668 0.665 0.663 0.662 0.662 0.663 0.664 0.666 0.671 0.678 0.688 0.701 0.718 0.739 0.765 0.795 0.831 0.871 0.917 0.961 1.001 1.034 1.063 1.087 1.106 1.121 1.133 1.141 1.146 1.150 1.151 1.152 1.152 1.152 1.150 1.147 1.142 1.134 1.123 1.109 1.090 1.067 1.038 1.003 0.963 0.930 0.907 0.896 0.897 0.917 0.988 1.076 1.076 0.000 
0.000 0.100 0.100 0.117 0.129 0.144 0.165 0.191 0.216 0.237 0.255 0.270 0.283 0.294 0.304 0.313 0.321 0.329 0.336 0.343 0.351 0.358 0.365 0.373 0.380 0.388 0.397 0.406 0.416 0.428 0.440 0.455 0.471 0.489 0.510 0.533 0.560 0.589 0.621 0.658 0.697 0.741 0.789 0.841 0.897 0.951 1.000 1.046 1.088 1.125 1.159 1.190 1.217 1.241 1.262 1.281 1.297 1.311 1.323 1.334 1.342 1.350 1.356 1.361 1.364 1.368 1.370 1.372 1.373 1.374 1.374 1.374 1.374 1.374 1.374 1.374 1.373 1.373 1.371 1.370 1.367 1.364 1.361 1.357 1.352 1.346 1.339 1.331 1.322 1.312 1.301 1.287 1.273 1.256 1.237 1.216 1.192 1.166 1.136 1.104 1.068 1.028 0.984 0.936 0.890 0.847 0.810 0.777 0.749 0.726 0.707 0.692 0.681 0.672 0.667 0.663 0.661 0.661 0.660 0.661 0.662 0.664 0.669 0.675 0.685 0.698 0.714 0.735 0.760 0.789 0.824 0.864 0.909 0.953 0.991 1.025 1.053 1.077 1.096 1.111 1.123 1.131 1.136 1.140 1.141 1.142 1.142 1.142 1.140 1.137 1.132 1.125 1.114 1.100 1.082 1.059 1.031 0.998 0.959 0.927 0.905 0.896 0.897 0.918 0.990 1.073 1.073 0.000 
0.000 0.075 0.075 0.092 0.107 0.128 0.157 0.188 0.214 0.236 0.254 0.269 0.282 0.294 0.304 0.313 0.321 0.329 0.336 0.343 0.351 0.358 0.365 0.373 0.381 0.389 0.397 0.406 0.416 0.427 0.440 0.454 0.470 0.488 0.509 0.532 0.558 0.586 0.618 0.654 0.693 0.736 0.783 0.834 0.889 0.943 0.993 1.038 1.079 1.117 1.151 1.181 1.208 1.232 1.253 1.272 1.288 1.302 1.314 1.324 1.333 1.340 1.346 1.351 1.355 1.358 1.360 1.362 1.363 1.364 1.365 1.365 1.365 1.365 1.365 1.365 1.364 1.364 1.362 1.361 1.359 1.356 1.353 1.349 1.344 1.338 1.332 1.324 1.316 1.306 1.295 1.283 1.269 1.253 1.235 1.214 1.191 1.166 1.137 1.105 1.069 1.030 0.987 0.940 0.893 0.850 0.812 0.778 0.750 0.726 0.707 0.691 0.679 0.671 0.665 0.661 0.659 0.658 0.658 0.658 0.659 0.661 0.665 0.672 0.681 0.693 0.709 0.729 0.753 0.782 0.816 0.854 0.898 0.942 0.980 1.013 1.042 1.065 1.084 1.100 1.111 1.120 1.125 1.129 1.131 1.131 1.131 1.131 1.130 1.127 1.122 1.115 1.104 1.091 1.073 1.051 1.025 0.993 0.958 0.926 0.902 0.887 0.880 0.890 0.945 1.071 1.071 0.000 
0.000 0.049 0.049 0.067 0.087 0.117 0.154 0.187 0.213 0.236 0.254 0.269 0.282 0.294 0.304 0.313 0.321 0.329 0.336 0.344 0.351 0.358 0.366 0.373 0.381 0.389 0.397 0.406 0.416 0.427 0.440 0.454 0.469 0.487 0.507 0.530 0.555 0.584 0.615 0.650 0.688 0.731 0.777 0.828 0.882 0.935 0.984 1.029 1.070 1.108 1.141 1.171 1.198 1.222 1.243 1.261 1.278 1.291 1.303 1.314 1.322 1.330 1.336 1.341 1.345 1.348 1.351 1.352 1.354 1.355 1.355 1.355 1.356 1.356 1.356 1.355 1.355 1.354 1.353 1.352 1.350 1.347 1.344 1.340 1.336 1.331 1.325 1.318 1.310 1.300 1.290 1.278 1.265 1.249 1.232 1.212 1.190 1.165 1.137 1.105 1.071 1.032 0.990 0.943 0.895 0.852 0.813 0.779 0.750 0.726 0.706 0.690 0.678 0.669 0.662 0.658 0.656 0.655 0.655 0.655 0.656 0.658 0.661 0.667 0.676 0.687 0.702 0.721 0.745 0.773 0.805 0.843 0.885 0.928 0.966 1.000 1.028 1.052 1.071 1.087 1.098 1.107 1.113 1.116 1.118 1.119 1.119 1.119 1.118 1.115 1.111 1.104 1.094 1.081 1.064 1.043 1.018 0.989 0.957 0.925 0.896 0.867 0.837 0.803 0.776 0.869 0.869 0.000 
0.000 0.028 0.028 0.045 0.072 0.113 0.153 0.187 0.214 0.236 0.254 0.270 0.283 0.294 0.304 0.313 0.321 0.329 0.336 0.344 0.351 0.358 0.366 0.373 0.381 0.389 0.397 0.406 0.416 0.427 0.439 0.453 0.468 0.486 0.506 0.528 0.553 0.580 0.611 0.646 0.684 0.725 0.771 0.820 0.874 0.926 0.975 1.020 1.061 1.098 1.131 1.161 1.188 1.211 1.232 1.251 1.267 1.280 1.292 1.303 1.311 1.319 1.325 1.330 1.334 1.338 1.340 1.342 1.344 1.345 1.345 1.346 1.346 1.346 1.346 1.346 1.345 1.345 1.344 1.342 1.341 1.338 1.336 1.332 1.328 1.323 1.317 1.311 1.303 1.294 1.284 1.273 1.260 1.246 1.229 1.210 1.188 1.164 1.137 1.106 1.072 1.034 0.992 0.946 0.898 0.854 0.814 0.780 0.750 0.725 0.705 0.688 0.675 0.666 0.659 0.654 0.652 0.651 0.650 0.650 0.651 0.653 0.656 0.661 0.669 0.680 0.695 0.713 0.735 0.762 0.793 0.829 0.870 0.912 0.950 0.984 1.012 1.036 1.056 1.072 1.084 1.093 1.099 1.103 1.105 1.106 1.106 1.106 1.105 1.102 1.098 1.091 1.082 1.070 1.054 1.034 1.011 0.985 0.955 0.924 0.891 0.856 0.812 0.736 0.564 0.328 0.328 0.000 
0.000 0.010 0.010 0.028 0.066 0.113 0.155 0.188 0.215 0.237 0.255 0.271 0.284 0.295 0.305 0.314 0.322 0.330 0.337 0.344 0.352 0.359 0.366 0.374 0.381 0.389 0.397 0.406 0.416 0.426 0.438 0.452 0.467 0.484 0.504 0.525 0.550 0.577 0.607 0.641 0.678 0.719 0.764 0.812 0.865 0.917 0.966 1.010 1.051 1.087 1.120 1.150 1.177 1.200 1.221 1.239 1.255 1.269 1.281 1.291 1.300 1.307 1.314 1.319 1.323 1.327 1.329 1.332 1.333 1.334 1.335 1.335 1.336 1.336 1.336 1.336 1.335 1.335 1.334 1.333 1.331 1.329 1.327 1.323 1.320 1.315 1.310 1.304 1.296 1.288 1.279 1.268 1.256 1.241 1.225 1.207 1.186 1.163 1.136 1.106 1.072 1.035 0.994 0.949 0.901 0.856 0.815 0.780 0.750 0.724 0.703 0.686 0.672 0.662 0.654 0.650 0.647 0.645 0.645 0.645 0.645 0.646 0.649 0.654 0.661 0.672 0.685 0.702 0.723 0.749 0.778 0.813 0.852 0.894 0.932 0.965 0.994 1.018 1.039 1.055 1.068 1.077 1.084 1.088 1.091 1.092 1.092 1.092 1.091 1.088 1.085 1.078 1.070 1.058 1.043 1.025 1.004 0.979 0.951 0.921 0.889 0.855 0.810 0.732 0.554 0.210 0.210 0.000 
0.000 0.030 0.030 0.029 0.068 0.118 0.159 0.192 0.218 0.240 0.258 0.273 0.286 0.297 0.307 0.315 0.323 0.331 0.338 0.345 0.352 0.359 0.367 0.374 0.381 0.389 0.397 0.405 0.415 0.425 0.437 0.450 0.465 0.482 0.501 0.522 0.546 0.573 0.603 0.636 0.672 0.712 0.756 0.804 0.856 0.907 0.955 0.999 1.040 1.076 1.109 1.138 1.165 1.188 1.209 1.227 1.243 1.256 1.269 1.279 1.288 1.295 1.302 1.307 1.312 1.315 1.318 1.321 1.322 1.324 1.324 1.325 1.325 1.325 1.326 1.325 1.325 1.325 1.324 1.323 1.322 1.320 1.318 1.315 1.311 1.307 1.302 1.296 1.290 1.282 1.273 1.263 1.251 1.237 1.222 1.204 1.184 1.161 1.135 1.106 1.073 1.036 0.996 0.951 0.903 0.857 0.816 0.780 0.749 0.723 0.701 0.682 0.668 0.657 0.649 0.644 0.640 0.638 0.638 0.638 0.638 0.639 0.641 0.646 0.652 0.662 0.674 0.690 0.710 0.734 0.762 0.794 0.831 0.872 0.910 0.944 0.973 0.999 1.019 1.036 1.050 1.060 1.067 1.072 1.075 1.076 1.077 1.076 1.076 1.074 1.070 1.064 1.056 1.045 1.031 1.015 0.994 0.971 0.944 0.916 0.888 0.859 0.827 0.787 0.741 0.746 0.746 0.000 
0.000 0.062 0.062 0.052 0.085 0.130 0.168 0.199 0.225 0.246 0.263 0.277 0.290 0.300 0.309 0.318 0.325 0.333 0.340 0.347 0.353 0.360 0.367 0.374 0.381 0.388 0.396 0.404 0.414 0.424 0.435 0.448 0.463 0.480 0.498 0.519 0.542 0.569 0.598 0.630 0.666 0.705 0.748 0.795 0.846 0.897 0.944 0.988 1.028 1.064 1.096 1.126 1.152 1.175 1.196 1.214 1.230 1.243 1.256 1.266 1.275 1.283 1.289 1.295 1.300 1.304 1.307 1.309 1.311 1.313 1.314 1.314 1.315 1.315 1.315 1.315 1.315 1.315 1.314 1.314 1.312 1.311 1.309 1.306 1.303 1.299 1.295 1.289 1.283 1.275 1.267 1.257 1.246 1.233 1.218 1.201 1.181 1.159 1.134 1.105 1.073 1.037 0.997 0.953 0.905 0.859 0.817 0.780 0.748 0.721 0.698 0.679 0.663 0.652 0.643 0.637 0.633 0.630 0.629 0.629 0.629 0.630 0.632 0.636 0.642 0.650 0.661 0.676 0.694 0.717 0.743 0.773 0.808 0.847 0.886 0.920 0.950 0.976 0.998 1.016 1.030 1.041 1.049 1.055 1.058 1.060 1.060 1.060 1.059 1.057 1.054 1.049 1.042 1.032 1.019 1.004 0.985 0.963 0.937 0.910 0.889 0.874 0.866 0.874 0.928 1.058 1.058 0.000 
0.000 0.157 0.157 0.110 0.132 0.156 0.183 0.212 0.236 0.255 0.271 0.284 0.295 0.305 0.314 0.322 0.329 0.336 0.342 0.348 0.355 0.361 0.367 0.374 0.380 0.387 0.395 0.403 0.412 0.422 0.433 0.446 0.460 0.476 0.495 0.515 0.538 0.564 0.592 0.624 0.659 0.697 0.739 0.785 0.835 0.885 0.932 0.976 1.015 1.051 1.083 1.112 1.138 1.161 1.182 1.200 1.216 1.230 1.242 1.253 1.262 1.270 1.277 1.282 1.287 1.291 1.295 1.298 1.300 1.302 1.303 1.304 1.304 1.305 1.305 1.305 1.305 1.305 1.304 1.304 1.303 1.302 1.300 1.297 1.295 1.291 1.287 1.282 1.276 1.269 1.261 1.252 1.241 1.228 1.214 1.197 1.178 1.156 1.132 1.104 1.072 1.037 0.998 0.954 0.907 0.860 0.817 0.779 0.746 0.718 0.694 0.674 0.658 0.645 0.635 0.629 0.624 0.621 0.620 0.620 0.620 0.620 0.622 0.625 0.630 0.637 0.647 0.660 0.677 0.697 0.722 0.750 0.783 0.820 0.858 0.893 0.924 0.951 0.974 0.993 1.009 1.021 1.030 1.036 1.041 1.043 1.043 1.043 1.043 1.041 1.038 1.034 1.028 1.019 1.008 0.995 0.978 0.957 0.933 0.908 0.890 0.882 0.883 0.903 0.972 1.055 1.055 0.000 
0.000 0.270 0.270 0.207 0.187 0.190 0.207 0.231 0.252 0.269 0.282 0.294 0.304 0.312 0.320 0.327 0.333 0.339 0.345 0.351 0.357 0.362 0.368 0.374 0.380 0.386 0.393 0.401 0.410 0.420 0.431 0.443 0.457 0.473 0.490 0.510 0.533 0.558 0.586 0.617 0.651 0.688 0.730 0.774 0.823 0.873 0.920 0.962 1.002 1.037 1.069 1.098 1.124 1.147 1.167 1.185 1.201 1.215 1.228 1.239 1.248 1.256 1.263 1.269 1.275 1.279 1.283 1.286 1.288 1.290 1.292 1.293 1.294 1.294 1.294 1.295 1.295 1.295 1.294 1.294 1.293 1.292 1.291 1.289 1.286 1.283 1.279 1.275 1.269 1.263 1.255 1.246 1.235 1.223 1.209 1.193 1.175 1.154 1.130 1.102 1.071 1.037 0.998 0.955 0.908 0.861 0.817 0.778 0.744 0.715 0.689 0.668 0.651 0.637 0.627 0.619 0.614 0.611 0.609 0.608 0.608 0.608 0.610 0.612 0.616 0.622 0.631 0.643 0.658 0.677 0.699 0.725 0.755 0.790 0.828 0.864 0.896 0.924 0.948 0.968 0.985 0.998 1.009 1.017 1.022 1.025 1.027 1.027 1.027 1.026 1.024 1.021 1.015 1.008 0.999 0.987 0.972 0.954 0.932 0.908 0.890 0.882 0.883 0.903 0.971 1.053 1.053 0.000 
0.000 0.175 0.175 0.219 0.213 0.226 0.241 0.259 0.275 0.288 0.298 0.307 0.314 0.321 0.327 0.333 0.339 0.344 0.349 0.354 0.359 0.363 0.368 0.373 0.378 0.385 0.391 0.399 0.407 0.417 0.427 0.439 0.453 0.468 0.486 0.505 0.527 0.551 0.579 0.609 0.642 0.679 0.719 0.763 0.810 0.860 0.906 0.948 0.987 1.022 1.054 1.083 1.109 1.132 1.152 1.170 1.186 1.201 1.213 1.224 1.234 1.242 1.250 1.256 1.261 1.266 1.270 1.274 1.276 1.279 1.281 1.282 1.283 1.284 1.284 1.284 1.284 1.284 1.284 1.284 1.284 1.283 1.282 1.280 1.278 1.275 1.271 1.267 1.262 1.256 1.249 1.240 1.230 1.218 1.205 1.189 1.171 1.151 1.127 1.100 1.070 1.036 0.998 0.956 0.909 0.861 0.817 0.777 0.742 0.711 0.684 0.662 0.644 0.629 0.617 0.609 0.603 0.599 0.597 0.596 0.595 0.595 0.596 0.598 0.601 0.606 0.614 0.624 0.637 0.654 0.674 0.698 0.725 0.757 0.793 0.830 0.864 0.893 0.919 0.941 0.959 0.974 0.986 0.996 1.002 1.007 1.011 1.012 1.013 1.012 1.011 1.009 1.005 0.999 0.991 0.981 0.969 0.953 0.933 0.910 0.889 0.874 0.866 0.871 0.920 1.050 1.050 0.000 
0.000 0.027 0.027 0.143 0.236 0.268 0.285 0.296 0.305 0.312 0.318 0.324 0.328 0.333 0.337 0.341 0.346 0.350 0.353 0.357 0.360 0.364 0.368 0.372 0.377 0.382 0.389 0.396 0.404 0.413 0.423 0.435 0.448 0.463 0.480 0.499 0.520 0.544 0.571 0.600 0.633 0.668 0.708 0.750 0.797 0.845 0.891 0.933 0.972 1.007 1.039 1.067 1.093 1.116 1.136 1.154 1.171 1.185 1.198 1.209 1.219 1.228 1.235 1.242 1.248 1.253 1.258 1.261 1.264 1.267 1.269 1.271 1.272 1.273 1.274 1.274 1.274 1.274 1.274 1.274 1.274 1.273 1.272 1.271 1.269 1.267 1.263 1.260 1.255 1.249 1.242 1.234 1.224 1.213 1.200 1.185 1.167 1.147 1.124 1.098 1.068 1.035 0.998 0.956 0.910 0.862 0.816 0.775 0.738 0.706 0.678 0.655 0.635 0.619 0.607 0.597 0.591 0.586 0.583 0.582 0.581 0.581 0.581 0.582 0.585 0.589 0.595 0.604 0.615 0.629 0.647 0.668 0.693 0.723 0.757 0.794 0.829 0.860 0.888 0.911 0.932 0.948 0.962 0.973 0.982 0.989 0.994 0.997 0.999 1.000 0.999 0.998 0.995 0.991 0.985 0.977 0.966 0.953 0.935 0.913 0.889 0.862 0.828 0.784 0.735 0.805 0.805 0.000 
0.000 0.312 0.312 0.190 0.292 0.329 0.340 0.344 0.344 0.344 0.344 0.344 0.345 0.347 0.349 0.351 0.353 0.355 0.357 0.359 0.361 0.364 0.367 0.371 0.375 0.380 0.386 0.393 0.400 0.409 0.419 0.430 0.443 0.457 0.474 0.492 0.513 0.536 0.562 0.590 0.622 0.657 0.695 0.737 0.782 0.830 0.875 0.917 0.955 0.990 1.022 1.050 1.076 1.099 1.120 1.138 1.154 1.169 1.182 1.193 1.204 1.213 1.221 1.228 1.234 1.240 1.244 1.249 1.252 1.255 1.258 1.260 1.261 1.262 1.263 1.264 1.264 1.264 1.264 1.264 1.264 1.264 1.263 1.262 1.260 1.258 1.255 1.252 1.247 1.242 1.235 1.227 1.218 1.207 1.195 1.180 1.163 1.143 1.121 1.095 1.066 1.033 0.997 0.956 0.910 0.862 0.815 0.773 0.735 0.701 0.672 0.647 0.626 0.609 0.596 0.585 0.577 0.572 0.568 0.566 0.565 0.565 0.565 0.566 0.567 0.571 0.575 0.582 0.592 0.604 0.619 0.638 0.660 0.687 0.718 0.754 0.791 0.824 0.854 0.880 0.902 0.921 0.936 0.950 0.961 0.970 0.977 0.983 0.986 0.989 0.989 0.989 0.987 0.985 0.980 0.974 0.966 0.954 0.937 0.917 0.891 0.858 0.812 0.730 0.552 0.275 0.275 0.000 
0.000 0.692 0.692 0.493 0.438 0.424 0.412 0.400 0.389 0.379 0.372 0.367 0.363 0.361 0.359 0.359 0.359 0.359 0.360 0.361 0.362 0.363 0.366 0.369 0.373 0.377 0.382 0.389 0.396 0.404 0.413 0.424 0.436 0.450 0.466 0.484 0.504 0.527 0.552 0.580 0.610 0.644 0.682 0.722 0.766 0.813 0.858 0.900 0.938 0.973 1.004 1.033 1.059 1.082 1.102 1.121 1.137 1.152 1.165 1.177 1.188 1.197 1.206 1.213 1.220 1.226 1.231 1.236 1.240 1.243 1.246 1.248 1.250 1.251 1.252 1.253 1.254 1.254 1.254 1.254 1.254 1.254 1.253 1.252 1.251 1.249 1.247 1.243 1.239 1.234 1.228 1.221 1.212 1.201 1.189 1.174 1.158 1.139 1.117 1.092 1.063 1.031 0.995 0.955 0.910 0.862 0.814 0.770 0.731 0.696 0.665 0.639 0.617 0.598 0.584 0.572 0.563 0.557 0.552 0.550 0.548 0.548 0.548 0.548 0.549 0.551 0.555 0.560 0.568 0.578 0.592 0.608 0.629 0.653 0.682 0.714 0.750 0.786 0.818 0.846 0.870 0.891 0.909 0.925 0.939 0.950 0.960 0.967 0.974 0.978 0.980 0.981 0.981 0.980 0.977 0.973 0.966 0.955 0.941 0.921 0.895 0.861 0.812 0.732 0.562 0.253 0.253 0.000 
0.000 0.746 0.746 0.683 0.578 0.517 0.478 0.449 0.427 0.410 0.397 0.387 0.379 0.373 0.369 0.365 0.363 0.362 0.361 0.361 0.362 0.363 0.364 0.367 0.370 0.374 0.378 0.384 0.391 0.398 0.407 0.418 0.429 0.443 0.458 0.475 0.495 0.517 0.541 0.568 0.598 0.631 0.667 0.707 0.750 0.796 0.840 0.882 0.920 0.954 0.986 1.015 1.040 1.063 1.084 1.103 1.120 1.135 1.148 1.161 1.172 1.181 1.190 1.198 1.205 1.212 1.217 1.222 1.227 1.230 1.234 1.236 1.238 1.240 1.241 1.242 1.243 1.243 1.243 1.243 1.243 1.243 1.243 1.242 1.241 1.240 1.237 1.235 1.231 1.226 1.220 1.213 1.205 1.194 1.182 1.168 1.152 1.133 1.112 1.087 1.060 1.028 0.993 0.953 0.910 0.861 0.812 0.767 0.726 0.690 0.658 0.630 0.607 0.587 0.571 0.558 0.548 0.541 0.536 0.532 0.531 0.530 0.529 0.529 0.530 0.531 0.534 0.538 0.545 0.554 0.566 0.581 0.599 0.621 0.647 0.677 0.710 0.745 0.780 0.810 0.837 0.860 0.881 0.899 0.915 0.929 0.941 0.952 0.960 0.967 0.972 0.975 0.976 0.976 0.975 0.973 0.967 0.959 0.946 0.928 0.903 0.871 0.832 0.789 0.750 0.778 0.778 0.000 
0.000 0.737 0.737 0.720 0.643 0.573 0.523 0.486 0.457 0.435 0.417 0.403 0.392 0.383 0.376 0.371 0.367 0.364 0.362 0.362 0.362 0.362 0.363 0.364 0.367 0.370 0.374 0.379 0.385 0.392 0.400 0.410 0.421 0.434 0.449 0.465 0.484 0.505 0.529 0.555 0.584 0.616 0.651 0.690 0.732 0.777 0.821 0.863 0.900 0.935 0.967 0.995 1.021 1.044 1.065 1.084 1.102 1.117 1.131 1.143 1.155 1.165 1.174 1.183 1.190 1.197 1.203 1.209 1.213 1.217 1.221 1.224 1.226 1.228 1.230 1.231 1.231 1.232 1.232 1.232 1.232 1.232 1.232 1.232 1.231 1.230 1.228 1.225 1.222 1.217 1.212 1.205 1.197 1.187 1.175 1.162 1.146 1.128 1.106 1.082 1.055 1.024 0.990 0.951 0.908 0.860 0.810 0.764 0.721 0.683 0.650 0.621 0.596 0.575 0.558 0.544 0.533 0.524 0.518 0.514 0.512 0.511 0.510 0.510 0.510 0.511 0.513 0.517 0.522 0.530 0.541 0.555 0.571 0.591 0.615 0.642 0.672 0.705 0.740 0.773 0.802 0.828 0.851 0.872 0.891 0.907 0.922 0.935 0.946 0.956 0.963 0.969 0.973 0.975 0.975 0.974 0.970 0.963 0.953 0.938 0.917 0.895 0.882 0.887 0.930 1.037 1.037 0.000 
0.000 0.714 0.714 0.714 0.666 0.604 0.552 0.512 0.480 0.454 0.434 0.417 0.403 0.392 0.383 0.375 0.369 0.365 0.363 0.361 0.361 0.361 0.361 0.362 0.363 0.366 0.369 0.373 0.378 0.385 0.393 0.402 0.412 0.424 0.439 0.454 0.473 0.493 0.516 0.541 0.569 0.600 0.635 0.672 0.713 0.757 0.801 0.842 0.880 0.915 0.946 0.975 1.001 1.025 1.046 1.065 1.083 1.098 1.113 1.125 1.137 1.148 1.158 1.166 1.174 1.182 1.188 1.194 1.199 1.204 1.207 1.211 1.213 1.216 1.217 1.219 1.220 1.220 1.220 1.221 1.221 1.221 1.221 1.220 1.220 1.219 1.217 1.215 1.211 1.207 1.202 1.196 1.188 1.179 1.167 1.154 1.139 1.121 1.100 1.077 1.050 1.020 0.985 0.947 0.905 0.859 0.808 0.760 0.716 0.677 0.642 0.611 0.585 0.563 0.544 0.529 0.517 0.508 0.501 0.496 0.493 0.492 0.491 0.491 0.491 0.492 0.493 0.496 0.501 0.508 0.518 0.530 0.545 0.563 0.585 0.609 0.637 0.668 0.701 0.735 0.766 0.794 0.820 0.843 0.865 0.884 0.901 0.917 0.931 0.944 0.954 0.963 0.970 0.974 0.976 0.976 0.975 0.971 0.964 0.952 0.939 0.933 0.936 0.951 0.991 1.035 1.035 0.000 
0.000 0.688 0.688 0.695 0.667 0.618 0.571 0.531 0.498 0.471 0.448 0.429 0.412 0.399 0.388 0.378 0.371 0.366 0.363 0.360 0.359 0.358 0.358 0.358 0.359 0.361 0.363 0.367 0.371 0.377 0.384 0.392 0.402 0.414 0.427 0.442 0.460 0.479 0.501 0.526 0.553 0.583 0.617 0.653 0.692 0.735 0.779 0.821 0.859 0.893 0.925 0.954 0.980 1.004 1.026 1.045 1.063 1.079 1.093 1.107 1.119 1.130 1.140 1.150 1.158 1.166 1.173 1.179 1.184 1.189 1.193 1.197 1.200 1.202 1.204 1.206 1.207 1.207 1.208 1.208 1.208 1.208 1.208 1.208 1.207 1.206 1.205 1.203 1.200 1.196 1.192 1.185 1.178 1.169 1.158 1.145 1.130 1.113 1.093 1.070 1.043 1.014 0.980 0.943 0.902 0.856 0.805 0.756 0.710 0.669 0.633 0.601 0.574 0.550 0.530 0.514 0.501 0.491 0.484 0.479 0.475 0.473 0.472 0.472 0.472 0.472 0.474 0.476 0.480 0.486 0.495 0.506 0.519 0.536 0.556 0.578 0.604 0.633 0.664 0.697 0.729 0.760 0.788 0.814 0.837 0.859 0.879 0.898 0.915 0.930 0.944 0.956 0.966 0.974 0.979 0.981 0.982 0.981 0.978 0.973 0.970 0.972 0.979 0.993 1.017 1.035 1.035 0.000 
0.000 0.662 0.662 0.672 0.656 0.622 0.580 0.544 0.512 0.485 0.460 0.439 0.421 0.405 0.392 0.381 0.372 0.366 0.362 0.359 0.357 0.355 0.355 0.355 0.355 0.356 0.357 0.360 0.364 0.368 0.375 0.382 0.391 0.402 0.415 0.429 0.446 0.465 0.486 0.510 0.536 0.565 0.597 0.633 0.671 0.713 0.757 0.798 0.836 0.871 0.903 0.932 0.958 0.982 1.004 1.024 1.042 1.059 1.074 1.087 1.100 1.111 1.122 1.132 1.141 1.149 1.156 1.162 1.168 1.173 1.178 1.182 1.185 1.188 1.190 1.191 1.193 1.194 1.194 1.194 1.194 1.195 1.194 1.194 1.194 1.193 1.192 1.190 1.187 1.184 1.179 1.174 1.167 1.158 1.147 1.135 1.120 1.103 1.084 1.061 1.036 1.007 0.974 0.937 0.896 0.851 0.802 0.751 0.704 0.662 0.624 0.591 0.562 0.538 0.517 0.500 0.486 0.475 0.467 0.461 0.457 0.455 0.453 0.453 0.453 0.453 0.454 0.456 0.460 0.465 0.473 0.483 0.495 0.510 0.528 0.549 0.573 0.600 0.629 0.660 0.693 0.725 0.755 0.783 0.809 0.833 0.856 0.877 0.897 0.916 0.933 0.948 0.963 0.975 0.984 0.990 0.994 0.997 0.998 1.000 1.003 1.008 1.016 1.027 1.036 1.038 1.038 0.000 
0.000 0.636 0.636 0.647 0.637 0.615 0.584 0.552 0.524 0.497 0.472 0.449 0.428 0.410 0.395 0.382 0.373 0.365 0.360 0.356 0.353 0.351 0.350 0.350 0.349 0.350 0.351 0.352 0.355 0.359 0.365 0.371 0.380 0.390 0.401 0.415 0.431 0.449 0.469 0.492 0.518 0.546 0.577 0.611 0.649 0.689 0.732 0.774 0.812 0.847 0.879 0.909 0.935 0.960 0.982 1.002 1.021 1.037 1.053 1.067 1.080 1.092 1.103 1.113 1.122 1.130 1.138 1.145 1.151 1.157 1.161 1.165 1.169 1.172 1.174 1.176 1.177 1.178 1.179 1.179 1.179 1.179 1.179 1.179 1.179 1.178 1.177 1.176 1.173 1.170 1.166 1.160 1.154 1.145 1.135 1.123 1.109 1.093 1.073 1.051 1.026 0.998 0.966 0.930 0.890 0.846 0.797 0.745 0.697 0.654 0.615 0.581 0.551 0.525 0.504 0.486 0.471 0.459 0.451 0.444 0.440 0.437 0.435 0.434 0.434 0.434 0.435 0.437 0.440 0.445 0.451 0.460 0.471 0.485 0.502 0.521 0.543 0.568 0.595 0.625 0.657 0.689 0.721 0.751 0.779 0.806 0.831 0.855 0.878 0.899 0.920 0.939 0.957 0.974 0.990 1.003 1.011 1.018 1.024 1.030 1.037 1.044 1.051 1.057 1.060 1.059 1.059 0.000 
0.000 0.611 0.611 0.622 0.614 0.600 0.581 0.557 0.533 0.509 0.483 0.457 0.434 0.414 0.397 0.383 0.372 0.364 0.357 0.352 0.349 0.346 0.344 0.343 0.343 0.343 0.343 0.344 0.346 0.349 0.354 0.360 0.367 0.376 0.387 0.400 0.415 0.432 0.451 0.473 0.498 0.525 0.555 0.589 0.625 0.665 0.707 0.749 0.787 0.822 0.855 0.884 0.911 0.936 0.959 0.979 0.998 1.015 1.031 1.045 1.058 1.071 1.082 1.092 1.102 1.111 1.119 1.126 1.132 1.138 1.143 1.148 1.151 1.154 1.157 1.159 1.160 1.161 1.162 1.163 1.163 1.163 1.163 1.163 1.162 1.162 1.161 1.159 1.157 1.154 1.150 1.145 1.139 1.131 1.121 1.110 1.096 1.080 1.061 1.040 1.015 0.988 0.956 0.921 0.882 0.838 0.790 0.739 0.690 0.645 0.605 0.570 0.539 0.513 0.490 0.471 0.456 0.444 0.434 0.427 0.422 0.419 0.417 0.416 0.416 0.416 0.416 0.417 0.420 0.424 0.430 0.438 0.448 0.460 0.476 0.494 0.514 0.537 0.563 0.592 0.622 0.654 0.686 0.718 0.748 0.777 0.805 0.831 0.857 0.881 0.905 0.928 0.950 0.972 0.993 1.014 1.032 1.045 1.055 1.064 1.072 1.079 1.085 1.089 1.092 1.097 1.097 0.000 
0.000 0.585 0.585 0.596 0.591 0.583 0.574 0.560 0.541 0.519 0.493 0.465 0.439 0.416 0.398 0.383 0.371 0.361 0.354 0.348 0.343 0.340 0.337 0.336 0.335 0.335 0.335 0.335 0.336 0.339 0.342 0.347 0.353 0.362 0.372 0.384 0.398 0.414 0.432 0.453 0.477 0.503 0.533 0.565 0.600 0.639 0.680 0.722 0.760 0.796 0.829 0.859 0.886 0.911 0.934 0.955 0.974 0.991 1.007 1.022 1.036 1.048 1.060 1.070 1.080 1.089 1.098 1.105 1.112 1.118 1.123 1.128 1.132 1.135 1.138 1.140 1.141 1.143 1.143 1.144 1.144 1.144 1.144 1.144 1.144 1.143 1.142 1.141 1.139 1.136 1.132 1.128 1.122 1.114 1.105 1.094 1.080 1.065 1.047 1.026 1.002 0.975 0.945 0.910 0.872 0.829 0.782 0.731 0.681 0.636 0.595 0.559 0.527 0.500 0.477 0.457 0.441 0.428 0.418 0.410 0.404 0.401 0.398 0.397 0.397 0.397 0.397 0.398 0.400 0.404 0.409 0.416 0.425 0.436 0.450 0.467 0.486 0.508 0.532 0.559 0.588 0.619 0.651 0.684 0.716 0.747 0.777 0.806 0.834 0.861 0.888 0.914 0.941 0.967 0.993 1.020 1.048 1.071 1.087 1.099 1.108 1.114 1.119 1.122 1.126 1.129 1.129 0.000 
0.000 0.559 0.559 0.572 0.574 0.574 0.571 0.562 0.547 0.527 0.501 0.471 0.442 0.418 0.398 0.382 0.369 0.358 0.349 0.342 0.336 0.332 0.329 0.327 0.326 0.325 0.325 0.325 0.326 0.327 0.330 0.334 0.339 0.346 0.355 0.366 0.379 0.394 0.412 0.432 0.455 0.480 0.509 0.540 0.574 0.612 0.652 0.694 0.733 0.768 0.801 0.832 0.859 0.884 0.908 0.929 0.948 0.966 0.982 0.997 1.011 1.024 1.036 1.047 1.057 1.066 1.074 1.082 1.089 1.095 1.101 1.106 1.110 1.113 1.116 1.118 1.120 1.121 1.122 1.123 1.123 1.123 1.123 1.123 1.123 1.122 1.121 1.120 1.118 1.116 1.112 1.108 1.102 1.095 1.086 1.075 1.062 1.047 1.030 1.010 0.987 0.960 0.931 0.897 0.860 0.818 0.773 0.722 0.672 0.626 0.584 0.548 0.515 0.487 0.463 0.443 0.426 0.412 0.401 0.393 0.387 0.383 0.380 0.379 0.378 0.378 0.378 0.379 0.380 0.383 0.388 0.394 0.402 0.412 0.425 0.440 0.458 0.478 0.501 0.527 0.554 0.584 0.616 0.649 0.682 0.715 0.747 0.778 0.809 0.839 0.869 0.899 0.929 0.959 0.990 1.021 1.056 1.089 1.116 1.133 1.144 1.151 1.155 1.157 1.158 1.157 1.157 0.000 
0.000 0.533 0.533 0.551 0.567 0.572 0.571 0.565 0.553 0.534 0.507 0.475 0.444 0.418 0.397 0.380 0.365 0.353 0.342 0.334 0.328 0.323 0.319 0.317 0.315 0.314 0.314 0.314 0.314 0.315 0.316 0.319 0.324 0.330 0.338 0.348 0.360 0.374 0.391 0.410 0.431 0.456 0.483 0.514 0.547 0.583 0.623 0.664 0.703 0.739 0.772 0.803 0.831 0.856 0.879 0.901 0.920 0.938 0.955 0.970 0.984 0.997 1.009 1.020 1.031 1.040 1.049 1.057 1.064 1.070 1.076 1.081 1.085 1.089 1.092 1.094 1.096 1.097 1.098 1.099 1.099 1.099 1.099 1.099 1.099 1.099 1.098 1.097 1.095 1.092 1.089 1.085 1.079 1.072 1.064 1.054 1.042 1.027 1.010 0.991 0.969 0.943 0.914 0.882 0.846 0.805 0.761 0.712 0.661 0.615 0.573 0.535 0.502 0.474 0.449 0.428 0.410 0.396 0.385 0.376 0.369 0.365 0.362 0.360 0.359 0.359 0.359 0.359 0.361 0.363 0.367 0.372 0.379 0.388 0.400 0.414 0.430 0.449 0.471 0.495 0.521 0.550 0.580 0.613 0.647 0.681 0.715 0.748 0.782 0.815 0.848 0.881 0.915 0.949 0.984 1.019 1.057 1.099 1.137 1.164 1.180 1.188 1.193 1.194 1.192 1.187 1.187 0.000 
0.000 0.550 0.550 0.549 0.568 0.574 0.575 0.570 0.559 0.539 0.511 0.476 0.444 0.418 0.395 0.376 0.360 0.346 0.335 0.325 0.318 0.312 0.308 0.305 0.303 0.301 0.301 0.301 0.301 0.301 0.302 0.304 0.308 0.313 0.320 0.328 0.339 0.353 0.368 0.386 0.407 0.430 0.457 0.486 0.518 0.554 0.592 0.633 0.672 0.709 0.742 0.772 0.800 0.826 0.849 0.871 0.891 0.909 0.925 0.941 0.955 0.968 0.980 0.992 1.002 1.012 1.020 1.028 1.036 1.042 1.048 1.053 1.057 1.061 1.064 1.067 1.069 1.070 1.071 1.072 1.072 1.072 1.072 1.072 1.072 1.072 1.071 1.070 1.068 1.066 1.063 1.059 1.053 1.047 1.039 1.029 1.017 1.004 0.988 0.969 0.947 0.923 0.895 0.864 0.829 0.790 0.746 0.699 0.649 0.602 0.560 0.522 0.489 0.460 0.434 0.413 0.395 0.380 0.368 0.359 0.352 0.347 0.343 0.341 0.340 0.340 0.340 0.340 0.341 0.343 0.346 0.350 0.356 0.365 0.375 0.388 0.403 0.420 0.440 0.463 0.488 0.515 0.545 0.577 0.611 0.646 0.681 0.717 0.752 0.788 0.824 0.861 0.898 0.936 0.974 1.014 1.056 1.101 1.149 1.189 1.215 1.229 1.234 1.235 1.231 1.219 1.219 0.000 
0.000 0.570 0.570 0.566 0.581 0.586 0.586 0.580 0.566 0.544 0.513 0.476 0.443 0.416 0.391 0.371 0.353 0.338 0.325 0.315 0.307 0.300 0.295 0.291 0.289 0.287 0.286 0.286 0.286 0.286 0.286 0.288 0.291 0.295 0.300 0.308 0.318 0.330 0.345 0.362 0.381 0.404 0.429 0.457 0.488 0.523 0.560 0.601 0.640 0.676 0.709 0.740 0.768 0.793 0.817 0.838 0.858 0.876 0.893 0.909 0.923 0.936 0.948 0.960 0.970 0.980 0.989 0.997 1.004 1.011 1.017 1.022 1.026 1.030 1.033 1.036 1.038 1.039 1.040 1.041 1.041 1.041 1.041 1.041 1.041 1.041 1.040 1.039 1.038 1.036 1.033 1.029 1.024 1.018 1.010 1.001 0.990 0.976 0.961 0.943 0.923 0.899 0.872 0.842 0.808 0.771 0.729 0.684 0.635 0.588 0.546 0.508 0.475 0.445 0.419 0.397 0.379 0.364 0.351 0.341 0.334 0.328 0.325 0.322 0.321 0.320 0.320 0.320 0.321 0.322 0.324 0.328 0.334 0.341 0.350 0.362 0.375 0.392 0.410 0.431 0.455 0.481 0.510 0.541 0.574 0.609 0.646 0.683 0.721 0.759 0.798 0.837 0.878 0.919 0.961 1.005 1.051 1.099 1.151 1.205 1.247 1.272 1.283 1.286 1.283 1.278 1.278 0.000 
0.000 0.664 0.664 0.611 0.617 0.615 0.609 0.596 0.575 0.547 0.512 0.474 0.441 0.412 0.386 0.364 0.345 0.328 0.315 0.303 0.294 0.287 0.281 0.276 0.273 0.271 0.270 0.270 0.269 0.269 0.270 0.270 0.272 0.276 0.280 0.287 0.296 0.307 0.320 0.336 0.354 0.376 0.400 0.427 0.457 0.490 0.527 0.566 0.605 0.641 0.674 0.705 0.733 0.758 0.782 0.803 0.823 0.841 0.858 0.873 0.887 0.901 0.913 0.924 0.935 0.944 0.953 0.961 0.969 0.975 0.981 0.987 0.991 0.995 0.998 1.001 1.003 1.004 1.005 1.006 1.006 1.007 1.007 1.007 1.007 1.006 1.006 1.005 1.003 1.001 0.998 0.995 0.990 0.984 0.977 0.968 0.958 0.945 0.931 0.914 0.894 0.871 0.846 0.817 0.785 0.749 0.709 0.665 0.618 0.572 0.530 0.492 0.459 0.429 0.403 0.381 0.362 0.347 0.334 0.324 0.316 0.310 0.306 0.303 0.301 0.300 0.300 0.300 0.301 0.301 0.303 0.306 0.311 0.317 0.325 0.335 0.348 0.363 0.380 0.400 0.422 0.447 0.474 0.504 0.537 0.572 0.609 0.647 0.687 0.727 0.768 0.811 0.854 0.898 0.944 0.991 1.041 1.093 1.148 1.209 1.268 1.315 1.341 1.352 1.355 1.353 1.353 0.000 
0.000 0.760 0.760 0.703 0.684 0.667 0.646 0.619 0.587 0.549 0.510 0.471 0.436 0.405 0.378 0.355 0.334 0.317 0.302 0.290 0.279 0.271 0.265 0.260 0.256 0.254 0.252 0.251 0.251 0.251 0.251 0.252 0.253 0.255 0.259 0.265 0.272 0.282 0.294 0.309 0.326 0.346 0.369 0.395 0.424 0.456 0.492 0.530 0.568 0.604 0.637 0.667 0.695 0.720 0.744 0.765 0.785 0.802 0.819 0.834 0.848 0.861 0.873 0.885 0.895 0.905 0.914 0.922 0.929 0.936 0.942 0.947 0.951 0.955 0.958 0.961 0.963 0.965 0.966 0.966 0.967 0.967 0.967 0.967 0.967 0.967 0.966 0.965 0.964 0.962 0.959 0.956 0.951 0.946 0.939 0.931 0.921 0.909 0.895 0.879 0.861 0.840 0.815 0.788 0.758 0.723 0.686 0.644 0.599 0.553 0.512 0.475 0.441 0.412 0.386 0.364 0.345 0.329 0.316 0.305 0.297 0.291 0.286 0.283 0.281 0.280 0.280 0.280 0.280 0.280 0.282 0.284 0.288 0.293 0.300 0.309 0.320 0.334 0.349 0.368 0.389 0.412 0.439 0.467 0.499 0.533 0.570 0.609 0.650 0.692 0.735 0.780 0.826 0.873 0.922 0.973 1.026 1.082 1.141 1.205 1.275 1.344 1.399 1.434 1.451 1.452 1.452 0.000 
0.000 0.878 0.878 0.810 0.781 0.741 0.694 0.645 0.596 0.549 0.505 0.465 0.429 0.397 0.368 0.344 0.322 0.303 0.288 0.274 0.263 0.254 0.247 0.242 0.238 0.235 0.233 0.232 0.231 0.231 0.231 0.231 0.232 0.234 0.237 0.241 0.248 0.256 0.267 0.280 0.297 0.315 0.337 0.362 0.390 0.421 0.455 0.492 0.529 0.565 0.597 0.627 0.654 0.679 0.702 0.723 0.742 0.760 0.776 0.791 0.805 0.818 0.830 0.841 0.851 0.861 0.869 0.877 0.884 0.891 0.897 0.902 0.907 0.910 0.914 0.916 0.918 0.920 0.921 0.922 0.922 0.922 0.922 0.922 0.922 0.922 0.922 0.921 0.919 0.918 0.915 0.912 0.908 0.903 0.896 0.889 0.879 0.868 0.855 0.840 0.823 0.803 0.780 0.755 0.726 0.694 0.658 0.619 0.576 0.532 0.492 0.455 0.422 0.393 0.367 0.345 0.326 0.310 0.297 0.286 0.278 0.271 0.266 0.263 0.261 0.259 0.259 0.259 0.259 0.259 0.260 0.262 0.265 0.269 0.275 0.283 0.292 0.304 0.319 0.336 0.355 0.377 0.402 0.430 0.461 0.494 0.530 0.569 0.610 0.654 0.698 0.745 0.793 0.843 0.894 0.948 1.005 1.065 1.128 1.197 1.272 1.356 1.439 1.504 1.545 1.566 1.566 0.000 
0.000 0.993 0.993 0.927 0.871 0.807 0.733 0.663 0.602 0.548 0.500 0.458 0.420 0.386 0.356 0.330 0.308 0.288 0.271 0.257 0.245 0.236 0.228 0.222 0.217 0.214 0.212 0.210 0.209 0.209 0.209 0.209 0.210 0.211 0.213 0.217 0.222 0.229 0.239 0.251 0.266 0.283 0.304 0.327 0.354 0.383 0.416 0.451 0.488 0.522 0.554 0.583 0.610 0.634 0.656 0.677 0.696 0.713 0.729 0.743 0.757 0.769 0.781 0.792 0.802 0.811 0.820 0.827 0.835 0.841 0.847 0.852 0.856 0.860 0.863 0.866 0.868 0.869 0.870 0.871 0.871 0.872 0.872 0.872 0.872 0.871 0.871 0.870 0.869 0.867 0.865 0.862 0.858 0.853 0.848 0.840 0.832 0.822 0.810 0.796 0.780 0.761 0.740 0.716 0.689 0.659 0.626 0.590 0.550 0.507 0.468 0.433 0.401 0.372 0.347 0.325 0.306 0.291 0.277 0.266 0.258 0.251 0.246 0.242 0.239 0.238 0.237 0.237 0.237 0.237 0.237 0.239 0.241 0.244 0.249 0.256 0.264 0.275 0.288 0.303 0.321 0.342 0.366 0.392 0.421 0.454 0.489 0.527 0.568 0.612 0.657 0.705 0.755 0.807 0.861 0.917 0.977 1.041 1.109 1.183 1.264 1.356 1.459 1.549 1.611 1.636 1.636 0.000 
0.000 1.031 1.031 0.996 0.934 0.851 0.757 0.674 0.604 0.544 0.493 0.448 0.408 0.373 0.342 0.315 0.291 0.271 0.253 0.238 0.226 0.216 0.207 0.200 0.195 0.191 0.189 0.187 0.186 0.186 0.185 0.185 0.186 0.187 0.188 0.191 0.195 0.202 0.210 0.220 0.234 0.250 0.269 0.291 0.316 0.344 0.374 0.408 0.443 0.477 0.507 0.536 0.561 0.585 0.607 0.626 0.644 0.661 0.676 0.691 0.704 0.716 0.727 0.737 0.747 0.756 0.764 0.772 0.779 0.785 0.790 0.795 0.799 0.803 0.806 0.809 0.810 0.812 0.813 0.814 0.814 0.815 0.815 0.815 0.815 0.814 0.814 0.813 0.812 0.811 0.809 0.806 0.802 0.798 0.793 0.786 0.778 0.769 0.758 0.745 0.730 0.713 0.694 0.672 0.647 0.620 0.589 0.556 0.519 0.479 0.442 0.408 0.377 0.349 0.325 0.303 0.285 0.269 0.256 0.245 0.236 0.229 0.224 0.220 0.217 0.215 0.214 0.214 0.214 0.214 0.214 0.215 0.217 0.219 0.223 0.228 0.236 0.245 0.256 0.270 0.286 0.306 0.328 0.353 0.381 0.412 0.446 0.483 0.523 0.567 0.612 0.661 0.711 0.765 0.821 0.880 0.942 1.009 1.082 1.161 1.250 1.350 1.463 1.568 1.646 1.685 1.685 0.000 
0.000 1.067 1.067 1.035 0.971 0.877 0.769 0.677 0.602 0.538 0.483 0.435 0.393 0.357 0.325 0.297 0.272 0.251 0.233 0.218 0.204 0.194 0.185 0.177 0.172 0.167 0.164 0.162 0.161 0.160 0.160 0.160 0.160 0.161 0.163 0.165 0.169 0.174 0.181 0.191 0.202 0.216 0.233 0.253 0.276 0.302 0.330 0.362 0.395 0.427 0.457 0.484 0.509 0.531 0.552 0.571 0.588 0.604 0.619 0.632 0.645 0.656 0.667 0.677 0.686 0.694 0.702 0.709 0.716 0.722 0.727 0.732 0.736 0.739 0.742 0.744 0.746 0.748 0.749 0.750 0.750 0.750 0.750 0.750 0.750 0.750 0.750 0.749 0.748 0.747 0.745 0.743 0.739 0.735 0.731 0.725 0.718 0.709 0.699 0.688 0.674 0.659 0.642 0.622 0.600 0.575 0.547 0.517 0.483 0.447 0.411 0.379 0.350 0.323 0.300 0.279 0.262 0.246 0.233 0.223 0.214 0.207 0.201 0.197 0.194 0.192 0.191 0.190 0.190 0.190 0.190 0.190 0.191 0.193 0.196 0.200 0.206 0.214 0.224 0.236 0.251 0.268 0.289 0.312 0.339 0.368 0.401 0.437 0.476 0.518 0.563 0.611 0.662 0.716 0.773 0.834 0.899 0.968 1.045 1.129 1.224 1.333 1.457 1.572 1.656 1.700 1.700 0.000 
0.000 1.070 1.070 1.052 0.987 0.888 0.773 0.676 0.596 0.528 0.469 0.419 0.375 0.337 0.304 0.276 0.251 0.229 0.211 0.195 0.181 0.170 0.160 0.153 0.147 0.143 0.140 0.138 0.137 0.136 0.136 0.136 0.136 0.137 0.138 0.140 0.144 0.148 0.154 0.162 0.172 0.184 0.199 0.216 0.236 0.258 0.284 0.313 0.344 0.374 0.402 0.428 0.451 0.472 0.492 0.510 0.526 0.541 0.555 0.567 0.579 0.590 0.600 0.609 0.618 0.626 0.633 0.640 0.646 0.651 0.656 0.661 0.664 0.668 0.670 0.673 0.674 0.676 0.677 0.678 0.678 0.678 0.678 0.678 0.678 0.678 0.678 0.677 0.677 0.675 0.674 0.672 0.669 0.665 0.661 0.656 0.649 0.642 0.633 0.623 0.611 0.598 0.583 0.565 0.546 0.524 0.499 0.472 0.442 0.410 0.377 0.347 0.319 0.294 0.272 0.253 0.236 0.221 0.209 0.198 0.190 0.183 0.177 0.172 0.169 0.167 0.165 0.164 0.164 0.164 0.164 0.164 0.165 0.166 0.168 0.172 0.177 0.183 0.192 0.203 0.215 0.231 0.249 0.270 0.295 0.323 0.354 0.387 0.425 0.465 0.509 0.556 0.606 0.660 0.718 0.779 0.845 0.917 0.996 1.085 1.185 1.301 1.437 1.565 1.655 1.700 1.700 0.000 
0.000 1.072 1.072 1.055 0.992 0.890 0.769 0.668 0.583 0.511 0.450 0.398 0.353 0.315 0.281 0.252 0.227 0.205 0.186 0.170 0.156 0.145 0.136 0.129 0.123 0.120 0.117 0.115 0.114 0.114 0.114 0.114 0.114 0.114 0.115 0.117 0.120 0.124 0.129 0.136 0.144 0.155 0.167 0.181 0.198 0.217 0.238 0.263 0.289 0.317 0.343 0.367 0.388 0.408 0.426 0.443 0.458 0.471 0.484 0.496 0.507 0.517 0.526 0.534 0.542 0.550 0.556 0.563 0.568 0.573 0.578 0.582 0.585 0.588 0.591 0.593 0.594 0.596 0.596 0.597 0.598 0.598 0.598 0.598 0.598 0.598 0.598 0.597 0.596 0.595 0.594 0.592 0.590 0.587 0.583 0.579 0.573 0.567 0.559 0.551 0.541 0.529 0.516 0.501 0.484 0.465 0.444 0.421 0.395 0.367 0.337 0.310 0.285 0.262 0.242 0.224 0.208 0.194 0.182 0.172 0.164 0.157 0.151 0.147 0.143 0.141 0.140 0.139 0.138 0.138 0.138 0.138 0.139 0.140 0.142 0.145 0.149 0.155 0.162 0.171 0.182 0.195 0.210 0.229 0.250 0.275 0.303 0.335 0.370 0.408 0.450 0.495 0.544 0.596 0.653 0.714 0.781 0.854 0.934 1.025 1.128 1.249 1.392 1.540 1.647 1.700 1.700 0.000 
0.000 1.075 1.075 1.057 0.990 0.882 0.756 0.649 0.561 0.487 0.425 0.372 0.327 0.288 0.254 0.225 0.200 0.179 0.160 0.144 0.131 0.120 0.112 0.106 0.101 0.098 0.096 0.094 0.094 0.093 0.093 0.093 0.093 0.094 0.095 0.096 0.098 0.102 0.106 0.112 0.119 0.127 0.137 0.149 0.163 0.178 0.196 0.216 0.238 0.261 0.283 0.303 0.321 0.339 0.355 0.369 0.383 0.395 0.406 0.417 0.427 0.436 0.444 0.452 0.459 0.465 0.471 0.477 0.482 0.486 0.490 0.494 0.497 0.499 0.502 0.503 0.505 0.506 0.507 0.508 0.508 0.508 0.508 0.508 0.508 0.508 0.508 0.508 0.507 0.506 0.505 0.504 0.502 0.499 0.496 0.493 0.488 0.483 0.477 0.470 0.462 0.452 0.442 0.429 0.416 0.400 0.383 0.364 0.342 0.319 0.293 0.269 0.246 0.226 0.208 0.191 0.177 0.164 0.153 0.144 0.136 0.130 0.125 0.121 0.118 0.116 0.115 0.114 0.114 0.114 0.114 0.114 0.115 0.116 0.117 0.120 0.123 0.128 0.134 0.141 0.150 0.161 0.174 0.189 0.207 0.228 0.252 0.279 0.311 0.346 0.385 0.427 0.474 0.524 0.579 0.639 0.704 0.776 0.856 0.945 1.048 1.169 1.313 1.480 1.625 1.700 1.700 0.000 
0.000 1.078 1.078 1.057 0.978 0.854 0.724 0.616 0.527 0.453 0.391 0.339 0.294 0.256 0.223 0.195 0.170 0.149 0.131 0.117 0.106 0.097 0.090 0.085 0.081 0.079 0.077 0.076 0.075 0.075 0.074 0.074 0.075 0.075 0.076 0.077 0.079 0.081 0.085 0.089 0.095 0.102 0.110 0.120 0.131 0.143 0.157 0.173 0.191 0.209 0.227 0.243 0.258 0.272 0.285 0.297 0.308 0.318 0.327 0.336 0.344 0.351 0.358 0.364 0.370 0.375 0.380 0.385 0.389 0.392 0.396 0.399 0.401 0.403 0.405 0.407 0.408 0.409 0.410 0.410 0.411 0.411 0.411 0.411 0.411 0.411 0.411 0.411 0.410 0.410 0.409 0.408 0.406 0.404 0.402 0.399 0.396 0.392 0.387 0.381 0.375 0.368 0.360 0.350 0.339 0.327 0.314 0.299 0.282 0.264 0.243 0.222 0.203 0.186 0.170 0.156 0.143 0.133 0.124 0.116 0.110 0.104 0.100 0.097 0.095 0.094 0.093 0.092 0.092 0.092 0.092 0.092 0.092 0.093 0.094 0.096 0.099 0.103 0.108 0.114 0.121 0.130 0.140 0.153 0.167 0.184 0.203 0.226 0.251 0.281 0.315 0.353 0.396 0.443 0.494 0.551 0.613 0.682 0.758 0.844 0.941 1.054 1.190 1.362 1.564 1.700 1.700 0.000 
0.000 1.080 1.080 1.050 0.940 0.795 0.668 0.564 0.479 0.408 0.348 0.297 0.255 0.218 0.187 0.160 0.137 0.119 0.104 0.092 0.083 0.076 0.071 0.067 0.063 0.061 0.060 0.059 0.058 0.058 0.058 0.058 0.058 0.058 0.059 0.060 0.061 0.063 0.066 0.070 0.074 0.079 0.086 0.093 0.102 0.111 0.123 0.135 0.148 0.163 0.177 0.189 0.201 0.212 0.222 0.231 0.240 0.248 0.255 0.262 0.268 0.274 0.279 0.284 0.288 0.293 0.296 0.300 0.303 0.306 0.309 0.311 0.313 0.314 0.316 0.317 0.318 0.319 0.319 0.320 0.320 0.320 0.320 0.320 0.320 0.320 0.320 0.320 0.320 0.319 0.319 0.318 0.317 0.315 0.313 0.311 0.308 0.305 0.302 0.297 0.292 0.287 0.280 0.273 0.265 0.255 0.245 0.233 0.220 0.206 0.191 0.174 0.159 0.145 0.133 0.122 0.112 0.104 0.096 0.090 0.086 0.082 0.078 0.076 0.074 0.073 0.072 0.072 0.072 0.072 0.072 0.072 0.072 0.073 0.074 0.075 0.077 0.080 0.084 0.089 0.094 0.101 0.110 0.119 0.131 0.144 0.159 0.177 0.197 0.220 0.247 0.277 0.312 0.353 0.398 0.450 0.507 0.570 0.640 0.717 0.802 0.897 1.009 1.157 1.379 1.700 1.700 0.000 
0.000 1.024 1.024 1.008 0.842 0.694 0.581 0.489 0.412 0.347 0.293 0.247 0.207 0.174 0.146 0.123 0.104 0.090 0.079 0.070 0.063 0.057 0.053 0.050 0.048 0.046 0.045 0.044 0.044 0.043 0.043 0.043 0.043 0.044 0.044 0.045 0.046 0.047 0.049 0.052 0.055 0.059 0.064 0.070 0.076 0.084 0.092 0.101 0.111 0.122 0.133 0.142 0.151 0.159 0.167 0.173 0.180 0.186 0.191 0.196 0.201 0.205 0.209 0.213 0.216 0.219 0.222 0.225 0.227 0.229 0.231 0.233 0.235 0.236 0.237 0.238 0.239 0.239 0.240 0.240 0.240 0.240 0.240 0.240 0.240 0.240 0.240 0.240 0.240 0.239 0.239 0.238 0.237 0.236 0.235 0.233 0.231 0.229 0.226 0.223 0.219 0.215 0.210 0.205 0.198 0.191 0.184 0.175 0.165 0.155 0.143 0.131 0.119 0.109 0.100 0.091 0.084 0.078 0.072 0.068 0.064 0.061 0.059 0.057 0.056 0.055 0.054 0.054 0.054 0.054 0.054 0.054 0.054 0.055 0.055 0.056 0.058 0.060 0.063 0.067 0.071 0.076 0.082 0.090 0.098 0.108 0.120 0.133 0.148 0.166 0.186 0.209 0.235 0.266 0.301 0.341 0.388 0.441 0.500 0.563 0.625 0.687 0.750 0.822 0.922 1.059 1.059 0.000 
0.000 0.477 0.477 0.759 0.637 0.534 0.455 0.387 0.325 0.271 0.224 0.185 0.153 0.126 0.105 0.088 0.075 0.065 0.056 0.050 0.045 0.041 0.038 0.036 0.034 0.033 0.032 0.031 0.031 0.031 0.031 0.031 0.031 0.031 0.031 0.032 0.033 0.034 0.035 0.037 0.039 0.042 0.046 0.050 0.054 0.059 0.065 0.072 0.079 0.087 0.094 0.101 0.108 0.113 0.119 0.124 0.128 0.132 0.136 0.140 0.143 0.146 0.149 0.152 0.154 0.156 0.158 0.160 0.162 0.163 0.165 0.166 0.167 0.168 0.169 0.169 0.170 0.170 0.171 0.171 0.171 0.171 0.171 0.171 0.171 0.171 0.171 0.171 0.171 0.171 0.170 0.170 0.169 0.168 0.167 0.166 0.165 0.163 0.161 0.159 0.156 0.153 0.150 0.146 0.141 0.136 0.131 0.125 0.118 0.110 0.102 0.093 0.085 0.078 0.071 0.065 0.060 0.055 0.052 0.048 0.046 0.044 0.042 0.041 0.040 0.039 0.039 0.038 0.038 0.038 0.038 0.038 0.039 0.039 0.039 0.040 0.041 0.043 0.045 0.047 0.051 0.054 0.059 0.064 0.070 0.077 0.085 0.095 0.106 0.118 0.133 0.149 0.168 0.190 0.215 0.245 0.278 0.317 0.360 0.402 0.437 0.462 0.475 0.465 0.386 0.199 0.199 0.000 
0.000 0.000 0.000 0.245 0.329 0.320 0.296 0.262 0.223 0.184 0.151 0.124 0.102 0.084 0.070 0.059 0.050 0.043 0.037 0.033 0.030 0.027 0.025 0.024 0.022 0.022 0.021 0.021 0.021 0.020 0.020 0.020 0.020 0.021 0.021 0.021 0.022 0.022 0.023 0.025 0.026 0.028 0.030 0.033 0.036 0.039 0.043 0.048 0.052 0.058 0.063 0.067 0.071 0.075 0.079 0.082 0.085 0.088 0.090 0.093 0.095 0.097 0.099 0.101 0.102 0.104 0.105 0.106 0.107 0.108 0.109 0.110 0.111 0.111 0.112 0.112 0.113 0.113 0.113 0.113 0.113 0.113 0.113 0.113 0.113 0.113 0.113 0.113 0.113 0.113 0.113 0.113 0.112 0.112 0.111 0.110 0.109 0.108 0.107 0.105 0.104 0.102 0.099 0.097 0.094 0.090 0.087 0.083 0.078 0.073 0.068 0.062 0.056 0.051 0.047 0.043 0.040 0.037 0.034 0.032 0.030 0.029 0.028 0.027 0.026 0.026 0.026 0.025 0.025 0.025 0.025 0.025 0.026 0.026 0.026 0.027 0.027 0.028 0.030 0.031 0.033 0.036 0.039 0.042 0.046 0.051 0.057 0.063 0.070 0.079 0.088 0.099 0.112 0.126 0.143 0.163 0.186 0.213 0.242 0.265 0.281 0.287 0.281 0.249 0.144 0.000 0.000 0.000 
0.000 0.000 0.000 0.052 0.144 0.166 0.166 0.155 0.135 0.111 0.090 0.074 0.061 0.050 0.042 0.035 0.030 0.026 0.022 0.020 0.018 0.016 0.015 0.014 0.013 0.013 0.012 0.012 0.012 0.012 0.012 0.012 0.012 0.012 0.012 0.012 0.013 0.013 0.014 0.015 0.015 0.017 0.018 0.019 0.021 0.023 0.026 0.028 0.031 0.034 0.037 0.040 0.042 0.045 0.047 0.049 0.050 0.052 0.054 0.055 0.056 0.058 0.059 0.060 0.061 0.062 0.062 0.063 0.064 0.064 0.065 0.065 0.066 0.066 0.066 0.067 0.067 0.067 0.067 0.067 0.067 0.067 0.067 0.067 0.067 0.067 0.067 0.067 0.067 0.067 0.067 0.067 0.067 0.066 0.066 0.065 0.065 0.064 0.063 0.063 0.062 0.060 0.059 0.057 0.056 0.054 0.052 0.049 0.046 0.043 0.040 0.037 0.033 0.031 0.028 0.026 0.024 0.022 0.020 0.019 0.018 0.017 0.017 0.016 0.016 0.015 0.015 0.015 0.015 0.015 0.015 0.015 0.015 0.015 0.016 0.016 0.016 0.017 0.018 0.019 0.020 0.021 0.023 0.025 0.028 0.030 0.034 0.037 0.042 0.047 0.052 0.059 0.066 0.075 0.085 0.097 0.111 0.128 0.145 0.156 0.162 0.162 0.155 0.128 0.062 0.000 0.000 0.000 
0.000 0.000 0.000 0.016 0.059 0.075 0.078 0.075 0.067 0.055 0.045 0.036 0.030 0.025 0.020 0.017 0.015 0.013 0.011 0.010 0.009 0.008 0.007 0.007 0.007 0.006 0.006 0.006 0.006 0.006 0.006 0.006 0.006 0.006 0.006 0.006 0.006 0.006 0.007 0.007 0.008 0.008 0.009 0.010 0.010 0.011 0.013 0.014 0.015 0.017 0.018 0.020 0.021 0.022 0.023 0.024 0.025 0.026 0.026 0.027 0.028 0.028 0.029 0.029 0.030 0.030 0.031 0.031 0.031 0.032 0.032 0.032 0.032 0.032 0.033 0.033 0.033 0.033 0.033 0.033 0.033 0.033 0.033 0.033 0.033 0.033 0.033 0.033 0.033 0.033 0.033 0.033 0.033 0.033 0.032 0.032 0.032 0.032 0.031 0.031 0.030 0.030 0.029 0.028 0.027 0.026 0.025 0.024 0.023 0.021 0.020 0.018 0.016 0.015 0.014 0.013 0.012 0.011 0.010 0.009 0.009 0.008 0.008 0.008 0.008 0.008 0.007 0.007 0.007 0.007 0.007 0.007 0.007 0.008 0.008 0.008 0.008 0.008 0.009 0.009 0.010 0.010 0.011 0.012 0.014 0.015 0.017 0.018 0.020 0.023 0.026 0.029 0.033 0.037 0.042 0.048 0.055 0.063 0.071 0.076 0.078 0.077 0.073 0.058 0.025 0.000 0.000 0.000 
0.000 0.000 0.000 0.004 0.017 0.023 0.024 0.024 0.022 0.018 0.014 0.012 0.010 0.008 0.007 0.006 0.005 0.004 0.004 0.003 0.003 0.003 0.002 0.002 0.002 0.002 0.002 0.002 0.002 0.002 0.002 0.002 0.002 0.002 0.002 0.002 0.002 0.002 0.002 0.002 0.002 0.003 0.003 0.003 0.003 0.004 0.004 0.004 0.005 0.005 0.006 0.006 0.007 0.007 0.007 0.008 0.008 0.008 0.008 0.009 0.009 0.009 0.009 0.009 0.010 0.010 0.010 0.010 0.010 0.010 0.010 0.010 0.010 0.010 0.010 0.011 0.011 0.011 0.011 0.011 0.011 0.011 0.011 0.011 0.011 0.011 0.011 0.011 0.011 0.011 0.011 0.011 0.011 0.010 0.010 0.010 0.010 0.010 0.010 0.010 0.010 0.010 0.009 0.009 0.009 0.008 0.008 0.008 0.007 0.007 0.006 0.006 0.005 0.005 0.004 0.004 0.004 0.003 0.003 0.003 0.003 0.003 0.003 0.003 0.002 0.002 0.002 0.002 0.002 0.002 0.002 0.002 0.002 0.002 0.002 0.002 0.003 0.003 0.003 0.003 0.003 0.003 0.004 0.004 0.004 0.005 0.005 0.006 0.007 0.007 0.008 0.009 0.010 0.012 0.013 0.015 0.018 0.021 0.023 0.024 0.025 0.025 0.023 0.018 0.007 0.000 0.000 0.000 
0.000 0.000 0.000 0.000 0.000 0.000 0.000 0.000 0.000 0.000 0.000 0.000 0.000 0.000 0.000 0.000 0.000 0.000 0.000 0.000 0.000 0.000 0.000 0.000 0.000 0.000 0.000 0.000 0.000 0.000 0.000 0.000 0.000 0.000 0.000 0.000 0.000 0.000 0.000 0.000 0.000 0.000 0.000 0.000 0.000 0.000 0.000 0.000 0.000 0.000 0.000 0.000 0.000 0.000 0.000 0.000 0.000 0.000 0.000 0.000 0.000 0.000 0.000 0.000 0.000 0.000 0.000 0.000 0.000 0.000 0.000 0.000 0.000 0.000 0.000 0.000 0.000 0.000 0.000 0.000 0.000 0.000 0.000 0.000 0.000 0.000 0.000 0.000 0.000 0.000 0.000 0.000 0.000 0.000 0.000 0.000 0.000 0.000 0.000 0.000 0.000 0.000 0.000 0.000 0.000 0.000 0.000 0.000 0.000 0.000 0.000 0.000 0.000 0.000 0.000 0.000 0.000 0.000 0.000 0.000 0.000 0.000 0.000 0.000 0.000 0.000 0.000 0.000 0.000 0.000 0.000 0.000 0.000 0.000 0.000 0.000 0.000 0.000 0.000 0.000 0.000 0.000 0.000 0.000 0.000 0.000 0.000 0.000 0.000 0.000 0.000 0.000 0.000 0.000 0.000 0.000 0.000 0.000 0.000 0.000 0.000 0.000 0.000 0.000 0.000 0.000 0.000 0.000 
0.000 0.089 0.089 0.077 0.065 0.049 0.049 0.029 0.010 0.010 0.001 0.003 0.005 0.005 0.005 0.005 0.005 0.005 0.004 0.002 0.002 0.001 0.000 0.001 0.001 0.001 0.001 0.001 0.001 0.001 0.001 0.001 0.001 0.001 0.001 0.001 0.001 0.001 0.001 0.001 0.000 0.000 0.000 0.001 0.004 0.008 0.008 0.021 0.046 0.046 0.070 0.087 0.098 0.098 0.108 0.116 0.122 0.122 0.127 0.122 0.122 0.106 0.089 0.081 0.081 0.081 0.080 0.079 0.079 0.078 0.077 0.077 0.076 0.077 0.077 0.077 0.077 0.076 0.074 0.074 0.073 0.071 0.071 0.069 0.069 0.073 0.073 0.076 0.062 0.031 0.031 0.001 0.000 0.000 0.007 0.022 0.025 0.025 0.018 0.011 0.017 0.017 0.035 0.053 0.053 0.059 0.055 0.051 0.051 0.046 0.039 0.033 0.033 0.025 0.015 0.015 0.006 0.001 0.002 0.002 0.002 0.002 0.002 0.002 0.001 0.001 0.001 0.001 0.001 0.001 0.001 0.001 0.000 0.000 0.001 0.003 0.004 0.004 0.007 0.012 0.016 0.016 0.018 0.017 0.017 0.016 0.015 0.014 0.014 0.013 0.011 0.009 0.009 0.007 0.005 0.005 0.003 0.002 0.000 0.000 0.000 0.000 0.000 0.000 0.007 0.014 0.014 0.000 
0.000 0.000 0.000 0.000 0.000 0.000 0.000 0.000 0.000 0.000 0.000 0.000 0.000 0.000 0.000 0.000 0.000 0.000 0.000 0.000 0.000 0.000 0.000 0.000 0.000 0.000 0.000 0.000 0.000 0.000 0.000 0.000 0.000 0.000 0.000 0.000 0.000 0.000 0.000 0.000 0.000 0.000 0.000 0.000 0.000 0.000 0.000 0.000 0.000 0.000 0.000 0.000 0.000 0.000 0.000 0.000 0.000 0.000 0.000 0.000 0.000 0.000 0.000 0.000 0.000 0.000 0.000 0.000 0.000 0.000 0.000 0.000 0.000 0.000 0.000 0.000 0.000 0.000 0.000 0.000 0.000 0.000 0.000 0.000 0.000 0.000 0.000 0.000 0.000 0.000 0.000 0.000 0.000 0.000 0.000 0.000 0.000 0.000 0.000 0.000 0.000 0.000 0.000 0.000 0.000 0.000 0.000 0.000 0.000 0.000 0.000 0.000 0.000 0.000 0.000 0.000 0.000 0.000 0.000 0.000 0.000 0.000 0.000 0.000 0.000 0.000 0.000 0.000 0.000 0.000 0.000 0.000 0.000 0.000 0.000 0.000 0.000 0.000 0.000 0.000 0.000 0.000 0.000 0.000 0.000 0.000 0.000 0.000 0.000 0.000 0.000 0.000 0.000 0.000 0.000 0.000 0.000 0.000 0.000 0.000 0.000 0.000 0.000 0.000 0.000 0.000 0.000 0.000 
