ncols 168
nrows 121
xllcenter 640304.69
yllcenter 1081277.12
cellsize 46.59
NODATA_value -9999.000
0.000 0.000 0.000 0.000 0.000 0.000 0.000 0.000 0.000 0.000 0.000 0.000 0.000 0.000 0.000 0.000 0.000 0.000 0.000 0.000 0.000 0.000 0.000 0.000 0.000 0.000 0.000 0.000 0.000 0.000 0.000 0.000 0.000 0.000 0.000 0.000 0.000 0.000 0.000 0.000 0.000 0.000 0.000 0.000 0.000 0.000 0.000 0.000 0.000 0.000 0.000 0.000 0.000 0.000 0.000 0.000 0.000 0.000 0.000 0.000 0.000 0.000 0.000 0.000 0.000 0.000 0.000 0.000 0.000 0.000 0.000 0.000 0.000 0.000 0.000 0.000 0.000 0.000 0.000 0.000 0.000 0.000 0.000 0.000 0.000 0.000 0.000 0.000 0.000 0.000 0.000 0.000 0.000 0.000 0.000 0.000 0.000 0.000 0.000 0.000 0.000 0.000 0.000 0.000 0.000 0.000 0.000 0.000 0.000 0.000 0.000 0.000 0.000 0.000 0.000 0.000 0.000 0.000 0.000 0.000 0.000 0.000 0.000 0.000 0.000 0.000 0.000 0.000 0.000 0.000 0.000 0.000 0.000 0.000 0.000 0.000 0.000 0.000 0.000 0.000 0.000 0.000 0.000 0.000 0.000 0.000 0.000 0.000 0.000 0.000 0.000 0.000 0.000 0.000 0.000 0.000 0.000 0.000 0.000 0.000 0.000 0.000 0.000 0.000 0.000 0.000 0.000 0.000 
0.000 0.397 0.397 0.397 0.296 0.018 0.018 0.000 0.000 0.000 0.024 0.303 0.397 0.397 0.397 0.397 0.397 0.397 0.397 0.397 0.397 0.397 0.397 0.397 0.397 0.397 0.397 0.397 0.397 0.397 0.397 0.397 0.397 0.397 0.481 0.481 0.614 0.784 0.955 0.955 1.032 1.061 1.061 1.061 1.061 1.054 1.054 1.036 1.033 1.033 1.012 0.958 0.784 0.784 0.609 0.498 0.519 0.519 0.678 0.853 0.853 0.986 0.311 0.501 0.501 1.060 1.047 0.944 0.944 0.815 0.686 0.686 0.644 0.691 0.821 0.821 0.950 0.580 0.251 0.251 0.931 1.064 1.064 1.064 1.064 1.064 1.064 1.068 1.081 1.131 1.131 1.181 1.199 1.199 1.127 0.921 0.684 0.684 0.439 0.472 0.334 0.334 0.188 0.856 0.856 0.930 0.757 0.571 0.571 0.460 0.485 0.671 0.671 0.857 1.018 1.018 1.156 1.258 0.760 0.760 0.516 1.272 1.263 1.263 1.162 1.067 1.067 1.067 1.067 1.067 1.067 1.067 1.067 1.067 1.068 1.068 1.068 1.068 1.068 1.068 1.068 1.068 1.068 1.068 1.068 1.068 1.068 1.069 1.069 1.069 1.069 1.069 1.069 1.013 0.445 0.445 0.644 1.038 0.914 0.914 0.730 0.531 0.328 0.328 0.101 0.000 0.000 0.000 
0.000 0.234 0.234 0.233 0.174 0.011 0.011 0.000 0.000 0.000 0.013 0.164 0.220 0.220 0.225 0.224 0.223 0.223 0.222 0.221 0.221 0.220 0.219 0.218 0.218 0.217 0.216 0.212 0.212 0.202 0.200 0.200 0.203 0.211 0.339 0.339 0.521 0.744 0.968 0.968 1.056 1.080 1.080 1.080 1.080 0.900 0.900 0.500 0.497 0.497 0.687 0.918 0.691 0.691 0.464 0.330 0.397 0.397 0.608 0.835 0.835 1.038 0.730 0.820 0.820 1.075 1.045 0.909 0.909 0.741 0.573 0.573 0.543 0.618 0.786 0.786 0.954 0.845 0.718 0.718 1.023 1.082 1.082 1.083 1.083 1.083 1.083 1.091 1.112 1.176 1.176 1.240 1.257 1.257 1.136 0.866 0.544 0.544 0.191 0.199 0.308 0.308 0.525 0.939 0.939 0.896 0.663 0.424 0.424 0.312 0.363 0.602 0.602 0.841 1.044 1.044 1.214 1.345 1.240 1.240 1.186 1.415 1.324 1.324 1.199 1.086 1.086 1.086 1.086 1.086 1.086 1.086 1.086 1.086 1.086 1.086 1.087 1.087 1.087 1.087 1.087 1.087 1.087 1.087 1.087 1.087 1.087 1.087 1.087 1.087 1.088 1.088 1.088 1.069 0.877 0.877 0.945 1.045 0.869 0.869 0.633 0.377 0.112 0.112 0.033 0.000 0.000 0.000 
0.000 0.046 0.046 0.140 0.146 0.075 0.021 0.011 0.007 0.007 0.017 0.083 0.178 0.207 0.218 0.222 0.223 0.223 0.223 0.222 0.222 0.221 0.221 0.220 0.219 0.219 0.218 0.216 0.215 0.211 0.206 0.206 0.208 0.218 0.276 0.344 0.430 0.630 0.852 0.946 0.999 1.052 1.063 1.063 1.057 0.982 0.872 0.689 0.543 0.534 0.597 0.772 0.769 0.690 0.584 0.422 0.398 0.422 0.502 0.720 0.825 0.902 0.883 0.821 0.849 0.949 1.023 0.968 0.902 0.827 0.663 0.598 0.583 0.597 0.700 0.785 0.860 0.889 0.813 0.793 0.889 1.033 1.069 1.077 1.079 1.081 1.082 1.086 1.099 1.138 1.167 1.195 1.228 1.231 1.182 1.007 0.708 0.546 0.378 0.249 0.283 0.334 0.435 0.732 0.880 0.874 0.777 0.550 0.452 0.399 0.376 0.481 0.596 0.712 0.933 1.036 1.126 1.262 1.272 1.241 1.232 1.297 1.342 1.314 1.263 1.146 1.103 1.094 1.090 1.088 1.087 1.086 1.086 1.086 1.086 1.086 1.086 1.086 1.086 1.087 1.087 1.087 1.087 1.087 1.087 1.087 1.087 1.087 1.087 1.086 1.086 1.085 1.082 1.068 0.987 0.918 0.924 0.975 0.945 0.865 0.761 0.529 0.278 0.182 0.158 0.171 0.171 0.000 
0.000 0.014 0.014 0.047 0.072 0.064 0.043 0.033 0.031 0.035 0.055 0.103 0.163 0.197 0.213 0.221 0.224 0.225 0.226 0.226 0.226 0.226 0.225 0.225 0.225 0.225 0.225 0.225 0.225 0.225 0.225 0.229 0.238 0.262 0.306 0.380 0.485 0.642 0.798 0.894 0.954 0.986 0.999 0.999 0.984 0.940 0.851 0.726 0.655 0.641 0.663 0.711 0.721 0.690 0.607 0.536 0.511 0.519 0.577 0.696 0.804 0.850 0.859 0.861 0.878 0.921 0.941 0.934 0.892 0.817 0.728 0.680 0.667 0.676 0.716 0.789 0.841 0.858 0.860 0.870 0.917 0.993 1.035 1.056 1.066 1.072 1.077 1.083 1.095 1.114 1.135 1.149 1.152 1.137 1.085 0.961 0.758 0.580 0.464 0.414 0.403 0.436 0.530 0.677 0.750 0.757 0.718 0.614 0.532 0.501 0.502 0.529 0.609 0.727 0.876 1.007 1.113 1.186 1.220 1.230 1.236 1.259 1.276 1.269 1.229 1.163 1.122 1.104 1.095 1.091 1.088 1.087 1.086 1.086 1.086 1.086 1.086 1.086 1.086 1.086 1.086 1.086 1.086 1.086 1.086 1.086 1.085 1.085 1.084 1.082 1.080 1.074 1.064 1.042 0.997 0.959 0.945 0.936 0.917 0.862 0.761 0.606 0.480 0.432 0.441 0.493 0.493 0.000 
0.000 0.001 0.001 0.017 0.046 0.059 0.061 0.061 0.064 0.074 0.094 0.127 0.168 0.197 0.213 0.222 0.226 0.229 0.231 0.232 0.232 0.233 0.234 0.234 0.235 0.236 0.237 0.239 0.242 0.246 0.253 0.265 0.285 0.317 0.365 0.436 0.536 0.663 0.777 0.854 0.902 0.927 0.936 0.936 0.927 0.899 0.841 0.765 0.720 0.704 0.703 0.711 0.710 0.691 0.647 0.615 0.608 0.614 0.645 0.715 0.791 0.833 0.855 0.872 0.889 0.905 0.910 0.905 0.882 0.830 0.777 0.750 0.742 0.744 0.758 0.795 0.835 0.858 0.878 0.901 0.937 0.984 1.017 1.037 1.050 1.060 1.067 1.074 1.081 1.088 1.092 1.091 1.082 1.058 1.006 0.913 0.770 0.641 0.566 0.534 0.529 0.542 0.590 0.663 0.697 0.701 0.687 0.641 0.599 0.586 0.586 0.601 0.645 0.729 0.847 0.970 1.062 1.123 1.166 1.194 1.209 1.215 1.215 1.210 1.192 1.157 1.125 1.107 1.097 1.092 1.088 1.087 1.086 1.085 1.085 1.085 1.085 1.085 1.085 1.085 1.085 1.085 1.085 1.085 1.084 1.084 1.083 1.081 1.079 1.076 1.070 1.062 1.050 1.030 1.002 0.973 0.951 0.930 0.904 0.859 0.784 0.707 0.666 0.655 0.670 0.707 0.707 0.000 
0.000 0.000 0.000 0.009 0.039 0.064 0.080 0.091 0.101 0.114 0.131 0.154 0.180 0.201 0.216 0.225 0.231 0.235 0.238 0.240 0.242 0.243 0.245 0.247 0.249 0.251 0.254 0.259 0.265 0.275 0.289 0.309 0.337 0.375 0.424 0.490 0.576 0.680 0.767 0.829 0.869 0.890 0.898 0.899 0.894 0.878 0.844 0.796 0.761 0.741 0.730 0.722 0.715 0.703 0.685 0.675 0.673 0.680 0.700 0.740 0.793 0.831 0.857 0.877 0.892 0.899 0.900 0.897 0.881 0.848 0.817 0.800 0.795 0.795 0.799 0.814 0.838 0.864 0.890 0.918 0.952 0.985 1.009 1.025 1.037 1.046 1.053 1.057 1.059 1.059 1.057 1.051 1.036 1.007 0.959 0.884 0.778 0.688 0.634 0.610 0.604 0.608 0.628 0.663 0.681 0.683 0.678 0.658 0.640 0.635 0.637 0.650 0.682 0.739 0.824 0.923 1.002 1.062 1.109 1.142 1.160 1.166 1.167 1.165 1.158 1.143 1.123 1.107 1.097 1.092 1.088 1.086 1.085 1.085 1.084 1.084 1.084 1.084 1.084 1.084 1.084 1.083 1.083 1.083 1.082 1.081 1.079 1.077 1.073 1.068 1.062 1.053 1.041 1.024 1.002 0.978 0.954 0.930 0.903 0.869 0.829 0.803 0.794 0.798 0.817 0.833 0.833 0.000 
0.000 0.000 0.000 0.009 0.042 0.077 0.103 0.123 0.139 0.153 0.168 0.183 0.199 0.213 0.225 0.233 0.240 0.245 0.248 0.251 0.254 0.257 0.260 0.263 0.266 0.270 0.276 0.284 0.294 0.309 0.328 0.353 0.383 0.422 0.470 0.531 0.607 0.693 0.763 0.814 0.848 0.868 0.877 0.879 0.877 0.869 0.850 0.820 0.792 0.771 0.756 0.743 0.733 0.727 0.724 0.724 0.726 0.734 0.748 0.771 0.803 0.837 0.863 0.882 0.893 0.898 0.899 0.896 0.886 0.867 0.849 0.839 0.836 0.835 0.837 0.842 0.854 0.875 0.902 0.932 0.962 0.988 1.007 1.020 1.028 1.034 1.038 1.040 1.040 1.038 1.032 1.022 1.003 0.974 0.930 0.866 0.785 0.720 0.679 0.658 0.650 0.649 0.655 0.669 0.678 0.680 0.678 0.670 0.664 0.664 0.668 0.680 0.705 0.747 0.808 0.884 0.953 1.009 1.053 1.085 1.105 1.117 1.124 1.127 1.127 1.123 1.115 1.104 1.096 1.090 1.087 1.085 1.084 1.083 1.083 1.083 1.082 1.082 1.082 1.082 1.082 1.081 1.081 1.080 1.079 1.078 1.075 1.072 1.068 1.062 1.055 1.046 1.034 1.019 1.001 0.979 0.956 0.933 0.911 0.892 0.879 0.874 0.877 0.892 0.922 0.934 0.934 0.000 
0.000 0.034 0.034 0.022 0.056 0.101 0.135 0.160 0.178 0.193 0.204 0.214 0.223 0.232 0.240 0.247 0.253 0.257 0.262 0.265 0.269 0.273 0.277 0.281 0.287 0.293 0.302 0.312 0.326 0.344 0.365 0.391 0.422 0.460 0.506 0.563 0.631 0.703 0.762 0.806 0.836 0.856 0.866 0.870 0.870 0.867 0.856 0.838 0.817 0.799 0.783 0.772 0.765 0.763 0.765 0.769 0.775 0.782 0.792 0.805 0.824 0.849 0.872 0.888 0.897 0.900 0.901 0.900 0.895 0.887 0.878 0.873 0.872 0.872 0.873 0.875 0.881 0.894 0.916 0.944 0.971 0.991 1.007 1.017 1.023 1.027 1.028 1.028 1.027 1.022 1.014 1.001 0.981 0.951 0.911 0.856 0.792 0.743 0.709 0.689 0.679 0.676 0.675 0.678 0.681 0.682 0.681 0.680 0.681 0.683 0.688 0.699 0.719 0.751 0.796 0.853 0.913 0.963 1.003 1.034 1.057 1.074 1.086 1.095 1.100 1.102 1.101 1.097 1.092 1.087 1.085 1.083 1.082 1.081 1.081 1.081 1.080 1.080 1.080 1.080 1.080 1.079 1.079 1.078 1.076 1.074 1.071 1.068 1.063 1.057 1.050 1.041 1.029 1.015 0.999 0.980 0.959 0.942 0.929 0.923 0.920 0.922 0.929 0.950 0.989 1.015 1.015 0.000 
0.000 0.071 0.071 0.060 0.094 0.141 0.177 0.203 0.221 0.233 0.242 0.247 0.252 0.256 0.260 0.265 0.270 0.274 0.279 0.283 0.287 0.292 0.297 0.303 0.310 0.319 0.330 0.343 0.358 0.376 0.398 0.424 0.455 0.492 0.536 0.588 0.650 0.712 0.762 0.801 0.830 0.849 0.861 0.867 0.869 0.868 0.863 0.854 0.841 0.827 0.815 0.808 0.805 0.806 0.809 0.815 0.822 0.828 0.835 0.842 0.853 0.868 0.885 0.897 0.903 0.907 0.908 0.909 0.909 0.908 0.906 0.905 0.905 0.906 0.907 0.910 0.913 0.921 0.935 0.957 0.979 0.996 1.008 1.016 1.020 1.022 1.022 1.021 1.018 1.011 1.001 0.986 0.965 0.936 0.898 0.850 0.798 0.758 0.730 0.711 0.700 0.693 0.690 0.688 0.688 0.688 0.688 0.690 0.692 0.695 0.701 0.711 0.727 0.752 0.786 0.830 0.879 0.923 0.960 0.990 1.015 1.035 1.051 1.064 1.073 1.080 1.084 1.085 1.084 1.082 1.081 1.080 1.079 1.079 1.078 1.078 1.078 1.078 1.078 1.077 1.077 1.077 1.076 1.075 1.073 1.071 1.068 1.064 1.060 1.054 1.046 1.037 1.026 1.012 0.997 0.980 0.966 0.956 0.950 0.948 0.949 0.952 0.962 0.982 1.018 1.047 1.047 0.000 
0.000 0.210 0.210 0.137 0.165 0.202 0.233 0.254 0.269 0.278 0.282 0.284 0.285 0.285 0.287 0.289 0.292 0.295 0.299 0.303 0.308 0.314 0.320 0.327 0.336 0.345 0.357 0.370 0.386 0.405 0.427 0.453 0.483 0.519 0.561 0.609 0.665 0.719 0.764 0.800 0.827 0.846 0.859 0.867 0.870 0.872 0.872 0.870 0.864 0.856 0.851 0.849 0.850 0.852 0.856 0.862 0.867 0.871 0.876 0.880 0.885 0.893 0.903 0.910 0.915 0.919 0.922 0.924 0.928 0.931 0.933 0.935 0.937 0.938 0.941 0.943 0.946 0.951 0.959 0.973 0.989 1.002 1.011 1.017 1.020 1.020 1.019 1.017 1.012 1.003 0.991 0.975 0.953 0.925 0.889 0.845 0.803 0.769 0.744 0.726 0.714 0.707 0.702 0.699 0.697 0.697 0.697 0.699 0.701 0.704 0.709 0.718 0.731 0.751 0.777 0.811 0.851 0.889 0.923 0.952 0.977 0.999 1.018 1.034 1.047 1.057 1.065 1.070 1.073 1.074 1.074 1.074 1.075 1.075 1.075 1.075 1.075 1.075 1.075 1.075 1.074 1.074 1.073 1.072 1.070 1.068 1.065 1.061 1.057 1.051 1.043 1.034 1.023 1.010 0.996 0.983 0.974 0.968 0.966 0.965 0.966 0.971 0.981 1.000 1.027 1.044 1.044 0.000 
0.000 0.354 0.354 0.278 0.274 0.289 0.305 0.316 0.321 0.323 0.323 0.321 0.320 0.318 0.318 0.318 0.319 0.320 0.323 0.327 0.332 0.337 0.344 0.351 0.360 0.369 0.381 0.395 0.411 0.430 0.453 0.478 0.508 0.542 0.582 0.627 0.678 0.726 0.767 0.800 0.826 0.845 0.859 0.868 0.875 0.880 0.884 0.887 0.888 0.887 0.888 0.889 0.892 0.896 0.901 0.905 0.909 0.913 0.915 0.917 0.919 0.922 0.926 0.930 0.933 0.937 0.941 0.945 0.951 0.957 0.961 0.965 0.968 0.970 0.973 0.975 0.977 0.980 0.985 0.992 1.002 1.010 1.016 1.019 1.020 1.020 1.018 1.014 1.008 0.998 0.984 0.967 0.945 0.917 0.883 0.843 0.806 0.776 0.754 0.737 0.725 0.716 0.711 0.707 0.705 0.705 0.705 0.705 0.707 0.710 0.714 0.722 0.733 0.749 0.770 0.796 0.827 0.860 0.890 0.918 0.943 0.966 0.987 1.005 1.021 1.034 1.045 1.054 1.059 1.063 1.066 1.068 1.069 1.070 1.071 1.071 1.072 1.072 1.072 1.072 1.071 1.071 1.070 1.069 1.067 1.065 1.062 1.059 1.054 1.048 1.041 1.032 1.021 1.009 0.996 0.986 0.980 0.976 0.975 0.975 0.977 0.981 0.991 1.008 1.030 1.042 1.042 0.000 
0.000 0.479 0.479 0.414 0.402 0.388 0.380 0.374 0.369 0.363 0.358 0.354 0.351 0.348 0.347 0.347 0.347 0.348 0.349 0.352 0.355 0.360 0.366 0.373 0.381 0.391 0.403 0.418 0.434 0.454 0.476 0.501 0.530 0.563 0.600 0.642 0.689 0.732 0.769 0.800 0.825 0.845 0.860 0.872 0.882 0.891 0.899 0.906 0.912 0.917 0.922 0.927 0.931 0.936 0.941 0.946 0.949 0.952 0.954 0.954 0.954 0.954 0.954 0.956 0.958 0.961 0.965 0.970 0.977 0.985 0.991 0.995 0.999 1.001 1.003 1.005 1.006 1.008 1.010 1.013 1.017 1.021 1.023 1.023 1.023 1.021 1.018 1.013 1.005 0.994 0.980 0.961 0.938 0.911 0.878 0.841 0.809 0.782 0.761 0.744 0.732 0.723 0.717 0.713 0.711 0.710 0.710 0.710 0.711 0.714 0.717 0.723 0.733 0.746 0.763 0.784 0.808 0.835 0.862 0.888 0.912 0.935 0.956 0.977 0.995 1.011 1.025 1.036 1.044 1.051 1.056 1.060 1.062 1.064 1.066 1.067 1.068 1.068 1.068 1.068 1.068 1.067 1.067 1.066 1.064 1.062 1.059 1.056 1.052 1.046 1.039 1.031 1.020 1.008 0.997 0.989 0.984 0.981 0.980 0.981 0.982 0.987 0.996 1.012 1.029 1.039 1.039 0.000 
0.000 0.603 0.603 0.537 0.496 0.462 0.438 0.420 0.407 0.396 0.388 0.381 0.377 0.374 0.372 0.371 0.371 0.371 0.372 0.374 0.377 0.381 0.386 0.393 0.401 0.411 0.424 0.439 0.455 0.475 0.497 0.522 0.550 0.581 0.616 0.655 0.698 0.738 0.772 0.802 0.826 0.846 0.864 0.879 0.893 0.905 0.917 0.928 0.938 0.947 0.954 0.961 0.967 0.973 0.979 0.983 0.987 0.989 0.990 0.991 0.990 0.989 0.988 0.988 0.988 0.991 0.994 1.000 1.007 1.015 1.022 1.026 1.029 1.031 1.033 1.034 1.035 1.035 1.035 1.035 1.035 1.034 1.032 1.030 1.027 1.024 1.019 1.013 1.004 0.992 0.976 0.957 0.934 0.906 0.874 0.840 0.811 0.786 0.766 0.750 0.738 0.728 0.722 0.718 0.715 0.714 0.714 0.714 0.714 0.716 0.719 0.724 0.732 0.742 0.756 0.773 0.793 0.815 0.838 0.861 0.884 0.906 0.928 0.949 0.969 0.987 1.003 1.017 1.028 1.037 1.045 1.050 1.055 1.058 1.060 1.062 1.063 1.064 1.064 1.064 1.064 1.064 1.063 1.063 1.061 1.059 1.057 1.054 1.049 1.044 1.038 1.030 1.020 1.008 0.998 0.991 0.986 0.983 0.983 0.983 0.984 0.989 0.997 1.012 1.028 1.036 1.036 0.000 
0.000 0.640 0.640 0.609 0.560 0.512 0.478 0.454 0.436 0.422 0.412 0.404 0.399 0.395 0.393 0.392 0.392 0.392 0.392 0.393 0.395 0.399 0.404 0.411 0.419 0.430 0.443 0.458 0.475 0.494 0.516 0.540 0.567 0.597 0.631 0.667 0.707 0.743 0.776 0.804 0.829 0.851 0.871 0.889 0.906 0.923 0.938 0.952 0.965 0.976 0.985 0.993 1.001 1.007 1.013 1.018 1.021 1.024 1.026 1.026 1.026 1.026 1.025 1.024 1.024 1.025 1.028 1.033 1.040 1.048 1.053 1.057 1.059 1.060 1.061 1.061 1.062 1.061 1.060 1.058 1.054 1.050 1.045 1.040 1.034 1.028 1.022 1.013 1.003 0.990 0.974 0.954 0.930 0.903 0.872 0.840 0.812 0.789 0.769 0.754 0.742 0.732 0.725 0.721 0.718 0.716 0.716 0.716 0.716 0.717 0.719 0.724 0.730 0.739 0.750 0.764 0.780 0.798 0.817 0.838 0.859 0.880 0.901 0.922 0.943 0.963 0.981 0.997 1.011 1.023 1.032 1.040 1.046 1.050 1.054 1.056 1.058 1.059 1.060 1.060 1.060 1.060 1.060 1.059 1.058 1.057 1.054 1.051 1.047 1.043 1.036 1.029 1.020 1.009 0.999 0.992 0.987 0.984 0.983 0.983 0.985 0.989 0.997 1.012 1.026 1.034 1.034 0.000 
0.000 0.675 0.675 0.647 0.595 0.542 0.504 0.477 0.456 0.441 0.430 0.422 0.416 0.412 0.410 0.409 0.409 0.408 0.409 0.410 0.412 0.415 0.420 0.427 0.436 0.447 0.460 0.475 0.493 0.512 0.534 0.557 0.584 0.612 0.644 0.678 0.714 0.749 0.780 0.808 0.834 0.858 0.881 0.903 0.923 0.943 0.961 0.977 0.991 1.003 1.014 1.023 1.031 1.039 1.045 1.050 1.054 1.057 1.059 1.060 1.061 1.061 1.061 1.061 1.062 1.063 1.066 1.069 1.075 1.080 1.083 1.086 1.087 1.088 1.088 1.088 1.088 1.086 1.084 1.080 1.075 1.068 1.060 1.052 1.044 1.035 1.026 1.015 1.004 0.989 0.972 0.952 0.928 0.901 0.870 0.840 0.813 0.791 0.772 0.757 0.745 0.735 0.728 0.723 0.720 0.718 0.717 0.717 0.717 0.718 0.719 0.723 0.728 0.735 0.744 0.755 0.768 0.783 0.800 0.818 0.836 0.856 0.876 0.897 0.919 0.940 0.960 0.977 0.993 1.007 1.019 1.028 1.036 1.042 1.047 1.050 1.053 1.054 1.056 1.056 1.056 1.057 1.056 1.056 1.055 1.054 1.052 1.049 1.045 1.041 1.035 1.028 1.020 1.010 1.000 0.992 0.987 0.984 0.983 0.983 0.984 0.988 0.996 1.009 1.024 1.031 1.031 0.000 
0.000 0.650 0.650 0.652 0.607 0.557 0.519 0.491 0.470 0.455 0.443 0.435 0.430 0.426 0.424 0.423 0.422 0.422 0.423 0.424 0.426 0.429 0.435 0.442 0.452 0.463 0.476 0.492 0.509 0.528 0.549 0.573 0.598 0.626 0.656 0.688 0.722 0.755 0.786 0.815 0.843 0.869 0.895 0.919 0.943 0.964 0.984 1.001 1.016 1.029 1.041 1.051 1.060 1.067 1.074 1.079 1.084 1.087 1.090 1.091 1.093 1.094 1.095 1.096 1.097 1.098 1.100 1.103 1.106 1.110 1.112 1.113 1.114 1.114 1.114 1.114 1.113 1.110 1.107 1.102 1.096 1.088 1.078 1.067 1.056 1.044 1.032 1.019 1.005 0.990 0.972 0.950 0.926 0.899 0.868 0.840 0.814 0.793 0.774 0.759 0.747 0.737 0.730 0.724 0.721 0.718 0.717 0.717 0.717 0.718 0.719 0.722 0.726 0.731 0.738 0.747 0.758 0.770 0.784 0.800 0.817 0.835 0.854 0.874 0.895 0.917 0.938 0.958 0.975 0.991 1.004 1.016 1.025 1.033 1.039 1.043 1.047 1.049 1.051 1.052 1.052 1.053 1.053 1.052 1.052 1.051 1.049 1.047 1.043 1.039 1.034 1.028 1.020 1.011 1.001 0.993 0.987 0.983 0.981 0.980 0.981 0.984 0.991 1.004 1.020 1.029 1.029 0.000 
0.000 0.624 0.624 0.632 0.607 0.563 0.525 0.498 0.478 0.463 0.453 0.445 0.440 0.437 0.435 0.434 0.434 0.434 0.434 0.435 0.438 0.442 0.448 0.456 0.466 0.478 0.491 0.507 0.524 0.543 0.564 0.587 0.612 0.639 0.667 0.698 0.730 0.762 0.794 0.824 0.854 0.883 0.911 0.938 0.963 0.985 1.005 1.023 1.039 1.053 1.065 1.076 1.086 1.094 1.101 1.107 1.112 1.115 1.118 1.121 1.123 1.124 1.125 1.127 1.128 1.129 1.131 1.133 1.135 1.137 1.139 1.139 1.140 1.140 1.139 1.138 1.136 1.133 1.129 1.124 1.117 1.108 1.097 1.084 1.070 1.056 1.041 1.025 1.008 0.991 0.971 0.950 0.925 0.897 0.867 0.840 0.815 0.794 0.776 0.761 0.749 0.739 0.731 0.725 0.721 0.719 0.717 0.717 0.717 0.717 0.718 0.720 0.723 0.727 0.733 0.740 0.748 0.759 0.771 0.784 0.799 0.816 0.834 0.853 0.874 0.896 0.918 0.939 0.958 0.975 0.990 1.003 1.014 1.023 1.031 1.036 1.041 1.044 1.046 1.048 1.048 1.049 1.049 1.049 1.049 1.048 1.046 1.044 1.041 1.038 1.033 1.027 1.020 1.012 1.002 0.994 0.986 0.980 0.976 0.974 0.974 0.976 0.981 0.994 1.014 1.026 1.026 0.000 
0.000 0.598 0.598 0.608 0.594 0.563 0.527 0.500 0.481 0.468 0.459 0.452 0.448 0.445 0.443 0.443 0.443 0.443 0.444 0.446 0.449 0.454 0.461 0.469 0.479 0.491 0.505 0.520 0.537 0.556 0.577 0.600 0.624 0.650 0.678 0.708 0.739 0.771 0.803 0.836 0.868 0.899 0.928 0.956 0.981 1.004 1.025 1.043 1.060 1.075 1.088 1.100 1.110 1.119 1.126 1.132 1.138 1.142 1.145 1.148 1.150 1.152 1.153 1.155 1.156 1.158 1.159 1.161 1.162 1.163 1.164 1.164 1.164 1.163 1.163 1.161 1.158 1.155 1.150 1.144 1.136 1.126 1.115 1.101 1.086 1.069 1.051 1.033 1.013 0.993 0.972 0.949 0.924 0.896 0.867 0.840 0.816 0.796 0.778 0.762 0.750 0.740 0.732 0.726 0.721 0.719 0.717 0.717 0.716 0.717 0.717 0.718 0.720 0.723 0.728 0.733 0.740 0.748 0.759 0.771 0.784 0.799 0.816 0.835 0.855 0.876 0.899 0.921 0.941 0.959 0.976 0.990 1.003 1.013 1.022 1.029 1.034 1.038 1.041 1.043 1.044 1.045 1.045 1.045 1.045 1.045 1.044 1.042 1.039 1.036 1.032 1.026 1.020 1.012 1.003 0.994 0.985 0.977 0.969 0.963 0.960 0.960 0.964 0.977 1.005 1.023 1.023 0.000 
0.000 0.572 0.572 0.583 0.575 0.556 0.527 0.501 0.483 0.470 0.462 0.456 0.453 0.451 0.450 0.449 0.449 0.450 0.452 0.454 0.459 0.464 0.472 0.481 0.491 0.503 0.517 0.532 0.549 0.568 0.589 0.611 0.635 0.661 0.688 0.717 0.748 0.780 0.814 0.848 0.882 0.914 0.944 0.972 0.997 1.021 1.042 1.062 1.079 1.095 1.109 1.121 1.132 1.141 1.149 1.156 1.161 1.166 1.170 1.173 1.175 1.177 1.179 1.181 1.182 1.183 1.184 1.185 1.186 1.187 1.187 1.187 1.187 1.186 1.184 1.182 1.179 1.175 1.170 1.163 1.154 1.144 1.132 1.118 1.102 1.084 1.064 1.042 1.021 0.998 0.975 0.950 0.924 0.895 0.867 0.841 0.818 0.797 0.779 0.764 0.751 0.741 0.732 0.726 0.722 0.719 0.717 0.716 0.715 0.715 0.715 0.716 0.717 0.719 0.722 0.726 0.732 0.739 0.748 0.758 0.771 0.785 0.801 0.818 0.837 0.858 0.880 0.904 0.925 0.945 0.962 0.978 0.992 1.003 1.013 1.021 1.027 1.032 1.036 1.038 1.040 1.041 1.041 1.042 1.041 1.041 1.041 1.039 1.037 1.034 1.030 1.025 1.019 1.012 1.003 0.994 0.984 0.973 0.962 0.951 0.940 0.934 0.933 0.944 0.987 1.042 1.042 0.000 
0.000 0.546 0.546 0.558 0.553 0.542 0.522 0.499 0.482 0.470 0.463 0.459 0.456 0.455 0.454 0.454 0.455 0.456 0.459 0.462 0.467 0.474 0.482 0.491 0.502 0.514 0.528 0.543 0.560 0.579 0.599 0.621 0.644 0.670 0.697 0.726 0.757 0.789 0.823 0.859 0.893 0.926 0.957 0.986 1.012 1.036 1.059 1.079 1.097 1.113 1.128 1.141 1.152 1.162 1.170 1.177 1.183 1.188 1.192 1.196 1.199 1.201 1.203 1.204 1.205 1.206 1.207 1.208 1.208 1.209 1.209 1.208 1.208 1.207 1.205 1.202 1.199 1.194 1.188 1.181 1.172 1.161 1.148 1.134 1.117 1.098 1.077 1.054 1.030 1.004 0.978 0.952 0.924 0.895 0.867 0.842 0.819 0.798 0.780 0.765 0.752 0.741 0.733 0.726 0.721 0.718 0.716 0.714 0.714 0.713 0.713 0.713 0.714 0.715 0.717 0.720 0.725 0.731 0.738 0.748 0.759 0.772 0.787 0.803 0.822 0.842 0.864 0.887 0.910 0.931 0.950 0.966 0.981 0.994 1.004 1.013 1.021 1.026 1.030 1.034 1.036 1.037 1.038 1.038 1.038 1.038 1.037 1.036 1.035 1.032 1.029 1.024 1.018 1.011 1.003 0.993 0.983 0.971 0.958 0.943 0.925 0.905 0.885 0.871 0.912 1.069 1.069 0.000 
0.000 0.520 0.520 0.533 0.530 0.523 0.512 0.495 0.480 0.470 0.463 0.459 0.458 0.457 0.457 0.458 0.459 0.461 0.465 0.469 0.475 0.482 0.491 0.500 0.511 0.524 0.538 0.553 0.570 0.588 0.608 0.629 0.653 0.678 0.705 0.734 0.764 0.797 0.831 0.867 0.903 0.937 0.968 0.998 1.025 1.050 1.073 1.094 1.113 1.130 1.145 1.159 1.170 1.181 1.189 1.197 1.203 1.209 1.213 1.217 1.220 1.222 1.224 1.226 1.227 1.228 1.228 1.229 1.229 1.229 1.229 1.228 1.227 1.226 1.224 1.221 1.217 1.212 1.205 1.198 1.188 1.177 1.164 1.149 1.131 1.112 1.090 1.066 1.040 1.012 0.984 0.954 0.925 0.896 0.868 0.843 0.820 0.800 0.782 0.766 0.753 0.742 0.733 0.726 0.721 0.717 0.714 0.712 0.711 0.710 0.710 0.710 0.710 0.711 0.712 0.715 0.718 0.723 0.730 0.738 0.749 0.760 0.774 0.790 0.808 0.827 0.849 0.872 0.896 0.918 0.938 0.956 0.971 0.985 0.996 1.006 1.014 1.020 1.025 1.029 1.031 1.033 1.034 1.034 1.034 1.034 1.034 1.033 1.032 1.030 1.027 1.022 1.017 1.010 1.002 0.993 0.981 0.969 0.955 0.939 0.919 0.892 0.851 0.779 0.683 0.679 0.679 0.000 
0.000 0.495 0.495 0.507 0.506 0.502 0.496 0.486 0.475 0.467 0.462 0.459 0.458 0.458 0.459 0.460 0.463 0.466 0.470 0.476 0.482 0.490 0.499 0.509 0.520 0.532 0.546 0.561 0.578 0.596 0.616 0.637 0.660 0.685 0.712 0.740 0.771 0.804 0.838 0.875 0.911 0.946 0.978 1.009 1.037 1.063 1.086 1.108 1.127 1.145 1.161 1.175 1.187 1.198 1.207 1.215 1.222 1.227 1.232 1.236 1.239 1.242 1.243 1.245 1.246 1.247 1.247 1.247 1.247 1.247 1.247 1.247 1.245 1.244 1.241 1.238 1.234 1.228 1.222 1.213 1.204 1.192 1.178 1.163 1.145 1.125 1.102 1.078 1.051 1.021 0.990 0.958 0.927 0.898 0.870 0.845 0.822 0.802 0.783 0.767 0.754 0.742 0.733 0.726 0.720 0.715 0.712 0.710 0.708 0.707 0.707 0.706 0.706 0.707 0.708 0.709 0.712 0.717 0.723 0.730 0.739 0.751 0.764 0.778 0.795 0.814 0.836 0.859 0.883 0.906 0.927 0.946 0.962 0.976 0.988 0.998 1.007 1.014 1.019 1.024 1.027 1.028 1.030 1.030 1.030 1.030 1.030 1.030 1.029 1.027 1.024 1.020 1.015 1.009 1.001 0.991 0.980 0.967 0.953 0.937 0.918 0.890 0.845 0.759 0.558 0.134 0.134 0.000 
0.000 0.469 0.469 0.481 0.481 0.480 0.478 0.473 0.467 0.462 0.460 0.458 0.458 0.459 0.460 0.463 0.466 0.470 0.475 0.481 0.488 0.496 0.506 0.516 0.527 0.540 0.553 0.568 0.585 0.603 0.622 0.643 0.666 0.691 0.718 0.746 0.777 0.809 0.844 0.881 0.918 0.954 0.987 1.018 1.047 1.073 1.098 1.120 1.140 1.158 1.175 1.189 1.202 1.213 1.223 1.231 1.238 1.244 1.249 1.253 1.257 1.259 1.261 1.263 1.263 1.264 1.264 1.265 1.265 1.264 1.264 1.263 1.262 1.260 1.258 1.254 1.250 1.244 1.237 1.228 1.218 1.206 1.192 1.176 1.158 1.137 1.114 1.089 1.061 1.031 0.998 0.963 0.931 0.901 0.873 0.847 0.824 0.804 0.785 0.769 0.755 0.743 0.733 0.725 0.718 0.713 0.709 0.706 0.704 0.703 0.702 0.702 0.702 0.702 0.703 0.705 0.707 0.711 0.716 0.723 0.731 0.742 0.754 0.768 0.785 0.803 0.824 0.846 0.871 0.895 0.917 0.936 0.953 0.968 0.981 0.992 1.001 1.008 1.014 1.018 1.022 1.024 1.025 1.026 1.027 1.027 1.027 1.026 1.025 1.024 1.021 1.018 1.013 1.006 0.998 0.989 0.978 0.965 0.952 0.937 0.919 0.894 0.855 0.785 0.645 0.435 0.435 0.000 
0.000 0.443 0.443 0.456 0.456 0.457 0.457 0.457 0.456 0.455 0.455 0.456 0.457 0.459 0.461 0.464 0.469 0.474 0.480 0.486 0.494 0.502 0.512 0.522 0.533 0.546 0.560 0.574 0.591 0.608 0.628 0.649 0.671 0.696 0.722 0.751 0.782 0.814 0.849 0.886 0.924 0.960 0.994 1.026 1.056 1.083 1.108 1.131 1.152 1.171 1.187 1.202 1.216 1.227 1.238 1.246 1.254 1.260 1.265 1.269 1.272 1.275 1.277 1.278 1.279 1.280 1.280 1.280 1.280 1.280 1.280 1.279 1.278 1.276 1.273 1.269 1.264 1.258 1.251 1.242 1.232 1.219 1.205 1.189 1.170 1.149 1.126 1.100 1.072 1.040 1.006 0.970 0.936 0.905 0.877 0.851 0.827 0.806 0.787 0.770 0.756 0.743 0.733 0.724 0.716 0.711 0.706 0.703 0.701 0.699 0.699 0.698 0.698 0.699 0.699 0.700 0.703 0.706 0.711 0.717 0.725 0.734 0.746 0.759 0.775 0.793 0.813 0.835 0.860 0.885 0.907 0.927 0.945 0.961 0.974 0.985 0.995 1.002 1.009 1.013 1.017 1.019 1.021 1.022 1.022 1.022 1.022 1.022 1.021 1.020 1.018 1.014 1.009 1.003 0.995 0.986 0.975 0.963 0.951 0.940 0.927 0.912 0.897 0.886 0.907 1.014 1.014 0.000 
0.000 0.417 0.417 0.430 0.431 0.433 0.435 0.437 0.440 0.444 0.448 0.451 0.454 0.458 0.462 0.466 0.471 0.477 0.483 0.491 0.498 0.507 0.517 0.527 0.539 0.551 0.565 0.579 0.595 0.613 0.632 0.653 0.676 0.700 0.727 0.755 0.786 0.818 0.853 0.890 0.929 0.966 1.000 1.033 1.063 1.091 1.117 1.140 1.162 1.181 1.199 1.214 1.228 1.240 1.250 1.260 1.267 1.274 1.279 1.283 1.287 1.290 1.292 1.293 1.294 1.294 1.295 1.295 1.295 1.294 1.294 1.293 1.292 1.289 1.287 1.283 1.278 1.272 1.264 1.255 1.244 1.232 1.218 1.201 1.182 1.161 1.137 1.111 1.082 1.050 1.015 0.978 0.943 0.911 0.881 0.854 0.830 0.808 0.789 0.772 0.757 0.744 0.732 0.723 0.715 0.709 0.704 0.700 0.698 0.696 0.695 0.695 0.695 0.695 0.696 0.697 0.699 0.701 0.706 0.711 0.719 0.728 0.739 0.752 0.767 0.784 0.804 0.826 0.850 0.875 0.899 0.920 0.938 0.954 0.968 0.980 0.989 0.997 1.003 1.008 1.012 1.015 1.016 1.017 1.018 1.018 1.018 1.018 1.017 1.016 1.014 1.010 1.005 0.999 0.991 0.981 0.970 0.960 0.951 0.945 0.941 0.939 0.945 0.968 1.036 1.132 1.132 0.000 
0.000 0.391 0.391 0.405 0.407 0.410 0.414 0.419 0.425 0.433 0.439 0.445 0.451 0.456 0.462 0.467 0.473 0.480 0.487 0.494 0.502 0.511 0.521 0.532 0.543 0.555 0.569 0.583 0.599 0.617 0.636 0.657 0.679 0.704 0.730 0.759 0.789 0.822 0.856 0.893 0.932 0.970 1.006 1.039 1.070 1.098 1.125 1.149 1.171 1.191 1.209 1.225 1.239 1.251 1.262 1.271 1.279 1.286 1.292 1.296 1.300 1.303 1.305 1.306 1.307 1.307 1.308 1.308 1.308 1.307 1.307 1.306 1.304 1.302 1.299 1.295 1.290 1.284 1.276 1.267 1.256 1.244 1.229 1.213 1.194 1.172 1.148 1.122 1.092 1.060 1.025 0.987 0.950 0.917 0.887 0.859 0.834 0.811 0.791 0.774 0.758 0.744 0.732 0.722 0.714 0.707 0.702 0.698 0.695 0.694 0.693 0.692 0.692 0.692 0.693 0.693 0.695 0.698 0.701 0.707 0.713 0.722 0.732 0.745 0.759 0.776 0.795 0.817 0.841 0.867 0.891 0.912 0.931 0.948 0.962 0.974 0.984 0.992 0.999 1.004 1.007 1.010 1.012 1.013 1.013 1.013 1.013 1.013 1.012 1.011 1.009 1.005 1.001 0.994 0.986 0.976 0.965 0.956 0.950 0.947 0.948 0.952 0.968 1.002 1.065 1.116 1.116 0.000 
0.000 0.365 0.365 0.380 0.384 0.389 0.396 0.404 0.414 0.424 0.433 0.441 0.448 0.455 0.462 0.468 0.475 0.482 0.489 0.497 0.506 0.515 0.525 0.535 0.546 0.559 0.572 0.586 0.602 0.620 0.639 0.659 0.682 0.706 0.733 0.761 0.792 0.824 0.859 0.896 0.935 0.973 1.010 1.044 1.075 1.104 1.131 1.156 1.178 1.199 1.217 1.234 1.248 1.261 1.272 1.282 1.290 1.297 1.303 1.308 1.311 1.314 1.316 1.318 1.319 1.319 1.319 1.319 1.319 1.319 1.319 1.318 1.316 1.314 1.311 1.307 1.302 1.296 1.288 1.279 1.268 1.255 1.240 1.223 1.204 1.183 1.159 1.132 1.103 1.070 1.035 0.996 0.959 0.924 0.893 0.864 0.838 0.815 0.794 0.775 0.759 0.745 0.733 0.722 0.713 0.706 0.701 0.697 0.694 0.692 0.690 0.690 0.690 0.690 0.690 0.691 0.692 0.694 0.698 0.703 0.709 0.717 0.727 0.739 0.753 0.769 0.788 0.809 0.833 0.859 0.884 0.906 0.925 0.942 0.957 0.969 0.980 0.988 0.994 0.999 1.003 1.006 1.007 1.008 1.009 1.009 1.009 1.008 1.007 1.006 1.004 1.000 0.995 0.988 0.979 0.968 0.958 0.952 0.948 0.947 0.949 0.956 0.975 1.012 1.070 1.107 1.107 0.000 
0.000 0.339 0.339 0.354 0.361 0.369 0.380 0.392 0.406 0.418 0.429 0.438 0.446 0.454 0.462 0.469 0.476 0.484 0.492 0.500 0.508 0.517 0.527 0.538 0.549 0.561 0.574 0.589 0.604 0.622 0.641 0.662 0.684 0.709 0.735 0.763 0.794 0.826 0.861 0.898 0.937 0.976 1.013 1.047 1.080 1.109 1.137 1.162 1.185 1.206 1.225 1.242 1.257 1.270 1.282 1.292 1.300 1.307 1.313 1.318 1.322 1.325 1.327 1.328 1.329 1.330 1.330 1.330 1.330 1.330 1.329 1.328 1.327 1.325 1.322 1.318 1.312 1.306 1.298 1.289 1.278 1.265 1.251 1.234 1.215 1.193 1.169 1.143 1.113 1.081 1.045 1.006 0.968 0.932 0.899 0.870 0.843 0.819 0.797 0.778 0.761 0.746 0.733 0.722 0.713 0.706 0.700 0.695 0.692 0.690 0.689 0.688 0.688 0.688 0.688 0.689 0.690 0.692 0.695 0.699 0.705 0.713 0.723 0.734 0.748 0.764 0.782 0.803 0.826 0.852 0.877 0.900 0.920 0.937 0.952 0.965 0.975 0.984 0.991 0.996 0.999 1.002 1.003 1.004 1.004 1.004 1.004 1.004 1.003 1.001 0.998 0.994 0.988 0.981 0.971 0.960 0.951 0.946 0.944 0.944 0.947 0.955 0.974 1.013 1.068 1.099 1.099 0.000 
0.000 0.314 0.314 0.330 0.339 0.351 0.366 0.384 0.401 0.415 0.426 0.436 0.445 0.454 0.462 0.470 0.477 0.485 0.493 0.502 0.510 0.520 0.529 0.539 0.551 0.563 0.576 0.590 0.606 0.624 0.643 0.663 0.686 0.710 0.737 0.765 0.795 0.828 0.862 0.899 0.938 0.978 1.015 1.050 1.083 1.113 1.142 1.167 1.191 1.212 1.231 1.249 1.264 1.278 1.290 1.300 1.309 1.316 1.322 1.327 1.331 1.334 1.336 1.338 1.339 1.339 1.340 1.340 1.340 1.339 1.339 1.338 1.336 1.334 1.331 1.327 1.322 1.316 1.308 1.299 1.288 1.275 1.260 1.244 1.225 1.203 1.179 1.153 1.123 1.091 1.056 1.017 0.977 0.940 0.907 0.876 0.848 0.823 0.800 0.780 0.762 0.747 0.734 0.723 0.713 0.705 0.699 0.695 0.691 0.689 0.687 0.686 0.686 0.686 0.686 0.687 0.688 0.690 0.693 0.697 0.702 0.710 0.719 0.730 0.743 0.759 0.776 0.797 0.820 0.846 0.871 0.894 0.915 0.933 0.948 0.961 0.972 0.980 0.987 0.992 0.996 0.998 1.000 1.000 1.001 1.001 1.000 1.000 0.998 0.996 0.993 0.988 0.981 0.973 0.963 0.951 0.943 0.938 0.936 0.936 0.938 0.947 0.967 1.005 1.062 1.095 1.095 0.000 
0.000 0.288 0.288 0.305 0.318 0.335 0.357 0.379 0.398 0.413 0.425 0.436 0.445 0.454 0.462 0.470 0.478 0.486 0.495 0.503 0.512 0.521 0.530 0.541 0.552 0.564 0.577 0.591 0.607 0.625 0.644 0.665 0.687 0.711 0.738 0.766 0.796 0.829 0.863 0.900 0.939 0.979 1.017 1.053 1.086 1.117 1.145 1.172 1.196 1.217 1.237 1.255 1.271 1.284 1.297 1.307 1.316 1.324 1.330 1.335 1.339 1.343 1.345 1.346 1.347 1.348 1.348 1.348 1.348 1.348 1.348 1.347 1.345 1.343 1.340 1.336 1.331 1.325 1.317 1.308 1.297 1.284 1.270 1.253 1.234 1.213 1.189 1.162 1.133 1.101 1.066 1.028 0.987 0.949 0.914 0.882 0.853 0.827 0.803 0.782 0.764 0.748 0.735 0.723 0.713 0.705 0.699 0.694 0.690 0.688 0.686 0.685 0.685 0.685 0.685 0.685 0.686 0.688 0.691 0.695 0.700 0.707 0.716 0.726 0.739 0.754 0.772 0.792 0.815 0.840 0.866 0.890 0.911 0.929 0.945 0.958 0.969 0.977 0.984 0.989 0.993 0.995 0.997 0.997 0.997 0.997 0.997 0.996 0.995 0.992 0.988 0.982 0.975 0.966 0.955 0.943 0.933 0.925 0.921 0.919 0.920 0.926 0.944 0.981 1.047 1.092 1.092 0.000 
0.000 0.262 0.262 0.280 0.298 0.323 0.352 0.377 0.397 0.412 0.425 0.436 0.445 0.454 0.463 0.471 0.479 0.488 0.496 0.504 0.513 0.522 0.531 0.541 0.552 0.564 0.578 0.592 0.608 0.626 0.645 0.665 0.688 0.712 0.738 0.767 0.797 0.829 0.864 0.901 0.940 0.980 1.018 1.054 1.088 1.119 1.148 1.175 1.199 1.222 1.242 1.260 1.276 1.290 1.303 1.314 1.323 1.331 1.337 1.343 1.347 1.350 1.352 1.354 1.355 1.356 1.356 1.356 1.356 1.356 1.355 1.355 1.353 1.351 1.348 1.344 1.339 1.333 1.325 1.316 1.305 1.293 1.278 1.262 1.243 1.222 1.198 1.172 1.143 1.111 1.076 1.038 0.997 0.958 0.922 0.889 0.859 0.831 0.807 0.785 0.766 0.750 0.736 0.724 0.714 0.705 0.699 0.694 0.690 0.687 0.685 0.685 0.684 0.684 0.684 0.684 0.685 0.687 0.689 0.693 0.698 0.705 0.713 0.723 0.736 0.751 0.768 0.788 0.810 0.835 0.862 0.886 0.907 0.925 0.941 0.955 0.966 0.975 0.982 0.987 0.990 0.993 0.994 0.995 0.995 0.995 0.994 0.993 0.992 0.988 0.984 0.978 0.970 0.960 0.947 0.934 0.921 0.909 0.899 0.891 0.886 0.886 0.896 0.928 1.006 1.090 1.090 0.000 
0.000 0.236 0.236 0.256 0.280 0.315 0.350 0.377 0.397 0.413 0.426 0.436 0.446 0.455 0.464 0.472 0.480 0.489 0.497 0.505 0.513 0.522 0.531 0.542 0.553 0.565 0.578 0.593 0.609 0.626 0.645 0.666 0.688 0.713 0.739 0.767 0.797 0.830 0.864 0.901 0.940 0.981 1.019 1.056 1.090 1.121 1.151 1.178 1.203 1.225 1.246 1.264 1.281 1.295 1.308 1.319 1.329 1.337 1.343 1.349 1.353 1.357 1.359 1.361 1.362 1.363 1.363 1.363 1.363 1.363 1.362 1.362 1.360 1.358 1.355 1.352 1.347 1.340 1.333 1.324 1.313 1.301 1.286 1.270 1.251 1.230 1.207 1.181 1.152 1.120 1.086 1.048 1.008 0.967 0.930 0.896 0.864 0.836 0.811 0.788 0.769 0.752 0.737 0.724 0.714 0.706 0.699 0.694 0.690 0.687 0.685 0.684 0.683 0.683 0.683 0.684 0.684 0.686 0.688 0.692 0.697 0.703 0.711 0.721 0.733 0.748 0.765 0.784 0.806 0.831 0.858 0.882 0.903 0.922 0.939 0.952 0.963 0.972 0.979 0.985 0.988 0.991 0.992 0.993 0.993 0.993 0.992 0.991 0.989 0.986 0.981 0.974 0.965 0.954 0.940 0.925 0.907 0.889 0.871 0.852 0.834 0.819 0.809 0.822 0.889 1.087 1.087 0.000 
0.000 0.210 0.210 0.232 0.267 0.314 0.351 0.378 0.398 0.414 0.427 0.438 0.448 0.457 0.465 0.473 0.481 0.489 0.497 0.505 0.514 0.522 0.532 0.542 0.553 0.565 0.578 0.593 0.609 0.626 0.645 0.666 0.689 0.713 0.739 0.767 0.798 0.830 0.864 0.901 0.940 0.981 1.020 1.056 1.091 1.123 1.153 1.180 1.205 1.228 1.249 1.268 1.284 1.299 1.312 1.324 1.334 1.342 1.349 1.354 1.359 1.362 1.365 1.367 1.368 1.369 1.369 1.369 1.369 1.369 1.369 1.368 1.367 1.365 1.362 1.358 1.353 1.347 1.340 1.331 1.321 1.308 1.294 1.278 1.259 1.239 1.215 1.189 1.161 1.130 1.095 1.058 1.018 0.976 0.938 0.903 0.870 0.841 0.815 0.792 0.771 0.754 0.738 0.725 0.715 0.706 0.699 0.694 0.690 0.687 0.685 0.684 0.683 0.683 0.683 0.683 0.684 0.685 0.687 0.691 0.695 0.702 0.709 0.719 0.731 0.745 0.762 0.781 0.803 0.827 0.854 0.879 0.901 0.920 0.936 0.950 0.961 0.971 0.978 0.983 0.987 0.989 0.990 0.991 0.991 0.991 0.991 0.989 0.987 0.984 0.978 0.971 0.962 0.949 0.934 0.916 0.895 0.871 0.844 0.814 0.779 0.737 0.687 0.633 0.582 0.612 0.612 0.000 
0.000 0.184 0.184 0.210 0.263 0.317 0.355 0.382 0.403 0.418 0.431 0.441 0.451 0.459 0.467 0.475 0.483 0.490 0.498 0.506 0.514 0.522 0.532 0.542 0.553 0.565 0.578 0.593 0.609 0.627 0.646 0.666 0.689 0.713 0.739 0.767 0.798 0.830 0.864 0.901 0.940 0.981 1.020 1.057 1.091 1.124 1.154 1.182 1.207 1.230 1.251 1.270 1.288 1.303 1.316 1.328 1.338 1.346 1.353 1.359 1.364 1.367 1.370 1.372 1.373 1.374 1.375 1.375 1.375 1.375 1.374 1.374 1.372 1.370 1.368 1.364 1.359 1.354 1.346 1.338 1.327 1.315 1.301 1.285 1.267 1.246 1.223 1.198 1.170 1.139 1.105 1.068 1.028 0.986 0.946 0.910 0.877 0.846 0.819 0.795 0.774 0.756 0.740 0.727 0.716 0.707 0.699 0.694 0.690 0.687 0.685 0.684 0.683 0.683 0.683 0.683 0.684 0.685 0.687 0.690 0.695 0.701 0.708 0.718 0.729 0.743 0.760 0.779 0.800 0.824 0.851 0.876 0.898 0.917 0.934 0.948 0.960 0.969 0.976 0.982 0.986 0.988 0.989 0.990 0.990 0.990 0.989 0.988 0.986 0.982 0.977 0.969 0.959 0.946 0.930 0.910 0.886 0.858 0.825 0.786 0.739 0.681 0.603 0.487 0.286 0.063 0.063 0.000 
0.000 0.193 0.193 0.206 0.272 0.328 0.366 0.393 0.412 0.426 0.437 0.447 0.455 0.463 0.470 0.477 0.484 0.491 0.498 0.505 0.513 0.522 0.531 0.542 0.553 0.565 0.578 0.593 0.609 0.627 0.646 0.666 0.689 0.713 0.739 0.767 0.798 0.830 0.864 0.901 0.940 0.981 1.020 1.057 1.092 1.124 1.155 1.183 1.208 1.232 1.253 1.273 1.290 1.305 1.319 1.331 1.341 1.350 1.357 1.363 1.368 1.372 1.375 1.377 1.378 1.379 1.379 1.380 1.380 1.379 1.379 1.378 1.377 1.375 1.373 1.369 1.365 1.359 1.352 1.344 1.334 1.322 1.308 1.292 1.274 1.254 1.231 1.206 1.178 1.147 1.114 1.077 1.037 0.995 0.955 0.917 0.883 0.852 0.824 0.799 0.777 0.758 0.742 0.728 0.717 0.707 0.700 0.694 0.690 0.687 0.685 0.684 0.683 0.683 0.683 0.683 0.684 0.685 0.687 0.690 0.694 0.700 0.707 0.717 0.728 0.742 0.758 0.776 0.798 0.822 0.848 0.873 0.896 0.916 0.932 0.947 0.959 0.968 0.975 0.981 0.985 0.987 0.989 0.989 0.989 0.989 0.989 0.987 0.985 0.981 0.976 0.968 0.957 0.944 0.927 0.906 0.880 0.849 0.812 0.767 0.713 0.648 0.565 0.444 0.219 0.000 0.000 0.000 
0.000 0.306 0.306 0.251 0.303 0.356 0.390 0.412 0.427 0.439 0.447 0.455 0.461 0.467 0.474 0.479 0.485 0.491 0.498 0.505 0.513 0.522 0.531 0.541 0.553 0.565 0.578 0.593 0.609 0.627 0.646 0.666 0.689 0.713 0.739 0.767 0.797 0.830 0.864 0.901 0.940 0.981 1.020 1.057 1.092 1.125 1.155 1.183 1.209 1.233 1.255 1.274 1.292 1.308 1.321 1.334 1.344 1.353 1.360 1.367 1.372 1.376 1.379 1.381 1.382 1.383 1.384 1.384 1.384 1.384 1.383 1.383 1.382 1.380 1.378 1.374 1.370 1.364 1.357 1.349 1.339 1.328 1.314 1.299 1.281 1.261 1.239 1.214 1.186 1.156 1.123 1.086 1.047 1.005 0.963 0.925 0.890 0.858 0.829 0.804 0.781 0.761 0.745 0.730 0.718 0.708 0.701 0.695 0.690 0.687 0.685 0.684 0.683 0.683 0.683 0.683 0.683 0.685 0.687 0.690 0.694 0.700 0.707 0.716 0.727 0.741 0.756 0.775 0.796 0.820 0.846 0.871 0.894 0.914 0.931 0.946 0.957 0.967 0.975 0.980 0.984 0.987 0.988 0.989 0.989 0.989 0.988 0.987 0.985 0.981 0.975 0.967 0.957 0.943 0.925 0.904 0.877 0.844 0.804 0.755 0.696 0.629 0.554 0.457 0.280 0.000 0.000 0.000 
0.000 0.436 0.436 0.368 0.379 0.408 0.430 0.442 0.451 0.457 0.462 0.466 0.469 0.473 0.477 0.481 0.486 0.492 0.498 0.505 0.512 0.521 0.530 0.541 0.552 0.565 0.578 0.593 0.609 0.626 0.645 0.666 0.689 0.713 0.739 0.767 0.797 0.830 0.864 0.901 0.940 0.980 1.020 1.057 1.092 1.125 1.155 1.184 1.210 1.234 1.256 1.276 1.293 1.309 1.323 1.336 1.346 1.355 1.363 1.370 1.375 1.379 1.382 1.384 1.386 1.387 1.387 1.387 1.387 1.387 1.387 1.387 1.386 1.384 1.382 1.378 1.374 1.369 1.362 1.354 1.344 1.333 1.320 1.305 1.287 1.268 1.246 1.221 1.194 1.164 1.131 1.095 1.056 1.014 0.972 0.933 0.897 0.864 0.834 0.808 0.785 0.765 0.747 0.732 0.720 0.710 0.702 0.695 0.691 0.687 0.685 0.684 0.683 0.683 0.683 0.683 0.683 0.685 0.687 0.690 0.694 0.699 0.707 0.716 0.727 0.740 0.755 0.774 0.794 0.818 0.844 0.870 0.893 0.913 0.930 0.945 0.957 0.966 0.974 0.980 0.984 0.986 0.988 0.989 0.989 0.989 0.988 0.987 0.984 0.981 0.975 0.967 0.956 0.942 0.925 0.903 0.875 0.842 0.800 0.750 0.687 0.616 0.560 0.528 0.523 0.492 0.492 0.000 
0.000 0.611 0.611 0.515 0.505 0.495 0.488 0.482 0.477 0.475 0.474 0.475 0.476 0.477 0.480 0.483 0.487 0.491 0.497 0.504 0.511 0.520 0.530 0.540 0.552 0.564 0.578 0.592 0.609 0.626 0.645 0.666 0.688 0.712 0.739 0.767 0.797 0.829 0.864 0.900 0.939 0.980 1.020 1.057 1.092 1.125 1.155 1.184 1.210 1.234 1.256 1.276 1.294 1.311 1.325 1.337 1.348 1.358 1.365 1.372 1.377 1.381 1.385 1.387 1.389 1.390 1.390 1.391 1.391 1.391 1.390 1.390 1.389 1.387 1.385 1.382 1.378 1.373 1.367 1.359 1.349 1.338 1.325 1.311 1.294 1.274 1.253 1.229 1.202 1.172 1.140 1.104 1.066 1.024 0.981 0.941 0.904 0.870 0.840 0.813 0.789 0.768 0.750 0.735 0.722 0.711 0.703 0.696 0.691 0.688 0.685 0.684 0.683 0.683 0.683 0.683 0.684 0.685 0.687 0.690 0.694 0.699 0.706 0.715 0.726 0.739 0.755 0.773 0.793 0.816 0.842 0.868 0.891 0.911 0.929 0.944 0.956 0.966 0.974 0.980 0.984 0.986 0.988 0.988 0.989 0.989 0.988 0.987 0.984 0.981 0.975 0.967 0.956 0.942 0.925 0.902 0.875 0.841 0.800 0.748 0.684 0.612 0.563 0.555 0.632 1.033 1.033 0.000 
0.000 0.785 0.785 0.687 0.637 0.577 0.536 0.510 0.494 0.486 0.482 0.480 0.480 0.480 0.482 0.484 0.487 0.491 0.496 0.503 0.510 0.519 0.529 0.539 0.551 0.563 0.577 0.592 0.608 0.626 0.645 0.665 0.688 0.712 0.738 0.766 0.796 0.828 0.863 0.899 0.938 0.979 1.019 1.057 1.092 1.125 1.155 1.184 1.210 1.234 1.257 1.277 1.295 1.311 1.326 1.339 1.350 1.359 1.367 1.374 1.379 1.384 1.387 1.390 1.391 1.392 1.393 1.393 1.393 1.393 1.393 1.393 1.392 1.391 1.388 1.385 1.382 1.377 1.370 1.363 1.354 1.343 1.330 1.316 1.299 1.280 1.259 1.236 1.209 1.180 1.148 1.113 1.075 1.033 0.990 0.949 0.911 0.877 0.846 0.818 0.794 0.772 0.754 0.738 0.724 0.713 0.705 0.698 0.692 0.689 0.686 0.684 0.684 0.683 0.683 0.683 0.684 0.685 0.687 0.690 0.694 0.699 0.706 0.715 0.726 0.739 0.754 0.772 0.792 0.815 0.841 0.867 0.890 0.911 0.928 0.943 0.956 0.966 0.974 0.979 0.984 0.986 0.988 0.989 0.989 0.989 0.988 0.987 0.984 0.981 0.975 0.967 0.956 0.942 0.925 0.903 0.875 0.842 0.800 0.749 0.686 0.616 0.558 0.521 0.506 0.568 0.568 0.000 
0.000 0.955 0.955 0.846 0.720 0.619 0.559 0.523 0.502 0.491 0.485 0.483 0.482 0.482 0.483 0.484 0.487 0.491 0.496 0.502 0.510 0.518 0.527 0.538 0.550 0.562 0.576 0.591 0.607 0.625 0.644 0.664 0.687 0.711 0.737 0.765 0.795 0.827 0.862 0.898 0.937 0.978 1.018 1.056 1.091 1.124 1.155 1.184 1.210 1.235 1.257 1.277 1.295 1.312 1.327 1.339 1.351 1.360 1.368 1.375 1.381 1.385 1.389 1.392 1.393 1.395 1.395 1.396 1.396 1.396 1.396 1.395 1.394 1.393 1.391 1.388 1.385 1.380 1.374 1.367 1.358 1.347 1.335 1.321 1.305 1.286 1.265 1.242 1.216 1.188 1.156 1.122 1.084 1.043 1.000 0.958 0.919 0.884 0.852 0.824 0.799 0.777 0.757 0.741 0.727 0.716 0.706 0.699 0.694 0.690 0.687 0.685 0.684 0.684 0.684 0.684 0.684 0.685 0.687 0.690 0.694 0.699 0.706 0.715 0.726 0.739 0.754 0.771 0.791 0.814 0.840 0.866 0.889 0.910 0.928 0.943 0.955 0.966 0.973 0.979 0.984 0.986 0.988 0.989 0.989 0.989 0.988 0.987 0.985 0.981 0.975 0.968 0.957 0.943 0.926 0.904 0.877 0.844 0.804 0.754 0.695 0.627 0.551 0.450 0.267 0.026 0.026 0.000 
0.000 1.004 1.004 0.925 0.745 0.631 0.564 0.526 0.504 0.492 0.486 0.483 0.483 0.483 0.483 0.485 0.487 0.491 0.496 0.502 0.509 0.517 0.526 0.537 0.548 0.561 0.575 0.590 0.606 0.623 0.642 0.663 0.685 0.709 0.735 0.763 0.793 0.826 0.860 0.897 0.936 0.977 1.017 1.055 1.091 1.124 1.155 1.184 1.210 1.234 1.257 1.277 1.296 1.312 1.327 1.340 1.351 1.361 1.369 1.376 1.382 1.387 1.390 1.393 1.395 1.396 1.397 1.398 1.398 1.398 1.398 1.397 1.397 1.395 1.393 1.391 1.387 1.383 1.377 1.370 1.361 1.351 1.339 1.325 1.310 1.292 1.271 1.249 1.223 1.195 1.164 1.130 1.093 1.053 1.009 0.967 0.927 0.892 0.859 0.830 0.804 0.781 0.761 0.745 0.730 0.718 0.709 0.701 0.695 0.691 0.688 0.686 0.685 0.685 0.685 0.685 0.685 0.686 0.688 0.690 0.694 0.700 0.706 0.715 0.726 0.739 0.754 0.771 0.791 0.813 0.839 0.865 0.888 0.909 0.927 0.942 0.955 0.965 0.973 0.980 0.984 0.987 0.988 0.989 0.989 0.989 0.989 0.987 0.985 0.982 0.976 0.969 0.958 0.945 0.928 0.907 0.881 0.849 0.811 0.765 0.711 0.644 0.561 0.439 0.216 0.000 0.000 0.000 
0.000 0.785 0.785 0.875 0.738 0.626 0.562 0.525 0.503 0.492 0.486 0.483 0.483 0.483 0.483 0.485 0.487 0.491 0.496 0.502 0.509 0.517 0.526 0.536 0.547 0.559 0.573 0.588 0.604 0.621 0.640 0.661 0.683 0.707 0.733 0.761 0.791 0.823 0.858 0.895 0.934 0.975 1.016 1.054 1.090 1.123 1.154 1.183 1.210 1.234 1.257 1.277 1.296 1.312 1.327 1.340 1.352 1.362 1.370 1.377 1.383 1.388 1.392 1.394 1.396 1.398 1.399 1.399 1.399 1.399 1.399 1.399 1.398 1.397 1.395 1.393 1.390 1.385 1.380 1.373 1.364 1.355 1.343 1.330 1.314 1.297 1.277 1.255 1.230 1.202 1.172 1.139 1.102 1.062 1.019 0.976 0.936 0.899 0.866 0.836 0.810 0.786 0.766 0.749 0.734 0.721 0.711 0.704 0.697 0.693 0.690 0.688 0.686 0.686 0.686 0.686 0.686 0.687 0.689 0.691 0.695 0.700 0.707 0.715 0.726 0.739 0.753 0.771 0.790 0.813 0.838 0.864 0.888 0.909 0.927 0.942 0.955 0.965 0.974 0.980 0.984 0.987 0.989 0.990 0.990 0.990 0.989 0.988 0.986 0.983 0.978 0.970 0.961 0.948 0.932 0.912 0.887 0.858 0.823 0.782 0.734 0.675 0.597 0.484 0.288 0.000 0.000 0.000 
0.000 0.571 0.571 0.683 0.660 0.595 0.544 0.514 0.497 0.488 0.484 0.482 0.482 0.482 0.483 0.485 0.488 0.491 0.496 0.502 0.508 0.516 0.525 0.534 0.545 0.557 0.571 0.586 0.602 0.619 0.638 0.659 0.681 0.705 0.731 0.759 0.789 0.821 0.855 0.892 0.931 0.972 1.013 1.052 1.088 1.122 1.154 1.183 1.209 1.234 1.257 1.277 1.296 1.312 1.327 1.340 1.352 1.362 1.371 1.378 1.384 1.389 1.392 1.395 1.398 1.399 1.400 1.400 1.401 1.401 1.401 1.400 1.400 1.399 1.397 1.395 1.391 1.387 1.382 1.375 1.367 1.358 1.347 1.334 1.319 1.302 1.282 1.260 1.236 1.209 1.179 1.147 1.111 1.072 1.029 0.986 0.945 0.908 0.874 0.843 0.816 0.792 0.771 0.753 0.738 0.725 0.715 0.706 0.700 0.695 0.692 0.689 0.688 0.687 0.687 0.687 0.688 0.688 0.690 0.692 0.696 0.701 0.707 0.716 0.726 0.739 0.753 0.771 0.790 0.812 0.837 0.863 0.887 0.908 0.926 0.942 0.955 0.965 0.974 0.980 0.985 0.988 0.990 0.991 0.991 0.991 0.991 0.990 0.988 0.985 0.980 0.973 0.964 0.952 0.937 0.919 0.897 0.871 0.841 0.807 0.769 0.726 0.679 0.630 0.577 0.520 0.520 0.000 
0.000 0.366 0.366 0.473 0.504 0.514 0.501 0.489 0.483 0.480 0.478 0.479 0.479 0.481 0.482 0.485 0.488 0.492 0.496 0.502 0.508 0.515 0.524 0.533 0.543 0.555 0.568 0.583 0.599 0.616 0.635 0.656 0.678 0.702 0.727 0.755 0.785 0.817 0.852 0.889 0.928 0.969 1.011 1.050 1.087 1.121 1.152 1.182 1.209 1.234 1.256 1.277 1.296 1.312 1.327 1.340 1.352 1.362 1.371 1.378 1.384 1.389 1.393 1.396 1.398 1.400 1.401 1.401 1.402 1.402 1.402 1.401 1.401 1.400 1.398 1.396 1.393 1.389 1.384 1.378 1.370 1.361 1.350 1.337 1.323 1.306 1.287 1.266 1.242 1.216 1.187 1.155 1.120 1.081 1.040 0.996 0.954 0.916 0.881 0.850 0.823 0.798 0.776 0.758 0.742 0.729 0.718 0.709 0.703 0.698 0.694 0.692 0.690 0.689 0.689 0.689 0.689 0.690 0.691 0.694 0.697 0.702 0.708 0.716 0.727 0.739 0.754 0.771 0.790 0.812 0.837 0.863 0.887 0.908 0.926 0.942 0.955 0.966 0.974 0.981 0.985 0.989 0.991 0.992 0.992 0.992 0.992 0.991 0.990 0.987 0.983 0.977 0.969 0.958 0.945 0.929 0.910 0.888 0.865 0.842 0.821 0.804 0.797 0.809 0.874 1.054 1.054 0.000 
0.000 0.213 0.213 0.304 0.373 0.415 0.438 0.451 0.460 0.465 0.469 0.473 0.476 0.478 0.481 0.485 0.488 0.492 0.497 0.502 0.508 0.515 0.522 0.531 0.542 0.553 0.566 0.580 0.596 0.613 0.631 0.652 0.674 0.698 0.724 0.751 0.781 0.813 0.848 0.885 0.924 0.966 1.008 1.047 1.084 1.119 1.151 1.181 1.208 1.233 1.256 1.277 1.295 1.312 1.327 1.340 1.352 1.362 1.371 1.378 1.385 1.390 1.394 1.397 1.399 1.400 1.401 1.402 1.402 1.402 1.402 1.402 1.402 1.401 1.399 1.397 1.394 1.391 1.386 1.380 1.372 1.363 1.353 1.340 1.326 1.310 1.292 1.271 1.248 1.222 1.194 1.162 1.128 1.090 1.050 1.006 0.964 0.925 0.890 0.858 0.830 0.804 0.782 0.763 0.747 0.733 0.722 0.713 0.706 0.701 0.697 0.694 0.693 0.692 0.691 0.691 0.692 0.692 0.693 0.696 0.699 0.703 0.710 0.718 0.727 0.740 0.754 0.771 0.790 0.812 0.836 0.862 0.886 0.907 0.926 0.942 0.955 0.966 0.975 0.982 0.987 0.990 0.993 0.994 0.994 0.995 0.994 0.994 0.993 0.990 0.987 0.982 0.975 0.966 0.955 0.941 0.926 0.910 0.896 0.885 0.878 0.877 0.883 0.909 0.978 1.054 1.054 0.000 
0.000 0.154 0.154 0.208 0.286 0.353 0.396 0.424 0.442 0.454 0.462 0.468 0.473 0.477 0.481 0.484 0.488 0.492 0.497 0.502 0.507 0.514 0.521 0.530 0.540 0.550 0.563 0.577 0.592 0.609 0.627 0.647 0.669 0.693 0.719 0.747 0.776 0.809 0.843 0.880 0.920 0.962 1.004 1.044 1.082 1.116 1.149 1.179 1.207 1.232 1.255 1.276 1.295 1.312 1.327 1.340 1.352 1.362 1.371 1.378 1.385 1.390 1.394 1.397 1.399 1.401 1.402 1.403 1.403 1.403 1.403 1.403 1.402 1.401 1.400 1.398 1.395 1.392 1.387 1.381 1.374 1.365 1.355 1.343 1.329 1.314 1.296 1.276 1.253 1.228 1.200 1.170 1.136 1.099 1.060 1.016 0.974 0.934 0.898 0.866 0.837 0.811 0.789 0.769 0.752 0.738 0.727 0.717 0.710 0.704 0.700 0.697 0.696 0.695 0.694 0.694 0.694 0.695 0.696 0.698 0.701 0.705 0.711 0.719 0.729 0.740 0.754 0.771 0.790 0.812 0.836 0.862 0.886 0.907 0.926 0.942 0.955 0.966 0.976 0.983 0.988 0.992 0.995 0.996 0.997 0.997 0.997 0.997 0.996 0.995 0.992 0.988 0.983 0.976 0.967 0.956 0.945 0.935 0.928 0.924 0.923 0.925 0.936 0.962 1.013 1.051 1.051 0.000 
0.000 0.096 0.096 0.148 0.236 0.323 0.377 0.411 0.433 0.448 0.458 0.466 0.471 0.476 0.480 0.484 0.488 0.492 0.497 0.502 0.507 0.513 0.520 0.528 0.537 0.548 0.560 0.573 0.588 0.604 0.622 0.642 0.664 0.688 0.713 0.741 0.771 0.803 0.838 0.875 0.914 0.957 1.000 1.040 1.078 1.114 1.147 1.177 1.205 1.231 1.254 1.275 1.294 1.311 1.327 1.340 1.352 1.362 1.371 1.378 1.385 1.390 1.394 1.397 1.399 1.401 1.402 1.403 1.403 1.403 1.403 1.403 1.403 1.402 1.401 1.399 1.396 1.393 1.388 1.383 1.376 1.367 1.357 1.346 1.332 1.317 1.300 1.280 1.258 1.234 1.206 1.177 1.144 1.108 1.069 1.027 0.984 0.944 0.907 0.874 0.845 0.819 0.796 0.775 0.758 0.744 0.732 0.722 0.714 0.708 0.704 0.701 0.699 0.698 0.698 0.697 0.698 0.698 0.699 0.701 0.704 0.708 0.713 0.721 0.730 0.742 0.755 0.772 0.790 0.812 0.835 0.861 0.885 0.907 0.926 0.942 0.956 0.967 0.977 0.984 0.990 0.994 0.998 1.000 1.001 1.001 1.001 1.001 1.001 1.000 0.998 0.995 0.991 0.986 0.979 0.971 0.963 0.958 0.954 0.953 0.954 0.958 0.969 0.991 1.027 1.048 1.048 0.000 
0.000 0.036 0.036 0.100 0.224 0.315 0.371 0.406 0.430 0.446 0.457 0.465 0.471 0.476 0.480 0.484 0.488 0.492 0.497 0.501 0.506 0.512 0.519 0.526 0.535 0.545 0.556 0.569 0.583 0.599 0.617 0.637 0.658 0.681 0.707 0.734 0.764 0.797 0.831 0.869 0.909 0.951 0.995 1.036 1.074 1.110 1.144 1.175 1.203 1.229 1.253 1.274 1.293 1.311 1.326 1.340 1.352 1.362 1.371 1.378 1.385 1.390 1.394 1.397 1.400 1.401 1.402 1.403 1.403 1.403 1.403 1.403 1.403 1.402 1.401 1.399 1.397 1.394 1.389 1.384 1.377 1.369 1.359 1.348 1.335 1.320 1.303 1.284 1.263 1.239 1.212 1.183 1.151 1.116 1.078 1.037 0.994 0.954 0.917 0.883 0.853 0.826 0.803 0.782 0.765 0.750 0.737 0.727 0.719 0.713 0.708 0.705 0.703 0.702 0.701 0.701 0.701 0.702 0.702 0.704 0.707 0.711 0.716 0.723 0.732 0.743 0.757 0.773 0.791 0.812 0.835 0.861 0.885 0.907 0.926 0.942 0.956 0.968 0.978 0.986 0.992 0.997 1.001 1.003 1.005 1.005 1.006 1.006 1.006 1.005 1.004 1.002 0.999 0.996 0.990 0.984 0.979 0.976 0.975 0.975 0.976 0.980 0.990 1.008 1.032 1.046 1.046 0.000 
0.000 0.134 0.134 0.118 0.240 0.319 0.371 0.406 0.430 0.446 0.457 0.465 0.471 0.476 0.480 0.484 0.488 0.492 0.496 0.501 0.506 0.511 0.517 0.524 0.532 0.542 0.552 0.565 0.578 0.594 0.611 0.630 0.651 0.674 0.700 0.727 0.757 0.789 0.824 0.862 0.902 0.945 0.989 1.031 1.070 1.106 1.140 1.172 1.200 1.227 1.251 1.273 1.292 1.310 1.325 1.339 1.351 1.362 1.371 1.378 1.385 1.390 1.394 1.397 1.400 1.401 1.402 1.403 1.403 1.404 1.404 1.404 1.403 1.403 1.401 1.400 1.397 1.394 1.390 1.385 1.378 1.370 1.361 1.350 1.337 1.323 1.306 1.288 1.267 1.243 1.218 1.189 1.158 1.124 1.087 1.047 1.004 0.964 0.926 0.892 0.862 0.835 0.811 0.790 0.772 0.756 0.743 0.733 0.725 0.718 0.713 0.710 0.708 0.706 0.706 0.706 0.706 0.706 0.707 0.708 0.711 0.714 0.719 0.726 0.735 0.746 0.758 0.774 0.792 0.812 0.835 0.861 0.885 0.907 0.926 0.943 0.957 0.969 0.980 0.988 0.995 1.000 1.004 1.007 1.008 1.010 1.010 1.010 1.010 1.010 1.009 1.008 1.006 1.003 1.000 0.996 0.993 0.991 0.990 0.991 0.992 0.996 1.004 1.017 1.034 1.043 1.043 0.000 
0.000 0.471 0.471 0.301 0.314 0.342 0.377 0.410 0.432 0.448 0.458 0.466 0.472 0.476 0.481 0.485 0.488 0.492 0.496 0.500 0.505 0.510 0.515 0.522 0.530 0.538 0.548 0.560 0.573 0.588 0.605 0.623 0.644 0.667 0.691 0.719 0.749 0.781 0.816 0.854 0.894 0.938 0.983 1.025 1.065 1.102 1.136 1.168 1.197 1.224 1.249 1.271 1.291 1.308 1.324 1.338 1.351 1.361 1.370 1.378 1.384 1.390 1.394 1.397 1.400 1.401 1.402 1.403 1.404 1.404 1.404 1.404 1.403 1.403 1.402 1.400 1.398 1.394 1.390 1.385 1.379 1.371 1.362 1.352 1.339 1.325 1.309 1.291 1.271 1.248 1.223 1.195 1.165 1.131 1.095 1.056 1.014 0.973 0.936 0.902 0.871 0.843 0.819 0.797 0.779 0.763 0.750 0.739 0.731 0.724 0.719 0.715 0.713 0.711 0.711 0.710 0.710 0.711 0.711 0.713 0.715 0.718 0.723 0.730 0.738 0.748 0.761 0.776 0.793 0.813 0.836 0.861 0.885 0.907 0.926 0.943 0.958 0.970 0.981 0.990 0.997 1.002 1.006 1.009 1.011 1.013 1.014 1.014 1.014 1.014 1.014 1.013 1.012 1.010 1.007 1.005 1.003 1.002 1.002 1.002 1.004 1.007 1.013 1.023 1.034 1.041 1.041 0.000 
0.000 0.524 0.524 0.445 0.376 0.375 0.393 0.420 0.439 0.453 0.462 0.469 0.474 0.478 0.482 0.485 0.489 0.492 0.496 0.499 0.503 0.508 0.513 0.519 0.526 0.535 0.544 0.555 0.568 0.582 0.598 0.616 0.636 0.658 0.683 0.710 0.739 0.772 0.807 0.845 0.886 0.930 0.975 1.019 1.059 1.097 1.132 1.164 1.194 1.221 1.246 1.269 1.289 1.307 1.323 1.337 1.350 1.361 1.370 1.378 1.384 1.389 1.394 1.397 1.399 1.401 1.402 1.403 1.404 1.404 1.404 1.404 1.403 1.403 1.402 1.400 1.398 1.395 1.391 1.386 1.380 1.372 1.363 1.353 1.341 1.327 1.312 1.294 1.274 1.252 1.227 1.200 1.171 1.138 1.103 1.064 1.023 0.983 0.946 0.911 0.880 0.852 0.828 0.806 0.787 0.771 0.757 0.746 0.737 0.730 0.725 0.721 0.719 0.717 0.716 0.716 0.716 0.716 0.717 0.718 0.720 0.723 0.728 0.734 0.742 0.751 0.763 0.778 0.795 0.814 0.836 0.861 0.885 0.907 0.927 0.944 0.959 0.971 0.982 0.991 0.998 1.004 1.008 1.012 1.014 1.015 1.016 1.017 1.017 1.017 1.017 1.017 1.016 1.015 1.013 1.012 1.011 1.011 1.011 1.011 1.012 1.015 1.019 1.026 1.034 1.038 1.038 0.000 
0.000 0.187 0.187 0.361 0.389 0.408 0.423 0.441 0.454 0.463 0.469 0.474 0.478 0.481 0.484 0.486 0.489 0.492 0.495 0.498 0.502 0.506 0.511 0.516 0.523 0.531 0.540 0.550 0.562 0.575 0.590 0.608 0.627 0.649 0.673 0.700 0.729 0.762 0.797 0.836 0.877 0.921 0.968 1.012 1.053 1.092 1.127 1.160 1.190 1.218 1.243 1.266 1.287 1.305 1.321 1.336 1.349 1.360 1.369 1.377 1.384 1.389 1.393 1.397 1.399 1.401 1.402 1.403 1.403 1.404 1.404 1.404 1.403 1.403 1.402 1.400 1.398 1.395 1.391 1.386 1.380 1.373 1.364 1.354 1.343 1.329 1.314 1.297 1.277 1.256 1.232 1.205 1.176 1.144 1.110 1.072 1.032 0.992 0.955 0.921 0.890 0.862 0.837 0.815 0.795 0.779 0.765 0.754 0.745 0.737 0.732 0.728 0.725 0.723 0.722 0.722 0.722 0.722 0.723 0.724 0.725 0.728 0.733 0.738 0.746 0.755 0.767 0.780 0.797 0.815 0.837 0.861 0.885 0.907 0.927 0.944 0.959 0.972 0.983 0.992 0.999 1.005 1.010 1.013 1.016 1.017 1.019 1.019 1.020 1.020 1.020 1.020 1.019 1.018 1.018 1.017 1.017 1.017 1.017 1.018 1.019 1.021 1.024 1.028 1.033 1.035 1.035 0.000 
0.000 0.200 0.200 0.269 0.405 0.448 0.465 0.473 0.478 0.480 0.481 0.483 0.484 0.485 0.487 0.488 0.490 0.491 0.494 0.496 0.500 0.503 0.508 0.513 0.519 0.526 0.535 0.544 0.556 0.568 0.583 0.600 0.619 0.640 0.664 0.690 0.720 0.752 0.788 0.826 0.868 0.912 0.960 1.005 1.047 1.086 1.122 1.155 1.186 1.214 1.240 1.263 1.284 1.303 1.319 1.334 1.347 1.358 1.368 1.376 1.383 1.388 1.393 1.396 1.399 1.401 1.402 1.403 1.403 1.404 1.404 1.403 1.403 1.403 1.402 1.400 1.398 1.395 1.391 1.386 1.380 1.373 1.365 1.355 1.344 1.331 1.316 1.299 1.280 1.259 1.235 1.210 1.181 1.150 1.116 1.080 1.040 1.000 0.963 0.929 0.898 0.870 0.846 0.823 0.804 0.788 0.774 0.762 0.753 0.745 0.739 0.735 0.732 0.730 0.729 0.729 0.729 0.729 0.729 0.730 0.732 0.734 0.738 0.744 0.751 0.760 0.770 0.784 0.799 0.817 0.838 0.861 0.886 0.908 0.928 0.945 0.960 0.973 0.984 0.993 1.000 1.006 1.011 1.014 1.017 1.019 1.020 1.021 1.021 1.022 1.022 1.022 1.021 1.021 1.021 1.020 1.021 1.021 1.022 1.023 1.025 1.026 1.028 1.030 1.032 1.033 1.033 0.000 
0.000 0.650 0.650 0.420 0.486 0.515 0.521 0.517 0.510 0.503 0.497 0.494 0.491 0.490 0.489 0.489 0.490 0.491 0.492 0.495 0.497 0.501 0.505 0.509 0.515 0.522 0.530 0.539 0.549 0.562 0.576 0.592 0.611 0.632 0.656 0.682 0.711 0.744 0.779 0.817 0.859 0.903 0.951 0.997 1.039 1.079 1.116 1.150 1.181 1.210 1.236 1.260 1.281 1.300 1.317 1.332 1.345 1.357 1.367 1.375 1.382 1.388 1.392 1.396 1.399 1.401 1.402 1.403 1.403 1.403 1.403 1.403 1.403 1.402 1.401 1.400 1.398 1.395 1.391 1.386 1.381 1.374 1.366 1.356 1.345 1.332 1.317 1.301 1.282 1.262 1.239 1.214 1.186 1.156 1.123 1.087 1.048 1.008 0.972 0.938 0.907 0.879 0.854 0.832 0.813 0.796 0.782 0.770 0.761 0.753 0.747 0.743 0.740 0.738 0.737 0.736 0.736 0.736 0.736 0.737 0.738 0.741 0.744 0.749 0.756 0.764 0.775 0.787 0.802 0.820 0.839 0.862 0.886 0.908 0.928 0.946 0.961 0.973 0.984 0.993 1.001 1.007 1.012 1.015 1.018 1.020 1.021 1.022 1.023 1.023 1.023 1.023 1.023 1.023 1.023 1.023 1.023 1.023 1.025 1.026 1.029 1.031 1.032 1.032 1.031 1.030 1.030 0.000 
0.000 0.925 0.925 0.762 0.665 0.618 0.586 0.559 0.538 0.522 0.510 0.502 0.496 0.493 0.491 0.490 0.490 0.490 0.491 0.493 0.495 0.498 0.501 0.506 0.511 0.517 0.524 0.533 0.543 0.555 0.569 0.585 0.604 0.625 0.648 0.674 0.704 0.736 0.771 0.809 0.850 0.894 0.942 0.988 1.032 1.072 1.110 1.144 1.176 1.205 1.232 1.256 1.278 1.297 1.314 1.330 1.343 1.355 1.365 1.374 1.381 1.387 1.391 1.395 1.398 1.400 1.401 1.402 1.403 1.403 1.403 1.403 1.403 1.402 1.401 1.400 1.398 1.395 1.391 1.386 1.381 1.374 1.366 1.356 1.346 1.333 1.319 1.303 1.285 1.264 1.242 1.217 1.190 1.160 1.128 1.093 1.055 1.016 0.979 0.945 0.915 0.887 0.862 0.840 0.820 0.804 0.789 0.778 0.768 0.760 0.754 0.750 0.747 0.744 0.743 0.743 0.743 0.743 0.743 0.743 0.745 0.747 0.751 0.755 0.762 0.770 0.779 0.791 0.806 0.822 0.841 0.863 0.887 0.909 0.929 0.946 0.961 0.974 0.985 0.994 1.001 1.007 1.012 1.016 1.019 1.021 1.022 1.023 1.023 1.024 1.024 1.024 1.024 1.024 1.024 1.024 1.024 1.025 1.026 1.028 1.032 1.035 1.036 1.036 1.033 1.028 1.028 0.000 
0.000 0.999 0.999 0.924 0.786 0.691 0.629 0.586 0.556 0.533 0.518 0.506 0.499 0.494 0.491 0.490 0.489 0.489 0.490 0.491 0.492 0.494 0.497 0.501 0.506 0.512 0.519 0.527 0.537 0.549 0.563 0.579 0.597 0.618 0.641 0.668 0.697 0.729 0.764 0.801 0.842 0.886 0.933 0.980 1.024 1.065 1.103 1.138 1.171 1.200 1.227 1.252 1.274 1.294 1.311 1.327 1.341 1.353 1.363 1.372 1.379 1.385 1.390 1.394 1.397 1.399 1.401 1.402 1.402 1.402 1.402 1.402 1.402 1.402 1.401 1.399 1.397 1.395 1.391 1.386 1.381 1.374 1.366 1.357 1.346 1.334 1.320 1.304 1.286 1.267 1.245 1.220 1.194 1.165 1.133 1.099 1.062 1.023 0.986 0.953 0.922 0.894 0.869 0.847 0.827 0.811 0.796 0.784 0.775 0.767 0.761 0.756 0.753 0.751 0.749 0.749 0.748 0.748 0.749 0.749 0.751 0.753 0.756 0.760 0.766 0.774 0.784 0.795 0.809 0.825 0.843 0.864 0.887 0.909 0.929 0.946 0.961 0.974 0.985 0.994 1.002 1.008 1.012 1.016 1.019 1.021 1.022 1.023 1.024 1.024 1.024 1.024 1.024 1.024 1.024 1.024 1.024 1.025 1.027 1.029 1.033 1.039 1.042 1.043 1.040 1.030 1.030 0.000 
0.000 0.994 0.994 0.960 0.833 0.723 0.650 0.600 0.565 0.539 0.521 0.509 0.500 0.495 0.491 0.489 0.489 0.488 0.488 0.488 0.489 0.491 0.494 0.497 0.501 0.507 0.514 0.522 0.532 0.544 0.557 0.573 0.591 0.612 0.636 0.662 0.691 0.722 0.757 0.794 0.835 0.878 0.924 0.972 1.016 1.058 1.096 1.132 1.165 1.195 1.222 1.247 1.270 1.290 1.308 1.324 1.338 1.350 1.361 1.370 1.378 1.384 1.389 1.393 1.396 1.398 1.400 1.401 1.401 1.402 1.402 1.402 1.402 1.401 1.400 1.399 1.397 1.394 1.391 1.386 1.381 1.374 1.366 1.357 1.346 1.334 1.321 1.305 1.288 1.268 1.247 1.223 1.197 1.169 1.138 1.104 1.068 1.030 0.993 0.959 0.929 0.901 0.876 0.853 0.834 0.817 0.803 0.791 0.781 0.773 0.766 0.762 0.758 0.756 0.755 0.754 0.754 0.754 0.754 0.754 0.756 0.758 0.761 0.765 0.771 0.778 0.787 0.799 0.812 0.827 0.845 0.866 0.888 0.910 0.929 0.946 0.961 0.974 0.985 0.994 1.002 1.008 1.013 1.016 1.019 1.021 1.022 1.023 1.024 1.024 1.024 1.024 1.024 1.024 1.024 1.024 1.024 1.025 1.027 1.029 1.034 1.041 1.049 1.056 1.061 1.064 1.064 0.000 
0.000 0.908 0.908 0.935 0.840 0.731 0.656 0.605 0.568 0.542 0.523 0.509 0.500 0.494 0.491 0.488 0.487 0.486 0.486 0.486 0.487 0.488 0.490 0.493 0.497 0.502 0.509 0.517 0.527 0.538 0.552 0.568 0.586 0.607 0.630 0.656 0.685 0.716 0.751 0.788 0.827 0.870 0.916 0.963 1.008 1.050 1.089 1.125 1.158 1.189 1.217 1.242 1.265 1.286 1.304 1.321 1.335 1.348 1.358 1.368 1.375 1.382 1.387 1.391 1.395 1.397 1.399 1.400 1.400 1.401 1.401 1.401 1.401 1.400 1.400 1.398 1.396 1.394 1.390 1.386 1.381 1.374 1.366 1.357 1.347 1.335 1.321 1.306 1.289 1.270 1.249 1.226 1.200 1.172 1.142 1.109 1.074 1.036 0.999 0.965 0.935 0.907 0.882 0.860 0.840 0.823 0.808 0.796 0.786 0.778 0.772 0.767 0.763 0.761 0.759 0.759 0.758 0.758 0.759 0.759 0.760 0.762 0.765 0.769 0.774 0.782 0.790 0.801 0.814 0.829 0.847 0.866 0.888 0.910 0.930 0.947 0.961 0.974 0.985 0.994 1.002 1.008 1.013 1.016 1.019 1.021 1.022 1.023 1.024 1.024 1.024 1.024 1.024 1.024 1.024 1.024 1.024 1.025 1.026 1.029 1.033 1.041 1.054 1.073 1.090 1.098 1.098 0.000 
0.000 0.809 0.809 0.853 0.811 0.728 0.656 0.605 0.568 0.542 0.523 0.509 0.500 0.494 0.489 0.486 0.485 0.484 0.484 0.483 0.484 0.484 0.486 0.489 0.493 0.498 0.504 0.512 0.522 0.534 0.548 0.563 0.582 0.602 0.626 0.651 0.680 0.711 0.745 0.781 0.821 0.863 0.908 0.955 1.000 1.043 1.082 1.118 1.152 1.183 1.211 1.237 1.260 1.281 1.300 1.317 1.332 1.344 1.356 1.365 1.373 1.380 1.385 1.390 1.393 1.395 1.397 1.398 1.399 1.400 1.400 1.400 1.400 1.399 1.398 1.397 1.396 1.393 1.390 1.386 1.380 1.374 1.366 1.357 1.347 1.335 1.322 1.307 1.290 1.271 1.251 1.228 1.203 1.176 1.146 1.114 1.079 1.041 1.005 0.971 0.940 0.912 0.887 0.865 0.845 0.828 0.814 0.801 0.791 0.783 0.776 0.771 0.768 0.765 0.764 0.763 0.762 0.762 0.762 0.763 0.764 0.766 0.768 0.772 0.778 0.784 0.793 0.804 0.816 0.831 0.848 0.867 0.889 0.910 0.930 0.947 0.962 0.974 0.985 0.994 1.002 1.008 1.013 1.016 1.019 1.021 1.022 1.023 1.024 1.024 1.024 1.024 1.024 1.024 1.023 1.023 1.023 1.023 1.025 1.027 1.032 1.040 1.055 1.080 1.111 1.123 1.123 0.000 
0.000 0.698 0.698 0.753 0.740 0.701 0.648 0.601 0.566 0.540 0.522 0.508 0.498 0.491 0.487 0.484 0.482 0.481 0.480 0.480 0.480 0.481 0.482 0.485 0.488 0.493 0.500 0.508 0.518 0.530 0.543 0.559 0.578 0.598 0.622 0.647 0.675 0.706 0.739 0.775 0.814 0.856 0.900 0.947 0.992 1.035 1.075 1.111 1.145 1.177 1.205 1.232 1.255 1.277 1.296 1.313 1.328 1.341 1.352 1.362 1.370 1.377 1.383 1.387 1.391 1.394 1.396 1.397 1.398 1.398 1.398 1.398 1.398 1.398 1.397 1.396 1.394 1.392 1.389 1.385 1.380 1.373 1.366 1.357 1.347 1.335 1.322 1.307 1.291 1.272 1.252 1.230 1.205 1.178 1.149 1.117 1.083 1.046 1.010 0.976 0.946 0.918 0.892 0.870 0.850 0.833 0.818 0.806 0.795 0.787 0.780 0.775 0.771 0.769 0.767 0.766 0.766 0.766 0.766 0.766 0.767 0.769 0.771 0.775 0.780 0.787 0.795 0.805 0.818 0.832 0.849 0.868 0.889 0.910 0.930 0.947 0.961 0.974 0.985 0.994 1.002 1.008 1.012 1.016 1.019 1.021 1.022 1.023 1.023 1.023 1.023 1.023 1.023 1.023 1.022 1.021 1.021 1.021 1.021 1.023 1.027 1.035 1.051 1.079 1.121 1.146 1.146 0.000 
0.000 0.594 0.594 0.645 0.648 0.643 0.623 0.591 0.560 0.536 0.518 0.504 0.495 0.488 0.483 0.479 0.477 0.476 0.476 0.476 0.476 0.477 0.478 0.480 0.484 0.489 0.496 0.504 0.514 0.526 0.540 0.556 0.574 0.595 0.618 0.643 0.671 0.701 0.734 0.770 0.808 0.849 0.893 0.939 0.985 1.027 1.067 1.104 1.139 1.170 1.199 1.226 1.250 1.271 1.291 1.308 1.324 1.337 1.349 1.359 1.367 1.374 1.380 1.385 1.389 1.391 1.394 1.395 1.396 1.396 1.396 1.396 1.396 1.396 1.396 1.395 1.393 1.391 1.388 1.384 1.379 1.373 1.365 1.357 1.347 1.335 1.322 1.308 1.291 1.273 1.253 1.231 1.207 1.181 1.152 1.121 1.087 1.051 1.015 0.981 0.950 0.922 0.897 0.874 0.854 0.837 0.822 0.809 0.799 0.790 0.783 0.778 0.774 0.772 0.770 0.769 0.769 0.768 0.768 0.769 0.770 0.771 0.774 0.777 0.782 0.789 0.797 0.807 0.819 0.833 0.849 0.868 0.889 0.910 0.930 0.947 0.961 0.974 0.985 0.994 1.002 1.008 1.012 1.016 1.018 1.020 1.022 1.022 1.023 1.023 1.023 1.023 1.022 1.021 1.020 1.019 1.017 1.015 1.015 1.015 1.017 1.024 1.040 1.070 1.120 1.154 1.154 0.000 
0.000 0.494 0.494 0.547 0.567 0.576 0.578 0.568 0.547 0.527 0.510 0.498 0.488 0.482 0.477 0.474 0.472 0.471 0.471 0.471 0.471 0.472 0.474 0.476 0.480 0.485 0.492 0.500 0.511 0.523 0.537 0.553 0.571 0.592 0.615 0.640 0.667 0.697 0.729 0.764 0.802 0.843 0.886 0.931 0.977 1.020 1.060 1.097 1.132 1.164 1.193 1.220 1.244 1.266 1.286 1.303 1.319 1.333 1.345 1.355 1.364 1.371 1.377 1.382 1.386 1.389 1.391 1.393 1.394 1.394 1.394 1.394 1.394 1.394 1.394 1.393 1.391 1.389 1.386 1.383 1.378 1.372 1.365 1.356 1.346 1.335 1.322 1.308 1.292 1.274 1.254 1.232 1.209 1.183 1.154 1.124 1.091 1.055 1.019 0.985 0.954 0.926 0.901 0.878 0.858 0.840 0.825 0.812 0.802 0.793 0.786 0.781 0.777 0.774 0.772 0.771 0.771 0.771 0.771 0.771 0.772 0.773 0.776 0.779 0.784 0.790 0.798 0.808 0.820 0.834 0.850 0.868 0.889 0.910 0.930 0.947 0.961 0.974 0.985 0.994 1.001 1.007 1.012 1.015 1.018 1.020 1.021 1.021 1.021 1.022 1.021 1.021 1.020 1.019 1.017 1.015 1.012 1.008 1.004 1.001 1.000 1.002 1.013 1.041 1.101 1.158 1.158 0.000 
0.000 0.436 0.436 0.474 0.505 0.522 0.530 0.532 0.526 0.512 0.498 0.487 0.479 0.473 0.469 0.466 0.465 0.465 0.465 0.465 0.465 0.467 0.469 0.472 0.476 0.481 0.488 0.497 0.508 0.520 0.534 0.551 0.569 0.589 0.612 0.636 0.663 0.693 0.725 0.759 0.796 0.836 0.879 0.924 0.969 1.012 1.052 1.090 1.125 1.157 1.186 1.213 1.238 1.260 1.280 1.298 1.314 1.328 1.340 1.351 1.360 1.368 1.374 1.379 1.383 1.386 1.388 1.390 1.391 1.392 1.392 1.392 1.392 1.392 1.391 1.391 1.389 1.387 1.384 1.381 1.376 1.371 1.364 1.356 1.346 1.335 1.322 1.308 1.292 1.274 1.255 1.233 1.210 1.184 1.156 1.126 1.094 1.058 1.022 0.989 0.958 0.930 0.904 0.881 0.861 0.843 0.828 0.815 0.804 0.795 0.788 0.783 0.779 0.776 0.774 0.773 0.772 0.772 0.772 0.773 0.773 0.775 0.777 0.780 0.785 0.791 0.799 0.809 0.820 0.834 0.850 0.868 0.889 0.910 0.929 0.946 0.961 0.974 0.984 0.993 1.001 1.006 1.011 1.014 1.017 1.018 1.019 1.020 1.020 1.020 1.020 1.019 1.018 1.016 1.013 1.009 1.004 0.998 0.990 0.981 0.971 0.963 0.961 0.978 1.037 1.142 1.142 0.000 
0.000 0.410 0.410 0.433 0.459 0.476 0.486 0.492 0.494 0.490 0.482 0.473 0.466 0.462 0.459 0.457 0.456 0.456 0.457 0.457 0.459 0.461 0.463 0.467 0.472 0.478 0.485 0.494 0.505 0.518 0.532 0.548 0.566 0.586 0.609 0.633 0.660 0.689 0.720 0.754 0.791 0.830 0.872 0.916 0.962 1.005 1.045 1.082 1.117 1.150 1.180 1.207 1.232 1.254 1.275 1.293 1.309 1.323 1.336 1.347 1.356 1.364 1.370 1.375 1.380 1.383 1.385 1.387 1.388 1.389 1.389 1.389 1.389 1.389 1.389 1.388 1.387 1.385 1.382 1.379 1.375 1.369 1.362 1.355 1.345 1.334 1.322 1.308 1.292 1.274 1.255 1.234 1.211 1.186 1.158 1.128 1.096 1.062 1.026 0.992 0.961 0.933 0.907 0.884 0.864 0.846 0.831 0.817 0.806 0.797 0.790 0.784 0.780 0.777 0.775 0.774 0.774 0.774 0.774 0.774 0.775 0.776 0.778 0.781 0.786 0.792 0.799 0.809 0.820 0.834 0.850 0.868 0.889 0.910 0.929 0.946 0.961 0.973 0.984 0.993 1.000 1.005 1.010 1.013 1.015 1.017 1.017 1.018 1.018 1.018 1.017 1.016 1.014 1.012 1.008 1.002 0.995 0.985 0.972 0.956 0.935 0.910 0.881 0.856 0.871 1.006 1.006 0.000 
0.000 0.384 0.384 0.403 0.422 0.436 0.445 0.453 0.458 0.460 0.458 0.454 0.450 0.447 0.446 0.445 0.446 0.446 0.447 0.449 0.451 0.454 0.457 0.462 0.467 0.474 0.482 0.492 0.503 0.516 0.530 0.546 0.564 0.584 0.606 0.630 0.656 0.685 0.716 0.749 0.785 0.824 0.865 0.909 0.954 0.997 1.037 1.075 1.110 1.143 1.173 1.200 1.225 1.248 1.269 1.287 1.303 1.318 1.331 1.342 1.351 1.359 1.366 1.371 1.376 1.379 1.382 1.384 1.385 1.386 1.386 1.386 1.386 1.386 1.386 1.385 1.384 1.382 1.380 1.377 1.372 1.367 1.361 1.353 1.344 1.333 1.321 1.307 1.292 1.274 1.255 1.234 1.212 1.187 1.160 1.130 1.098 1.064 1.029 0.995 0.964 0.935 0.910 0.886 0.866 0.848 0.832 0.819 0.808 0.799 0.791 0.786 0.781 0.778 0.776 0.775 0.775 0.774 0.774 0.775 0.775 0.777 0.779 0.782 0.786 0.792 0.800 0.809 0.821 0.834 0.850 0.868 0.888 0.910 0.929 0.945 0.960 0.972 0.983 0.992 0.999 1.004 1.008 1.011 1.013 1.015 1.015 1.015 1.015 1.015 1.014 1.013 1.010 1.006 1.001 0.993 0.983 0.969 0.952 0.932 0.906 0.873 0.828 0.753 0.598 0.435 0.435 0.000 
0.000 0.358 0.358 0.375 0.389 0.400 0.409 0.416 0.422 0.426 0.429 0.430 0.429 0.429 0.430 0.431 0.433 0.434 0.437 0.439 0.443 0.446 0.451 0.456 0.463 0.470 0.479 0.489 0.501 0.514 0.528 0.544 0.562 0.582 0.603 0.627 0.653 0.681 0.711 0.744 0.780 0.818 0.858 0.901 0.946 0.989 1.030 1.068 1.103 1.135 1.165 1.193 1.218 1.241 1.262 1.281 1.298 1.312 1.325 1.337 1.346 1.354 1.361 1.367 1.372 1.375 1.378 1.380 1.381 1.382 1.382 1.382 1.383 1.382 1.382 1.382 1.381 1.379 1.377 1.374 1.370 1.365 1.359 1.351 1.342 1.332 1.320 1.307 1.291 1.274 1.255 1.235 1.212 1.187 1.161 1.132 1.100 1.067 1.031 0.997 0.966 0.938 0.912 0.888 0.868 0.850 0.834 0.820 0.809 0.800 0.792 0.787 0.782 0.779 0.777 0.776 0.775 0.775 0.775 0.775 0.776 0.777 0.779 0.782 0.787 0.792 0.800 0.809 0.821 0.834 0.850 0.868 0.888 0.909 0.928 0.945 0.959 0.971 0.982 0.990 0.997 1.002 1.006 1.009 1.011 1.012 1.012 1.012 1.012 1.012 1.010 1.008 1.005 1.000 0.994 0.984 0.971 0.956 0.936 0.912 0.885 0.852 0.811 0.735 0.545 0.132 0.132 0.000 
0.000 0.332 0.332 0.348 0.358 0.367 0.375 0.381 0.387 0.392 0.397 0.401 0.405 0.408 0.411 0.414 0.417 0.421 0.425 0.429 0.434 0.439 0.445 0.451 0.459 0.467 0.477 0.487 0.499 0.512 0.526 0.542 0.560 0.579 0.600 0.624 0.649 0.677 0.707 0.739 0.774 0.811 0.851 0.894 0.939 0.982 1.022 1.060 1.095 1.128 1.158 1.186 1.211 1.235 1.256 1.275 1.291 1.306 1.320 1.331 1.341 1.349 1.356 1.362 1.367 1.371 1.373 1.376 1.377 1.378 1.378 1.379 1.379 1.379 1.378 1.378 1.377 1.375 1.373 1.371 1.367 1.362 1.356 1.349 1.341 1.331 1.319 1.306 1.291 1.274 1.255 1.235 1.212 1.188 1.161 1.133 1.102 1.068 1.033 0.999 0.968 0.939 0.913 0.890 0.869 0.851 0.835 0.821 0.810 0.801 0.793 0.787 0.783 0.780 0.777 0.776 0.776 0.775 0.775 0.776 0.776 0.777 0.779 0.782 0.787 0.793 0.800 0.809 0.821 0.834 0.849 0.867 0.888 0.908 0.927 0.944 0.958 0.970 0.980 0.988 0.995 1.000 1.004 1.006 1.008 1.008 1.009 1.009 1.008 1.008 1.006 1.004 1.000 0.994 0.986 0.975 0.961 0.944 0.923 0.897 0.868 0.841 0.812 0.775 0.719 0.686 0.686 0.000 
0.000 0.307 0.307 0.322 0.329 0.336 0.343 0.350 0.356 0.362 0.368 0.374 0.380 0.386 0.391 0.397 0.402 0.408 0.413 0.419 0.425 0.432 0.439 0.447 0.455 0.464 0.474 0.485 0.497 0.510 0.524 0.540 0.558 0.577 0.598 0.621 0.646 0.673 0.702 0.734 0.769 0.805 0.845 0.887 0.931 0.974 1.014 1.052 1.088 1.120 1.151 1.179 1.204 1.228 1.249 1.268 1.285 1.300 1.313 1.325 1.335 1.344 1.351 1.357 1.362 1.366 1.369 1.371 1.372 1.373 1.374 1.374 1.374 1.374 1.374 1.374 1.373 1.371 1.370 1.367 1.363 1.359 1.353 1.346 1.338 1.329 1.317 1.305 1.290 1.273 1.255 1.235 1.212 1.188 1.162 1.134 1.103 1.070 1.035 1.001 0.970 0.941 0.915 0.891 0.870 0.852 0.836 0.822 0.811 0.801 0.793 0.787 0.783 0.780 0.778 0.776 0.776 0.775 0.775 0.776 0.776 0.777 0.779 0.782 0.787 0.793 0.800 0.809 0.820 0.834 0.849 0.867 0.887 0.907 0.926 0.942 0.956 0.968 0.978 0.986 0.992 0.997 1.001 1.003 1.004 1.005 1.005 1.005 1.004 1.003 1.001 0.998 0.994 0.987 0.978 0.967 0.953 0.935 0.912 0.885 0.856 0.834 0.823 0.831 0.902 1.094 1.094 0.000 
0.000 0.281 0.281 0.295 0.301 0.307 0.314 0.321 0.327 0.334 0.342 0.350 0.358 0.367 0.374 0.382 0.389 0.396 0.403 0.411 0.418 0.426 0.434 0.443 0.452 0.461 0.472 0.483 0.495 0.508 0.523 0.538 0.556 0.574 0.595 0.618 0.642 0.669 0.698 0.729 0.763 0.799 0.838 0.879 0.923 0.966 1.007 1.044 1.080 1.113 1.143 1.171 1.197 1.220 1.242 1.261 1.278 1.293 1.307 1.319 1.329 1.338 1.345 1.351 1.356 1.360 1.363 1.366 1.367 1.368 1.369 1.369 1.369 1.369 1.369 1.369 1.368 1.367 1.365 1.363 1.359 1.355 1.350 1.343 1.335 1.326 1.315 1.303 1.289 1.272 1.254 1.234 1.212 1.188 1.162 1.134 1.104 1.071 1.036 1.002 0.971 0.942 0.916 0.892 0.871 0.853 0.836 0.823 0.811 0.801 0.794 0.788 0.783 0.780 0.778 0.776 0.776 0.775 0.775 0.776 0.776 0.777 0.779 0.782 0.787 0.792 0.800 0.809 0.820 0.833 0.848 0.866 0.886 0.906 0.924 0.940 0.954 0.966 0.975 0.983 0.989 0.994 0.997 0.999 1.000 1.000 1.000 1.000 1.000 0.998 0.996 0.993 0.987 0.980 0.971 0.959 0.945 0.927 0.905 0.878 0.849 0.829 0.823 0.835 0.914 1.092 1.092 0.000 
0.000 0.255 0.255 0.270 0.275 0.280 0.287 0.294 0.302 0.310 0.320 0.330 0.341 0.351 0.360 0.369 0.378 0.386 0.395 0.403 0.412 0.421 0.430 0.439 0.449 0.459 0.470 0.481 0.493 0.506 0.521 0.536 0.553 0.572 0.592 0.615 0.639 0.665 0.694 0.725 0.758 0.793 0.832 0.872 0.915 0.958 0.999 1.036 1.072 1.105 1.135 1.163 1.189 1.213 1.234 1.253 1.271 1.286 1.300 1.312 1.322 1.331 1.339 1.345 1.350 1.355 1.358 1.360 1.362 1.363 1.364 1.364 1.364 1.364 1.364 1.364 1.363 1.362 1.360 1.358 1.355 1.351 1.346 1.339 1.332 1.323 1.313 1.300 1.287 1.271 1.253 1.234 1.212 1.188 1.163 1.135 1.105 1.072 1.038 1.003 0.972 0.943 0.917 0.893 0.872 0.853 0.837 0.823 0.811 0.802 0.794 0.788 0.783 0.780 0.778 0.776 0.776 0.775 0.775 0.776 0.776 0.777 0.779 0.782 0.787 0.792 0.799 0.808 0.819 0.832 0.847 0.865 0.884 0.904 0.922 0.938 0.952 0.963 0.972 0.980 0.986 0.990 0.992 0.994 0.995 0.995 0.995 0.995 0.994 0.993 0.990 0.987 0.981 0.974 0.964 0.952 0.937 0.920 0.899 0.874 0.846 0.823 0.804 0.789 0.803 0.934 0.934 0.000 
0.000 0.229 0.229 0.244 0.249 0.255 0.262 0.270 0.279 0.289 0.302 0.315 0.327 0.338 0.349 0.359 0.369 0.378 0.388 0.397 0.406 0.416 0.426 0.436 0.446 0.456 0.467 0.479 0.491 0.505 0.519 0.534 0.551 0.570 0.590 0.612 0.635 0.661 0.689 0.720 0.752 0.787 0.825 0.865 0.908 0.950 0.991 1.028 1.064 1.097 1.127 1.155 1.181 1.205 1.226 1.246 1.263 1.279 1.293 1.305 1.316 1.325 1.332 1.339 1.344 1.348 1.352 1.354 1.356 1.357 1.358 1.358 1.359 1.359 1.359 1.358 1.358 1.357 1.355 1.353 1.350 1.346 1.341 1.335 1.328 1.319 1.309 1.298 1.284 1.269 1.252 1.233 1.212 1.188 1.163 1.135 1.105 1.073 1.039 1.004 0.973 0.944 0.917 0.893 0.872 0.853 0.837 0.823 0.811 0.802 0.794 0.788 0.783 0.780 0.778 0.776 0.776 0.775 0.775 0.775 0.776 0.777 0.779 0.782 0.786 0.792 0.799 0.808 0.818 0.831 0.846 0.863 0.882 0.902 0.920 0.935 0.949 0.960 0.969 0.976 0.981 0.985 0.988 0.989 0.990 0.990 0.990 0.990 0.989 0.987 0.984 0.980 0.975 0.967 0.957 0.945 0.930 0.913 0.893 0.870 0.846 0.819 0.784 0.722 0.568 0.383 0.383 0.000 
0.000 0.203 0.203 0.218 0.224 0.230 0.238 0.248 0.259 0.272 0.288 0.303 0.316 0.328 0.340 0.351 0.361 0.371 0.382 0.392 0.402 0.412 0.422 0.432 0.443 0.454 0.465 0.477 0.489 0.503 0.517 0.532 0.549 0.567 0.587 0.609 0.632 0.657 0.685 0.715 0.747 0.781 0.818 0.858 0.900 0.942 0.982 1.020 1.055 1.088 1.119 1.147 1.173 1.197 1.218 1.238 1.255 1.271 1.285 1.297 1.308 1.317 1.325 1.332 1.337 1.342 1.345 1.348 1.350 1.351 1.352 1.352 1.352 1.352 1.352 1.352 1.352 1.351 1.349 1.347 1.345 1.341 1.336 1.331 1.324 1.315 1.306 1.294 1.281 1.267 1.250 1.231 1.211 1.188 1.162 1.135 1.105 1.073 1.039 1.005 0.973 0.944 0.917 0.893 0.872 0.853 0.837 0.823 0.811 0.801 0.794 0.788 0.783 0.780 0.777 0.776 0.775 0.775 0.775 0.775 0.776 0.777 0.779 0.781 0.786 0.791 0.798 0.807 0.817 0.830 0.844 0.861 0.880 0.900 0.917 0.932 0.945 0.956 0.964 0.971 0.976 0.980 0.982 0.983 0.984 0.984 0.984 0.984 0.983 0.981 0.978 0.974 0.968 0.960 0.950 0.938 0.923 0.906 0.887 0.867 0.846 0.820 0.784 0.715 0.537 0.166 0.166 0.000 
0.000 0.178 0.178 0.193 0.199 0.207 0.217 0.228 0.242 0.260 0.278 0.294 0.308 0.321 0.333 0.345 0.356 0.366 0.377 0.387 0.398 0.408 0.419 0.430 0.440 0.451 0.463 0.475 0.487 0.501 0.515 0.530 0.547 0.565 0.584 0.605 0.628 0.653 0.680 0.710 0.741 0.775 0.812 0.850 0.892 0.934 0.974 1.012 1.047 1.080 1.110 1.139 1.164 1.188 1.210 1.230 1.247 1.263 1.277 1.290 1.300 1.310 1.318 1.324 1.330 1.334 1.338 1.341 1.343 1.344 1.345 1.346 1.346 1.346 1.346 1.346 1.345 1.344 1.343 1.341 1.339 1.335 1.331 1.325 1.319 1.311 1.301 1.291 1.278 1.264 1.248 1.229 1.209 1.187 1.162 1.135 1.105 1.074 1.040 1.006 0.974 0.944 0.918 0.894 0.872 0.853 0.837 0.823 0.811 0.801 0.793 0.787 0.783 0.779 0.777 0.775 0.775 0.774 0.774 0.775 0.775 0.776 0.778 0.781 0.785 0.790 0.797 0.805 0.815 0.828 0.842 0.858 0.877 0.896 0.913 0.928 0.940 0.951 0.959 0.966 0.971 0.974 0.976 0.977 0.978 0.978 0.978 0.978 0.977 0.975 0.972 0.967 0.961 0.953 0.943 0.931 0.916 0.899 0.882 0.865 0.848 0.829 0.804 0.769 0.722 0.712 0.712 0.000 
0.000 0.152 0.152 0.167 0.175 0.185 0.197 0.211 0.230 0.251 0.270 0.287 0.302 0.316 0.328 0.340 0.351 0.362 0.373 0.384 0.395 0.405 0.416 0.427 0.438 0.449 0.461 0.473 0.485 0.499 0.513 0.528 0.544 0.562 0.581 0.602 0.625 0.649 0.676 0.705 0.736 0.769 0.805 0.843 0.884 0.926 0.966 1.003 1.038 1.071 1.102 1.130 1.156 1.179 1.201 1.221 1.239 1.255 1.269 1.281 1.292 1.302 1.310 1.317 1.322 1.327 1.330 1.333 1.335 1.337 1.338 1.338 1.339 1.339 1.339 1.339 1.338 1.338 1.336 1.335 1.332 1.329 1.325 1.320 1.313 1.306 1.297 1.286 1.274 1.260 1.245 1.227 1.207 1.185 1.161 1.134 1.105 1.074 1.040 1.006 0.974 0.944 0.918 0.894 0.872 0.853 0.837 0.823 0.811 0.801 0.793 0.787 0.782 0.779 0.776 0.775 0.774 0.774 0.774 0.774 0.774 0.775 0.777 0.779 0.783 0.788 0.795 0.803 0.813 0.825 0.839 0.855 0.873 0.892 0.909 0.923 0.935 0.945 0.954 0.960 0.965 0.968 0.970 0.971 0.971 0.972 0.971 0.971 0.970 0.968 0.965 0.961 0.955 0.947 0.937 0.925 0.910 0.893 0.877 0.864 0.854 0.847 0.845 0.861 0.929 1.079 1.079 0.000 
0.000 0.126 0.126 0.142 0.152 0.164 0.179 0.199 0.223 0.246 0.266 0.283 0.299 0.312 0.325 0.337 0.348 0.360 0.370 0.381 0.392 0.403 0.414 0.425 0.436 0.447 0.458 0.470 0.483 0.496 0.510 0.526 0.542 0.559 0.578 0.599 0.621 0.645 0.671 0.700 0.730 0.763 0.798 0.836 0.875 0.917 0.957 0.994 1.029 1.062 1.092 1.121 1.147 1.170 1.192 1.212 1.230 1.246 1.260 1.272 1.283 1.293 1.301 1.308 1.314 1.319 1.322 1.325 1.328 1.329 1.330 1.331 1.331 1.331 1.331 1.331 1.331 1.330 1.329 1.327 1.325 1.322 1.318 1.313 1.307 1.300 1.291 1.281 1.269 1.256 1.241 1.224 1.204 1.183 1.159 1.133 1.105 1.074 1.040 1.006 0.974 0.945 0.918 0.894 0.872 0.853 0.837 0.822 0.810 0.800 0.792 0.786 0.781 0.778 0.775 0.773 0.773 0.772 0.772 0.772 0.773 0.774 0.775 0.778 0.781 0.786 0.792 0.800 0.810 0.822 0.835 0.851 0.869 0.887 0.903 0.917 0.929 0.939 0.947 0.953 0.958 0.961 0.963 0.964 0.965 0.965 0.965 0.964 0.963 0.961 0.958 0.954 0.948 0.941 0.931 0.919 0.905 0.888 0.873 0.862 0.857 0.856 0.864 0.895 0.982 1.076 1.076 0.000 
0.000 0.100 0.100 0.117 0.129 0.144 0.165 0.192 0.219 0.243 0.263 0.281 0.297 0.311 0.323 0.335 0.347 0.358 0.368 0.379 0.390 0.401 0.411 0.422 0.433 0.445 0.456 0.468 0.481 0.494 0.508 0.523 0.539 0.556 0.575 0.595 0.617 0.641 0.667 0.694 0.724 0.757 0.791 0.828 0.867 0.908 0.948 0.985 1.020 1.053 1.083 1.111 1.137 1.161 1.183 1.202 1.220 1.236 1.250 1.263 1.274 1.284 1.292 1.299 1.305 1.310 1.314 1.317 1.319 1.321 1.322 1.322 1.323 1.323 1.323 1.323 1.323 1.322 1.321 1.320 1.317 1.315 1.311 1.306 1.300 1.294 1.285 1.276 1.264 1.251 1.237 1.220 1.201 1.180 1.157 1.132 1.104 1.074 1.041 1.006 0.974 0.945 0.918 0.893 0.872 0.853 0.836 0.822 0.810 0.800 0.791 0.785 0.780 0.776 0.773 0.772 0.771 0.771 0.770 0.770 0.771 0.772 0.773 0.775 0.779 0.783 0.790 0.797 0.807 0.818 0.831 0.846 0.863 0.881 0.897 0.911 0.923 0.932 0.940 0.946 0.951 0.954 0.956 0.957 0.957 0.957 0.957 0.957 0.956 0.954 0.951 0.947 0.941 0.934 0.925 0.914 0.901 0.886 0.871 0.861 0.857 0.857 0.865 0.897 0.983 1.073 1.073 0.000 
0.000 0.075 0.075 0.092 0.107 0.128 0.156 0.188 0.217 0.241 0.262 0.280 0.296 0.310 0.323 0.334 0.346 0.356 0.367 0.378 0.388 0.399 0.410 0.420 0.431 0.442 0.454 0.466 0.478 0.491 0.505 0.520 0.536 0.553 0.571 0.591 0.613 0.636 0.662 0.689 0.718 0.750 0.784 0.820 0.859 0.899 0.939 0.976 1.011 1.043 1.073 1.101 1.127 1.151 1.173 1.192 1.210 1.226 1.241 1.253 1.264 1.274 1.283 1.290 1.296 1.301 1.305 1.308 1.310 1.312 1.313 1.314 1.314 1.314 1.314 1.314 1.314 1.313 1.313 1.311 1.309 1.307 1.303 1.299 1.293 1.286 1.279 1.269 1.258 1.246 1.232 1.216 1.197 1.177 1.155 1.130 1.103 1.073 1.040 1.006 0.974 0.944 0.918 0.893 0.871 0.852 0.835 0.821 0.809 0.798 0.790 0.783 0.778 0.774 0.771 0.770 0.769 0.768 0.768 0.768 0.768 0.769 0.770 0.773 0.776 0.780 0.786 0.793 0.802 0.813 0.826 0.840 0.857 0.874 0.890 0.903 0.915 0.924 0.932 0.938 0.943 0.946 0.948 0.949 0.950 0.950 0.950 0.949 0.948 0.947 0.944 0.940 0.935 0.928 0.920 0.910 0.898 0.884 0.870 0.860 0.853 0.849 0.851 0.870 0.938 1.071 1.071 0.000 
0.000 0.049 0.049 0.067 0.087 0.116 0.153 0.188 0.216 0.241 0.262 0.280 0.295 0.310 0.322 0.334 0.345 0.356 0.366 0.377 0.387 0.397 0.408 0.418 0.429 0.440 0.451 0.463 0.475 0.488 0.502 0.517 0.532 0.549 0.568 0.587 0.609 0.632 0.656 0.683 0.712 0.743 0.777 0.812 0.850 0.890 0.929 0.966 1.001 1.033 1.063 1.091 1.117 1.141 1.162 1.182 1.200 1.216 1.230 1.243 1.254 1.264 1.273 1.280 1.286 1.291 1.295 1.298 1.300 1.302 1.303 1.304 1.305 1.305 1.305 1.305 1.305 1.304 1.303 1.302 1.300 1.298 1.295 1.290 1.285 1.279 1.271 1.262 1.252 1.240 1.226 1.210 1.193 1.173 1.151 1.127 1.101 1.072 1.040 1.006 0.974 0.944 0.917 0.893 0.871 0.851 0.834 0.820 0.807 0.797 0.788 0.781 0.776 0.772 0.769 0.767 0.766 0.765 0.765 0.765 0.765 0.766 0.767 0.769 0.772 0.776 0.782 0.789 0.797 0.807 0.819 0.834 0.850 0.866 0.882 0.895 0.906 0.916 0.923 0.930 0.934 0.938 0.940 0.941 0.942 0.942 0.942 0.941 0.940 0.939 0.936 0.933 0.928 0.922 0.914 0.905 0.895 0.882 0.870 0.857 0.845 0.831 0.813 0.788 0.771 0.869 0.869 0.000 
0.000 0.028 0.028 0.045 0.071 0.111 0.153 0.188 0.217 0.241 0.262 0.280 0.296 0.310 0.322 0.334 0.345 0.356 0.366 0.376 0.386 0.396 0.406 0.417 0.427 0.438 0.449 0.460 0.472 0.485 0.499 0.513 0.529 0.545 0.563 0.583 0.604 0.626 0.651 0.677 0.706 0.736 0.769 0.804 0.841 0.881 0.920 0.956 0.991 1.023 1.053 1.080 1.106 1.130 1.151 1.171 1.189 1.205 1.219 1.232 1.243 1.253 1.262 1.269 1.275 1.280 1.284 1.288 1.290 1.292 1.293 1.294 1.295 1.295 1.295 1.295 1.295 1.294 1.294 1.293 1.291 1.289 1.285 1.281 1.276 1.270 1.263 1.255 1.245 1.233 1.220 1.205 1.188 1.169 1.148 1.124 1.098 1.070 1.039 1.006 0.974 0.944 0.917 0.892 0.870 0.850 0.833 0.818 0.805 0.794 0.786 0.778 0.773 0.769 0.765 0.763 0.762 0.762 0.761 0.761 0.761 0.762 0.763 0.765 0.768 0.771 0.776 0.783 0.791 0.801 0.812 0.826 0.841 0.857 0.872 0.885 0.897 0.906 0.914 0.920 0.925 0.929 0.931 0.933 0.933 0.934 0.934 0.933 0.932 0.931 0.929 0.926 0.921 0.916 0.909 0.901 0.891 0.881 0.869 0.855 0.841 0.822 0.790 0.724 0.561 0.328 0.328 0.000 
0.000 0.010 0.010 0.028 0.065 0.112 0.154 0.189 0.218 0.242 0.263 0.281 0.296 0.310 0.323 0.334 0.345 0.356 0.366 0.375 0.385 0.395 0.405 0.415 0.425 0.435 0.446 0.457 0.469 0.482 0.495 0.509 0.525 0.541 0.559 0.578 0.599 0.621 0.645 0.671 0.699 0.729 0.761 0.795 0.832 0.871 0.909 0.946 0.980 1.012 1.042 1.069 1.095 1.118 1.140 1.159 1.177 1.193 1.208 1.221 1.232 1.242 1.251 1.258 1.264 1.269 1.273 1.277 1.279 1.281 1.283 1.284 1.284 1.284 1.284 1.284 1.284 1.284 1.283 1.282 1.281 1.279 1.276 1.272 1.267 1.261 1.254 1.246 1.237 1.225 1.213 1.198 1.182 1.163 1.143 1.120 1.095 1.068 1.038 1.005 0.973 0.943 0.916 0.891 0.868 0.849 0.831 0.816 0.803 0.792 0.782 0.775 0.769 0.765 0.761 0.759 0.758 0.757 0.757 0.757 0.757 0.757 0.758 0.760 0.762 0.766 0.770 0.777 0.784 0.793 0.804 0.817 0.831 0.847 0.862 0.875 0.886 0.896 0.904 0.910 0.915 0.919 0.922 0.924 0.925 0.925 0.926 0.925 0.925 0.923 0.922 0.919 0.915 0.910 0.904 0.897 0.888 0.879 0.867 0.855 0.840 0.821 0.788 0.720 0.550 0.210 0.210 0.000 
0.000 0.030 0.030 0.029 0.067 0.117 0.159 0.193 0.221 0.245 0.265 0.283 0.298 0.312 0.324 0.335 0.346 0.356 0.366 0.375 0.385 0.394 0.404 0.413 0.423 0.433 0.443 0.454 0.466 0.478 0.491 0.505 0.520 0.536 0.554 0.573 0.593 0.615 0.639 0.664 0.692 0.721 0.753 0.786 0.822 0.860 0.899 0.935 0.969 1.000 1.030 1.057 1.083 1.106 1.128 1.147 1.165 1.181 1.196 1.209 1.220 1.230 1.239 1.246 1.252 1.258 1.262 1.265 1.268 1.270 1.271 1.272 1.273 1.273 1.273 1.273 1.273 1.273 1.272 1.271 1.270 1.268 1.265 1.262 1.257 1.252 1.245 1.237 1.228 1.217 1.205 1.191 1.175 1.157 1.138 1.116 1.091 1.065 1.036 1.004 0.972 0.942 0.914 0.889 0.867 0.846 0.829 0.813 0.800 0.788 0.779 0.771 0.765 0.760 0.757 0.754 0.753 0.752 0.751 0.751 0.751 0.752 0.752 0.754 0.756 0.759 0.763 0.769 0.776 0.785 0.795 0.807 0.820 0.835 0.850 0.863 0.874 0.884 0.892 0.899 0.905 0.909 0.913 0.915 0.917 0.917 0.918 0.918 0.917 0.916 0.915 0.913 0.910 0.906 0.900 0.894 0.886 0.877 0.866 0.855 0.842 0.827 0.806 0.774 0.737 0.746 0.746 0.000 
0.000 0.062 0.062 0.052 0.085 0.129 0.168 0.201 0.228 0.251 0.270 0.287 0.301 0.314 0.326 0.337 0.347 0.357 0.366 0.375 0.384 0.393 0.402 0.412 0.421 0.430 0.440 0.451 0.462 0.474 0.487 0.500 0.515 0.531 0.548 0.567 0.587 0.608 0.632 0.657 0.684 0.713 0.744 0.777 0.812 0.850 0.887 0.923 0.957 0.988 1.018 1.045 1.070 1.094 1.115 1.135 1.152 1.168 1.183 1.196 1.207 1.217 1.226 1.233 1.240 1.245 1.249 1.253 1.256 1.258 1.259 1.260 1.261 1.261 1.261 1.261 1.261 1.261 1.260 1.260 1.258 1.256 1.254 1.250 1.246 1.241 1.235 1.227 1.218 1.208 1.196 1.183 1.168 1.150 1.131 1.110 1.087 1.061 1.033 1.003 0.971 0.940 0.912 0.887 0.864 0.844 0.825 0.810 0.796 0.784 0.774 0.766 0.760 0.755 0.751 0.748 0.747 0.746 0.745 0.745 0.745 0.745 0.746 0.747 0.749 0.752 0.756 0.761 0.767 0.775 0.785 0.796 0.808 0.823 0.837 0.850 0.861 0.871 0.880 0.887 0.893 0.898 0.902 0.906 0.908 0.909 0.910 0.911 0.910 0.910 0.909 0.907 0.905 0.901 0.897 0.891 0.884 0.876 0.865 0.855 0.848 0.843 0.843 0.858 0.923 1.058 1.058 0.000 
0.000 0.157 0.157 0.110 0.132 0.155 0.183 0.213 0.239 0.260 0.278 0.293 0.307 0.318 0.329 0.339 0.349 0.358 0.367 0.376 0.384 0.393 0.401 0.410 0.419 0.428 0.437 0.447 0.458 0.470 0.482 0.495 0.510 0.525 0.542 0.561 0.580 0.601 0.624 0.649 0.676 0.704 0.734 0.767 0.801 0.838 0.876 0.911 0.944 0.976 1.005 1.032 1.057 1.080 1.102 1.121 1.139 1.155 1.169 1.182 1.194 1.204 1.212 1.220 1.226 1.232 1.236 1.240 1.243 1.245 1.246 1.247 1.248 1.248 1.249 1.249 1.248 1.248 1.248 1.247 1.246 1.244 1.242 1.238 1.235 1.230 1.224 1.216 1.208 1.198 1.187 1.174 1.159 1.143 1.124 1.104 1.081 1.057 1.029 1.000 0.969 0.938 0.910 0.884 0.861 0.840 0.822 0.805 0.791 0.779 0.769 0.761 0.754 0.748 0.744 0.741 0.739 0.738 0.738 0.737 0.737 0.737 0.738 0.739 0.741 0.743 0.746 0.751 0.757 0.764 0.773 0.783 0.795 0.808 0.822 0.835 0.847 0.857 0.866 0.874 0.881 0.887 0.892 0.896 0.899 0.901 0.903 0.904 0.904 0.904 0.903 0.902 0.900 0.898 0.894 0.889 0.883 0.875 0.865 0.856 0.852 0.851 0.858 0.887 0.968 1.055 1.055 0.000 
0.000 0.270 0.270 0.207 0.187 0.190 0.207 0.232 0.255 0.274 0.289 0.302 0.314 0.325 0.334 0.343 0.352 0.360 0.368 0.376 0.384 0.392 0.400 0.408 0.416 0.425 0.434 0.443 0.454 0.465 0.477 0.490 0.504 0.519 0.536 0.554 0.573 0.594 0.616 0.641 0.667 0.694 0.724 0.756 0.790 0.826 0.863 0.898 0.931 0.962 0.991 1.018 1.043 1.066 1.087 1.107 1.124 1.140 1.155 1.168 1.179 1.189 1.198 1.206 1.212 1.218 1.222 1.226 1.229 1.231 1.233 1.234 1.234 1.235 1.235 1.235 1.235 1.235 1.234 1.234 1.233 1.231 1.229 1.226 1.222 1.217 1.212 1.205 1.197 1.187 1.176 1.164 1.150 1.134 1.116 1.097 1.075 1.051 1.025 0.997 0.966 0.935 0.907 0.881 0.857 0.836 0.817 0.800 0.786 0.773 0.763 0.754 0.747 0.741 0.737 0.734 0.731 0.730 0.729 0.729 0.729 0.729 0.729 0.730 0.731 0.733 0.736 0.741 0.746 0.753 0.761 0.770 0.781 0.793 0.806 0.819 0.831 0.842 0.852 0.860 0.868 0.874 0.880 0.885 0.889 0.893 0.895 0.897 0.898 0.899 0.899 0.898 0.897 0.895 0.892 0.888 0.883 0.876 0.866 0.857 0.852 0.852 0.858 0.886 0.966 1.053 1.053 0.000 
0.000 0.175 0.175 0.219 0.214 0.226 0.241 0.260 0.278 0.292 0.305 0.315 0.325 0.333 0.341 0.349 0.356 0.363 0.371 0.378 0.385 0.392 0.399 0.406 0.414 0.422 0.430 0.439 0.449 0.460 0.471 0.484 0.498 0.513 0.529 0.546 0.565 0.586 0.608 0.631 0.657 0.684 0.714 0.745 0.778 0.813 0.850 0.885 0.917 0.948 0.977 1.004 1.028 1.051 1.072 1.092 1.109 1.125 1.140 1.153 1.164 1.174 1.183 1.191 1.197 1.203 1.207 1.211 1.214 1.216 1.218 1.219 1.220 1.220 1.221 1.221 1.221 1.220 1.220 1.219 1.218 1.217 1.215 1.212 1.209 1.204 1.199 1.192 1.184 1.175 1.165 1.153 1.140 1.125 1.107 1.089 1.068 1.045 1.019 0.992 0.962 0.932 0.903 0.877 0.853 0.831 0.812 0.795 0.780 0.767 0.756 0.747 0.739 0.733 0.728 0.725 0.722 0.721 0.720 0.719 0.719 0.719 0.719 0.720 0.721 0.722 0.725 0.729 0.734 0.739 0.747 0.755 0.765 0.777 0.789 0.802 0.814 0.825 0.836 0.845 0.853 0.861 0.867 0.874 0.879 0.883 0.887 0.890 0.893 0.894 0.895 0.895 0.894 0.893 0.891 0.888 0.883 0.876 0.868 0.858 0.851 0.845 0.843 0.857 0.915 1.050 1.050 0.000 
0.000 0.027 0.027 0.143 0.236 0.269 0.286 0.298 0.308 0.317 0.325 0.332 0.338 0.344 0.350 0.356 0.362 0.368 0.373 0.379 0.385 0.391 0.398 0.404 0.411 0.418 0.426 0.435 0.444 0.454 0.465 0.478 0.491 0.505 0.521 0.538 0.557 0.577 0.598 0.621 0.646 0.673 0.702 0.733 0.765 0.800 0.836 0.870 0.903 0.933 0.961 0.988 1.013 1.035 1.056 1.076 1.093 1.109 1.123 1.136 1.148 1.158 1.167 1.175 1.181 1.187 1.192 1.195 1.198 1.201 1.202 1.204 1.204 1.205 1.205 1.205 1.205 1.205 1.205 1.204 1.203 1.202 1.200 1.197 1.194 1.190 1.185 1.179 1.171 1.163 1.153 1.141 1.128 1.114 1.098 1.079 1.059 1.037 1.013 0.986 0.958 0.927 0.898 0.872 0.847 0.825 0.806 0.788 0.773 0.759 0.748 0.738 0.730 0.724 0.719 0.715 0.712 0.710 0.709 0.708 0.708 0.708 0.708 0.708 0.709 0.710 0.713 0.716 0.720 0.725 0.732 0.740 0.749 0.759 0.771 0.783 0.796 0.807 0.818 0.828 0.837 0.846 0.854 0.861 0.868 0.874 0.879 0.883 0.887 0.889 0.891 0.892 0.892 0.891 0.890 0.888 0.884 0.878 0.870 0.860 0.848 0.832 0.807 0.772 0.731 0.805 0.805 0.000 
0.000 0.312 0.312 0.190 0.292 0.329 0.342 0.346 0.348 0.349 0.350 0.353 0.355 0.358 0.361 0.365 0.369 0.373 0.377 0.382 0.386 0.391 0.396 0.402 0.408 0.415 0.422 0.430 0.439 0.448 0.459 0.471 0.483 0.497 0.513 0.529 0.547 0.567 0.588 0.611 0.635 0.661 0.690 0.720 0.751 0.785 0.821 0.855 0.887 0.917 0.945 0.971 0.996 1.019 1.039 1.059 1.076 1.092 1.106 1.119 1.131 1.141 1.150 1.158 1.164 1.170 1.175 1.179 1.182 1.184 1.186 1.187 1.188 1.189 1.189 1.189 1.189 1.189 1.189 1.188 1.187 1.186 1.184 1.182 1.179 1.175 1.170 1.164 1.157 1.149 1.139 1.128 1.116 1.102 1.086 1.069 1.050 1.028 1.005 0.979 0.952 0.922 0.893 0.866 0.841 0.819 0.799 0.781 0.765 0.751 0.739 0.729 0.720 0.713 0.708 0.704 0.700 0.698 0.697 0.696 0.695 0.695 0.695 0.695 0.696 0.697 0.699 0.702 0.705 0.710 0.716 0.723 0.731 0.740 0.751 0.763 0.775 0.788 0.799 0.810 0.820 0.830 0.839 0.848 0.856 0.863 0.869 0.875 0.880 0.884 0.888 0.890 0.891 0.891 0.890 0.889 0.886 0.881 0.873 0.863 0.849 0.827 0.791 0.719 0.549 0.275 0.275 0.000 
0.000 0.692 0.692 0.493 0.439 0.425 0.414 0.403 0.393 0.386 0.380 0.376 0.374 0.374 0.374 0.375 0.377 0.379 0.381 0.384 0.387 0.391 0.395 0.399 0.405 0.411 0.417 0.425 0.433 0.442 0.452 0.463 0.475 0.489 0.504 0.520 0.537 0.556 0.577 0.599 0.623 0.649 0.676 0.706 0.737 0.770 0.804 0.838 0.870 0.900 0.928 0.954 0.978 1.001 1.021 1.040 1.058 1.074 1.088 1.101 1.112 1.123 1.132 1.139 1.146 1.152 1.157 1.161 1.164 1.166 1.168 1.170 1.170 1.171 1.171 1.171 1.171 1.171 1.171 1.171 1.170 1.169 1.167 1.165 1.162 1.158 1.154 1.148 1.141 1.134 1.125 1.114 1.102 1.089 1.074 1.057 1.039 1.018 0.996 0.971 0.945 0.916 0.886 0.859 0.834 0.811 0.790 0.772 0.755 0.741 0.729 0.718 0.709 0.702 0.696 0.691 0.688 0.685 0.683 0.682 0.682 0.681 0.681 0.681 0.682 0.683 0.684 0.686 0.689 0.693 0.698 0.705 0.712 0.721 0.731 0.742 0.754 0.766 0.778 0.790 0.801 0.812 0.823 0.833 0.842 0.851 0.859 0.867 0.873 0.879 0.884 0.888 0.890 0.891 0.891 0.890 0.888 0.884 0.878 0.868 0.852 0.829 0.792 0.720 0.559 0.253 0.253 0.000 
0.000 0.746 0.746 0.682 0.578 0.518 0.480 0.453 0.433 0.417 0.406 0.398 0.392 0.388 0.385 0.384 0.383 0.384 0.385 0.386 0.388 0.390 0.393 0.397 0.401 0.406 0.412 0.419 0.427 0.435 0.445 0.455 0.467 0.480 0.494 0.509 0.526 0.545 0.565 0.587 0.610 0.635 0.662 0.690 0.721 0.753 0.787 0.820 0.852 0.881 0.909 0.935 0.959 0.981 1.002 1.021 1.038 1.054 1.068 1.081 1.093 1.103 1.112 1.120 1.127 1.133 1.137 1.141 1.145 1.147 1.149 1.151 1.152 1.152 1.153 1.153 1.153 1.153 1.153 1.152 1.151 1.150 1.149 1.147 1.144 1.141 1.136 1.131 1.125 1.117 1.109 1.099 1.088 1.075 1.060 1.044 1.027 1.007 0.985 0.962 0.936 0.908 0.879 0.851 0.826 0.802 0.781 0.762 0.745 0.730 0.717 0.706 0.697 0.689 0.683 0.678 0.674 0.671 0.669 0.667 0.666 0.666 0.666 0.666 0.666 0.667 0.668 0.670 0.672 0.675 0.680 0.685 0.692 0.700 0.709 0.719 0.731 0.743 0.756 0.769 0.781 0.793 0.805 0.816 0.827 0.838 0.848 0.857 0.866 0.873 0.880 0.885 0.889 0.892 0.893 0.893 0.892 0.890 0.884 0.875 0.861 0.841 0.811 0.776 0.746 0.778 0.778 0.000 
0.000 0.737 0.737 0.720 0.643 0.574 0.525 0.490 0.463 0.443 0.427 0.415 0.406 0.400 0.395 0.391 0.389 0.387 0.387 0.387 0.388 0.389 0.391 0.394 0.397 0.402 0.407 0.413 0.420 0.428 0.437 0.447 0.458 0.470 0.484 0.498 0.515 0.533 0.552 0.573 0.596 0.620 0.646 0.674 0.704 0.735 0.769 0.802 0.833 0.862 0.889 0.915 0.939 0.961 0.981 1.000 1.017 1.033 1.048 1.060 1.072 1.082 1.091 1.099 1.106 1.112 1.117 1.121 1.124 1.127 1.129 1.130 1.132 1.132 1.133 1.133 1.133 1.133 1.133 1.132 1.132 1.131 1.129 1.127 1.125 1.122 1.117 1.113 1.107 1.100 1.091 1.082 1.071 1.059 1.045 1.030 1.013 0.994 0.973 0.951 0.926 0.899 0.870 0.842 0.816 0.792 0.771 0.751 0.734 0.718 0.705 0.693 0.683 0.675 0.668 0.663 0.658 0.655 0.653 0.651 0.650 0.649 0.649 0.649 0.649 0.649 0.650 0.652 0.654 0.656 0.660 0.665 0.671 0.678 0.687 0.696 0.707 0.719 0.732 0.745 0.759 0.772 0.785 0.798 0.811 0.823 0.835 0.846 0.857 0.867 0.875 0.883 0.889 0.893 0.896 0.898 0.898 0.897 0.894 0.888 0.878 0.867 0.860 0.873 0.926 1.037 1.037 0.000 
0.000 0.714 0.714 0.714 0.666 0.604 0.555 0.516 0.487 0.463 0.445 0.430 0.419 0.410 0.402 0.397 0.393 0.390 0.388 0.387 0.387 0.388 0.389 0.391 0.393 0.397 0.401 0.406 0.413 0.420 0.428 0.437 0.448 0.459 0.472 0.487 0.502 0.520 0.538 0.559 0.581 0.604 0.630 0.657 0.686 0.716 0.749 0.781 0.812 0.841 0.868 0.893 0.917 0.939 0.959 0.978 0.995 1.011 1.025 1.038 1.050 1.060 1.069 1.077 1.084 1.090 1.095 1.099 1.102 1.105 1.107 1.109 1.110 1.111 1.111 1.111 1.111 1.111 1.111 1.111 1.110 1.110 1.108 1.107 1.104 1.101 1.097 1.093 1.087 1.080 1.073 1.064 1.053 1.042 1.029 1.014 0.998 0.980 0.960 0.938 0.914 0.888 0.860 0.832 0.805 0.781 0.759 0.739 0.721 0.705 0.691 0.679 0.668 0.660 0.652 0.646 0.641 0.638 0.635 0.633 0.632 0.631 0.631 0.631 0.631 0.631 0.631 0.632 0.634 0.636 0.639 0.644 0.649 0.655 0.663 0.672 0.682 0.694 0.707 0.720 0.735 0.749 0.764 0.778 0.792 0.806 0.820 0.833 0.846 0.858 0.870 0.880 0.889 0.896 0.901 0.905 0.907 0.909 0.909 0.907 0.904 0.906 0.916 0.940 0.989 1.035 1.035 0.000 
0.000 0.688 0.688 0.695 0.667 0.619 0.573 0.535 0.505 0.480 0.460 0.443 0.429 0.418 0.409 0.401 0.395 0.391 0.389 0.387 0.387 0.386 0.387 0.388 0.389 0.392 0.395 0.400 0.405 0.411 0.419 0.427 0.437 0.448 0.460 0.474 0.489 0.506 0.524 0.543 0.564 0.587 0.612 0.638 0.666 0.696 0.727 0.759 0.790 0.818 0.845 0.870 0.894 0.916 0.936 0.954 0.972 0.987 1.001 1.014 1.026 1.036 1.045 1.053 1.060 1.066 1.071 1.076 1.079 1.082 1.084 1.086 1.087 1.088 1.088 1.088 1.088 1.088 1.088 1.088 1.088 1.087 1.086 1.084 1.082 1.079 1.076 1.071 1.066 1.060 1.052 1.044 1.034 1.023 1.010 0.996 0.981 0.963 0.944 0.923 0.900 0.875 0.848 0.820 0.793 0.769 0.746 0.726 0.707 0.691 0.676 0.663 0.652 0.643 0.635 0.629 0.623 0.619 0.616 0.614 0.612 0.611 0.611 0.610 0.610 0.610 0.611 0.611 0.613 0.615 0.617 0.621 0.626 0.632 0.639 0.647 0.657 0.668 0.680 0.694 0.709 0.724 0.740 0.756 0.772 0.788 0.803 0.819 0.834 0.848 0.862 0.876 0.889 0.900 0.909 0.915 0.920 0.925 0.929 0.932 0.937 0.947 0.962 0.986 1.016 1.035 1.035 0.000 
0.000 0.662 0.662 0.672 0.656 0.622 0.582 0.548 0.519 0.494 0.473 0.454 0.438 0.425 0.414 0.405 0.397 0.392 0.389 0.386 0.385 0.384 0.384 0.384 0.385 0.387 0.389 0.393 0.397 0.403 0.409 0.417 0.426 0.436 0.448 0.461 0.475 0.491 0.508 0.527 0.547 0.569 0.593 0.618 0.645 0.674 0.705 0.736 0.766 0.794 0.821 0.846 0.869 0.890 0.910 0.929 0.946 0.962 0.976 0.989 1.000 1.011 1.020 1.028 1.035 1.041 1.046 1.050 1.054 1.057 1.059 1.061 1.062 1.063 1.063 1.064 1.064 1.064 1.064 1.064 1.063 1.062 1.061 1.060 1.058 1.055 1.052 1.048 1.043 1.037 1.030 1.022 1.013 1.002 0.990 0.977 0.962 0.945 0.927 0.907 0.885 0.861 0.835 0.807 0.780 0.755 0.732 0.711 0.692 0.675 0.659 0.646 0.635 0.625 0.616 0.609 0.604 0.599 0.596 0.593 0.591 0.590 0.589 0.589 0.589 0.589 0.589 0.589 0.590 0.592 0.594 0.597 0.601 0.607 0.613 0.621 0.630 0.641 0.653 0.667 0.682 0.698 0.714 0.732 0.749 0.767 0.785 0.802 0.819 0.836 0.853 0.870 0.886 0.902 0.917 0.928 0.938 0.946 0.954 0.963 0.974 0.987 1.003 1.021 1.035 1.038 1.038 0.000 
0.000 0.636 0.636 0.647 0.637 0.616 0.586 0.556 0.530 0.507 0.484 0.464 0.446 0.431 0.418 0.407 0.399 0.392 0.388 0.385 0.383 0.381 0.381 0.380 0.380 0.381 0.383 0.385 0.389 0.393 0.399 0.406 0.414 0.423 0.434 0.446 0.460 0.475 0.491 0.509 0.528 0.550 0.572 0.597 0.623 0.651 0.680 0.711 0.740 0.768 0.794 0.819 0.842 0.864 0.883 0.902 0.919 0.934 0.948 0.961 0.973 0.983 0.992 1.000 1.008 1.014 1.019 1.023 1.027 1.030 1.032 1.034 1.035 1.036 1.037 1.037 1.037 1.037 1.037 1.037 1.037 1.036 1.035 1.034 1.032 1.030 1.027 1.023 1.018 1.013 1.006 0.998 0.990 0.980 0.968 0.955 0.941 0.925 0.908 0.889 0.867 0.844 0.819 0.792 0.765 0.739 0.716 0.694 0.675 0.657 0.641 0.628 0.616 0.605 0.596 0.589 0.583 0.578 0.574 0.571 0.569 0.567 0.566 0.566 0.565 0.565 0.565 0.566 0.566 0.567 0.569 0.572 0.576 0.580 0.586 0.594 0.602 0.613 0.624 0.638 0.653 0.669 0.687 0.705 0.724 0.744 0.763 0.783 0.803 0.823 0.842 0.862 0.882 0.902 0.922 0.942 0.959 0.972 0.985 0.998 1.012 1.026 1.041 1.053 1.058 1.059 1.059 0.000 
0.000 0.611 0.611 0.622 0.614 0.601 0.583 0.561 0.540 0.518 0.495 0.473 0.453 0.435 0.420 0.408 0.399 0.392 0.387 0.383 0.380 0.377 0.376 0.375 0.375 0.375 0.376 0.377 0.380 0.383 0.388 0.394 0.401 0.410 0.420 0.431 0.443 0.457 0.473 0.490 0.508 0.529 0.550 0.574 0.599 0.626 0.654 0.683 0.713 0.740 0.766 0.791 0.813 0.835 0.854 0.873 0.890 0.905 0.919 0.932 0.943 0.954 0.963 0.971 0.978 0.984 0.990 0.994 0.998 1.001 1.003 1.005 1.007 1.008 1.008 1.009 1.009 1.009 1.009 1.009 1.008 1.008 1.007 1.006 1.004 1.002 0.999 0.996 0.991 0.986 0.980 0.973 0.964 0.955 0.944 0.932 0.918 0.903 0.886 0.868 0.848 0.826 0.801 0.775 0.748 0.722 0.698 0.676 0.656 0.638 0.622 0.608 0.595 0.584 0.575 0.567 0.560 0.554 0.550 0.547 0.544 0.543 0.541 0.541 0.540 0.540 0.540 0.540 0.541 0.542 0.543 0.546 0.549 0.553 0.559 0.565 0.574 0.584 0.595 0.608 0.623 0.640 0.658 0.677 0.697 0.718 0.740 0.762 0.784 0.806 0.829 0.852 0.875 0.899 0.924 0.951 0.978 1.001 1.019 1.035 1.050 1.064 1.076 1.084 1.091 1.097 1.097 0.000 
0.000 0.585 0.585 0.596 0.592 0.585 0.577 0.564 0.547 0.528 0.505 0.481 0.458 0.438 0.422 0.409 0.399 0.391 0.384 0.379 0.375 0.372 0.370 0.369 0.368 0.368 0.368 0.369 0.370 0.373 0.377 0.382 0.388 0.395 0.404 0.415 0.426 0.439 0.454 0.470 0.487 0.506 0.527 0.549 0.573 0.599 0.626 0.654 0.683 0.710 0.736 0.760 0.783 0.804 0.823 0.841 0.858 0.873 0.888 0.900 0.912 0.922 0.931 0.940 0.947 0.953 0.958 0.963 0.967 0.970 0.972 0.974 0.976 0.977 0.977 0.978 0.978 0.978 0.978 0.978 0.978 0.977 0.977 0.976 0.974 0.972 0.969 0.966 0.962 0.957 0.951 0.945 0.937 0.928 0.918 0.906 0.893 0.879 0.863 0.845 0.826 0.804 0.781 0.756 0.729 0.703 0.679 0.657 0.636 0.618 0.601 0.586 0.573 0.561 0.551 0.543 0.536 0.530 0.525 0.521 0.519 0.517 0.515 0.514 0.514 0.514 0.514 0.514 0.514 0.515 0.516 0.518 0.521 0.525 0.530 0.536 0.544 0.553 0.565 0.577 0.592 0.609 0.627 0.647 0.668 0.691 0.714 0.738 0.763 0.788 0.813 0.840 0.867 0.895 0.924 0.955 0.991 1.025 1.051 1.072 1.088 1.101 1.111 1.118 1.125 1.129 1.129 0.000 
0.000 0.559 0.559 0.572 0.576 0.576 0.574 0.567 0.554 0.536 0.514 0.487 0.462 0.440 0.423 0.409 0.398 0.388 0.381 0.375 0.370 0.366 0.364 0.362 0.361 0.360 0.360 0.360 0.361 0.362 0.365 0.369 0.374 0.380 0.388 0.397 0.408 0.420 0.433 0.448 0.465 0.483 0.502 0.523 0.546 0.570 0.596 0.623 0.651 0.678 0.704 0.727 0.750 0.771 0.790 0.808 0.824 0.840 0.854 0.866 0.878 0.888 0.897 0.906 0.913 0.919 0.925 0.929 0.933 0.936 0.939 0.941 0.942 0.943 0.944 0.945 0.945 0.945 0.945 0.945 0.945 0.944 0.944 0.943 0.941 0.940 0.937 0.934 0.930 0.926 0.920 0.914 0.907 0.898 0.889 0.878 0.865 0.852 0.837 0.820 0.801 0.781 0.759 0.735 0.709 0.682 0.658 0.635 0.614 0.595 0.578 0.563 0.549 0.537 0.526 0.517 0.510 0.504 0.498 0.494 0.491 0.489 0.487 0.486 0.486 0.485 0.485 0.485 0.485 0.486 0.487 0.489 0.491 0.495 0.499 0.505 0.513 0.522 0.533 0.546 0.560 0.577 0.595 0.616 0.638 0.661 0.686 0.712 0.739 0.767 0.795 0.825 0.855 0.887 0.921 0.956 0.997 1.041 1.078 1.105 1.125 1.138 1.147 1.153 1.157 1.157 1.157 0.000 
0.000 0.533 0.533 0.551 0.569 0.574 0.574 0.570 0.559 0.543 0.520 0.491 0.464 0.441 0.423 0.408 0.395 0.385 0.376 0.369 0.364 0.359 0.356 0.353 0.351 0.350 0.350 0.350 0.350 0.350 0.352 0.355 0.359 0.364 0.371 0.379 0.389 0.399 0.412 0.426 0.441 0.458 0.476 0.496 0.517 0.540 0.564 0.590 0.617 0.644 0.669 0.692 0.714 0.735 0.754 0.772 0.788 0.803 0.817 0.830 0.841 0.852 0.861 0.869 0.876 0.883 0.888 0.893 0.897 0.900 0.903 0.905 0.906 0.907 0.908 0.909 0.909 0.909 0.909 0.909 0.909 0.909 0.908 0.907 0.906 0.904 0.902 0.899 0.896 0.892 0.887 0.881 0.874 0.866 0.857 0.847 0.835 0.822 0.808 0.792 0.774 0.755 0.734 0.711 0.686 0.659 0.635 0.612 0.590 0.571 0.553 0.537 0.523 0.511 0.500 0.490 0.482 0.476 0.470 0.466 0.462 0.460 0.458 0.456 0.456 0.455 0.455 0.455 0.455 0.456 0.457 0.458 0.460 0.464 0.468 0.474 0.481 0.490 0.500 0.513 0.527 0.543 0.562 0.583 0.605 0.630 0.656 0.684 0.713 0.743 0.774 0.807 0.841 0.877 0.914 0.954 0.998 1.049 1.098 1.136 1.161 1.177 1.186 1.190 1.190 1.187 1.187 0.000 
0.000 0.550 0.550 0.549 0.569 0.577 0.578 0.575 0.565 0.548 0.524 0.493 0.465 0.441 0.422 0.406 0.392 0.380 0.370 0.362 0.356 0.350 0.346 0.343 0.341 0.339 0.338 0.338 0.338 0.338 0.339 0.340 0.343 0.347 0.353 0.360 0.368 0.378 0.389 0.401 0.415 0.431 0.448 0.466 0.486 0.507 0.530 0.555 0.581 0.607 0.631 0.655 0.676 0.697 0.716 0.733 0.750 0.765 0.778 0.791 0.802 0.812 0.822 0.830 0.837 0.843 0.849 0.854 0.858 0.861 0.864 0.866 0.867 0.869 0.869 0.870 0.870 0.871 0.871 0.871 0.870 0.870 0.870 0.869 0.868 0.866 0.865 0.862 0.859 0.855 0.850 0.845 0.838 0.831 0.822 0.813 0.802 0.790 0.776 0.761 0.744 0.726 0.705 0.684 0.660 0.634 0.609 0.586 0.564 0.545 0.527 0.511 0.496 0.483 0.472 0.462 0.453 0.446 0.440 0.435 0.432 0.429 0.427 0.425 0.424 0.424 0.424 0.424 0.424 0.424 0.425 0.426 0.428 0.431 0.435 0.440 0.447 0.456 0.466 0.478 0.493 0.509 0.528 0.548 0.571 0.597 0.624 0.653 0.684 0.716 0.750 0.786 0.823 0.863 0.905 0.949 0.997 1.050 1.108 1.160 1.196 1.217 1.227 1.230 1.229 1.219 1.219 0.000 
0.000 0.570 0.570 0.566 0.582 0.589 0.589 0.584 0.573 0.553 0.525 0.493 0.464 0.440 0.420 0.402 0.387 0.374 0.363 0.354 0.346 0.340 0.335 0.332 0.329 0.327 0.325 0.324 0.324 0.324 0.324 0.325 0.327 0.330 0.334 0.340 0.347 0.355 0.365 0.376 0.388 0.402 0.418 0.435 0.453 0.473 0.494 0.517 0.542 0.567 0.591 0.614 0.636 0.656 0.675 0.692 0.708 0.723 0.736 0.749 0.760 0.770 0.779 0.788 0.795 0.801 0.807 0.811 0.815 0.819 0.821 0.824 0.825 0.827 0.828 0.828 0.829 0.829 0.829 0.829 0.829 0.829 0.828 0.828 0.827 0.825 0.824 0.821 0.818 0.815 0.811 0.806 0.800 0.793 0.785 0.776 0.765 0.754 0.741 0.727 0.711 0.694 0.674 0.654 0.631 0.607 0.582 0.558 0.537 0.517 0.498 0.482 0.467 0.454 0.442 0.431 0.423 0.415 0.409 0.403 0.399 0.396 0.394 0.392 0.391 0.390 0.390 0.390 0.390 0.390 0.391 0.392 0.394 0.397 0.401 0.406 0.413 0.421 0.431 0.443 0.457 0.473 0.492 0.513 0.536 0.562 0.590 0.620 0.652 0.687 0.723 0.762 0.802 0.845 0.891 0.939 0.991 1.047 1.110 1.175 1.227 1.260 1.276 1.281 1.281 1.278 1.278 0.000 
0.000 0.664 0.664 0.612 0.618 0.618 0.612 0.600 0.582 0.557 0.526 0.492 0.463 0.438 0.416 0.397 0.380 0.366 0.354 0.344 0.335 0.329 0.323 0.318 0.315 0.312 0.310 0.309 0.308 0.308 0.308 0.308 0.309 0.311 0.314 0.318 0.324 0.331 0.339 0.349 0.360 0.372 0.386 0.401 0.418 0.436 0.456 0.477 0.500 0.524 0.548 0.571 0.592 0.612 0.630 0.648 0.663 0.678 0.691 0.704 0.715 0.725 0.734 0.742 0.749 0.755 0.761 0.766 0.770 0.773 0.776 0.778 0.780 0.781 0.782 0.783 0.783 0.784 0.784 0.784 0.784 0.784 0.783 0.783 0.782 0.781 0.779 0.777 0.775 0.771 0.768 0.763 0.757 0.751 0.744 0.735 0.726 0.715 0.703 0.689 0.675 0.658 0.640 0.621 0.599 0.576 0.552 0.528 0.506 0.486 0.468 0.451 0.436 0.422 0.410 0.399 0.390 0.382 0.375 0.370 0.365 0.362 0.359 0.357 0.356 0.355 0.355 0.355 0.355 0.355 0.356 0.357 0.359 0.361 0.365 0.370 0.376 0.384 0.394 0.406 0.420 0.436 0.455 0.476 0.499 0.525 0.554 0.585 0.618 0.654 0.693 0.734 0.777 0.823 0.872 0.924 0.980 1.041 1.106 1.178 1.247 1.302 1.334 1.348 1.353 1.353 1.353 0.000 
0.000 0.760 0.760 0.703 0.685 0.669 0.649 0.624 0.594 0.560 0.524 0.490 0.460 0.433 0.410 0.389 0.372 0.356 0.343 0.332 0.323 0.315 0.309 0.304 0.299 0.296 0.294 0.292 0.291 0.290 0.290 0.290 0.290 0.291 0.293 0.296 0.300 0.306 0.313 0.321 0.330 0.341 0.353 0.366 0.381 0.397 0.415 0.435 0.456 0.479 0.502 0.525 0.546 0.565 0.583 0.600 0.616 0.630 0.643 0.655 0.666 0.676 0.685 0.693 0.700 0.706 0.712 0.717 0.721 0.724 0.727 0.729 0.731 0.732 0.733 0.734 0.735 0.735 0.735 0.735 0.735 0.735 0.735 0.734 0.734 0.733 0.731 0.730 0.727 0.724 0.721 0.717 0.712 0.706 0.699 0.691 0.682 0.672 0.661 0.649 0.635 0.619 0.603 0.584 0.564 0.542 0.519 0.496 0.474 0.454 0.435 0.418 0.403 0.389 0.376 0.365 0.355 0.347 0.340 0.334 0.329 0.326 0.323 0.321 0.319 0.319 0.318 0.318 0.318 0.318 0.319 0.320 0.322 0.324 0.328 0.332 0.339 0.347 0.356 0.368 0.382 0.398 0.416 0.437 0.461 0.487 0.516 0.547 0.582 0.619 0.659 0.702 0.748 0.797 0.849 0.905 0.964 1.029 1.098 1.174 1.254 1.331 1.392 1.431 1.450 1.452 1.452 0.000 
0.000 0.878 0.878 0.810 0.782 0.743 0.697 0.651 0.605 0.561 0.522 0.486 0.454 0.426 0.401 0.380 0.361 0.345 0.331 0.319 0.308 0.300 0.293 0.287 0.282 0.278 0.276 0.273 0.272 0.271 0.270 0.270 0.270 0.270 0.271 0.273 0.276 0.280 0.285 0.291 0.299 0.307 0.317 0.329 0.342 0.356 0.372 0.390 0.409 0.431 0.453 0.475 0.496 0.515 0.533 0.549 0.564 0.578 0.591 0.603 0.614 0.623 0.632 0.640 0.647 0.653 0.659 0.663 0.668 0.671 0.674 0.676 0.678 0.680 0.681 0.681 0.682 0.682 0.682 0.682 0.682 0.682 0.682 0.682 0.681 0.681 0.679 0.678 0.676 0.673 0.670 0.666 0.662 0.656 0.650 0.643 0.635 0.626 0.616 0.604 0.591 0.577 0.561 0.544 0.526 0.505 0.483 0.460 0.439 0.418 0.400 0.383 0.367 0.353 0.340 0.329 0.319 0.311 0.303 0.297 0.292 0.289 0.286 0.284 0.283 0.282 0.282 0.282 0.282 0.282 0.283 0.283 0.285 0.287 0.291 0.295 0.301 0.308 0.318 0.329 0.342 0.358 0.377 0.397 0.421 0.447 0.476 0.508 0.543 0.581 0.622 0.666 0.714 0.765 0.820 0.879 0.942 1.010 1.083 1.163 1.250 1.344 1.433 1.501 1.545 1.566 1.566 0.000 
0.000 0.993 0.993 0.927 0.872 0.808 0.736 0.670 0.612 0.561 0.518 0.480 0.447 0.417 0.391 0.368 0.348 0.331 0.316 0.303 0.292 0.283 0.275 0.268 0.263 0.259 0.255 0.253 0.251 0.249 0.248 0.247 0.247 0.247 0.247 0.248 0.250 0.252 0.256 0.260 0.265 0.272 0.280 0.289 0.300 0.313 0.327 0.343 0.360 0.380 0.400 0.422 0.442 0.461 0.478 0.495 0.509 0.523 0.536 0.547 0.557 0.567 0.576 0.583 0.590 0.596 0.602 0.606 0.610 0.614 0.617 0.619 0.621 0.622 0.623 0.624 0.625 0.625 0.625 0.626 0.626 0.626 0.625 0.625 0.625 0.624 0.623 0.622 0.620 0.618 0.615 0.612 0.608 0.603 0.597 0.591 0.584 0.575 0.566 0.556 0.544 0.531 0.516 0.501 0.483 0.464 0.444 0.422 0.401 0.381 0.362 0.345 0.330 0.316 0.303 0.291 0.282 0.274 0.267 0.261 0.257 0.254 0.251 0.250 0.248 0.248 0.248 0.247 0.247 0.248 0.248 0.249 0.250 0.253 0.256 0.260 0.265 0.272 0.280 0.291 0.303 0.318 0.336 0.356 0.379 0.405 0.434 0.466 0.501 0.539 0.581 0.627 0.676 0.728 0.785 0.847 0.913 0.984 1.062 1.147 1.240 1.344 1.453 1.546 1.610 1.636 1.636 0.000 
0.000 1.031 1.031 0.996 0.934 0.852 0.760 0.680 0.614 0.559 0.512 0.472 0.436 0.405 0.377 0.353 0.332 0.314 0.298 0.285 0.273 0.263 0.255 0.248 0.242 0.237 0.233 0.230 0.227 0.225 0.224 0.223 0.222 0.222 0.221 0.222 0.222 0.223 0.225 0.228 0.232 0.237 0.243 0.251 0.261 0.272 0.284 0.298 0.313 0.330 0.348 0.367 0.386 0.404 0.421 0.436 0.451 0.464 0.476 0.487 0.497 0.506 0.515 0.522 0.529 0.535 0.540 0.545 0.549 0.552 0.555 0.557 0.559 0.561 0.562 0.563 0.563 0.564 0.564 0.564 0.564 0.564 0.564 0.564 0.564 0.563 0.562 0.561 0.560 0.558 0.556 0.553 0.549 0.545 0.540 0.534 0.528 0.521 0.512 0.503 0.492 0.480 0.467 0.453 0.437 0.420 0.401 0.380 0.360 0.340 0.322 0.305 0.290 0.276 0.264 0.254 0.245 0.238 0.232 0.227 0.224 0.221 0.218 0.217 0.216 0.215 0.215 0.215 0.215 0.215 0.216 0.216 0.218 0.220 0.223 0.226 0.231 0.237 0.245 0.254 0.265 0.279 0.295 0.314 0.336 0.362 0.390 0.422 0.456 0.495 0.537 0.582 0.632 0.686 0.744 0.808 0.876 0.951 1.032 1.122 1.223 1.335 1.458 1.565 1.645 1.685 1.685 0.000 
0.000 1.067 1.067 1.035 0.971 0.877 0.772 0.684 0.613 0.554 0.504 0.460 0.423 0.390 0.361 0.336 0.314 0.295 0.279 0.264 0.252 0.242 0.232 0.225 0.218 0.213 0.208 0.205 0.202 0.199 0.198 0.196 0.195 0.194 0.194 0.194 0.193 0.194 0.195 0.197 0.200 0.204 0.209 0.216 0.224 0.233 0.244 0.255 0.268 0.283 0.298 0.315 0.332 0.347 0.362 0.376 0.389 0.401 0.412 0.423 0.432 0.441 0.449 0.456 0.463 0.469 0.474 0.478 0.482 0.485 0.488 0.491 0.492 0.494 0.495 0.496 0.497 0.497 0.498 0.498 0.498 0.498 0.498 0.498 0.497 0.497 0.497 0.496 0.495 0.493 0.491 0.489 0.486 0.482 0.478 0.473 0.468 0.461 0.454 0.445 0.436 0.426 0.414 0.401 0.387 0.371 0.354 0.335 0.315 0.296 0.279 0.264 0.250 0.238 0.228 0.219 0.211 0.205 0.200 0.195 0.192 0.190 0.188 0.186 0.185 0.185 0.185 0.185 0.185 0.185 0.185 0.186 0.187 0.189 0.191 0.195 0.199 0.204 0.211 0.219 0.229 0.241 0.256 0.273 0.293 0.316 0.344 0.375 0.409 0.447 0.488 0.534 0.583 0.638 0.697 0.761 0.832 0.909 0.994 1.088 1.195 1.316 1.451 1.569 1.655 1.700 1.700 0.000 
0.000 1.070 1.070 1.052 0.987 0.888 0.776 0.683 0.608 0.545 0.491 0.445 0.405 0.371 0.341 0.315 0.293 0.273 0.256 0.241 0.229 0.217 0.208 0.200 0.193 0.187 0.182 0.178 0.174 0.171 0.169 0.168 0.166 0.166 0.165 0.165 0.165 0.165 0.166 0.167 0.170 0.173 0.177 0.183 0.190 0.197 0.206 0.216 0.227 0.239 0.252 0.267 0.281 0.294 0.307 0.319 0.330 0.341 0.350 0.359 0.368 0.375 0.382 0.388 0.394 0.399 0.404 0.408 0.412 0.415 0.417 0.420 0.421 0.423 0.424 0.425 0.426 0.426 0.426 0.427 0.427 0.427 0.427 0.427 0.427 0.426 0.426 0.425 0.424 0.423 0.422 0.420 0.417 0.414 0.411 0.407 0.402 0.397 0.390 0.383 0.375 0.366 0.356 0.345 0.332 0.318 0.303 0.287 0.269 0.252 0.237 0.224 0.213 0.202 0.193 0.186 0.179 0.174 0.169 0.166 0.163 0.161 0.159 0.158 0.157 0.157 0.157 0.157 0.157 0.157 0.157 0.158 0.159 0.160 0.162 0.165 0.169 0.174 0.179 0.187 0.195 0.206 0.218 0.233 0.251 0.272 0.296 0.325 0.358 0.395 0.435 0.480 0.529 0.583 0.642 0.707 0.778 0.857 0.944 1.042 1.154 1.283 1.430 1.561 1.654 1.700 1.700 0.000 
0.000 1.072 1.072 1.055 0.992 0.890 0.773 0.676 0.596 0.529 0.472 0.424 0.383 0.348 0.317 0.291 0.268 0.248 0.231 0.216 0.202 0.191 0.181 0.172 0.165 0.158 0.153 0.149 0.146 0.143 0.141 0.140 0.139 0.138 0.138 0.138 0.138 0.138 0.139 0.140 0.142 0.145 0.148 0.153 0.158 0.164 0.172 0.180 0.189 0.199 0.210 0.222 0.234 0.246 0.256 0.266 0.276 0.285 0.293 0.300 0.307 0.314 0.319 0.325 0.329 0.334 0.338 0.341 0.344 0.347 0.349 0.351 0.352 0.354 0.355 0.355 0.356 0.356 0.357 0.357 0.357 0.357 0.357 0.357 0.357 0.356 0.356 0.356 0.355 0.354 0.353 0.351 0.349 0.347 0.344 0.340 0.336 0.332 0.327 0.321 0.314 0.306 0.298 0.288 0.278 0.266 0.253 0.239 0.225 0.211 0.199 0.187 0.178 0.169 0.162 0.155 0.150 0.145 0.141 0.138 0.136 0.134 0.133 0.132 0.131 0.131 0.131 0.131 0.131 0.131 0.131 0.132 0.132 0.134 0.135 0.138 0.141 0.145 0.150 0.156 0.164 0.173 0.183 0.196 0.211 0.229 0.250 0.275 0.305 0.339 0.378 0.421 0.469 0.521 0.579 0.643 0.714 0.793 0.881 0.981 1.095 1.228 1.383 1.536 1.646 1.700 1.700 0.000 
0.000 1.075 1.075 1.057 0.990 0.882 0.759 0.658 0.574 0.505 0.447 0.398 0.356 0.320 0.289 0.263 0.240 0.220 0.202 0.187 0.173 0.162 0.151 0.143 0.136 0.130 0.126 0.122 0.119 0.117 0.116 0.115 0.114 0.113 0.113 0.113 0.113 0.113 0.114 0.115 0.116 0.118 0.121 0.125 0.129 0.134 0.140 0.147 0.155 0.163 0.172 0.182 0.192 0.201 0.210 0.218 0.226 0.233 0.240 0.246 0.252 0.257 0.262 0.266 0.270 0.274 0.277 0.280 0.282 0.284 0.286 0.288 0.289 0.290 0.291 0.291 0.292 0.292 0.292 0.292 0.293 0.293 0.293 0.293 0.292 0.292 0.292 0.292 0.291 0.290 0.289 0.288 0.286 0.284 0.282 0.279 0.276 0.272 0.268 0.263 0.257 0.251 0.244 0.236 0.228 0.218 0.208 0.196 0.184 0.173 0.163 0.154 0.146 0.139 0.132 0.127 0.123 0.119 0.116 0.113 0.111 0.110 0.109 0.108 0.107 0.107 0.107 0.107 0.107 0.107 0.107 0.108 0.108 0.109 0.111 0.113 0.116 0.119 0.123 0.128 0.134 0.142 0.151 0.161 0.174 0.189 0.207 0.228 0.252 0.282 0.316 0.356 0.402 0.452 0.508 0.570 0.639 0.716 0.803 0.901 1.014 1.146 1.302 1.476 1.624 1.700 1.700 0.000 
0.000 1.078 1.078 1.057 0.978 0.855 0.728 0.625 0.541 0.471 0.413 0.363 0.322 0.286 0.256 0.230 0.207 0.187 0.170 0.155 0.142 0.131 0.122 0.115 0.109 0.105 0.101 0.098 0.096 0.094 0.093 0.092 0.091 0.091 0.091 0.091 0.091 0.091 0.091 0.092 0.093 0.095 0.097 0.100 0.103 0.107 0.112 0.117 0.123 0.130 0.137 0.145 0.153 0.161 0.168 0.175 0.181 0.187 0.192 0.197 0.201 0.206 0.210 0.213 0.216 0.219 0.222 0.224 0.226 0.228 0.229 0.230 0.231 0.232 0.233 0.233 0.234 0.234 0.234 0.234 0.234 0.234 0.234 0.234 0.234 0.234 0.234 0.233 0.233 0.232 0.231 0.230 0.229 0.228 0.226 0.223 0.221 0.218 0.214 0.210 0.206 0.201 0.195 0.189 0.182 0.175 0.166 0.157 0.147 0.138 0.130 0.123 0.117 0.111 0.106 0.102 0.098 0.095 0.093 0.091 0.089 0.088 0.087 0.086 0.086 0.085 0.085 0.085 0.085 0.085 0.086 0.086 0.087 0.087 0.089 0.090 0.092 0.095 0.099 0.103 0.108 0.114 0.121 0.130 0.140 0.152 0.167 0.184 0.204 0.228 0.256 0.290 0.329 0.375 0.428 0.486 0.551 0.625 0.707 0.800 0.907 1.030 1.176 1.357 1.564 1.700 1.700 0.000 
0.000 1.080 1.080 1.050 0.940 0.797 0.673 0.573 0.492 0.424 0.368 0.320 0.280 0.246 0.217 0.191 0.170 0.151 0.135 0.122 0.111 0.102 0.095 0.090 0.085 0.081 0.078 0.076 0.074 0.073 0.072 0.071 0.071 0.071 0.071 0.071 0.071 0.071 0.071 0.072 0.072 0.074 0.075 0.077 0.080 0.083 0.087 0.091 0.096 0.101 0.107 0.113 0.119 0.125 0.130 0.136 0.140 0.145 0.149 0.153 0.157 0.160 0.163 0.166 0.168 0.170 0.172 0.174 0.176 0.177 0.178 0.179 0.180 0.180 0.181 0.181 0.182 0.182 0.182 0.182 0.182 0.182 0.182 0.182 0.182 0.182 0.182 0.181 0.181 0.181 0.180 0.179 0.178 0.177 0.175 0.174 0.172 0.169 0.167 0.164 0.160 0.156 0.152 0.147 0.142 0.136 0.129 0.122 0.114 0.107 0.101 0.096 0.091 0.086 0.082 0.079 0.076 0.074 0.072 0.070 0.069 0.068 0.067 0.067 0.067 0.066 0.066 0.066 0.066 0.066 0.066 0.067 0.067 0.068 0.069 0.070 0.072 0.074 0.077 0.080 0.084 0.089 0.094 0.101 0.109 0.119 0.130 0.144 0.160 0.178 0.201 0.227 0.258 0.295 0.339 0.391 0.450 0.517 0.592 0.675 0.768 0.872 0.993 1.150 1.378 1.700 1.700 0.000 
0.000 1.024 1.024 1.008 0.842 0.697 0.586 0.498 0.424 0.362 0.310 0.267 0.230 0.198 0.171 0.148 0.129 0.114 0.102 0.092 0.084 0.077 0.072 0.067 0.064 0.061 0.059 0.057 0.056 0.055 0.054 0.053 0.053 0.053 0.053 0.053 0.053 0.053 0.053 0.054 0.054 0.055 0.056 0.058 0.060 0.062 0.065 0.068 0.072 0.075 0.080 0.084 0.089 0.093 0.098 0.101 0.105 0.108 0.112 0.114 0.117 0.120 0.122 0.124 0.126 0.127 0.129 0.130 0.131 0.132 0.133 0.134 0.135 0.135 0.135 0.136 0.136 0.136 0.136 0.136 0.136 0.136 0.136 0.136 0.136 0.136 0.136 0.136 0.136 0.135 0.135 0.134 0.133 0.132 0.131 0.130 0.128 0.127 0.125 0.122 0.120 0.117 0.114 0.110 0.106 0.101 0.097 0.091 0.086 0.080 0.076 0.072 0.068 0.064 0.062 0.059 0.057 0.055 0.054 0.053 0.052 0.051 0.050 0.050 0.050 0.050 0.050 0.050 0.050 0.050 0.050 0.050 0.050 0.051 0.051 0.052 0.054 0.055 0.057 0.060 0.063 0.066 0.071 0.076 0.082 0.089 0.098 0.108 0.120 0.134 0.151 0.171 0.195 0.223 0.256 0.295 0.342 0.396 0.457 0.526 0.595 0.664 0.734 0.813 0.919 1.059 1.059 0.000 
0.000 0.477 0.477 0.759 0.638 0.537 0.461 0.394 0.335 0.283 0.239 0.201 0.170 0.144 0.123 0.106 0.093 0.082 0.073 0.066 0.060 0.055 0.051 0.048 0.045 0.043 0.042 0.041 0.040 0.039 0.038 0.038 0.038 0.038 0.038 0.038 0.038 0.038 0.038 0.038 0.039 0.039 0.040 0.041 0.043 0.044 0.046 0.048 0.051 0.054 0.057 0.060 0.063 0.066 0.069 0.072 0.075 0.077 0.079 0.081 0.083 0.085 0.087 0.088 0.089 0.091 0.092 0.093 0.093 0.094 0.095 0.095 0.096 0.096 0.096 0.097 0.097 0.097 0.097 0.097 0.097 0.097 0.097 0.097 0.097 0.097 0.097 0.097 0.096 0.096 0.096 0.095 0.095 0.094 0.093 0.092 0.091 0.090 0.089 0.087 0.085 0.083 0.081 0.078 0.075 0.072 0.069 0.065 0.061 0.057 0.054 0.051 0.048 0.046 0.044 0.042 0.040 0.039 0.038 0.037 0.037 0.036 0.036 0.036 0.035 0.035 0.035 0.035 0.035 0.035 0.035 0.035 0.036 0.036 0.037 0.037 0.038 0.039 0.041 0.042 0.045 0.047 0.050 0.054 0.058 0.064 0.070 0.077 0.086 0.096 0.108 0.122 0.139 0.159 0.183 0.212 0.245 0.284 0.330 0.376 0.415 0.445 0.462 0.457 0.383 0.199 0.199 0.000 
0.000 0.000 0.000 0.245 0.330 0.323 0.300 0.268 0.230 0.193 0.161 0.135 0.113 0.096 0.082 0.071 0.062 0.054 0.048 0.044 0.040 0.036 0.034 0.032 0.030 0.029 0.028 0.027 0.026 0.026 0.025 0.025 0.025 0.025 0.025 0.025 0.025 0.025 0.025 0.025 0.026 0.026 0.026 0.027 0.028 0.029 0.030 0.032 0.034 0.035 0.037 0.040 0.042 0.044 0.046 0.048 0.049 0.051 0.053 0.054 0.055 0.056 0.057 0.058 0.059 0.060 0.061 0.061 0.062 0.062 0.063 0.063 0.063 0.064 0.064 0.064 0.064 0.064 0.064 0.064 0.064 0.064 0.064 0.064 0.064 0.064 0.064 0.064 0.064 0.064 0.063 0.063 0.063 0.062 0.062 0.061 0.061 0.060 0.059 0.058 0.056 0.055 0.054 0.052 0.050 0.048 0.045 0.043 0.040 0.038 0.036 0.034 0.032 0.030 0.029 0.028 0.027 0.026 0.025 0.025 0.024 0.024 0.024 0.023 0.023 0.023 0.023 0.023 0.023 0.023 0.023 0.023 0.024 0.024 0.024 0.025 0.025 0.026 0.027 0.028 0.030 0.031 0.033 0.036 0.039 0.042 0.046 0.051 0.057 0.064 0.072 0.081 0.092 0.106 0.122 0.141 0.164 0.191 0.222 0.249 0.268 0.276 0.272 0.243 0.143 0.000 0.000 0.000 
0.000 0.000 0.000 0.052 0.145 0.168 0.169 0.158 0.139 0.116 0.096 0.080 0.068 0.057 0.049 0.042 0.037 0.032 0.029 0.026 0.024 0.022 0.020 0.019 0.018 0.017 0.016 0.016 0.016 0.015 0.015 0.015 0.015 0.015 0.015 0.015 0.015 0.015 0.015 0.015 0.015 0.015 0.016 0.016 0.017 0.017 0.018 0.019 0.020 0.021 0.022 0.023 0.025 0.026 0.027 0.028 0.029 0.030 0.031 0.032 0.033 0.033 0.034 0.035 0.035 0.036 0.036 0.036 0.037 0.037 0.037 0.037 0.038 0.038 0.038 0.038 0.038 0.038 0.038 0.038 0.038 0.038 0.038 0.038 0.038 0.038 0.038 0.038 0.038 0.038 0.038 0.037 0.037 0.037 0.037 0.036 0.036 0.035 0.035 0.034 0.033 0.033 0.032 0.031 0.030 0.028 0.027 0.025 0.024 0.022 0.021 0.020 0.019 0.018 0.017 0.016 0.016 0.015 0.015 0.015 0.014 0.014 0.014 0.014 0.014 0.014 0.014 0.014 0.014 0.014 0.014 0.014 0.014 0.014 0.014 0.015 0.015 0.015 0.016 0.017 0.018 0.019 0.020 0.021 0.023 0.025 0.027 0.030 0.034 0.038 0.042 0.048 0.055 0.063 0.072 0.084 0.098 0.115 0.133 0.147 0.154 0.155 0.149 0.124 0.061 0.000 0.000 0.000 
0.000 0.000 0.000 0.016 0.059 0.076 0.079 0.077 0.069 0.058 0.047 0.040 0.033 0.028 0.024 0.021 0.018 0.016 0.014 0.013 0.012 0.011 0.010 0.009 0.009 0.008 0.008 0.008 0.008 0.007 0.007 0.007 0.007 0.007 0.007 0.007 0.007 0.007 0.007 0.007 0.007 0.008 0.008 0.008 0.008 0.008 0.009 0.009 0.010 0.010 0.011 0.011 0.012 0.013 0.013 0.014 0.014 0.015 0.015 0.016 0.016 0.016 0.017 0.017 0.017 0.017 0.018 0.018 0.018 0.018 0.018 0.018 0.018 0.019 0.019 0.019 0.019 0.019 0.019 0.019 0.019 0.019 0.019 0.019 0.019 0.019 0.019 0.019 0.019 0.019 0.018 0.018 0.018 0.018 0.018 0.018 0.018 0.017 0.017 0.017 0.016 0.016 0.016 0.015 0.015 0.014 0.013 0.012 0.012 0.011 0.010 0.010 0.009 0.009 0.008 0.008 0.008 0.008 0.007 0.007 0.007 0.007 0.007 0.007 0.007 0.007 0.007 0.007 0.007 0.007 0.007 0.007 0.007 0.007 0.007 0.007 0.007 0.008 0.008 0.008 0.009 0.009 0.010 0.010 0.011 0.012 0.013 0.015 0.017 0.019 0.021 0.024 0.027 0.031 0.036 0.041 0.048 0.057 0.066 0.072 0.074 0.074 0.070 0.056 0.025 0.000 0.000 0.000 
0.000 0.000 0.000 0.004 0.018 0.024 0.025 0.024 0.022 0.019 0.015 0.013 0.011 0.009 0.008 0.007 0.006 0.005 0.005 0.004 0.004 0.003 0.003 0.003 0.003 0.003 0.003 0.003 0.002 0.002 0.002 0.002 0.002 0.002 0.002 0.002 0.002 0.002 0.002 0.002 0.002 0.002 0.002 0.003 0.003 0.003 0.003 0.003 0.003 0.003 0.003 0.004 0.004 0.004 0.004 0.004 0.005 0.005 0.005 0.005 0.005 0.005 0.005 0.005 0.006 0.006 0.006 0.006 0.006 0.006 0.006 0.006 0.006 0.006 0.006 0.006 0.006 0.006 0.006 0.006 0.006 0.006 0.006 0.006 0.006 0.006 0.006 0.006 0.006 0.006 0.006 0.006 0.006 0.006 0.006 0.006 0.006 0.006 0.005 0.005 0.005 0.005 0.005 0.005 0.005 0.004 0.004 0.004 0.004 0.004 0.003 0.003 0.003 0.003 0.003 0.003 0.003 0.002 0.002 0.002 0.002 0.002 0.002 0.002 0.002 0.002 0.002 0.002 0.002 0.002 0.002 0.002 0.002 0.002 0.002 0.002 0.002 0.002 0.003 0.003 0.003 0.003 0.003 0.003 0.004 0.004 0.004 0.005 0.005 0.006 0.007 0.008 0.009 0.010 0.011 0.013 0.016 0.018 0.021 0.023 0.024 0.023 0.022 0.017 0.007 0.000 0.000 0.000 
0.000 0.000 0.000 0.000 0.000 0.000 0.000 0.000 0.000 0.000 0.000 0.000 0.000 0.000 0.000 0.000 0.000 0.000 0.000 0.000 0.000 0.000 0.000 0.000 0.000 0.000 0.000 0.000 0.000 0.000 0.000 0.000 0.000 0.000 0.000 0.000 0.000 0.000 0.000 0.000 0.000 0.000 0.000 0.000 0.000 0.000 0.000 0.000 0.000 0.000 0.000 0.000 0.000 0.000 0.000 0.000 0.000 0.000 0.000 0.000 0.000 0.000 0.000 0.000 0.000 0.000 0.000 0.000 0.000 0.000 0.000 0.000 0.000 0.000 0.000 0.000 0.000 0.000 0.000 0.000 0.000 0.000 0.000 0.000 0.000 0.000 0.000 0.000 0.000 0.000 0.000 0.000 0.000 0.000 0.000 0.000 0.000 0.000 0.000 0.000 0.000 0.000 0.000 0.000 0.000 0.000 0.000 0.000 0.000 0.000 0.000 0.000 0.000 0.000 0.000 0.000 0.000 0.000 0.000 0.000 0.000 0.000 0.000 0.000 0.000 0.000 0.000 0.000 0.000 0.000 0.000 0.000 0.000 0.000 0.000 0.000 0.000 0.000 0.000 0.000 0.000 0.000 0.000 0.000 0.000 0.000 0.000 0.000 0.000 0.000 0.000 0.000 0.000 0.000 0.000 0.000 0.000 0.000 0.000 0.000 0.000 0.000 0.000 0.000 0.000 0.000 0.000 0.000 
0.000 0.089 0.089 0.077 0.065 0.049 0.049 0.029 0.010 0.010 0.001 0.003 0.005 0.005 0.005 0.005 0.005 0.005 0.004 0.002 0.002 0.001 0.000 0.001 0.001 0.001 0.001 0.001 0.001 0.001 0.001 0.001 0.001 0.001 0.001 0.001 0.001 0.001 0.001 0.001 0.000 0.000 0.000 0.001 0.004 0.008 0.008 0.021 0.046 0.046 0.070 0.087 0.098 0.098 0.108 0.116 0.122 0.122 0.127 0.122 0.122 0.106 0.089 0.081 0.081 0.081 0.080 0.079 0.079 0.078 0.077 0.077 0.076 0.077 0.077 0.077 0.077 0.076 0.074 0.074 0.073 0.071 0.071 0.069 0.069 0.073 0.073 0.076 0.062 0.031 0.031 0.001 0.000 0.000 0.007 0.022 0.025 0.025 0.018 0.011 0.017 0.017 0.035 0.053 0.053 0.059 0.055 0.051 0.051 0.046 0.039 0.033 0.033 0.025 0.015 0.015 0.006 0.001 0.002 0.002 0.002 0.002 0.002 0.002 0.001 0.001 0.001 0.001 0.001 0.001 0.001 0.001 0.000 0.000 0.001 0.003 0.004 0.004 0.007 0.012 0.016 0.016 0.018 0.017 0.017 0.016 0.015 0.014 0.014 0.013 0.011 0.009 0.009 0.007 0.005 0.005 0.003 0.002 0.000 0.000 0.000 0.000 0.000 0.000 0.007 0.014 0.014 0.000 
0.000 0.000 0.000 0.000 0.000 0.000 0.000 0.000 0.000 0.000 0.000 0.000 0.000 0.000 0.000 0.000 0.000 0.000 0.000 0.000 0.000 0.000 0.000 0.000 0.000 0.000 0.000 0.000 0.000 0.000 0.000 0.000 0.000 0.000 0.000 0.000 0.000 0.000 0.000 0.000 0.000 0.000 0.000 0.000 0.000 0.000 0.000 0.000 0.000 0.000 0.000 0.000 0.000 0.000 0.000 0.000 0.000 0.000 0.000 0.000 0.000 0.000 0.000 0.000 0.000 0.000 0.000 0.000 0.000 0.000 0.000 0.000 0.000 0.000 0.000 0.000 0.000 0.000 0.000 0.000 0.000 0.000 0.000 0.000 0.000 0.000 0.000 0.000 0.000 0.000 0.000 0.000 0.000 0.000 0.000 0.000 0.000 0.000 0.000 0.000 0.000 0.000 0.000 0.000 0.000 0.000 0.000 0.000 0.000 0.000 0.000 0.000 0.000 0.000 0.000 0.000 0.000 0.000 0.000 0.000 0.000 0.000 0.000 0.000 0.000 0.000 0.000 0.000 0.000 0.000 0.000 0.000 0.000 0.000 0.000 0.000 0.000 0.000 0.000 0.000 0.000 0.000 0.000 0.000 0.000 0.000 0.000 0.000 0.000 0.000 0.000 0.000 0.000 0.000 0.000 0.000 0.000 0.000 0.000 0.000 0.000 0.000 0.000 0.000 0.000 0.000 0.000 0.000 
