ncols 168
nrows 121
xllcenter 640304.69
yllcenter 1081277.12
cellsize 46.59
NODATA_value -9999.000
999900.000 999900.000 999900.000 999900.000 999900.000 999900.000 999900.000 999900.000 999900.000 999900.000 999900.000 999900.000 999900.000 999900.000 999900.000 999900.000 999900.000 999900.000 999900.000 999900.000 999900.000 999900.000 999900.000 999900.000 999900.000 999900.000 999900.000 999900.000 999900.000 999900.000 999900.000 999900.000 999900.000 999900.000 999900.000 999900.000 999900.000 999900.000 999900.000 999900.000 999900.000 999900.000 999900.000 999900.000 999900.000 999900.000 999900.000 999900.000 999900.000 999900.000 999900.000 999900.000 999900.000 999900.000 999900.000 999900.000 999900.000 999900.000 999900.000 999900.000 999900.000 999900.000 999900.000 999900.000 999900.000 999900.000 999900.000 999900.000 999900.000 999900.000 999900.000 999900.000 999900.000 999900.000 999900.000 999900.000 999900.000 999900.000 999900.000 999900.000 999900.000 999900.000 999900.000 999900.000 999900.000 999900.000 999900.000 999900.000 999900.000 999900.000 999900.000 999900.000 999900.000 999900.000 999900.000 999900.000 999900.000 999900.000 999900.000 999900.000 999900.000 999900.000 999900.000 999900.000 999900.000 999900.000 999900.000 999900.000 999900.000 999900.000 999900.000 999900.000 999900.000 999900.000 999900.000 999900.000 999900.000 999900.000 999900.000 999900.000 999900.000 999900.000 999900.000 999900.000 999900.000 999900.000 999900.000 999900.000 999900.000 999900.000 999900.000 999900.000 999900.000 999900.000 999900.000 999900.000 999900.000 999900.000 999900.000 999900.000 999900.000 999900.000 999900.000 999900.000 999900.000 999900.000 999900.000 999900.000 999900.000 999900.000 999900.000 999900.000 999900.000 999900.000 999900.000 999900.000 999900.000 999900.000 999900.000 999900.000 999900.000 999900.000 999900.000 999900.000 999900.000 999900.000 999900.000 999900.000 
999900.000 999900.000 999900.000 999900.000 999900.000 999900.000 999900.000 999900.000 999900.000 999900.000 999900.000 999900.000 999900.000 999900.000 999900.000 999900.000 999900.000 999900.000 999900.000 999900.000 999900.000 999900.000 999900.000 999900.000 999900.000 999900.000 999900.000 999900.000 999900.000 999900.000 999900.000 999900.000 999900.000 999900.000 999900.000 999900.000 999900.000 999900.000 999900.000 999900.000 999900.000 999900.000 999900.000 999900.000 999900.000 999900.000 999900.000 999900.000 999900.000 999900.000 999900.000 999900.000 999900.000 999900.000 999900.000 999900.000 999900.000 999900.000 999900.000 999900.000 999900.000 999900.000 999900.000 999900.000 999900.000 999900.000 999900.000 999900.000 999900.000 999900.000 999900.000 999900.000 999900.000 999900.000 999900.000 999900.000 999900.000 999900.000 999900.000 999900.000 999900.000 999900.000 999900.000 999900.000 999900.000 999900.000 999900.000 999900.000 999900.000 999900.000 999900.000 999900.000 999900.000 999900.000 999900.000 999900.000 999900.000 999900.000 999900.000 999900.000 999900.000 999900.000 999900.000 999900.000 999900.000 999900.000 999900.000 999900.000 999900.000 999900.000 999900.000 999900.000 999900.000 999900.000 999900.000 999900.000 999900.000 999900.000 999900.000 999900.000 999900.000 999900.000 999900.000 999900.000 999900.000 999900.000 999900.000 999900.000 999900.000 999900.000 999900.000 999900.000 999900.000 999900.000 999900.000 999900.000 999900.000 999900.000 999900.000 999900.000 999900.000 999900.000 999900.000 999900.000 999900.000 999900.000 999900.000 999900.000 999900.000 999900.000 999900.000 999900.000 999900.000 999900.000 999900.000 999900.000 999900.000 999900.000 999900.000 999900.000 999900.000 999900.000 999900.000 999900.000 999900.000 999900.000 999900.000 999900.000 
999900.000 999900.000 999900.000 999900.000 999900.000 999900.000 999900.000 999900.000 999900.000 999900.000 999900.000 999900.000 999900.000 999900.000 999900.000 999900.000 999900.000 999900.000 999900.000 999900.000 999900.000 999900.000 999900.000 999900.000 999900.000 999900.000 999900.000 999900.000 999900.000 999900.000 999900.000 999900.000 999900.000 999900.000 999900.000 999900.000 999900.000 999900.000 999900.000 999900.000 999900.000 999900.000 999900.000 999900.000 999900.000 999900.000 999900.000 999900.000 999900.000 999900.000 999900.000 999900.000 999900.000 999900.000 999900.000 999900.000 999900.000 999900.000 999900.000 999900.000 999900.000 999900.000 999900.000 999900.000 999900.000 999900.000 999900.000 999900.000 999900.000 999900.000 999900.000 999900.000 999900.000 999900.000 999900.000 999900.000 999900.000 999900.000 999900.000 999900.000 999900.000 999900.000 999900.000 999900.000 999900.000 999900.000 999900.000 999900.000 999900.000 999900.000 999900.000 999900.000 999900.000 999900.000 999900.000 999900.000 999900.000 999900.000 999900.000 999900.000 999900.000 999900.000 999900.000 999900.000 999900.000 999900.000 999900.000 999900.000 999900.000 999900.000 999900.000 999900.000 999900.000 999900.000 999900.000 999900.000 999900.000 999900.000 999900.000 999900.000 999900.000 999900.000 999900.000 999900.000 999900.000 999900.000 999900.000 999900.000 999900.000 999900.000 999900.000 999900.000 999900.000 999900.000 999900.000 999900.000 999900.000 999900.000 999900.000 999900.000 999900.000 999900.000 999900.000 999900.000 999900.000 999900.000 999900.000 999900.000 999900.000 999900.000 999900.000 999900.000 999900.000 999900.000 999900.000 999900.000 999900.000 999900.000 999900.000 999900.000 999900.000 999900.000 999900.000 999900.000 999900.000 999900.000 999900.000 999900.000 
999900.000 999900.000 999900.000 0.011 0.030 999900.000 999900.000 999900.000 999900.000 999900.000 999900.000 999900.000 0.030 0.030 0.011 0.011 0.011 0.011 0.011 0.011 0.011 0.011 0.011 0.030 0.030 0.030 0.030 0.030 0.030 0.030 0.050 0.050 0.030 0.011 0.011 0.011 0.011 0.011 0.011 0.011 0.011 0.011 0.011 0.011 0.011 0.011 0.011 0.011 0.011 0.011 0.011 0.011 0.011 0.011 0.011 0.011 0.011 0.011 0.011 0.011 0.011 0.011 0.011 0.011 0.011 0.011 0.011 0.011 0.011 0.011 0.011 0.011 0.011 0.011 0.011 0.011 0.011 0.011 0.011 0.011 0.011 0.011 0.011 0.011 0.011 0.011 0.011 0.011 0.011 0.011 0.011 0.011 0.011 0.011 0.011 0.011 0.011 0.011 0.011 0.011 0.011 0.011 0.011 0.011 0.011 0.011 0.011 0.011 0.011 0.011 0.011 0.011 0.011 0.011 0.011 0.011 0.011 0.011 0.011 0.011 0.011 0.011 0.011 0.011 0.011 0.011 0.011 0.011 0.011 0.011 0.011 0.011 0.011 0.011 0.011 0.011 0.011 0.011 0.011 0.011 0.011 0.011 0.011 0.011 0.011 0.011 0.011 0.011 0.011 0.011 0.011 0.011 0.011 0.011 0.011 0.011 0.011 0.011 0.011 0.011 0.011 0.011 0.011 0.030 0.011 999900.000 999900.000 999900.000 
999900.000 999900.000 999900.000 999900.000 999900.000 999900.000 999900.000 999900.000 999900.000 999900.000 999900.000 8.058 1.358 0.622 0.474 0.437 0.419 0.419 0.401 0.401 0.401 0.419 0.419 0.419 0.437 0.474 0.474 0.493 0.493 0.493 0.456 0.401 0.290 0.125 0.011 0.011 0.011 0.011 0.011 0.011 0.011 0.011 0.011 0.011 0.011 0.011 0.011 0.011 0.011 0.011 0.011 0.011 0.011 0.011 0.011 0.011 0.011 0.011 0.011 0.011 0.011 0.011 0.011 0.011 0.011 0.011 0.011 0.011 0.011 0.011 0.011 0.011 0.011 0.011 0.011 0.011 0.011 0.011 0.011 0.011 0.011 0.011 0.011 0.011 0.011 0.011 0.011 0.011 0.011 0.011 0.011 0.011 0.011 0.011 0.011 0.011 0.011 0.011 0.030 0.050 0.011 0.011 0.011 0.011 0.011 0.011 0.011 0.011 0.011 0.011 0.011 0.011 0.011 0.011 0.011 0.011 0.011 0.011 0.011 0.011 0.011 0.011 0.011 0.011 0.011 0.011 0.011 0.011 0.011 0.011 0.011 0.011 0.011 0.011 0.011 0.011 0.011 0.011 0.011 0.011 0.011 0.011 0.011 0.011 0.011 0.011 0.011 0.011 0.011 0.011 0.011 0.011 0.011 0.011 0.011 0.011 0.011 0.011 0.011 0.011 0.011 0.011 0.011 0.030 0.011 999900.000 999900.000 999900.000 
999900.000 999900.000 999900.000 999900.000 999900.000 999900.000 999900.000 999900.000 999900.000 999900.000 999900.000 4.413 2.112 1.247 0.934 0.787 0.714 0.677 0.658 0.658 0.658 0.658 0.677 0.714 0.824 0.990 1.118 1.174 1.174 1.155 1.026 0.787 0.493 0.198 0.011 0.011 0.011 0.011 0.011 0.011 0.011 0.011 0.011 0.011 0.011 0.011 0.011 0.011 0.011 0.011 0.011 0.011 0.011 0.011 0.011 0.011 0.011 0.011 0.011 0.011 0.011 0.011 0.011 0.011 0.011 0.011 0.011 0.011 0.011 0.011 0.011 0.011 0.011 0.011 0.011 0.011 0.011 0.011 0.011 0.011 0.011 0.011 0.011 0.011 0.011 0.011 0.011 0.011 0.011 0.011 0.011 0.011 0.011 0.011 0.011 0.011 0.011 0.011 0.030 0.106 0.011 0.011 0.011 0.011 0.011 0.011 0.011 0.011 0.011 0.011 0.011 0.011 0.011 0.011 0.011 0.011 0.011 0.011 0.011 0.011 0.011 0.011 0.011 0.011 0.011 0.011 0.011 0.011 0.011 0.011 0.011 0.011 0.011 0.011 0.011 0.011 0.011 0.011 0.011 0.011 0.011 0.011 0.011 0.011 0.011 0.011 0.011 0.011 0.011 0.011 0.011 0.011 0.011 0.011 0.011 0.011 0.011 0.011 0.011 0.011 0.011 0.011 0.011 0.011 0.011 999900.000 999900.000 999900.000 
999900.000 999900.000 999900.000 999900.000 999900.000 999900.000 999900.000 999900.000 15.254 8.297 5.536 3.695 2.296 1.431 1.026 0.842 0.750 0.714 0.695 0.677 0.677 0.695 0.714 0.769 0.898 1.137 1.339 1.450 1.450 1.431 1.284 0.990 0.585 0.198 0.011 0.011 0.011 0.011 0.011 0.011 0.011 0.011 0.011 0.011 0.011 0.011 0.011 0.011 0.011 0.011 0.011 0.011 0.011 0.011 0.011 0.011 0.011 0.011 0.011 0.011 0.011 0.011 0.011 0.011 0.011 0.011 0.011 0.011 0.011 0.011 0.011 0.011 0.011 0.011 0.011 0.011 0.011 0.011 0.011 0.011 0.011 0.011 0.011 0.011 0.011 0.011 0.011 0.011 0.011 0.011 0.011 0.011 0.011 0.011 0.011 0.011 0.011 0.011 0.050 0.198 0.217 0.069 0.011 0.011 0.011 0.011 0.011 0.161 0.143 0.050 0.011 0.011 0.011 0.011 0.011 0.011 0.011 0.011 0.011 0.011 0.011 0.011 0.011 0.011 0.011 0.011 0.011 0.011 0.011 0.011 0.011 0.011 0.011 0.011 0.011 0.011 0.011 0.011 0.011 0.011 0.011 0.011 0.011 0.011 0.011 0.011 0.011 0.011 0.011 0.011 0.011 0.011 0.011 0.011 0.011 0.011 0.011 0.011 0.011 0.011 0.011 0.011 0.011 0.011 0.011 999900.000 999900.000 999900.000 
999900.000 999900.000 999900.000 999900.000 999900.000 999900.000 14.481 7.910 6.070 4.984 4.119 3.235 2.278 1.468 1.008 0.806 0.695 0.622 0.603 0.585 0.585 0.603 0.622 0.695 0.861 1.137 1.395 1.505 1.542 1.505 1.376 1.063 0.603 0.161 0.011 0.011 0.011 0.011 0.011 0.011 0.011 0.011 0.011 0.011 0.011 0.011 0.011 0.011 0.011 0.011 0.011 0.011 0.011 0.011 0.011 0.011 0.011 0.011 0.011 0.011 0.011 0.011 0.011 0.011 0.011 0.011 0.011 0.011 0.011 0.011 0.011 0.011 0.011 0.011 0.011 0.011 0.011 0.011 0.011 0.011 0.011 0.011 0.011 0.011 0.011 0.011 0.011 0.011 0.011 0.011 0.011 0.011 0.011 0.011 0.011 0.011 0.011 0.011 0.050 0.235 0.309 0.364 0.345 0.327 0.345 0.382 0.419 0.401 0.309 0.106 0.011 0.011 0.011 0.011 0.011 0.011 0.011 0.011 0.011 0.011 0.011 0.011 0.011 0.011 0.011 0.011 0.011 0.011 0.011 0.011 0.011 0.011 0.011 0.011 0.011 0.011 0.011 0.011 0.011 0.011 0.011 0.011 0.011 0.011 0.011 0.011 0.011 0.011 0.011 0.011 0.011 0.011 0.011 0.011 0.011 0.011 0.011 0.011 0.011 0.011 0.011 0.011 0.011 0.011 0.011 999900.000 999900.000 999900.000 
999900.000 999900.000 999900.000 999900.000 999900.000 17.868 6.898 5.278 4.450 3.916 3.438 2.849 2.112 1.358 0.842 0.566 0.419 0.327 0.290 0.272 0.253 0.272 0.290 0.401 0.603 1.008 1.339 1.505 1.542 1.523 1.395 1.082 0.585 0.088 0.011 0.011 0.011 0.011 0.011 0.011 0.011 0.011 0.011 0.011 0.011 0.011 0.011 0.011 0.011 0.011 0.011 0.011 0.011 0.011 0.011 0.011 0.011 0.011 0.011 0.011 0.011 0.011 0.011 0.011 0.011 0.011 0.011 0.011 0.011 0.011 0.011 0.011 0.011 0.011 0.011 0.011 0.011 0.011 0.011 0.011 0.011 0.011 0.011 0.011 0.011 0.011 0.011 0.011 0.011 0.011 0.011 0.011 0.011 0.011 0.011 0.011 0.011 0.011 0.030 0.198 0.345 0.493 0.677 0.824 0.879 0.879 0.842 0.732 0.493 0.143 0.011 0.011 0.011 0.011 0.011 0.011 0.011 0.011 0.011 0.069 0.106 0.106 0.011 0.011 0.011 0.011 0.011 0.011 0.011 0.011 0.011 0.011 0.011 0.011 0.011 0.011 0.011 0.011 0.011 0.011 0.011 0.011 0.011 0.011 0.011 0.011 0.011 0.011 0.011 0.011 0.011 0.011 0.011 0.011 0.011 0.011 0.011 0.011 0.011 0.011 0.011 0.011 0.011 0.011 0.011 999900.000 999900.000 999900.000 
999900.000 999900.000 999900.000 999900.000 999900.000 5.628 4.395 3.861 3.530 3.235 2.904 2.444 1.744 0.953 0.401 0.030 0.011 0.011 0.011 0.011 0.011 0.011 0.011 0.011 0.011 0.566 1.137 1.413 1.487 1.487 1.376 1.063 0.548 0.050 0.011 0.011 0.011 0.011 0.011 0.011 0.011 0.011 0.011 0.011 0.011 0.011 0.011 0.011 0.011 0.011 0.011 0.011 0.011 0.011 0.011 0.011 0.011 0.011 0.011 0.011 0.011 0.011 0.011 0.011 0.011 0.011 0.011 0.011 0.011 0.011 0.011 0.011 0.011 0.011 0.011 0.011 0.011 0.011 0.011 0.011 0.011 0.011 0.011 0.011 0.011 0.011 0.011 0.011 0.011 0.011 0.011 0.011 0.011 0.011 0.011 0.011 0.011 0.011 0.011 0.050 0.253 0.493 0.824 1.026 1.118 1.137 1.100 0.990 0.732 0.198 0.011 0.011 0.011 0.011 0.011 0.011 0.011 0.011 0.106 0.272 0.345 0.364 0.327 0.161 0.011 0.011 0.011 0.011 0.011 0.011 0.011 0.011 0.011 0.011 0.011 0.011 0.011 0.011 0.011 0.011 0.011 0.011 0.011 0.011 0.011 0.011 0.011 0.011 0.011 0.011 0.011 0.011 0.011 0.011 0.011 0.011 0.011 0.011 0.011 0.011 0.011 0.011 0.011 0.011 0.011 999900.000 999900.000 999900.000 
999900.000 999900.000 999900.000 0.011 1.376 2.425 2.720 2.775 2.738 2.609 2.370 1.910 1.045 0.180 0.011 0.011 0.011 0.011 0.011 0.011 0.011 0.011 0.011 0.011 0.011 0.011 0.603 1.174 1.358 1.376 1.303 1.026 0.511 0.030 0.011 0.011 0.011 0.011 0.011 0.011 0.011 0.011 0.011 0.011 0.011 0.011 0.011 0.011 0.011 0.011 0.011 0.011 0.011 0.011 0.011 0.011 0.011 0.011 0.011 0.011 0.011 0.011 0.011 0.011 0.011 0.011 0.011 0.011 0.011 0.011 0.011 0.011 0.011 0.011 0.011 0.011 0.011 0.011 0.011 0.011 0.011 0.011 0.011 0.011 0.011 0.011 0.011 0.011 0.011 0.011 0.011 0.011 0.011 0.011 0.011 0.011 0.011 0.011 0.011 0.011 0.011 0.382 0.824 1.100 1.211 1.229 1.211 1.100 0.861 0.401 0.011 0.011 0.011 0.011 0.011 0.011 0.011 0.011 0.309 0.566 0.658 0.658 0.566 0.327 0.011 0.011 0.011 0.011 0.011 0.011 0.011 0.011 0.011 0.011 0.011 0.011 0.011 0.011 0.011 0.011 0.011 0.011 0.011 0.011 0.011 0.011 0.011 0.011 0.011 0.011 0.011 0.011 0.011 0.011 0.011 0.011 0.011 0.011 0.011 0.011 0.011 0.011 0.011 0.011 0.011 999900.000 999900.000 999900.000 
999900.000 999900.000 999900.000 0.011 0.011 0.806 1.542 1.873 1.947 1.928 1.726 1.174 0.011 0.011 0.011 0.011 0.011 0.011 0.011 0.011 0.011 0.011 0.011 0.011 0.011 0.011 0.106 0.714 1.100 1.192 1.155 0.953 0.511 0.030 0.011 0.011 0.011 0.011 0.011 0.011 0.011 0.011 0.011 0.011 0.011 0.011 0.011 0.011 0.011 0.011 0.011 0.011 0.011 0.011 0.011 0.011 0.011 0.011 0.011 0.011 0.011 0.011 0.011 0.011 0.011 0.011 0.011 0.011 0.011 0.011 0.011 0.011 0.011 0.011 0.011 0.011 0.011 0.011 0.011 0.011 0.011 0.011 0.011 0.011 0.011 0.011 0.011 0.011 0.011 0.011 0.011 0.011 0.011 0.011 0.011 0.011 0.011 0.011 0.011 0.011 0.011 0.011 0.750 1.082 1.211 1.229 1.211 1.118 0.879 0.529 0.011 0.011 0.011 0.011 0.011 0.011 0.011 0.198 0.732 0.934 0.971 0.934 0.787 0.456 0.011 0.011 0.011 0.011 0.011 0.011 0.011 0.011 0.011 0.011 0.011 0.011 0.011 0.011 0.011 0.011 0.011 0.011 0.011 0.011 0.011 0.011 0.011 0.011 0.011 0.011 0.011 0.011 0.011 0.011 0.011 0.011 0.011 0.011 0.011 0.011 0.011 0.011 0.011 0.011 0.011 999900.000 999900.000 999900.000 
999900.000 999900.000 999900.000 0.011 0.011 0.217 0.824 1.247 1.413 1.413 1.266 0.511 0.011 0.011 0.011 0.011 0.011 0.011 0.011 0.011 0.011 0.011 0.011 0.011 0.011 0.011 0.011 0.309 0.842 1.026 1.026 0.898 0.511 0.030 0.011 0.011 0.011 0.011 0.011 0.011 0.011 0.011 0.011 0.011 0.011 0.011 0.011 0.011 0.011 0.011 0.011 0.011 0.011 0.011 0.011 0.011 0.011 0.011 0.011 0.011 0.011 0.011 0.011 0.011 0.011 0.011 0.011 0.011 0.011 0.011 0.011 0.011 0.011 0.011 0.011 0.011 0.011 0.011 0.011 0.011 0.011 0.011 0.011 0.011 0.011 0.011 0.011 0.011 0.011 0.011 0.011 0.011 0.011 0.011 0.011 0.011 0.011 0.011 0.011 0.011 0.011 0.011 0.419 0.990 1.137 1.174 1.155 1.045 0.824 0.529 0.290 0.088 0.011 0.011 0.011 0.011 0.050 0.732 1.100 1.229 1.247 1.174 0.971 0.529 0.011 0.011 0.011 0.011 0.011 0.011 0.011 0.011 0.011 0.011 0.011 0.011 0.011 0.011 0.011 0.011 0.011 0.011 0.011 0.011 0.011 0.011 0.011 0.011 0.011 0.011 0.011 0.011 0.011 0.011 0.011 0.011 0.011 0.011 0.011 0.011 0.011 0.011 0.011 0.011 0.011 999900.000 999900.000 999900.000 
999900.000 999900.000 999900.000 0.011 0.011 0.125 0.566 0.971 1.155 1.192 1.063 0.011 0.011 0.011 0.011 0.011 0.011 0.011 0.011 0.011 0.011 0.011 0.011 0.011 0.011 0.011 0.011 0.161 0.695 0.934 0.971 0.879 0.529 0.030 0.011 0.011 0.011 0.011 0.011 0.011 0.011 0.011 0.011 0.011 0.011 0.011 0.011 0.011 0.011 0.011 0.011 0.011 0.011 0.011 0.011 0.011 0.011 0.011 0.011 0.011 0.011 0.011 0.011 0.011 0.011 0.011 0.011 0.011 0.011 0.011 0.011 0.011 0.011 0.011 0.011 0.011 0.011 0.011 0.011 0.011 0.011 0.011 0.011 0.011 0.011 0.011 0.011 0.011 0.011 0.011 0.011 0.011 0.011 0.011 0.011 0.011 0.011 0.011 0.011 0.011 0.011 0.011 0.235 0.732 0.934 0.971 0.953 0.824 0.622 0.437 0.290 0.180 0.125 0.088 0.106 0.180 0.456 1.008 1.339 1.431 1.431 1.358 1.082 0.548 0.011 0.011 0.011 0.011 0.011 0.011 0.011 0.011 0.011 0.011 0.011 0.011 0.011 0.011 0.011 0.011 0.011 0.011 0.011 0.011 0.011 0.011 0.011 0.011 0.011 0.011 0.011 0.011 0.011 0.011 0.011 0.011 0.011 0.011 0.011 0.011 0.011 0.011 0.011 0.011 0.011 999900.000 999900.000 999900.000 
999900.000 999900.000 999900.000 0.011 0.011 0.106 0.493 0.861 1.063 1.100 1.008 0.011 0.011 0.011 0.011 0.011 0.011 0.011 0.011 0.011 0.011 0.011 0.011 0.011 0.011 0.011 0.011 0.125 0.640 0.916 0.971 0.898 0.585 0.161 0.011 0.011 0.011 0.011 0.011 0.011 0.011 0.011 0.011 0.011 0.011 0.011 0.011 0.011 0.011 0.011 0.011 0.011 0.011 0.011 0.011 0.011 0.011 0.011 0.011 0.011 0.011 0.011 0.011 0.011 0.011 0.011 0.011 0.011 0.011 0.011 0.011 0.011 0.011 0.011 0.011 0.011 0.011 0.011 0.011 0.011 0.011 0.011 0.011 0.011 0.011 0.011 0.011 0.011 0.011 0.011 0.011 0.011 0.011 0.011 0.011 0.011 0.011 0.011 0.011 0.011 0.011 0.011 0.180 0.437 0.566 0.585 0.493 0.290 0.235 0.217 0.180 0.143 0.125 0.106 0.125 0.235 0.548 1.137 1.468 1.560 1.560 1.450 1.155 0.548 0.011 0.011 0.011 0.011 0.011 0.011 0.011 0.011 0.011 0.011 0.011 0.011 0.011 0.011 0.011 0.011 0.011 0.011 0.011 0.011 0.011 0.011 0.011 0.011 0.011 0.011 0.011 0.011 0.011 0.011 0.011 0.011 0.011 0.011 0.011 0.011 0.011 0.011 0.011 0.011 0.011 999900.000 999900.000 999900.000 
999900.000 999900.000 999900.000 0.011 0.011 0.106 0.456 0.824 1.045 1.082 0.990 0.011 0.011 0.011 0.011 0.011 0.011 0.011 0.011 0.011 0.011 0.011 0.011 0.011 0.011 0.011 0.011 0.125 0.622 0.916 0.990 0.934 0.677 0.217 0.030 0.011 0.011 0.011 0.011 0.011 0.011 0.011 0.011 0.011 0.011 0.011 0.011 0.011 0.011 0.011 0.011 0.011 0.011 0.011 0.011 0.011 0.011 0.011 0.011 0.011 0.011 0.011 0.011 0.011 0.011 0.011 0.011 0.011 0.011 0.011 0.011 0.011 0.011 0.011 0.011 0.011 0.011 0.011 0.011 0.011 0.011 0.011 0.011 0.011 0.011 0.011 0.011 0.011 0.011 0.011 0.011 0.011 0.011 0.011 0.011 0.011 0.011 0.011 0.011 0.011 0.011 0.011 0.143 0.272 0.272 0.011 0.011 0.011 0.011 0.011 0.011 0.011 0.011 0.011 0.030 0.180 0.529 1.192 1.542 1.634 1.634 1.505 1.174 0.529 0.011 0.011 0.011 0.011 0.011 0.011 0.011 0.011 0.011 0.011 0.011 0.011 0.011 0.011 0.011 0.011 0.011 0.011 0.011 0.011 0.011 0.011 0.011 0.011 0.011 0.011 0.011 0.011 0.011 0.011 0.011 0.011 0.011 0.011 0.011 0.011 0.011 0.011 0.011 0.011 0.011 999900.000 999900.000 999900.000 
999900.000 999900.000 999900.000 0.011 0.011 0.106 0.456 0.824 1.045 1.100 1.026 0.011 0.011 0.011 0.011 0.011 0.011 0.011 0.011 0.011 0.011 0.011 0.011 0.011 0.011 0.011 0.011 0.143 0.622 0.953 1.063 1.045 0.861 0.327 0.011 0.011 0.011 0.011 0.011 0.011 0.011 0.011 0.011 0.011 0.011 0.011 0.011 0.011 0.011 0.011 0.011 0.011 0.011 0.011 0.011 0.011 0.011 0.011 0.011 0.011 0.011 0.011 0.011 0.011 0.011 0.011 0.011 0.011 0.011 0.011 0.011 0.011 0.011 0.011 0.011 0.011 0.011 0.011 0.011 0.011 0.011 0.011 0.011 0.011 0.011 0.011 0.011 0.011 0.011 0.011 0.011 0.011 0.011 0.011 0.011 0.011 0.011 0.011 0.011 0.011 0.011 0.011 0.106 0.161 0.106 0.011 0.011 0.011 0.011 0.011 0.011 0.011 0.011 0.011 0.011 0.011 0.290 1.174 1.579 1.671 1.671 1.523 1.155 0.474 0.011 0.011 0.011 0.011 0.011 0.011 0.011 0.011 0.011 0.011 0.011 0.011 0.011 0.011 0.011 0.011 0.011 0.011 0.011 0.011 0.011 0.011 0.011 0.011 0.011 0.011 0.011 0.011 0.011 0.011 0.011 0.011 0.011 0.011 0.011 0.011 0.011 0.011 0.011 0.011 0.011 999900.000 999900.000 999900.000 
999900.000 999900.000 999900.000 0.011 0.011 0.125 0.456 0.824 1.082 1.155 1.100 0.732 0.011 0.011 0.011 0.011 0.011 0.011 0.011 0.011 0.011 0.011 0.011 0.011 0.011 0.011 0.011 0.161 0.622 1.026 1.211 1.229 1.137 0.011 0.011 0.011 0.011 0.011 0.011 0.011 0.011 0.011 0.011 0.011 0.011 0.011 0.011 0.011 0.011 0.011 0.011 0.011 0.011 0.011 0.011 0.011 0.011 0.011 0.011 0.011 0.011 0.011 0.011 0.011 0.011 0.011 0.011 0.011 0.011 0.011 0.011 0.011 0.011 0.011 0.011 0.011 0.011 0.011 0.011 0.011 0.011 0.011 0.011 0.011 0.011 0.011 0.011 0.011 0.011 0.011 0.011 0.011 0.011 0.011 0.011 0.011 0.011 0.011 0.011 0.011 0.011 0.011 0.030 0.069 0.011 0.011 0.011 0.011 0.011 0.011 0.011 0.011 0.011 0.011 0.011 0.011 0.011 1.137 1.597 1.707 1.689 1.542 1.137 0.382 0.011 0.011 0.011 0.011 0.011 0.011 0.011 0.011 0.011 0.011 0.011 0.011 0.011 0.011 0.011 0.011 0.011 0.011 0.011 0.011 0.011 0.011 0.011 0.011 0.011 0.011 0.011 0.011 0.011 0.011 0.011 0.011 0.011 0.011 0.011 0.011 0.011 0.011 0.011 0.011 0.011 999900.000 999900.000 999900.000 
999900.000 999900.000 999900.000 0.011 0.011 0.143 0.474 0.879 1.155 1.266 1.247 1.082 0.419 0.011 0.011 0.011 0.011 0.011 0.011 0.011 0.011 0.011 0.011 0.011 0.011 0.011 0.011 0.180 0.677 1.155 1.395 1.450 1.413 1.155 0.011 0.011 0.011 0.011 0.011 0.011 0.011 0.011 0.011 0.011 0.011 0.011 0.011 0.011 0.011 0.011 0.011 0.011 0.011 0.011 0.011 0.011 0.011 0.011 0.011 0.011 0.011 0.011 0.011 0.011 0.011 0.011 0.011 0.011 0.011 0.011 0.011 0.011 0.011 0.011 0.011 0.011 0.011 0.011 0.011 0.011 0.011 0.011 0.011 0.011 0.011 0.011 0.011 0.011 0.011 0.011 0.011 0.011 0.011 0.011 0.011 0.011 0.011 0.011 0.011 0.011 0.011 0.011 0.011 0.011 0.011 0.011 0.011 0.011 0.011 0.011 0.011 0.011 0.011 0.011 0.011 0.011 0.011 1.082 1.615 1.726 1.707 1.542 1.063 0.309 0.011 0.011 0.011 0.011 0.011 0.011 0.011 0.011 0.011 0.011 0.011 0.011 0.011 0.011 0.011 0.011 0.011 0.011 0.011 0.011 0.011 0.011 0.011 0.011 0.011 0.011 0.011 0.011 0.011 0.011 0.011 0.011 0.011 0.011 0.011 0.011 0.011 0.011 0.011 0.011 0.011 999900.000 999900.000 999900.000 
999900.000 999900.000 999900.000 0.011 0.011 0.161 0.493 0.953 1.284 1.431 1.450 1.339 0.971 0.345 0.088 0.011 0.011 0.011 0.011 0.011 0.011 0.011 0.011 0.011 0.011 0.011 0.011 0.235 0.750 1.247 1.523 1.597 1.579 1.413 0.916 0.088 0.030 0.011 0.011 0.011 0.011 0.011 0.011 0.011 0.011 0.011 0.011 0.011 0.011 0.011 0.011 0.011 0.011 0.011 0.011 0.011 0.011 0.011 0.011 0.011 0.011 0.011 0.011 0.011 0.011 0.011 0.011 0.011 0.011 0.011 0.011 0.011 0.011 0.011 0.011 0.011 0.011 0.011 0.011 0.011 0.011 0.011 0.011 0.011 0.011 0.011 0.011 0.011 0.011 0.011 0.011 0.011 0.011 0.011 0.011 0.011 0.011 0.011 0.011 0.011 0.011 0.011 0.011 0.011 0.011 0.011 0.011 0.011 0.011 0.011 0.011 0.011 0.011 0.011 0.011 0.011 0.011 1.100 1.634 1.763 1.726 1.542 1.026 0.253 0.011 0.011 0.011 0.011 0.011 0.011 0.011 0.011 0.011 0.011 0.011 0.011 0.011 0.011 0.011 0.011 0.011 0.011 0.011 0.011 0.011 0.011 0.011 0.011 0.011 0.011 0.011 0.011 0.011 0.011 0.011 0.011 0.011 0.011 0.011 0.011 0.011 0.011 0.011 0.011 0.011 999900.000 999900.000 999900.000 
999900.000 999900.000 999900.000 0.011 0.011 0.180 0.529 1.045 1.431 1.597 1.615 1.523 1.211 0.640 0.235 0.011 0.011 0.011 0.011 0.011 0.011 0.011 0.011 0.011 0.011 0.011 0.011 0.290 0.787 1.303 1.597 1.689 1.671 1.542 1.137 0.474 0.143 0.011 0.011 0.011 0.011 0.011 0.011 0.011 0.011 0.011 0.011 0.011 0.011 0.011 0.011 0.011 0.011 0.011 0.011 0.011 0.011 0.011 0.011 0.011 0.011 0.011 0.011 0.011 0.011 0.011 0.011 0.011 0.011 0.011 0.011 0.011 0.011 0.011 0.011 0.011 0.011 0.011 0.011 0.011 0.011 0.011 0.011 0.011 0.011 0.011 0.011 0.011 0.011 0.011 0.011 0.011 0.011 0.011 0.011 0.011 0.011 0.011 0.011 0.011 0.011 0.030 0.011 0.011 0.011 0.011 0.011 0.011 0.011 0.011 0.011 0.011 0.011 0.011 0.011 0.011 0.011 1.192 1.707 1.818 1.781 1.560 1.026 0.235 0.011 0.011 0.011 0.011 0.011 0.011 0.011 0.011 0.011 0.011 0.011 0.011 0.011 0.011 0.011 0.011 0.011 0.011 0.011 0.011 0.011 0.011 0.011 0.011 0.011 0.011 0.011 0.011 0.011 0.011 0.011 0.011 0.011 0.011 0.011 0.011 0.011 0.011 0.011 0.011 0.011 999900.000 999900.000 999900.000 
999900.000 999900.000 999900.000 0.011 0.011 0.198 0.585 1.137 1.542 1.707 1.726 1.652 1.339 0.787 0.309 0.011 0.011 0.011 0.011 0.011 0.011 0.011 0.011 0.011 0.011 0.011 0.011 0.309 0.806 1.321 1.615 1.707 1.707 1.597 1.229 0.640 0.217 0.011 0.011 0.011 0.011 0.011 0.011 0.011 0.011 0.011 0.011 0.011 0.011 0.011 0.011 0.011 0.011 0.011 0.011 0.011 0.011 0.011 0.011 0.011 0.011 0.011 0.011 0.011 0.011 0.011 0.011 0.011 0.011 0.011 0.011 0.011 0.011 0.011 0.011 0.011 0.011 0.011 0.011 0.011 0.011 0.011 0.011 0.011 0.011 0.011 0.011 0.011 0.011 0.011 0.011 0.011 0.011 0.011 0.011 0.011 0.011 0.011 0.011 0.011 0.050 0.069 0.011 0.011 0.011 0.011 0.011 0.011 0.011 0.011 0.011 0.011 0.011 0.011 0.011 0.011 0.217 1.413 1.836 1.928 1.873 1.615 1.026 0.217 0.011 0.011 0.011 0.011 0.011 0.011 0.011 0.011 0.011 0.011 0.011 0.011 0.011 0.011 0.011 0.011 0.011 0.011 0.011 0.011 0.011 0.011 0.011 0.011 0.011 0.011 0.011 0.011 0.011 0.011 0.011 0.011 0.011 0.011 0.011 0.011 0.011 0.011 0.011 0.011 0.011 999900.000 999900.000 999900.000 
999900.000 999900.000 999900.000 0.011 0.011 0.217 0.622 1.229 1.652 1.800 1.818 1.726 1.413 0.842 0.327 0.011 0.011 0.011 0.011 0.011 0.011 0.011 0.011 0.011 0.011 0.011 0.011 0.309 0.787 1.303 1.615 1.726 1.707 1.597 1.266 0.695 0.253 0.011 0.011 0.011 0.011 0.011 0.011 0.011 0.011 0.011 0.011 0.011 0.011 0.011 0.011 0.011 0.011 0.011 0.011 0.011 0.011 0.011 0.011 0.011 0.011 0.011 0.011 0.011 0.011 0.011 0.011 0.011 0.011 0.011 0.011 0.011 0.011 0.011 0.011 0.011 0.011 0.011 0.011 0.011 0.011 0.011 0.011 0.011 0.011 0.011 0.011 0.011 0.011 0.011 0.011 0.011 0.011 0.011 0.011 0.011 0.011 0.011 0.011 0.011 0.106 0.088 0.011 0.011 0.011 0.011 0.011 0.011 0.011 0.011 0.011 0.011 0.011 0.011 0.011 0.217 0.971 1.781 2.057 2.112 2.057 1.744 1.082 0.217 0.011 0.011 0.011 0.011 0.011 0.011 0.011 0.011 0.011 0.011 0.011 0.011 0.011 0.011 0.011 0.011 0.011 0.011 0.011 0.011 0.011 0.011 0.011 0.011 0.011 0.011 0.011 0.011 0.011 0.011 0.011 0.011 0.011 0.011 0.011 0.011 0.011 0.011 0.011 0.011 0.011 999900.000 999900.000 999900.000 
999900.000 999900.000 999900.000 0.011 0.030 0.235 0.677 1.303 1.726 1.873 1.892 1.781 1.450 0.842 0.327 0.011 0.011 0.011 0.011 0.011 0.011 0.011 0.011 0.011 0.011 0.011 0.030 0.272 0.732 1.247 1.579 1.689 1.707 1.597 1.266 0.714 0.253 0.011 0.011 0.011 0.011 0.011 0.011 0.011 0.011 0.011 0.011 0.011 0.011 0.011 0.011 0.011 0.011 0.011 0.011 0.011 0.011 0.011 0.011 0.011 0.011 0.011 0.011 0.011 0.011 0.011 0.011 0.011 0.011 0.011 0.011 0.011 0.011 0.011 0.011 0.011 0.011 0.011 0.011 0.011 0.011 0.011 0.011 0.011 0.011 0.011 0.011 0.011 0.011 0.011 0.011 0.011 0.011 0.011 0.011 0.011 0.011 0.011 0.011 0.088 0.143 0.106 0.011 0.011 0.011 0.011 0.011 0.011 0.011 0.011 0.011 0.011 0.011 0.011 0.272 0.861 1.726 2.223 2.407 2.425 2.333 1.984 1.211 0.235 0.011 0.011 0.011 0.011 0.011 0.011 0.011 0.011 0.011 0.011 0.011 0.011 0.011 0.011 0.011 0.011 0.011 0.011 0.011 0.011 0.011 0.011 0.011 0.011 0.011 0.011 0.011 0.011 0.011 0.011 0.011 0.011 0.011 0.011 0.011 0.011 0.011 0.011 0.011 0.011 0.011 999900.000 999900.000 999900.000 
999900.000 999900.000 999900.000 0.011 0.050 0.272 0.732 1.376 1.800 1.947 1.947 1.836 1.468 0.824 0.272 0.011 0.011 0.011 0.011 0.011 0.011 0.011 0.011 0.011 0.011 0.011 0.011 0.161 0.585 1.137 1.505 1.634 1.634 1.542 1.229 0.695 0.217 0.011 0.011 0.011 0.011 0.011 0.011 0.011 0.011 0.011 0.011 0.011 0.011 0.011 0.011 0.011 0.011 0.011 0.011 0.011 0.011 0.011 0.011 0.011 0.011 0.011 0.011 0.011 0.011 0.011 0.011 0.011 0.011 0.011 0.011 0.011 0.011 0.011 0.011 0.011 0.011 0.011 0.011 0.011 0.011 0.011 0.011 0.011 0.011 0.011 0.011 0.011 0.011 0.011 0.011 0.011 0.011 0.011 0.011 0.011 0.011 0.011 0.011 0.125 0.161 0.088 0.011 0.011 0.011 0.011 0.011 0.011 0.011 0.011 0.011 0.011 0.011 0.272 0.714 1.468 2.204 2.646 2.812 2.812 2.701 2.333 1.487 0.327 0.011 0.011 0.011 0.011 0.011 0.011 0.011 0.011 0.011 0.011 0.011 0.011 0.011 0.011 0.011 0.011 0.011 0.011 0.011 0.011 0.011 0.011 0.011 0.011 0.011 0.011 0.011 0.011 0.011 0.011 0.011 0.011 0.011 0.011 0.011 0.011 0.011 0.011 0.011 0.011 0.011 999900.000 999900.000 999900.000 
999900.000 999900.000 999900.000 0.011 0.050 0.309 0.806 1.468 1.873 2.002 2.002 1.873 1.487 0.769 0.180 0.011 0.011 0.011 0.011 0.011 0.011 0.011 0.011 0.011 0.011 0.011 0.011 0.011 0.272 0.898 1.339 1.505 1.523 1.450 1.155 0.640 0.143 0.011 0.011 0.011 0.011 0.011 0.011 0.011 0.011 0.011 0.011 0.011 0.011 0.011 0.011 0.011 0.011 0.011 0.011 0.011 0.011 0.011 0.011 0.011 0.011 0.011 0.011 0.011 0.011 0.011 0.011 0.011 0.011 0.011 0.011 0.011 0.011 0.011 0.011 0.011 0.011 0.011 0.011 0.011 0.011 0.011 0.011 0.011 0.011 0.011 0.011 0.011 0.011 0.011 0.011 0.011 0.011 0.011 0.011 0.011 0.011 0.011 0.011 0.125 0.143 0.050 0.011 0.011 0.011 0.011 0.011 0.011 0.011 0.011 0.011 0.011 0.106 0.493 1.026 1.763 2.499 2.978 3.162 3.198 3.125 2.793 2.002 0.622 0.011 0.011 0.011 0.011 0.011 0.011 0.011 0.011 0.011 0.011 0.011 0.011 0.011 0.011 0.011 0.011 0.011 0.011 0.011 0.011 0.011 0.011 0.011 0.011 0.011 0.011 0.011 0.011 0.011 0.011 0.011 0.011 0.011 0.011 0.011 0.011 0.011 0.011 0.011 0.011 0.011 999900.000 999900.000 999900.000 
999900.000 999900.000 999900.000 0.011 0.069 0.327 0.879 1.542 1.947 2.076 2.057 1.928 1.487 0.677 0.106 0.011 0.011 0.011 0.011 0.011 0.011 0.011 0.011 0.011 0.011 0.011 0.011 0.011 0.011 0.456 1.082 1.303 1.339 1.284 1.026 0.529 0.050 0.011 0.011 0.011 0.011 0.011 0.011 0.011 0.011 0.011 0.011 0.011 0.011 0.011 0.011 0.011 0.011 0.011 0.011 0.011 0.011 0.011 0.011 0.011 0.011 0.011 0.011 0.011 0.011 0.011 0.011 0.011 0.011 0.011 0.011 0.011 0.011 0.011 0.011 0.011 0.011 0.011 0.011 0.011 0.011 0.011 0.011 0.011 0.011 0.011 0.011 0.011 0.011 0.011 0.011 0.011 0.011 0.011 0.011 0.011 0.011 0.011 0.011 0.050 0.088 0.030 0.011 0.011 0.011 0.011 0.011 0.011 0.011 0.011 0.011 0.011 0.180 0.603 1.137 1.892 2.683 3.217 3.456 3.511 3.475 3.235 2.628 1.321 0.309 0.011 0.011 0.011 0.011 0.011 0.011 0.011 0.011 0.011 0.011 0.011 0.011 0.011 0.011 0.011 0.011 0.011 0.011 0.011 0.011 0.011 0.011 0.011 0.011 0.011 0.011 0.011 0.011 0.011 0.011 0.011 0.011 0.011 0.011 0.011 0.011 0.011 0.011 0.011 0.011 999900.000 999900.000 999900.000 
999900.000 999900.000 999900.000 0.011 0.088 0.364 0.953 1.652 2.039 2.149 2.131 1.965 1.487 0.640 0.069 0.011 0.011 0.011 0.011 0.011 0.011 0.011 0.011 0.011 0.011 0.011 0.011 0.011 0.011 0.011 0.658 1.045 1.118 1.082 0.861 0.401 0.011 0.011 0.011 0.011 0.011 0.011 0.011 0.011 0.011 0.011 0.011 0.011 0.011 0.011 0.011 0.011 0.011 0.011 0.011 0.011 0.011 0.011 0.011 0.011 0.011 0.011 0.011 0.011 0.011 0.011 0.011 0.011 0.011 0.011 0.011 0.011 0.011 0.011 0.011 0.011 0.011 0.011 0.011 0.011 0.011 0.011 0.011 0.011 0.011 0.011 0.011 0.011 0.011 0.011 0.011 0.011 0.011 0.011 0.011 0.011 0.011 0.011 0.011 0.011 0.030 0.011 0.011 0.011 0.011 0.011 0.011 0.011 0.011 0.011 0.011 0.011 0.180 0.603 1.155 1.928 2.757 3.382 3.695 3.769 3.751 3.585 3.106 2.149 0.861 0.235 0.030 0.011 0.011 0.011 0.011 0.011 0.011 0.011 0.011 0.011 0.011 0.011 0.011 0.011 0.011 0.011 0.011 0.011 0.011 0.011 0.011 0.011 0.011 0.011 0.011 0.011 0.011 0.011 0.011 0.011 0.011 0.011 0.011 0.011 0.011 0.011 0.011 0.011 0.011 999900.000 999900.000 999900.000 
999900.000 999900.000 999900.000 0.011 0.106 0.419 1.063 1.763 2.131 2.241 2.223 2.020 1.523 0.622 0.050 0.011 0.011 0.011 0.011 0.011 0.011 0.011 0.011 0.011 0.011 0.011 0.011 0.011 0.011 0.011 0.235 0.750 0.879 0.861 0.695 0.309 0.011 0.011 0.011 0.011 0.011 0.011 0.011 0.011 0.011 0.011 0.011 0.011 0.011 0.011 0.011 0.011 0.011 0.011 0.011 0.011 0.011 0.011 0.011 0.011 0.011 0.011 0.011 0.011 0.011 0.011 0.011 0.011 0.011 0.011 0.011 0.011 0.011 0.011 0.011 0.011 0.011 0.011 0.011 0.011 0.011 0.011 0.011 0.011 0.011 0.011 0.011 0.011 0.011 0.011 0.011 0.011 0.011 0.011 0.011 0.011 0.011 0.011 0.011 0.011 0.011 0.011 0.011 0.011 0.011 0.011 0.011 0.011 0.011 0.011 0.011 0.011 0.088 0.529 1.100 1.892 2.793 3.493 3.861 3.971 3.971 3.843 3.456 2.683 1.505 0.585 0.143 0.011 0.011 0.011 0.011 0.011 0.011 0.011 0.011 0.011 0.011 0.011 0.011 0.011 0.011 0.011 0.011 0.011 0.011 0.011 0.011 0.011 0.011 0.011 0.011 0.011 0.011 0.011 0.011 0.011 0.011 0.011 0.011 0.011 0.011 0.011 0.011 0.011 0.011 999900.000 999900.000 999900.000 
999900.000 999900.000 999900.000 0.011 0.106 0.456 1.192 1.928 2.278 2.352 2.315 2.112 1.560 0.622 0.050 0.011 0.011 0.011 0.011 0.011 0.011 0.011 0.011 0.011 0.011 0.011 0.011 0.011 0.011 0.011 0.088 0.566 0.732 0.732 0.603 0.235 0.011 0.011 0.011 0.011 0.011 0.011 0.011 0.011 0.011 0.011 0.011 0.011 0.011 0.011 0.011 0.011 0.011 0.011 0.011 0.011 0.011 0.011 0.011 0.011 0.011 0.011 0.011 0.011 0.011 0.011 0.011 0.011 0.011 0.011 0.011 0.011 0.011 0.011 0.011 0.011 0.011 0.011 0.011 0.011 0.011 0.011 0.011 0.011 0.011 0.011 0.011 0.011 0.011 0.011 0.011 0.011 0.011 0.011 0.011 0.011 0.011 0.011 0.011 0.011 0.011 0.011 0.011 0.011 0.011 0.011 0.011 0.011 0.011 0.011 0.011 0.011 0.011 0.161 0.879 1.781 2.775 3.567 3.971 4.119 4.137 4.027 3.714 3.051 2.002 0.971 0.345 0.011 0.011 0.011 0.011 0.011 0.011 0.011 0.011 0.011 0.011 0.011 0.011 0.011 0.011 0.011 0.011 0.011 0.011 0.011 0.011 0.011 0.011 0.011 0.011 0.011 0.011 0.011 0.011 0.011 0.011 0.011 0.011 0.011 0.011 0.011 0.011 0.011 0.011 999900.000 999900.000 999900.000 
999900.000 999900.000 999900.000 0.011 0.125 0.529 1.339 2.112 2.444 2.499 2.462 2.241 1.671 0.658 0.050 0.011 0.011 0.011 0.011 0.011 0.011 0.011 0.011 0.011 0.011 0.011 0.011 0.011 0.011 0.011 0.011 0.456 0.622 0.640 0.529 0.198 0.011 0.011 0.011 0.011 0.011 0.011 0.011 0.011 0.011 0.011 0.011 0.011 0.011 0.011 0.011 0.011 0.011 0.011 0.011 0.011 0.011 0.011 0.011 0.011 0.011 0.011 0.011 0.011 0.011 0.011 0.011 0.011 0.011 0.011 0.011 0.011 0.011 0.011 0.011 0.011 0.011 0.011 0.011 0.011 0.011 0.011 0.011 0.011 0.011 0.011 0.011 0.011 0.011 0.011 0.011 0.011 0.011 0.011 0.011 0.011 0.011 0.011 0.011 0.011 0.011 0.011 0.011 0.011 0.011 0.011 0.011 0.011 0.011 0.011 0.011 0.011 0.011 0.011 0.050 1.413 2.683 3.585 4.064 4.248 4.266 4.192 3.898 3.290 2.333 1.247 0.511 0.088 0.011 0.011 0.011 0.011 0.011 0.011 0.011 0.011 0.011 0.011 0.011 0.011 0.011 0.011 0.011 0.011 0.011 0.011 0.011 0.011 0.011 0.011 0.011 0.011 0.011 0.011 0.011 0.011 0.011 0.011 0.011 0.011 0.011 0.011 0.011 0.011 0.011 999900.000 999900.000 999900.000 
999900.000 999900.000 999900.000 0.011 0.143 0.603 1.487 2.260 2.609 2.683 2.646 2.425 1.855 0.806 0.050 0.011 0.011 0.011 0.011 0.011 0.011 0.011 0.011 0.011 0.011 0.011 0.011 0.011 0.011 0.011 0.011 0.382 0.548 0.566 0.456 0.161 0.011 0.011 0.011 0.011 0.011 0.011 0.011 0.011 0.011 0.011 0.011 0.011 0.011 0.011 0.011 0.011 0.011 0.011 0.011 0.011 0.011 0.011 0.011 0.011 0.011 0.011 0.011 0.011 0.011 0.011 0.011 0.011 0.011 0.011 0.011 0.011 0.011 0.011 0.011 0.011 0.011 0.011 0.011 0.011 0.011 0.011 0.011 0.011 0.011 0.011 0.011 0.011 0.011 0.011 0.011 0.011 0.011 0.011 0.011 0.011 0.011 0.011 0.011 0.011 0.011 0.011 0.011 0.011 0.011 0.011 0.011 0.011 0.011 0.011 0.011 0.011 0.011 0.011 0.011 0.437 2.462 3.585 4.137 4.340 4.376 4.321 4.045 3.475 2.554 1.450 0.603 0.125 0.011 0.011 0.011 0.011 0.011 0.011 0.011 0.011 0.011 0.011 0.011 0.011 0.011 0.011 0.011 0.011 0.011 0.011 0.011 0.011 0.011 0.011 0.011 0.011 0.011 0.011 0.011 0.011 0.011 0.011 0.011 0.011 0.011 0.011 0.011 0.011 0.011 999900.000 999900.000 999900.000 
999900.000 999900.000 999900.000 0.011 0.180 0.658 1.542 2.352 2.757 2.867 2.849 2.665 2.149 1.174 0.106 0.011 0.011 0.011 0.011 0.011 0.011 0.011 0.011 0.011 0.011 0.011 0.011 0.011 0.011 0.011 0.011 0.327 0.493 0.511 0.401 0.143 0.011 0.011 0.011 0.011 0.011 0.011 0.011 0.011 0.011 0.011 0.011 0.011 0.011 0.011 0.011 0.011 0.011 0.011 0.011 0.011 0.011 0.011 0.011 0.011 0.011 0.011 0.011 0.011 0.011 0.011 0.011 0.011 0.011 0.011 0.011 0.011 0.011 0.011 0.011 0.011 0.011 0.011 0.011 0.011 0.011 0.011 0.011 0.011 0.011 0.011 0.011 0.011 0.011 0.011 0.011 0.011 0.011 0.011 0.011 0.011 0.011 0.011 0.011 0.050 0.011 0.011 0.011 0.011 0.011 0.011 0.011 0.011 0.011 0.011 0.011 0.011 0.011 0.011 0.011 0.011 2.223 3.603 4.211 4.450 4.487 4.432 4.174 3.622 2.701 1.560 0.640 0.143 0.011 0.011 0.011 0.011 0.011 0.011 0.011 0.011 0.011 0.011 0.011 0.011 0.011 0.011 0.011 0.011 0.011 0.011 0.011 0.011 0.011 0.011 0.011 0.011 0.011 0.011 0.011 0.011 0.011 0.011 0.011 0.011 0.011 0.011 0.011 0.011 0.011 999900.000 999900.000 999900.000 
999900.000 999900.000 999900.000 0.011 0.198 0.677 1.542 2.389 2.830 2.996 2.996 2.886 2.517 1.781 0.585 0.011 0.011 0.011 0.011 0.011 0.011 0.011 0.011 0.011 0.011 0.011 0.011 0.011 0.011 0.011 0.030 0.272 0.437 0.437 0.345 0.106 0.011 0.011 0.011 0.011 0.011 0.011 0.011 0.011 0.011 0.011 0.011 0.011 0.011 0.011 0.011 0.011 0.011 0.011 0.011 0.011 0.011 0.011 0.011 0.011 0.011 0.011 0.011 0.011 0.011 0.011 0.011 0.011 0.011 0.011 0.011 0.011 0.011 0.011 0.011 0.011 0.011 0.011 0.011 0.011 0.011 0.011 0.011 0.011 0.011 0.011 0.011 0.011 0.011 0.011 0.011 0.011 0.011 0.011 0.011 0.011 0.011 0.011 0.030 0.069 0.011 0.011 0.011 0.011 0.011 0.011 0.011 0.011 0.011 0.011 0.011 0.011 0.011 0.011 0.011 0.011 2.076 3.603 4.284 4.542 4.597 4.542 4.303 3.751 2.812 1.615 0.640 0.125 0.011 0.011 0.011 0.011 0.011 0.011 0.011 0.011 0.011 0.011 0.011 0.011 0.011 0.011 0.011 0.011 0.011 0.011 0.011 0.011 0.011 0.011 0.011 0.011 0.011 0.011 0.011 0.011 0.011 0.011 0.011 0.011 0.011 0.011 0.011 0.011 0.011 999900.000 999900.000 999900.000 
999900.000 999900.000 999900.000 0.011 0.198 0.640 1.468 2.352 2.867 3.070 3.106 3.051 2.775 2.223 1.358 0.011 0.011 0.011 0.011 0.011 0.011 0.011 0.011 0.011 0.011 0.011 0.011 0.011 0.011 0.011 0.030 0.198 0.345 0.364 0.272 0.069 0.011 0.011 0.011 0.011 0.011 0.011 0.011 0.011 0.011 0.011 0.011 0.011 0.011 0.011 0.011 0.011 0.011 0.011 0.011 0.011 0.011 0.011 0.011 0.011 0.011 0.011 0.011 0.011 0.011 0.011 0.011 0.011 0.011 0.011 0.011 0.011 0.011 0.011 0.011 0.011 0.011 0.011 0.011 0.011 0.011 0.011 0.011 0.011 0.011 0.011 0.011 0.011 0.011 0.011 0.011 0.011 0.011 0.011 0.011 0.011 0.011 0.011 0.011 0.069 0.011 0.011 0.011 0.011 0.011 0.011 0.011 0.011 0.011 0.011 0.011 0.011 0.011 0.011 0.011 0.011 2.039 3.640 4.358 4.652 4.708 4.671 4.432 3.879 2.904 1.652 0.603 0.088 0.011 0.011 0.011 0.011 0.011 0.011 0.011 0.011 0.011 0.011 0.011 0.011 0.011 0.011 0.011 0.011 0.011 0.011 0.011 0.011 0.011 0.011 0.011 0.011 0.011 0.011 0.011 0.011 0.011 0.011 0.011 0.011 0.011 0.011 0.011 0.011 0.011 999900.000 999900.000 999900.000 
999900.000 999900.000 999900.000 0.011 0.143 0.529 1.284 2.223 2.849 3.125 3.180 3.162 2.978 2.536 1.836 0.990 0.327 0.030 0.011 0.011 0.011 0.011 0.011 0.011 0.011 0.011 0.011 0.011 0.011 0.011 0.011 0.030 0.198 0.235 0.180 0.011 0.011 0.011 0.011 0.011 0.011 0.011 0.011 0.011 0.011 0.011 0.011 0.011 0.011 0.011 0.011 0.011 0.011 0.011 0.011 0.011 0.011 0.011 0.011 0.011 0.011 0.011 0.011 0.011 0.011 0.011 0.011 0.011 0.011 0.011 0.011 0.011 0.011 0.011 0.011 0.011 0.011 0.011 0.011 0.011 0.011 0.011 0.011 0.011 0.011 0.011 0.011 0.011 0.011 0.011 0.011 0.011 0.011 0.011 0.011 0.011 0.011 0.011 0.011 0.030 0.011 0.011 0.011 0.011 0.011 0.011 0.011 0.011 0.011 0.011 0.011 0.011 0.011 0.011 0.011 0.011 2.076 3.695 4.468 4.781 4.855 4.800 4.579 4.008 3.014 1.671 0.511 0.030 0.011 0.011 0.011 0.011 0.011 0.011 0.011 0.011 0.011 0.011 0.011 0.011 0.011 0.011 0.011 0.011 0.011 0.011 0.011 0.011 0.011 0.011 0.011 0.011 0.011 0.011 0.011 0.011 0.011 0.011 0.011 0.011 0.011 0.011 0.011 0.011 0.011 999900.000 999900.000 999900.000 
999900.000 999900.000 999900.000 0.011 0.011 0.290 0.990 1.965 2.738 3.106 3.235 3.235 3.125 2.775 2.168 1.376 0.695 0.253 0.011 0.011 0.011 0.011 0.011 0.011 0.011 0.011 0.011 0.011 0.011 0.011 0.011 0.011 0.011 0.011 0.030 0.011 0.011 0.011 0.011 0.011 0.011 0.011 0.011 0.011 0.011 0.011 0.011 0.011 0.011 0.011 0.011 0.011 0.011 0.011 0.011 0.011 0.011 0.011 0.011 0.011 0.011 0.011 0.011 0.011 0.011 0.011 0.011 0.011 0.011 0.011 0.011 0.011 0.011 0.011 0.011 0.011 0.011 0.011 0.011 0.011 0.011 0.011 0.011 0.011 0.011 0.011 0.011 0.011 0.011 0.011 0.011 0.011 0.011 0.011 0.011 0.011 0.011 0.011 0.011 0.011 0.011 0.011 0.011 0.011 0.011 0.011 0.011 0.011 0.011 0.011 0.011 0.011 0.011 0.011 0.030 0.272 2.241 3.806 4.579 4.910 5.002 4.965 4.745 4.174 3.125 1.689 0.474 0.011 0.011 0.011 0.011 0.011 0.011 0.011 0.011 0.011 0.011 0.011 0.011 0.011 0.011 0.011 0.011 0.011 0.011 0.011 0.011 0.011 0.011 0.011 0.011 0.011 0.011 0.011 0.011 0.011 0.011 0.011 0.011 0.011 0.011 0.011 0.011 0.011 0.011 999900.000 999900.000 999900.000 
999900.000 999900.000 999900.000 0.011 0.011 0.011 0.011 1.542 2.517 3.051 3.272 3.309 3.235 2.978 2.444 1.671 0.934 0.401 0.011 0.011 0.011 0.011 0.011 0.011 0.011 0.011 0.011 0.011 0.011 0.011 0.011 0.011 0.011 0.011 0.011 0.011 0.011 0.011 0.011 0.011 0.011 0.011 0.011 0.011 0.011 0.011 0.011 0.011 0.011 0.011 0.011 0.011 0.011 0.011 0.011 0.011 0.011 0.011 0.011 0.011 0.011 0.011 0.011 0.011 0.011 0.011 0.011 0.011 0.011 0.011 0.011 0.011 0.011 0.011 0.011 0.011 0.011 0.011 0.011 0.011 0.011 0.011 0.011 0.011 0.011 0.011 0.011 0.011 0.011 0.011 0.011 0.011 0.011 0.011 0.011 0.011 0.011 0.011 0.011 0.011 0.011 0.011 0.011 0.011 0.011 0.011 0.011 0.011 0.011 0.011 0.011 0.011 0.011 0.011 0.106 0.714 2.536 3.953 4.745 5.094 5.186 5.149 4.929 4.358 3.272 1.707 0.456 0.011 0.011 0.011 0.011 0.011 0.011 0.011 0.011 0.011 0.011 0.011 0.011 0.011 0.011 0.011 0.011 0.011 0.011 0.011 0.011 0.011 0.011 0.011 0.011 0.011 0.011 0.011 0.011 0.011 0.011 0.011 0.011 0.011 0.011 0.011 0.011 0.011 0.011 999900.000 999900.000 999900.000 
999900.000 999900.000 999900.000 0.011 0.011 0.011 0.011 0.769 2.094 2.904 3.272 3.382 3.346 3.162 2.701 1.947 1.118 0.493 0.011 0.011 0.011 0.011 0.011 0.011 0.011 0.011 0.011 0.011 0.011 0.011 0.011 0.011 0.011 0.011 0.011 0.011 0.011 0.011 0.011 0.011 0.011 0.011 0.011 0.011 0.011 0.011 0.011 0.011 0.011 0.011 0.011 0.011 0.011 0.011 0.011 0.011 0.011 0.011 0.011 0.011 0.011 0.011 0.011 0.011 0.011 0.011 0.011 0.011 0.011 0.011 0.011 0.011 0.011 0.011 0.011 0.011 0.011 0.011 0.011 0.011 0.011 0.011 0.011 0.011 0.011 0.011 0.011 0.011 0.011 0.011 0.011 0.011 0.011 0.011 0.011 0.011 0.011 0.011 0.011 0.011 0.011 0.011 0.011 0.011 0.011 0.011 0.011 0.011 0.011 0.011 0.011 0.011 0.011 0.011 0.474 1.413 2.904 4.174 4.965 5.315 5.426 5.389 5.186 4.616 3.475 1.763 0.456 0.050 0.011 0.011 0.011 0.011 0.011 0.011 0.011 0.011 0.011 0.011 0.011 0.011 0.011 0.011 0.011 0.011 0.011 0.011 0.011 0.011 0.011 0.011 0.011 0.011 0.011 0.011 0.011 0.011 0.011 0.011 0.011 0.011 0.011 0.011 0.011 0.011 0.011 999900.000 999900.000 999900.000 
999900.000 999900.000 999900.000 0.011 0.011 0.011 0.011 0.011 1.689 2.757 3.272 3.456 3.475 3.346 2.959 2.223 1.303 0.548 0.011 0.011 0.011 0.011 0.011 0.011 0.011 0.011 0.011 0.011 0.011 0.011 0.011 0.011 0.011 0.011 0.011 0.011 0.011 0.011 0.011 0.011 0.011 0.011 0.011 0.011 0.011 0.011 0.011 0.011 0.011 0.011 0.011 0.011 0.011 0.011 0.011 0.011 0.011 0.011 0.011 0.011 0.011 0.011 0.011 0.011 0.011 0.011 0.011 0.011 0.011 0.011 0.011 0.011 0.011 0.011 0.011 0.011 0.011 0.011 0.011 0.011 0.011 0.011 0.011 0.011 0.011 0.011 0.011 0.011 0.011 0.011 0.011 0.011 0.011 0.011 0.011 0.011 0.011 0.011 0.011 0.011 0.011 0.011 0.011 0.011 0.011 0.011 0.011 0.011 0.011 0.011 0.011 0.011 0.011 0.327 0.916 1.910 3.290 4.468 5.241 5.628 5.720 5.702 5.499 4.929 3.769 1.892 0.493 0.069 0.011 0.011 0.011 0.011 0.011 0.011 0.011 0.011 0.011 0.011 0.011 0.011 0.011 0.011 0.011 0.011 0.011 0.011 0.011 0.011 0.011 0.011 0.011 0.011 0.011 0.011 0.011 0.011 0.011 0.011 0.011 0.011 0.011 0.011 0.011 0.011 0.011 999900.000 999900.000 999900.000 
999900.000 999900.000 999900.000 0.011 0.011 0.011 0.011 0.011 1.505 2.683 3.327 3.567 3.622 3.548 3.254 2.573 1.542 0.622 0.011 0.011 0.011 0.011 0.011 0.011 0.011 0.011 0.011 0.011 0.011 0.011 0.011 0.011 0.011 0.011 0.011 0.050 0.143 0.125 0.011 0.011 0.011 0.011 0.011 0.011 0.011 0.011 0.011 0.011 0.011 0.011 0.011 0.011 0.011 0.011 0.011 0.011 0.011 0.011 0.011 0.011 0.011 0.011 0.011 0.011 0.011 0.011 0.011 0.011 0.011 0.011 0.011 0.011 0.011 0.011 0.011 0.011 0.011 0.011 0.011 0.011 0.011 0.011 0.011 0.011 0.011 0.011 0.011 0.011 0.011 0.011 0.011 0.011 0.011 0.011 0.011 0.011 0.011 0.011 0.011 0.011 0.011 0.011 0.011 0.011 0.011 0.011 0.011 0.011 0.011 0.011 0.011 0.011 0.125 0.529 1.155 2.204 3.640 4.837 5.610 6.015 6.143 6.125 5.941 5.407 4.229 2.186 0.585 0.088 0.011 0.011 0.011 0.011 0.011 0.011 0.011 0.011 0.011 0.011 0.011 0.011 0.011 0.011 0.011 0.011 0.011 0.011 0.011 0.011 0.011 0.011 0.011 0.011 0.011 0.011 0.011 0.011 0.011 0.011 0.011 0.011 0.011 0.011 0.011 0.011 0.011 999900.000 999900.000 999900.000 
999900.000 999900.000 999900.000 0.011 0.011 0.011 0.011 0.011 1.450 2.683 3.401 3.732 3.824 3.787 3.567 2.978 1.910 0.750 0.011 0.011 0.011 0.011 0.011 0.011 0.011 0.011 0.011 0.011 0.011 0.011 0.011 0.011 0.011 0.011 0.011 0.198 0.309 0.309 0.217 0.050 0.011 0.011 0.011 0.011 0.011 0.011 0.011 0.011 0.011 0.011 0.011 0.011 0.011 0.011 0.011 0.011 0.011 0.011 0.011 0.011 0.011 0.011 0.011 0.011 0.011 0.011 0.011 0.011 0.011 0.011 0.011 0.011 0.011 0.011 0.011 0.011 0.011 0.011 0.011 0.011 0.011 0.011 0.011 0.011 0.011 0.011 0.011 0.011 0.011 0.011 0.011 0.011 0.011 0.011 0.011 0.011 0.011 0.011 0.011 0.011 0.011 0.011 0.011 0.011 0.011 0.011 0.011 0.011 0.011 0.011 0.011 0.050 0.198 0.585 1.247 2.370 3.935 5.223 6.070 6.530 6.677 6.677 6.530 6.051 4.947 2.812 0.787 0.106 0.011 0.011 0.011 0.011 0.011 0.011 0.011 0.011 0.011 0.011 0.011 0.011 0.011 0.011 0.011 0.011 0.011 0.011 0.011 0.011 0.011 0.011 0.011 0.011 0.011 0.011 0.011 0.011 0.011 0.011 0.011 0.011 0.011 0.011 0.011 0.011 0.011 999900.000 999900.000 999900.000 
999900.000 999900.000 999900.000 0.011 0.011 0.011 0.011 0.011 1.468 2.720 3.548 3.953 4.082 4.064 3.898 3.419 2.462 0.990 0.011 0.011 0.011 0.011 0.011 0.011 0.011 0.011 0.011 0.011 0.011 0.011 0.011 0.011 0.011 0.011 0.011 0.253 0.382 0.382 0.290 0.088 0.011 0.011 0.011 0.011 0.011 0.011 0.011 0.011 0.011 0.011 0.011 0.011 0.011 0.011 0.011 0.011 0.011 0.011 0.011 0.011 0.011 0.011 0.011 0.011 0.011 0.011 0.011 0.011 0.011 0.011 0.011 0.011 0.011 0.011 0.011 0.011 0.011 0.011 0.011 0.011 0.011 0.011 0.011 0.011 0.011 0.011 0.011 0.011 0.011 0.011 0.011 0.011 0.011 0.011 0.011 0.011 0.011 0.011 0.011 0.011 0.011 0.011 0.011 0.011 0.011 0.011 0.011 0.011 0.011 0.011 0.011 0.030 0.161 0.585 1.247 2.444 4.192 5.628 6.585 7.064 7.211 7.211 7.100 6.696 5.830 4.045 1.321 0.253 0.011 0.011 0.011 0.011 0.011 0.011 0.011 0.011 0.011 0.011 0.011 0.011 0.011 0.011 0.011 0.011 0.011 0.011 0.011 0.011 0.011 0.011 0.011 0.011 0.011 0.011 0.011 0.011 0.011 0.011 0.011 0.011 0.011 0.011 0.011 0.011 0.011 999900.000 999900.000 999900.000 
999900.000 999900.000 999900.000 0.011 0.011 0.011 0.011 0.511 1.579 2.867 3.787 4.229 4.376 4.376 4.229 3.806 2.978 1.615 0.198 0.011 0.011 0.011 0.011 0.011 0.011 0.011 0.011 0.011 0.011 0.011 0.011 0.011 0.011 0.011 0.030 0.272 0.382 0.401 0.309 0.088 0.011 0.011 0.011 0.011 0.011 0.011 0.011 0.011 0.011 0.011 0.011 0.011 0.011 0.011 0.011 0.011 0.011 0.011 0.011 0.011 0.011 0.011 0.011 0.011 0.011 0.011 0.011 0.011 0.011 0.011 0.011 0.011 0.011 0.011 0.011 0.011 0.011 0.011 0.011 0.011 0.011 0.011 0.011 0.011 0.011 0.011 0.011 0.011 0.011 0.011 0.011 0.011 0.011 0.011 0.011 0.011 0.011 0.011 0.011 0.011 0.011 0.011 0.011 0.011 0.011 0.011 0.011 0.011 0.011 0.011 0.011 0.011 0.011 0.437 1.211 2.462 4.432 6.088 7.064 7.505 7.634 7.653 7.524 7.174 6.456 5.186 2.867 0.861 0.011 0.011 0.011 0.011 0.011 0.011 0.011 0.011 0.011 0.011 0.011 0.011 0.011 0.011 0.011 0.011 0.011 0.011 0.011 0.011 0.011 0.011 0.011 0.011 0.011 0.011 0.011 0.011 0.011 0.011 0.011 0.011 0.011 0.011 0.011 0.011 0.011 999900.000 999900.000 999900.000 
999900.000 999900.000 999900.000 0.011 0.011 0.011 0.253 0.806 1.836 3.125 4.064 4.505 4.652 4.652 4.542 4.156 3.419 2.278 0.898 0.011 0.011 0.011 0.011 0.011 0.011 0.011 0.011 0.011 0.011 0.011 0.011 0.011 0.011 0.011 0.050 0.253 0.364 0.382 0.290 0.050 0.011 0.011 0.011 0.011 0.011 0.011 0.011 0.011 0.011 0.011 0.011 0.011 0.011 0.011 0.011 0.011 0.011 0.011 0.011 0.011 0.011 0.011 0.011 0.011 0.011 0.011 0.011 0.011 0.011 0.011 0.011 0.011 0.011 0.011 0.011 0.011 0.011 0.011 0.011 0.011 0.011 0.011 0.011 0.011 0.011 0.011 0.011 0.011 0.011 0.011 0.011 0.011 0.011 0.011 0.011 0.011 0.011 0.011 0.011 0.011 0.011 0.011 0.011 0.011 0.011 0.011 0.011 0.011 0.011 0.011 0.011 0.011 0.011 0.011 1.026 2.462 4.689 6.567 7.469 7.837 7.947 7.947 7.818 7.487 6.824 5.775 4.192 2.076 0.677 0.088 0.011 0.011 0.011 0.011 0.011 0.011 0.011 0.011 0.011 0.011 0.011 0.011 0.011 0.011 0.011 0.011 0.011 0.011 0.011 0.011 0.011 0.011 0.011 0.011 0.011 0.011 0.011 0.011 0.011 0.011 0.011 0.011 0.011 0.011 0.011 999900.000 999900.000 999900.000 
999900.000 999900.000 999900.000 0.011 0.011 0.161 0.548 1.174 2.131 3.346 4.284 4.745 4.910 4.910 4.800 4.468 3.806 2.793 1.560 0.622 0.011 0.011 0.011 0.011 0.011 0.011 0.011 0.011 0.011 0.011 0.011 0.011 0.011 0.011 0.030 0.180 0.290 0.290 0.217 0.011 0.011 0.011 0.011 0.011 0.011 0.011 0.011 0.011 0.011 0.011 0.011 0.011 0.011 0.011 0.011 0.011 0.011 0.011 0.011 0.011 0.011 0.011 0.011 0.011 0.011 0.011 0.011 0.011 0.011 0.011 0.011 0.011 0.011 0.011 0.011 0.011 0.011 0.011 0.011 0.011 0.011 0.011 0.011 0.011 0.011 0.011 0.011 0.011 0.011 0.011 0.011 0.011 0.011 0.011 0.011 0.011 0.011 0.011 0.011 0.011 0.011 0.011 0.011 0.011 0.011 0.011 0.011 0.011 0.011 0.011 0.011 0.011 0.011 0.011 0.677 2.407 5.039 6.972 7.745 8.058 8.150 8.131 8.002 7.653 7.045 6.088 4.781 3.162 1.634 0.603 0.125 0.011 0.011 0.011 0.011 0.011 0.011 0.011 0.011 0.011 0.011 0.011 0.011 0.011 0.011 0.011 0.011 0.011 0.011 0.011 0.011 0.011 0.011 0.011 0.011 0.011 0.011 0.011 0.011 0.011 0.011 0.011 0.011 0.011 0.011 999900.000 999900.000 999900.000 
999900.000 999900.000 999900.000 0.011 0.069 0.327 0.769 1.358 2.260 3.456 4.450 4.947 5.113 5.131 5.039 4.745 4.137 3.198 2.039 1.082 0.456 0.088 0.011 0.011 0.011 0.011 0.011 0.011 0.011 0.011 0.011 0.011 0.011 0.011 0.011 0.011 0.088 0.125 0.069 0.011 0.011 0.011 0.011 0.011 0.011 0.011 0.011 0.011 0.011 0.011 0.011 0.011 0.011 0.011 0.011 0.011 0.011 0.011 0.011 0.011 0.011 0.011 0.011 0.011 0.011 0.011 0.011 0.011 0.011 0.011 0.011 0.011 0.011 0.011 0.011 0.011 0.011 0.011 0.011 0.011 0.011 0.011 0.011 0.011 0.011 0.011 0.011 0.011 0.011 0.011 0.011 0.011 0.011 0.011 0.011 0.011 0.011 0.011 0.011 0.011 0.011 0.011 0.011 0.011 0.011 0.011 0.011 0.011 0.011 0.011 0.011 0.011 0.011 0.011 0.548 2.315 5.536 7.229 7.892 8.168 8.223 8.205 8.076 7.726 7.119 6.235 5.039 3.659 2.352 1.303 0.529 0.069 0.011 0.011 0.011 0.011 0.011 0.011 0.011 0.011 0.011 0.011 0.011 0.011 0.011 0.011 0.011 0.011 0.011 0.011 0.011 0.011 0.011 0.011 0.011 0.011 0.011 0.011 0.011 0.011 0.011 0.011 0.011 0.011 0.011 999900.000 999900.000 999900.000 
999900.000 999900.000 999900.000 0.011 0.161 0.493 0.861 1.395 2.260 3.475 4.542 5.113 5.315 5.334 5.260 4.984 4.432 3.548 2.425 1.395 0.714 0.272 0.011 0.011 0.011 0.011 0.011 0.011 0.011 0.011 0.011 0.011 0.011 0.011 0.011 0.011 0.011 0.011 0.011 0.011 0.011 0.011 0.011 0.011 0.011 0.011 0.011 0.011 0.011 0.011 0.011 0.011 0.011 0.011 0.011 0.011 0.011 0.011 0.011 0.011 0.011 0.011 0.011 0.011 0.011 0.011 0.011 0.011 0.011 0.011 0.011 0.011 0.011 0.011 0.011 0.011 0.011 0.011 0.011 0.011 0.011 0.011 0.011 0.011 0.011 0.011 0.011 0.011 0.011 0.011 0.011 0.011 0.011 0.011 0.011 0.011 0.011 0.011 0.011 0.011 0.011 0.011 0.011 0.011 0.011 0.011 0.011 0.011 0.011 0.011 0.011 0.011 0.011 0.011 0.529 2.296 5.923 7.358 7.966 8.205 8.260 8.242 8.094 7.745 7.156 6.272 5.131 3.861 2.683 1.726 0.971 0.382 0.011 0.011 0.011 0.011 0.011 0.011 0.011 0.011 0.011 0.011 0.011 0.011 0.011 0.011 0.011 0.011 0.011 0.011 0.011 0.011 0.011 0.011 0.011 0.011 0.011 0.011 0.011 0.011 0.011 0.011 0.011 0.011 0.011 999900.000 999900.000 999900.000 
999900.000 999900.000 999900.000 999900.000 0.011 0.511 0.861 1.358 2.186 3.438 4.579 5.241 5.481 5.518 5.462 5.223 4.708 3.861 2.757 1.671 0.898 0.382 0.011 0.011 0.011 0.011 0.011 0.011 0.011 0.011 0.011 0.011 0.011 0.011 0.011 0.011 0.011 0.011 0.011 0.011 0.011 0.011 0.011 0.011 0.011 0.011 0.011 0.011 0.011 0.011 0.011 0.011 0.011 0.011 0.011 0.011 0.011 0.011 0.011 0.011 0.011 0.011 0.011 0.011 0.011 0.011 0.011 0.011 0.011 0.011 0.011 0.011 0.011 0.011 0.011 0.011 0.011 0.011 0.011 0.011 0.011 0.011 0.011 0.011 0.011 0.011 0.011 0.011 0.011 0.011 0.011 0.011 0.011 0.011 0.011 0.011 0.011 0.011 0.011 0.011 0.011 0.011 0.011 0.030 0.030 0.011 0.011 0.011 0.011 0.011 0.011 0.011 0.011 0.011 0.529 2.315 6.125 7.413 7.966 8.205 8.242 8.223 8.076 7.726 7.137 6.254 5.149 3.916 2.793 1.892 1.192 0.622 0.011 0.011 0.011 0.011 0.011 0.011 0.011 0.011 0.011 0.011 0.011 0.011 0.011 0.011 0.011 0.011 0.011 0.011 0.011 0.011 0.011 0.011 0.011 0.011 0.011 0.011 0.011 0.011 0.011 0.011 0.011 0.011 0.011 999900.000 999900.000 999900.000 
999900.000 999900.000 999900.000 0.011 0.011 0.030 0.714 1.229 2.020 3.346 4.579 5.315 5.628 5.702 5.683 5.481 5.021 4.211 3.106 1.947 1.045 0.437 0.011 0.011 0.011 0.011 0.011 0.011 0.011 0.011 0.011 0.011 0.011 0.011 0.011 0.011 0.011 0.011 0.011 0.011 0.011 0.011 0.011 0.011 0.011 0.011 0.011 0.011 0.011 0.011 0.011 0.011 0.011 0.011 0.011 0.011 0.011 0.011 0.011 0.011 0.011 0.011 0.011 0.011 0.011 0.011 0.011 0.011 0.011 0.011 0.011 0.011 0.011 0.011 0.011 0.011 0.011 0.011 0.011 0.011 0.011 0.011 0.011 0.011 0.011 0.011 0.011 0.011 0.011 0.011 0.011 0.011 0.011 0.011 0.011 0.011 0.011 0.011 0.011 0.011 0.011 0.011 0.011 0.050 0.030 0.011 0.011 0.011 0.011 0.011 0.011 0.011 0.011 0.011 0.603 2.462 6.199 7.395 7.929 8.150 8.205 8.168 8.021 7.653 7.045 6.180 5.094 3.898 2.793 1.928 1.247 0.695 0.272 0.011 0.011 0.011 0.011 0.011 0.011 0.011 0.011 0.011 0.011 0.011 0.011 0.011 0.011 0.011 0.011 0.011 0.011 0.011 0.011 0.011 0.011 0.011 0.011 0.011 0.011 0.011 0.011 0.011 0.011 0.011 0.011 999900.000 999900.000 999900.000 
999900.000 999900.000 999900.000 0.011 0.011 0.011 0.309 0.842 1.579 3.051 4.505 5.352 5.775 5.904 5.904 5.757 5.352 4.597 3.493 2.260 1.211 0.474 0.011 0.011 0.011 0.011 0.011 0.011 0.011 0.011 0.011 0.011 0.011 0.011 0.011 0.011 0.011 0.011 0.011 0.011 0.011 0.011 0.011 0.011 0.011 0.011 0.011 0.011 0.011 0.011 0.011 0.011 0.011 0.011 0.011 0.011 0.011 0.011 0.011 0.011 0.011 0.011 0.011 0.011 0.011 0.011 0.011 0.011 0.011 0.011 0.011 0.011 0.011 0.011 0.011 0.011 0.011 0.011 0.011 0.011 0.011 0.011 0.011 0.011 0.011 0.011 0.011 0.011 0.011 0.011 0.011 0.011 0.011 0.011 0.011 0.011 0.011 0.011 0.011 0.011 0.011 0.011 0.011 0.069 0.050 0.011 0.011 0.011 0.011 0.011 0.011 0.011 0.011 0.011 0.769 2.849 6.180 7.321 7.818 8.021 8.058 8.021 7.855 7.469 6.861 5.996 4.929 3.769 2.720 1.910 1.229 0.677 0.272 0.069 0.011 0.011 0.011 0.011 0.011 0.011 0.011 0.011 0.011 0.011 0.011 0.011 0.011 0.011 0.011 0.011 0.011 0.011 0.011 0.011 0.011 0.011 0.011 0.011 0.011 0.011 0.011 0.011 0.011 0.011 0.011 999900.000 999900.000 999900.000 
999900.000 999900.000 999900.000 0.011 0.011 0.011 0.011 0.217 0.677 2.002 4.266 5.334 5.904 6.125 6.162 6.070 5.757 5.094 4.008 2.665 1.431 0.529 0.011 0.011 0.011 0.011 0.011 0.011 0.011 0.011 0.011 0.011 0.011 0.011 0.011 0.011 0.011 0.011 0.011 0.011 0.011 0.011 0.011 0.011 0.011 0.011 0.011 0.011 0.011 0.011 0.011 0.011 0.011 0.011 0.011 0.011 0.011 0.011 0.011 0.011 0.011 0.011 0.011 0.011 0.011 0.011 0.011 0.011 0.011 0.011 0.011 0.011 0.011 0.011 0.011 0.011 0.011 0.011 0.011 0.011 0.011 0.011 0.011 0.011 0.011 0.011 0.011 0.011 0.011 0.011 0.011 0.011 0.011 0.011 0.011 0.011 0.011 0.011 0.011 0.011 0.011 0.011 0.011 0.106 0.069 0.011 0.011 0.011 0.011 0.011 0.011 0.011 0.011 0.327 1.174 3.511 6.088 7.119 7.579 7.745 7.782 7.726 7.542 7.137 6.493 5.610 4.560 3.456 2.517 1.763 1.118 0.548 0.180 0.030 0.011 0.011 0.011 0.011 0.011 0.011 0.011 0.011 0.011 0.011 0.011 0.011 0.011 0.011 0.011 0.011 0.011 0.011 0.011 0.011 0.011 0.011 0.011 0.011 0.011 0.011 0.011 0.011 0.011 0.011 0.011 999900.000 999900.000 999900.000 
999900.000 999900.000 999900.000 0.011 0.011 0.011 0.011 0.011 0.011 0.493 3.475 5.205 5.996 6.401 6.511 6.475 6.272 5.720 4.708 3.272 1.781 0.622 0.011 0.011 0.011 0.011 0.011 0.011 0.011 0.011 0.011 0.011 0.011 0.011 0.011 0.011 0.011 0.011 0.011 0.011 0.011 0.011 0.011 0.011 0.011 0.011 0.011 0.011 0.011 0.011 0.011 0.011 0.011 0.011 0.011 0.011 0.011 0.011 0.011 0.011 0.011 0.011 0.011 0.011 0.011 0.011 0.011 0.011 0.011 0.011 0.011 0.011 0.011 0.011 0.011 0.011 0.011 0.011 0.011 0.011 0.011 0.011 0.011 0.011 0.011 0.011 0.011 0.011 0.011 0.011 0.011 0.011 0.011 0.011 0.011 0.011 0.011 0.011 0.011 0.011 0.011 0.011 0.050 0.143 0.106 0.011 0.011 0.011 0.011 0.011 0.011 0.011 0.180 0.769 1.818 3.751 5.830 6.769 7.174 7.321 7.340 7.266 7.045 6.585 5.904 4.965 3.898 2.886 2.094 1.450 0.806 0.011 0.011 0.011 0.011 0.011 0.011 0.011 0.011 0.011 0.011 0.011 0.011 0.011 0.011 0.011 0.011 0.011 0.011 0.011 0.011 0.011 0.011 0.011 0.011 0.011 0.011 0.011 0.011 0.011 0.011 0.011 0.011 0.011 0.011 999900.000 999900.000 999900.000 
999900.000 999900.000 999900.000 0.011 0.011 0.011 0.011 0.011 0.011 0.011 0.011 4.818 6.015 6.677 6.972 7.008 6.916 6.530 5.702 4.248 2.425 0.861 0.011 0.011 0.011 0.011 0.011 0.011 0.011 0.011 0.011 0.011 0.011 0.011 0.011 0.011 0.011 0.011 0.011 0.011 0.011 0.011 0.011 0.011 0.011 0.011 0.011 0.011 0.011 0.011 0.011 0.011 0.011 0.011 0.011 0.011 0.011 0.011 0.011 0.011 0.011 0.011 0.011 0.011 0.011 0.011 0.011 0.011 0.011 0.011 0.011 0.011 0.011 0.011 0.011 0.011 0.011 0.011 0.011 0.011 0.011 0.011 0.011 0.011 0.011 0.011 0.011 0.011 0.011 0.011 0.011 0.011 0.011 0.011 0.011 0.011 0.011 0.011 0.011 0.011 0.011 0.011 0.069 0.198 0.198 0.011 0.011 0.011 0.011 0.011 0.011 0.125 0.548 1.192 2.168 3.769 5.407 6.217 6.567 6.677 6.677 6.585 6.291 5.757 4.984 3.953 2.867 2.057 1.468 0.898 0.106 0.011 0.011 0.011 0.011 0.011 0.011 0.011 0.011 0.011 0.011 0.011 0.011 0.011 0.011 0.011 0.011 0.011 0.011 0.011 0.011 0.011 0.011 0.011 0.011 0.011 0.011 0.011 0.011 0.011 0.011 0.011 0.011 0.011 0.011 999900.000 999900.000 999900.000 
999900.000 999900.000 999900.000 0.011 0.011 0.011 0.011 0.011 0.011 0.011 0.011 4.027 5.941 6.916 7.432 7.616 7.616 7.432 6.880 5.720 3.732 1.560 0.235 0.011 0.011 0.011 0.011 0.011 0.011 0.011 0.011 0.011 0.011 0.011 0.011 0.011 0.011 0.011 0.011 0.011 0.011 0.011 0.011 0.011 0.011 0.011 0.011 0.011 0.011 0.011 0.011 0.011 0.011 0.011 0.011 0.011 0.011 0.011 0.011 0.011 0.011 0.011 0.011 0.011 0.011 0.011 0.011 0.011 0.011 0.011 0.011 0.011 0.011 0.011 0.011 0.011 0.011 0.011 0.011 0.011 0.011 0.011 0.011 0.011 0.011 0.011 0.011 0.011 0.011 0.011 0.011 0.011 0.011 0.011 0.011 0.011 0.011 0.011 0.011 0.011 0.011 0.011 0.069 0.217 0.235 0.161 0.011 0.011 0.011 0.011 0.088 0.364 0.769 1.376 2.315 3.659 4.855 5.499 5.775 5.849 5.812 5.646 5.260 4.579 3.585 2.370 1.597 1.155 0.732 0.180 0.011 0.011 0.011 0.011 0.011 0.011 0.011 0.011 0.011 0.011 0.011 0.011 0.011 0.011 0.011 0.011 0.011 0.011 0.011 0.011 0.011 0.011 0.011 0.011 0.011 0.011 0.011 0.011 0.011 0.011 0.011 0.011 0.011 0.011 0.011 999900.000 999900.000 999900.000 
999900.000 999900.000 999900.000 0.011 0.011 0.011 0.011 0.011 0.011 0.011 0.011 3.456 5.757 7.064 7.818 8.186 8.297 8.260 7.984 7.285 5.794 3.217 1.100 0.011 0.011 0.011 0.011 0.011 0.011 0.011 0.011 0.011 0.011 0.011 0.011 0.011 0.011 0.143 0.143 0.011 0.011 0.011 0.011 0.011 0.011 0.011 0.011 0.011 0.011 0.011 0.011 0.011 0.011 0.011 0.011 0.011 0.011 0.011 0.011 0.011 0.011 0.011 0.011 0.011 0.011 0.011 0.011 0.011 0.011 0.011 0.011 0.011 0.011 0.011 0.011 0.011 0.011 0.011 0.011 0.011 0.011 0.011 0.011 0.011 0.011 0.011 0.011 0.011 0.011 0.011 0.011 0.011 0.011 0.011 0.011 0.011 0.011 0.011 0.011 0.011 0.011 0.011 0.030 0.180 0.217 0.198 0.106 0.011 0.011 0.050 0.198 0.437 0.824 1.431 2.315 3.401 4.229 4.671 4.837 4.855 4.763 4.468 3.879 2.830 1.505 0.971 0.714 0.456 0.180 0.011 0.011 0.011 0.011 0.011 0.011 0.011 0.011 0.011 0.011 0.011 0.011 0.011 0.011 0.011 0.011 0.011 0.011 0.011 0.011 0.011 0.011 0.011 0.011 0.011 0.011 0.011 0.011 0.011 0.011 0.011 0.011 0.011 0.011 0.011 0.011 999900.000 999900.000 999900.000 
999900.000 999900.000 999900.000 0.011 0.011 0.011 0.011 0.011 0.011 0.011 0.011 3.162 5.591 7.119 8.076 8.628 8.867 8.923 8.831 8.518 7.726 5.978 2.830 1.026 0.309 0.050 0.011 0.011 0.011 0.011 0.011 0.011 0.011 0.011 0.030 0.345 0.419 0.401 0.290 0.161 0.030 0.011 0.011 0.011 0.011 0.011 0.011 0.011 0.011 0.011 0.011 0.011 0.011 0.011 0.011 0.011 0.011 0.011 0.011 0.011 0.011 0.011 0.011 0.011 0.011 0.011 0.011 0.011 0.011 0.011 0.011 0.011 0.011 0.011 0.011 0.011 0.011 0.011 0.011 0.011 0.011 0.011 0.011 0.011 0.011 0.011 0.011 0.011 0.011 0.011 0.011 0.011 0.011 0.011 0.011 0.011 0.011 0.011 0.011 0.011 0.011 0.011 0.011 0.069 0.125 0.125 0.088 0.050 0.050 0.069 0.180 0.437 0.806 1.413 2.241 3.051 3.567 3.806 3.879 3.824 3.603 3.070 1.910 0.732 0.456 0.309 0.198 0.088 0.011 0.011 0.011 0.011 0.011 0.011 0.011 0.011 0.011 0.011 0.011 0.011 0.011 0.011 0.011 0.011 0.011 0.011 0.011 0.011 0.011 0.011 0.011 0.011 0.011 0.011 0.011 0.011 0.011 0.011 0.011 0.011 0.011 0.011 0.011 0.011 0.011 999900.000 999900.000 999900.000 
999900.000 999900.000 999900.000 0.011 0.011 0.011 0.011 0.011 0.011 0.011 0.011 3.088 5.462 7.100 8.205 8.886 9.272 9.420 9.420 9.309 8.941 8.131 6.364 2.775 1.174 0.603 0.401 0.327 0.290 0.290 0.290 0.309 0.382 0.548 0.695 0.732 0.695 0.529 0.327 0.143 0.011 0.011 0.011 0.011 0.011 0.011 0.011 0.011 0.011 0.011 0.011 0.011 0.011 0.011 0.011 0.011 0.011 0.011 0.011 0.011 0.011 0.011 0.011 0.011 0.011 0.011 0.011 0.011 0.011 0.011 0.011 0.011 0.011 0.011 0.011 0.011 0.011 0.011 0.011 0.011 0.011 0.011 0.011 0.011 0.011 0.011 0.011 0.011 0.011 0.011 0.011 0.011 0.011 0.011 0.011 0.011 0.011 0.011 0.011 0.011 0.011 0.011 0.011 0.011 0.011 0.011 0.011 0.011 0.011 0.011 0.011 0.309 0.658 1.247 2.002 2.591 2.886 2.978 2.959 2.812 2.370 1.229 0.309 0.011 0.011 0.011 0.011 0.011 0.011 0.011 0.011 0.011 0.011 0.011 0.011 0.011 0.011 0.011 0.011 0.011 0.011 0.011 0.011 0.011 0.011 0.011 0.011 0.011 0.011 0.011 0.011 0.011 0.011 0.011 0.011 0.011 0.011 0.011 0.011 0.011 0.011 0.011 0.011 0.011 0.011 999900.000 999900.000 999900.000 
999900.000 999900.000 999900.000 0.011 0.011 0.011 0.011 0.011 0.011 0.011 0.011 3.070 5.370 7.064 8.242 9.015 9.493 9.733 9.788 9.769 9.622 9.254 8.463 6.916 3.346 1.763 1.284 1.100 1.026 1.008 1.008 1.026 1.082 1.155 1.174 1.082 0.879 0.566 0.253 0.011 0.011 0.011 0.011 0.011 0.011 0.011 0.011 0.011 0.011 0.011 0.011 0.011 0.011 0.011 0.011 0.011 0.011 0.011 0.011 0.011 0.011 0.011 0.011 0.011 0.011 0.011 0.011 0.011 0.011 0.011 0.011 0.011 0.011 0.011 0.011 0.011 0.011 0.011 0.011 0.011 0.011 0.011 0.011 0.011 0.011 0.011 0.011 0.011 0.011 0.011 0.011 0.011 0.011 0.011 0.011 0.011 0.011 0.011 0.011 0.011 0.011 0.011 0.011 0.011 0.011 0.011 0.011 0.011 0.011 0.011 0.011 0.011 0.327 0.842 1.560 2.020 2.204 2.223 2.131 1.836 1.008 0.011 0.011 0.011 0.011 0.011 0.011 0.011 0.011 0.011 0.011 0.011 0.011 0.011 0.011 0.011 0.011 0.011 0.011 0.011 0.011 0.011 0.011 0.011 0.011 0.011 0.011 0.011 0.011 0.011 0.011 0.011 0.011 0.011 0.011 0.011 0.011 0.011 0.011 0.011 0.011 0.011 0.011 0.011 0.011 999900.000 999900.000 999900.000 
999900.000 999900.000 999900.000 0.011 0.011 0.011 0.011 0.011 0.011 0.011 0.364 3.125 5.278 6.990 8.205 9.052 9.567 9.880 9.990 10.009 9.972 9.788 9.383 8.665 7.432 5.260 3.585 2.849 2.481 2.296 2.168 2.076 1.984 1.873 1.689 1.431 1.008 0.456 0.011 0.011 0.011 0.011 0.011 0.011 0.011 0.011 0.011 0.011 0.011 0.011 0.011 0.011 0.011 0.011 0.011 0.011 0.011 0.011 0.011 0.011 0.011 0.011 0.011 0.011 0.011 0.011 0.011 0.011 0.011 0.011 0.011 0.011 0.011 0.011 0.011 0.011 0.011 0.011 0.011 0.011 0.011 0.011 0.011 0.011 0.011 0.011 0.011 0.011 0.011 0.011 0.011 0.011 0.011 0.011 0.011 0.011 0.011 0.011 0.011 0.011 0.011 0.011 0.011 0.011 0.011 0.011 0.011 0.011 0.011 0.011 0.011 0.011 0.069 0.327 0.898 1.413 1.615 1.634 1.523 1.100 0.143 0.011 0.011 0.011 0.011 0.011 0.011 0.011 0.011 0.011 0.011 0.011 0.011 0.011 0.011 0.011 0.011 0.011 0.011 0.011 0.011 0.011 0.011 0.011 0.011 0.011 0.011 0.011 0.011 0.011 0.011 0.011 0.011 0.011 0.011 0.011 0.011 0.011 0.011 0.011 0.011 0.011 0.011 0.011 0.011 999900.000 999900.000 999900.000 
999900.000 999900.000 999900.000 0.011 0.011 0.011 0.011 0.011 0.011 0.011 1.523 3.198 5.186 6.880 8.150 9.015 9.585 9.917 10.064 10.101 10.101 10.009 9.788 9.346 8.683 7.689 6.456 5.426 4.689 4.156 3.751 3.401 3.070 2.720 2.296 1.763 1.063 0.011 0.011 0.011 0.011 0.011 0.011 0.011 0.011 0.011 0.011 0.011 0.011 0.011 0.011 0.011 0.011 0.011 0.011 0.011 0.011 0.011 0.011 0.011 0.011 0.011 0.011 0.011 0.011 0.011 0.011 0.011 0.011 0.011 0.011 0.011 0.011 0.011 0.011 0.011 0.011 0.011 0.011 0.011 0.011 0.011 0.011 0.011 0.011 0.011 0.011 0.011 0.011 0.011 0.011 0.011 0.011 0.011 0.011 0.011 0.011 0.011 0.011 0.011 0.011 0.011 0.011 0.011 0.011 0.011 0.011 0.011 0.011 0.011 0.011 0.011 0.011 0.069 0.382 0.971 1.266 1.284 1.174 0.695 0.030 0.011 0.011 0.011 0.011 0.011 0.011 0.011 0.011 0.011 0.011 0.011 0.011 0.011 0.011 0.011 0.011 0.011 0.011 0.011 0.011 0.011 0.011 0.011 0.011 0.011 0.011 0.011 0.011 0.011 0.011 0.011 0.011 0.011 0.011 0.011 0.011 0.011 0.011 0.011 0.011 0.011 0.011 0.011 0.011 999900.000 999900.000 999900.000 
999900.000 999900.000 999900.000 0.011 0.011 0.011 0.011 0.011 0.456 1.063 1.910 3.235 5.057 6.732 8.002 8.923 9.530 9.880 10.064 10.119 10.119 10.064 9.898 9.604 9.144 8.499 7.689 6.843 6.125 5.536 5.039 4.579 4.119 3.603 2.959 2.149 1.118 0.011 0.011 0.011 0.011 0.011 0.011 0.011 0.011 0.011 0.011 0.011 0.011 0.011 0.011 0.011 0.011 0.011 0.011 0.011 0.011 0.011 0.011 0.011 0.011 0.011 0.011 0.011 0.011 0.011 0.011 0.011 0.011 0.011 0.011 0.011 0.011 0.011 0.011 0.011 0.011 0.011 0.011 0.011 0.011 0.011 0.011 0.011 0.011 0.011 0.011 0.011 0.011 0.011 0.011 0.011 0.011 0.011 0.011 0.011 0.011 0.011 0.011 0.011 0.011 0.011 0.011 0.011 0.011 0.011 0.011 0.011 0.011 0.011 0.011 0.011 0.011 0.011 0.106 0.732 1.082 1.137 1.026 0.088 0.011 0.011 0.011 0.011 0.011 0.011 0.011 0.011 0.011 0.011 0.011 0.011 0.011 0.011 0.011 0.011 0.011 0.011 0.011 0.011 0.011 0.011 0.011 0.011 0.011 0.011 0.011 0.011 0.011 0.011 0.011 0.011 0.011 0.011 0.011 0.011 0.011 0.011 0.011 0.011 0.011 0.011 0.011 0.011 0.011 999900.000 999900.000 999900.000 
999900.000 999900.000 999900.000 0.011 0.011 0.050 0.217 0.474 0.842 1.321 2.039 3.217 4.892 6.493 7.782 8.720 9.364 9.769 9.972 10.064 10.082 10.027 9.917 9.659 9.291 8.775 8.150 7.487 6.843 6.272 5.775 5.315 4.837 4.266 3.567 2.591 1.192 0.011 0.011 0.011 0.011 0.011 0.011 0.011 0.011 0.011 0.011 0.011 0.011 0.011 0.011 0.011 0.011 0.011 0.011 0.011 0.011 0.011 0.011 0.011 0.011 0.011 0.011 0.011 0.011 0.011 0.011 0.011 0.011 0.011 0.011 0.011 0.011 0.011 0.011 0.011 0.011 0.011 0.011 0.011 0.011 0.011 0.011 0.011 0.011 0.011 0.011 0.011 0.011 0.011 0.011 0.011 0.011 0.011 0.011 0.011 0.011 0.011 0.011 0.011 0.011 0.011 0.011 0.011 0.011 0.011 0.011 0.011 0.011 0.011 0.011 0.011 0.011 0.011 0.050 0.658 1.026 1.082 0.971 0.011 0.011 0.011 0.011 0.011 0.011 0.011 0.011 0.011 0.011 0.011 0.011 0.011 0.011 0.011 0.011 0.011 0.011 0.011 0.011 0.011 0.011 0.011 0.011 0.011 0.011 0.011 0.011 0.011 0.011 0.011 0.011 0.011 0.011 0.011 0.011 0.011 0.011 0.011 0.011 0.011 0.011 0.011 0.011 0.011 0.011 999900.000 999900.000 999900.000 
999900.000 999900.000 999900.000 0.011 0.030 0.180 0.401 0.658 0.971 1.395 2.039 3.143 4.652 6.143 7.395 8.352 9.033 9.475 9.751 9.861 9.898 9.898 9.806 9.604 9.272 8.831 8.278 7.708 7.137 6.604 6.125 5.683 5.205 4.652 3.971 3.014 1.395 0.011 0.011 0.011 0.011 0.011 0.011 0.011 0.011 0.011 0.011 0.011 0.011 0.011 0.011 0.011 0.011 0.011 0.011 0.011 0.011 0.011 0.011 0.011 0.011 0.011 0.011 0.011 0.011 0.011 0.011 0.011 0.011 0.011 0.011 0.011 0.011 0.011 0.011 0.011 0.011 0.011 0.011 0.011 0.011 0.011 0.011 0.011 0.011 0.011 0.011 0.011 0.011 0.011 0.011 0.011 0.011 0.011 0.011 0.011 0.011 0.011 0.011 0.011 0.011 0.011 0.011 0.011 0.011 0.011 0.011 0.011 0.011 0.011 0.011 0.011 0.011 0.011 0.050 0.677 1.045 1.100 0.990 0.493 0.011 0.011 0.011 0.011 0.011 0.011 0.011 0.011 0.011 0.011 0.011 0.011 0.011 0.011 0.011 0.011 0.011 0.011 0.011 0.011 0.011 0.011 0.011 0.011 0.011 0.011 0.011 0.011 0.011 0.011 0.011 0.011 0.011 0.011 0.011 0.011 0.011 0.011 0.011 0.011 0.011 0.011 0.011 0.011 0.011 999900.000 999900.000 999900.000 
999900.000 999900.000 999900.000 0.011 0.050 0.235 0.474 0.714 0.990 1.358 1.965 2.941 4.284 5.646 6.843 7.782 8.481 8.959 9.272 9.456 9.530 9.530 9.493 9.383 9.125 8.757 8.260 7.726 7.193 6.696 6.254 5.812 5.370 4.837 4.174 3.290 1.781 0.011 0.011 0.011 0.011 0.011 0.011 0.011 0.011 0.011 0.011 0.011 0.011 0.011 0.011 0.011 0.011 0.011 0.011 0.011 0.011 0.011 0.011 0.011 0.011 0.011 0.011 0.011 0.011 0.011 0.011 0.011 0.011 0.011 0.011 0.011 0.011 0.011 0.011 0.011 0.011 0.011 0.011 0.011 0.011 0.011 0.011 0.011 0.011 0.011 0.011 0.011 0.011 0.011 0.011 0.011 0.011 0.011 0.011 0.011 0.011 0.011 0.011 0.011 0.011 0.011 0.011 0.011 0.011 0.011 0.011 0.011 0.011 0.011 0.011 0.011 0.011 0.011 0.088 0.787 1.118 1.155 1.063 0.658 0.050 0.011 0.011 0.011 0.011 0.011 0.011 0.011 0.011 0.011 0.011 0.011 0.011 0.011 0.011 0.011 0.011 0.011 0.011 0.011 0.011 0.011 0.011 0.011 0.011 0.011 0.011 0.011 0.011 0.011 0.011 0.011 0.011 0.011 0.011 0.011 0.011 0.011 0.011 0.011 0.011 0.011 0.011 0.011 0.011 999900.000 999900.000 999900.000 
999900.000 999900.000 999900.000 0.011 0.069 0.253 0.474 0.695 0.916 1.192 1.671 2.517 3.732 4.965 6.051 6.953 7.634 8.150 8.499 8.720 8.849 8.904 8.923 8.867 8.720 8.463 8.076 7.634 7.156 6.696 6.254 5.830 5.389 4.873 4.248 3.419 2.241 0.011 0.011 0.011 0.011 0.011 0.011 0.011 0.011 0.011 0.011 0.011 0.011 0.011 0.011 0.011 0.011 0.011 0.011 0.011 0.011 0.011 0.011 0.011 0.011 0.011 0.011 0.011 0.011 0.011 0.011 0.011 0.011 0.011 0.011 0.011 0.011 0.011 0.011 0.011 0.011 0.011 0.011 0.011 0.011 0.011 0.011 0.011 0.011 0.011 0.011 0.011 0.011 0.011 0.011 0.011 0.011 0.011 0.011 0.011 0.011 0.011 0.011 0.011 0.011 0.011 0.011 0.011 0.011 0.011 0.011 0.011 0.011 0.011 0.011 0.011 0.011 0.011 0.382 1.063 1.303 1.321 1.211 0.861 0.290 0.011 0.011 0.011 0.011 0.011 0.011 0.011 0.011 0.011 0.011 0.011 0.011 0.011 0.011 0.011 0.011 0.011 0.011 0.011 0.011 0.011 0.011 0.011 0.011 0.011 0.011 0.011 0.011 0.011 0.011 0.011 0.011 0.011 0.011 0.011 0.011 0.011 0.011 0.011 0.011 0.011 0.011 0.011 0.011 999900.000 999900.000 999900.000 
999900.000 999900.000 999900.000 0.011 0.069 0.253 0.419 0.548 0.677 0.806 1.045 1.615 2.830 4.008 5.002 5.830 6.493 7.008 7.377 7.653 7.818 7.947 8.002 8.021 7.966 7.837 7.597 7.285 6.916 6.530 6.162 5.775 5.352 4.873 4.248 3.475 2.481 1.118 0.011 0.011 0.011 0.011 0.011 0.011 0.011 0.011 0.011 0.011 0.011 0.011 0.011 0.011 0.011 0.011 0.011 0.011 0.011 0.011 0.011 0.011 0.011 0.011 0.011 0.011 0.011 0.011 0.011 0.011 0.011 0.011 0.011 0.011 0.011 0.011 0.011 0.011 0.011 0.011 0.011 0.011 0.011 0.011 0.011 0.011 0.011 0.011 0.011 0.011 0.011 0.011 0.011 0.011 0.011 0.011 0.011 0.011 0.011 0.011 0.011 0.011 0.011 0.011 0.011 0.011 0.011 0.011 0.011 0.011 0.011 0.011 0.011 0.011 0.069 0.345 0.990 1.431 1.560 1.560 1.431 1.100 0.548 0.088 0.011 0.011 0.011 0.011 0.011 0.011 0.011 0.011 0.011 0.011 0.011 0.011 0.011 0.011 0.011 0.011 0.011 0.011 0.011 0.011 0.011 0.011 0.011 0.011 0.011 0.011 0.011 0.011 0.011 0.011 0.011 0.011 0.011 0.011 0.011 0.011 0.011 0.011 0.011 0.011 0.011 0.011 0.011 999900.000 999900.000 999900.000 
999900.000 999900.000 999900.000 0.011 0.069 0.180 0.253 0.235 0.161 0.125 0.143 0.290 0.861 2.573 3.677 4.450 5.057 5.536 5.923 6.199 6.419 6.567 6.677 6.769 6.806 6.788 6.714 6.567 6.364 6.125 5.849 5.536 5.186 4.745 4.192 3.456 2.591 1.652 0.806 0.272 0.011 0.011 0.011 0.011 0.011 0.011 0.011 0.011 0.011 0.011 0.011 0.011 0.011 0.011 0.011 0.011 0.011 0.011 0.011 0.011 0.011 0.011 0.011 0.011 0.011 0.011 0.011 0.011 0.011 0.011 0.011 0.011 0.011 0.011 0.011 0.011 0.011 0.011 0.011 0.011 0.011 0.011 0.011 0.011 0.011 0.011 0.011 0.011 0.011 0.011 0.011 0.011 0.011 0.011 0.011 0.011 0.011 0.011 0.011 0.011 0.011 0.011 0.011 0.011 0.011 0.011 0.011 0.011 0.011 0.011 0.011 0.106 0.345 0.842 1.487 1.781 1.873 1.855 1.707 1.339 0.714 0.161 0.011 0.011 0.011 0.011 0.011 0.011 0.011 0.011 0.011 0.011 0.011 0.011 0.011 0.011 0.011 0.011 0.011 0.011 0.011 0.011 0.011 0.011 0.011 0.011 0.011 0.011 0.011 0.011 0.011 0.011 0.011 0.011 0.011 0.011 0.011 0.011 0.011 0.011 0.011 0.011 0.011 0.011 0.011 999900.000 999900.000 999900.000 
999900.000 999900.000 999900.000 0.011 0.030 0.069 0.011 0.011 0.011 0.011 0.011 0.011 0.011 0.640 1.892 2.867 3.475 3.916 4.248 4.505 4.708 4.873 5.002 5.131 5.223 5.315 5.370 5.407 5.389 5.334 5.223 5.057 4.800 4.468 3.990 3.382 2.609 1.836 1.137 0.585 0.235 0.030 0.011 0.011 0.011 0.011 0.011 0.011 0.011 0.011 0.011 0.011 0.011 0.011 0.011 0.011 0.011 0.011 0.011 0.011 0.011 0.011 0.011 0.011 0.011 0.011 0.011 0.011 0.011 0.011 0.011 0.011 0.011 0.011 0.011 0.011 0.011 0.011 0.011 0.011 0.011 0.011 0.011 0.011 0.011 0.011 0.011 0.011 0.011 0.011 0.011 0.011 0.011 0.011 0.011 0.011 0.011 0.011 0.011 0.011 0.011 0.011 0.011 0.011 0.011 0.011 0.011 0.011 0.011 0.011 0.030 0.235 0.603 1.247 1.818 2.094 2.168 2.131 1.965 1.542 0.861 0.217 0.011 0.011 0.011 0.011 0.011 0.011 0.011 0.011 0.011 0.011 0.011 0.011 0.011 0.011 0.011 0.011 0.011 0.011 0.011 0.011 0.011 0.011 0.011 0.011 0.011 0.011 0.011 0.011 0.011 0.011 0.011 0.011 0.011 0.011 0.011 0.011 0.011 0.011 0.011 0.011 0.011 0.011 0.011 999900.000 999900.000 999900.000 
999900.000 999900.000 999900.000 0.011 0.011 0.011 0.011 0.011 0.011 0.011 0.011 0.011 0.011 0.011 0.695 1.450 2.039 2.425 2.683 2.867 3.014 3.106 3.198 3.290 3.364 3.475 3.585 3.714 3.879 4.064 4.174 4.211 4.137 3.953 3.640 3.180 2.573 1.892 1.284 0.732 0.309 0.050 0.011 0.011 0.011 0.011 0.011 0.011 0.011 0.011 0.011 0.011 0.011 0.011 0.011 0.011 0.011 0.011 0.011 0.011 0.011 0.011 0.011 0.011 0.011 0.011 0.011 0.011 0.011 0.011 0.011 0.011 0.011 0.011 0.011 0.011 0.011 0.011 0.011 0.011 0.011 0.011 0.011 0.011 0.011 0.011 0.011 0.011 0.011 0.011 0.011 0.011 0.011 0.011 0.011 0.011 0.011 0.011 0.011 0.011 0.011 0.011 0.011 0.011 0.011 0.011 0.011 0.011 0.011 0.011 0.050 0.327 0.824 1.542 2.112 2.352 2.407 2.370 2.186 1.707 0.953 0.253 0.011 0.011 0.011 0.011 0.011 0.011 0.011 0.011 0.011 0.011 0.011 0.011 0.011 0.011 0.011 0.011 0.011 0.011 0.011 0.011 0.011 0.011 0.011 0.011 0.011 0.011 0.011 0.011 0.011 0.011 0.011 0.011 0.011 0.011 0.011 0.011 0.011 0.011 0.011 0.011 0.011 0.011 0.011 999900.000 999900.000 999900.000 
999900.000 999900.000 999900.000 0.011 0.011 0.011 0.011 0.011 0.011 0.011 0.011 0.011 0.011 0.011 0.217 0.732 1.118 1.395 1.579 1.671 1.726 1.763 1.781 1.781 1.781 1.781 1.800 1.855 1.947 2.168 2.609 3.014 3.180 3.180 3.088 2.830 2.425 1.892 1.339 0.806 0.345 0.011 0.011 0.011 0.011 0.011 0.011 0.011 0.011 0.011 0.011 0.011 0.011 0.011 0.011 0.011 0.011 0.011 0.011 0.011 0.011 0.011 0.011 0.011 0.011 0.011 0.011 0.011 0.011 0.011 0.011 0.011 0.011 0.011 0.011 0.011 0.011 0.011 0.011 0.011 0.011 0.011 0.011 0.011 0.011 0.011 0.011 0.011 0.011 0.011 0.011 0.011 0.011 0.011 0.011 0.011 0.011 0.011 0.011 0.011 0.011 0.011 0.011 0.011 0.011 0.011 0.011 0.011 0.011 0.011 0.050 0.382 0.971 1.781 2.333 2.573 2.628 2.591 2.389 1.873 1.026 0.272 0.011 0.011 0.011 0.011 0.011 0.011 0.011 0.011 0.011 0.011 0.011 0.011 0.011 0.011 0.011 0.011 0.011 0.011 0.011 0.011 0.011 0.011 0.011 0.011 0.011 0.011 0.011 0.011 0.011 0.011 0.011 0.011 0.011 0.011 0.011 0.011 0.011 0.011 0.011 0.011 0.011 0.011 0.011 999900.000 999900.000 999900.000 
999900.000 999900.000 999900.000 0.011 0.011 0.011 0.011 0.011 0.011 0.011 0.011 0.011 0.011 0.011 0.069 0.345 0.585 0.750 0.824 0.861 0.879 0.879 0.861 0.842 0.824 0.769 0.714 0.677 0.658 0.658 0.750 1.174 2.057 2.352 2.425 2.370 2.168 1.818 1.339 0.806 0.327 0.011 0.011 0.011 0.011 0.011 0.011 0.011 0.011 0.011 0.011 0.011 0.011 0.011 0.011 0.011 0.011 0.011 0.011 0.011 0.011 0.011 0.011 0.011 0.011 0.011 0.011 0.011 0.011 0.011 0.011 0.011 0.011 0.011 0.011 0.011 0.011 0.011 0.011 0.011 0.011 0.011 0.011 0.011 0.011 0.011 0.011 0.011 0.011 0.011 0.011 0.011 0.011 0.011 0.011 0.011 0.011 0.011 0.011 0.011 0.011 0.011 0.011 0.011 0.011 0.011 0.011 0.011 0.011 0.011 0.050 0.419 1.118 2.002 2.554 2.793 2.830 2.793 2.573 2.020 1.082 0.290 0.011 0.011 0.011 0.011 0.011 0.011 0.011 0.011 0.011 0.011 0.011 0.011 0.011 0.011 0.011 0.011 0.011 0.011 0.011 0.011 0.011 0.011 0.011 0.011 0.011 0.011 0.011 0.011 0.011 0.011 0.011 0.011 0.011 0.011 0.011 0.011 0.011 0.011 0.011 0.011 0.011 0.011 0.011 999900.000 999900.000 999900.000 
999900.000 999900.000 999900.000 0.011 0.011 0.011 0.011 0.011 0.011 0.011 0.011 0.011 0.011 0.011 0.011 0.125 0.235 0.290 0.309 0.309 0.309 0.309 0.309 0.290 0.272 0.235 0.180 0.088 0.050 0.030 0.030 0.050 0.198 1.487 1.800 1.873 1.836 1.652 1.284 0.787 0.253 0.011 0.011 0.011 0.011 0.011 0.011 0.011 0.011 0.011 0.011 0.011 0.011 0.011 0.011 0.011 0.011 0.011 0.011 0.011 0.011 0.011 0.011 0.011 0.011 0.011 0.011 0.011 0.011 0.011 0.011 0.011 0.011 0.011 0.011 0.011 0.011 0.011 0.011 0.011 0.011 0.011 0.011 0.011 0.011 0.011 0.011 0.011 0.011 0.011 0.011 0.011 0.011 0.011 0.011 0.011 0.011 0.011 0.011 0.011 0.011 0.011 0.011 0.011 0.011 0.011 0.011 0.011 0.011 0.011 0.050 0.456 1.266 2.204 2.757 2.978 3.033 2.996 2.757 2.168 1.155 0.290 0.011 0.011 0.011 0.011 0.011 0.011 0.011 0.011 0.011 0.011 0.011 0.011 0.011 0.011 0.011 0.011 0.011 0.011 0.011 0.011 0.011 0.011 0.011 0.011 0.011 0.011 0.011 0.011 0.011 0.011 0.011 0.011 0.011 0.011 0.011 0.011 0.011 0.011 0.011 0.011 0.011 0.011 0.011 999900.000 999900.000 999900.000 
999900.000 999900.000 999900.000 0.011 0.011 0.011 0.011 0.011 0.011 0.011 0.011 0.011 0.011 0.011 0.011 0.011 0.011 0.011 0.011 0.011 0.011 0.011 0.011 0.011 0.011 0.011 0.011 0.011 0.011 0.011 0.011 0.011 0.011 0.143 1.192 1.413 1.450 1.395 1.155 0.732 0.011 0.011 0.011 0.011 0.011 0.011 0.011 0.011 0.011 0.011 0.011 0.011 0.011 0.011 0.011 0.011 0.011 0.011 0.011 0.011 0.011 0.011 0.011 0.011 0.011 0.011 0.011 0.011 0.011 0.011 0.011 0.011 0.011 0.011 0.011 0.011 0.011 0.011 0.011 0.011 0.011 0.011 0.011 0.011 0.011 0.011 0.011 0.011 0.011 0.011 0.011 0.011 0.011 0.011 0.011 0.011 0.011 0.011 0.011 0.011 0.011 0.011 0.011 0.011 0.011 0.011 0.011 0.011 0.011 0.011 0.050 0.511 1.431 2.389 2.941 3.180 3.235 3.198 2.959 2.352 1.247 0.290 0.011 0.011 0.011 0.011 0.011 0.011 0.011 0.011 0.011 0.011 0.011 0.011 0.011 0.011 0.011 0.011 0.011 0.011 0.011 0.011 0.011 0.011 0.011 0.011 0.011 0.011 0.011 0.011 0.011 0.011 0.011 0.011 0.011 0.011 0.011 0.011 0.011 0.011 0.011 0.011 0.011 0.011 0.011 999900.000 999900.000 999900.000 
999900.000 999900.000 999900.000 0.011 0.011 0.011 0.011 0.011 0.011 0.011 0.011 0.011 0.011 0.011 0.011 0.011 0.011 0.011 0.011 0.011 0.011 0.011 0.011 0.011 0.011 0.011 0.011 0.011 0.011 0.011 0.011 0.011 0.011 0.011 0.493 0.990 1.118 1.100 0.953 0.585 0.011 0.011 0.011 0.011 0.011 0.011 0.011 0.011 0.011 0.011 0.011 0.011 0.011 0.011 0.011 0.011 0.011 0.011 0.011 0.011 0.011 0.011 0.011 0.011 0.011 0.011 0.011 0.011 0.011 0.011 0.011 0.011 0.011 0.011 0.011 0.011 0.011 0.011 0.011 0.011 0.011 0.011 0.011 0.011 0.011 0.011 0.011 0.011 0.011 0.011 0.011 0.011 0.011 0.011 0.011 0.011 0.011 0.011 0.011 0.011 0.011 0.011 0.011 0.011 0.011 0.011 0.011 0.011 0.011 0.011 0.069 0.585 1.615 2.573 3.143 3.401 3.456 3.419 3.198 2.573 1.358 0.309 0.011 0.011 0.011 0.011 0.011 0.011 0.011 0.011 0.011 0.011 0.011 0.011 0.011 0.011 0.011 0.011 0.011 0.011 0.011 0.011 0.011 0.011 0.011 0.011 0.011 0.011 0.011 0.011 0.011 0.011 0.011 0.011 0.011 0.011 0.011 0.011 0.011 0.011 0.011 0.011 0.011 0.011 0.011 999900.000 999900.000 999900.000 
999900.000 999900.000 999900.000 0.011 0.011 0.011 0.011 0.011 0.011 0.011 0.011 0.011 0.011 0.011 0.011 0.011 0.011 0.011 0.011 0.011 0.011 0.011 0.011 0.011 0.011 0.011 0.011 0.011 0.011 0.011 0.011 0.011 0.011 0.011 0.011 0.585 0.806 0.824 0.750 0.456 0.011 0.011 0.011 0.011 0.011 0.011 0.011 0.011 0.011 0.011 0.011 0.011 0.011 0.011 0.011 0.011 0.011 0.011 0.011 0.011 0.011 0.011 0.011 0.011 0.011 0.011 0.011 0.011 0.011 0.011 0.011 0.011 0.011 0.011 0.011 0.011 0.011 0.011 0.011 0.011 0.011 0.011 0.011 0.011 0.011 0.011 0.011 0.011 0.011 0.011 0.011 0.011 0.011 0.011 0.011 0.011 0.011 0.011 0.011 0.011 0.011 0.011 0.011 0.011 0.011 0.011 0.011 0.011 0.011 0.011 0.125 0.732 1.763 2.757 3.364 3.640 3.714 3.677 3.475 2.867 1.542 0.345 0.011 0.011 0.011 0.011 0.011 0.011 0.011 0.011 0.011 0.011 0.011 0.011 0.011 0.011 0.011 0.011 0.011 0.011 0.011 0.011 0.011 0.011 0.011 0.011 0.011 0.011 0.011 0.011 0.011 0.011 0.011 0.011 0.011 0.011 0.011 0.011 0.011 0.011 0.011 0.011 0.011 0.011 0.011 999900.000 999900.000 999900.000 
999900.000 999900.000 999900.000 0.011 0.011 0.011 0.011 0.011 0.011 0.011 0.011 0.011 0.011 0.011 0.011 0.011 0.011 0.011 0.011 0.011 0.011 0.011 0.011 0.011 0.011 0.011 0.011 0.011 0.011 0.011 0.011 0.011 0.011 0.011 0.011 0.235 0.529 0.585 0.548 0.345 0.011 0.011 0.011 0.011 0.011 0.011 0.011 0.011 0.011 0.011 0.011 0.011 0.011 0.011 0.011 0.011 0.011 0.011 0.011 0.011 0.011 0.011 0.011 0.011 0.011 0.011 0.011 0.011 0.011 0.011 0.011 0.011 0.011 0.011 0.011 0.011 0.011 0.011 0.011 0.011 0.011 0.011 0.011 0.011 0.011 0.011 0.011 0.011 0.011 0.011 0.011 0.011 0.011 0.011 0.011 0.011 0.011 0.011 0.011 0.011 0.011 0.011 0.011 0.011 0.011 0.011 0.011 0.011 0.011 0.011 0.198 0.861 1.928 2.959 3.622 3.935 4.027 4.008 3.806 3.217 1.836 0.456 0.011 0.011 0.011 0.011 0.011 0.011 0.011 0.011 0.011 0.011 0.011 0.011 0.011 0.011 0.011 0.011 0.011 0.011 0.011 0.011 0.011 0.011 0.011 0.011 0.011 0.011 0.011 0.011 0.011 0.011 0.011 0.011 0.011 0.011 0.011 0.011 0.011 0.011 0.011 0.011 0.011 0.011 0.011 999900.000 999900.000 999900.000 
999900.000 999900.000 999900.000 0.364 0.011 0.011 0.011 0.011 0.011 0.011 0.011 0.011 0.011 0.011 0.011 0.011 0.011 0.011 0.011 0.011 0.011 0.011 0.011 0.011 0.011 0.011 0.011 0.011 0.011 0.011 0.011 0.011 0.011 0.011 0.011 0.011 0.309 0.401 0.401 0.272 0.011 0.011 0.011 0.011 0.011 0.011 0.011 0.011 0.011 0.011 0.011 0.011 0.011 0.011 0.011 0.011 0.011 0.011 0.011 0.011 0.011 0.011 0.011 0.011 0.011 0.011 0.011 0.011 0.011 0.011 0.011 0.011 0.011 0.011 0.011 0.011 0.011 0.011 0.011 0.011 0.011 0.011 0.011 0.011 0.011 0.011 0.011 0.011 0.011 0.011 0.011 0.011 0.011 0.011 0.011 0.011 0.011 0.011 0.011 0.011 0.011 0.011 0.011 0.011 0.011 0.011 0.011 0.011 0.011 0.011 0.253 0.934 2.057 3.162 3.879 4.266 4.395 4.395 4.248 3.714 2.352 0.658 0.088 0.011 0.011 0.011 0.011 0.011 0.011 0.011 0.011 0.011 0.011 0.011 0.011 0.011 0.011 0.011 0.011 0.011 0.011 0.011 0.011 0.011 0.011 0.011 0.011 0.011 0.011 0.011 0.011 0.011 0.011 0.011 0.011 0.011 0.011 0.011 0.011 0.011 0.011 0.011 0.011 0.011 0.011 999900.000 999900.000 999900.000 
999900.000 999900.000 999900.000 999900.000 0.050 0.011 0.011 0.011 0.011 0.011 0.011 0.011 0.011 0.011 0.011 0.011 0.011 0.011 0.011 0.011 0.011 0.011 0.011 0.011 0.011 0.011 0.011 0.011 0.011 0.011 0.011 0.011 0.011 0.011 0.011 0.011 0.011 0.235 0.253 0.180 0.011 0.011 0.011 0.011 0.011 0.011 0.011 0.011 0.011 0.011 0.011 0.011 0.011 0.011 0.011 0.011 0.011 0.011 0.011 0.011 0.011 0.011 0.011 0.011 0.011 0.011 0.011 0.011 0.011 0.011 0.011 0.011 0.011 0.011 0.011 0.011 0.011 0.011 0.011 0.011 0.011 0.011 0.011 0.011 0.011 0.011 0.011 0.011 0.011 0.011 0.011 0.011 0.011 0.011 0.011 0.011 0.011 0.011 0.011 0.011 0.011 0.011 0.011 0.011 0.011 0.011 0.011 0.011 0.011 0.011 0.272 0.990 2.168 3.346 4.174 4.634 4.818 4.837 4.726 4.321 3.162 1.100 0.309 0.050 0.011 0.011 0.011 0.011 0.011 0.011 0.011 0.011 0.011 0.011 0.011 0.011 0.011 0.011 0.011 0.011 0.011 0.011 0.011 0.011 0.011 0.011 0.011 0.011 0.011 0.011 0.011 0.011 0.011 0.011 0.011 0.011 0.011 0.011 0.011 0.011 0.011 0.011 0.011 0.011 0.011 999900.000 999900.000 999900.000 
999900.000 999900.000 999900.000 999900.000 0.011 0.011 0.011 0.011 0.011 0.011 0.011 0.011 0.011 0.011 0.011 0.011 0.011 0.011 0.011 0.011 0.011 0.011 0.011 0.011 0.011 0.011 0.011 0.011 0.011 0.011 0.011 0.011 0.011 0.011 0.011 0.011 0.011 0.011 0.106 0.069 0.011 0.011 0.011 0.011 0.011 0.011 0.011 0.011 0.011 0.011 0.011 0.011 0.011 0.011 0.011 0.011 0.011 0.011 0.011 0.011 0.011 0.011 0.011 0.011 0.011 0.011 0.011 0.011 0.011 0.011 0.011 0.011 0.011 0.011 0.011 0.011 0.011 0.011 0.011 0.011 0.011 0.011 0.011 0.011 0.011 0.011 0.011 0.011 0.011 0.011 0.011 0.011 0.011 0.011 0.011 0.011 0.011 0.011 0.011 0.011 0.011 0.011 0.011 0.011 0.011 0.011 0.011 0.011 0.011 0.011 0.290 1.045 2.260 3.511 4.450 5.002 5.241 5.297 5.223 4.929 4.137 2.039 0.695 0.143 0.011 0.011 0.011 0.011 0.011 0.011 0.011 0.011 0.011 0.011 0.011 0.011 0.011 0.011 0.011 0.011 0.011 0.011 0.011 0.011 0.011 0.011 0.011 0.011 0.011 0.011 0.011 0.011 0.011 0.011 0.011 0.011 0.011 0.011 0.011 0.011 0.011 0.011 0.011 0.011 0.011 999900.000 999900.000 999900.000 
999900.000 999900.000 999900.000 999900.000 0.011 0.011 0.011 0.011 0.011 0.011 0.011 0.011 0.011 0.011 0.011 0.011 0.011 0.011 0.011 0.011 0.011 0.011 0.011 0.011 0.011 0.011 0.011 0.011 0.011 0.011 0.011 0.011 0.011 0.011 0.011 0.011 0.011 0.011 0.011 0.011 0.011 0.011 0.011 0.011 0.011 0.011 0.011 0.011 0.011 0.011 0.011 0.011 0.011 0.011 0.011 0.011 0.011 0.011 0.011 0.011 0.011 0.011 0.011 0.011 0.011 0.011 0.011 0.011 0.011 0.011 0.011 0.011 0.011 0.011 0.011 0.011 0.011 0.011 0.011 0.011 0.011 0.011 0.011 0.011 0.011 0.011 0.011 0.011 0.011 0.011 0.011 0.011 0.011 0.011 0.011 0.011 0.011 0.011 0.011 0.011 0.011 0.011 0.011 0.011 0.011 0.011 0.011 0.011 0.011 0.011 0.290 1.082 2.315 3.659 4.708 5.370 5.665 5.738 5.720 5.499 4.910 3.530 1.376 0.474 0.011 0.011 0.011 0.011 0.011 0.011 0.011 0.011 0.011 0.011 0.011 0.011 0.011 0.011 0.011 0.011 0.011 0.011 0.011 0.011 0.011 0.011 0.011 0.011 0.011 0.011 0.011 0.011 0.011 0.011 0.011 0.011 0.011 0.011 0.011 0.011 0.011 0.011 0.011 0.011 0.011 999900.000 999900.000 999900.000 
999900.000 999900.000 999900.000 0.011 0.011 0.011 0.011 0.011 0.011 0.011 0.011 0.011 0.011 0.011 0.011 0.011 0.011 0.011 0.011 0.011 0.011 0.011 0.011 0.011 0.011 0.011 0.011 0.011 0.011 0.011 0.011 0.011 0.011 0.011 0.011 0.011 0.011 0.011 0.011 0.011 0.011 0.011 0.011 0.011 0.011 0.011 0.011 0.011 0.011 0.011 0.011 0.011 0.011 0.011 0.011 0.011 0.011 0.011 0.011 0.011 0.011 0.011 0.011 0.011 0.011 0.011 0.011 0.011 0.011 0.011 0.011 0.011 0.011 0.011 0.011 0.011 0.011 0.011 0.011 0.011 0.011 0.011 0.011 0.011 0.011 0.011 0.011 0.011 0.011 0.011 0.011 0.011 0.011 0.011 0.011 0.011 0.011 0.011 0.011 0.011 0.011 0.011 0.011 0.011 0.011 0.011 0.011 0.011 0.011 0.011 0.290 1.137 2.352 3.769 4.947 5.702 6.070 6.199 6.180 6.033 5.573 4.597 2.609 0.990 0.309 0.011 0.011 0.011 0.011 0.011 0.011 0.011 0.011 0.011 0.011 0.011 0.011 0.011 0.011 0.011 0.011 0.011 0.011 0.011 0.011 0.011 0.011 0.011 0.011 0.011 0.011 0.011 0.011 0.011 0.011 0.011 0.011 0.011 0.011 0.011 0.011 0.011 0.011 0.011 0.011 999900.000 999900.000 999900.000 
999900.000 999900.000 999900.000 0.011 0.011 0.011 0.011 0.011 0.011 0.011 0.011 0.011 0.011 0.011 0.011 0.011 0.011 0.011 0.011 0.011 0.011 0.011 0.011 0.011 0.011 0.011 0.011 0.011 0.011 0.011 0.011 0.011 0.011 0.011 0.011 0.011 0.011 0.011 0.011 0.011 0.069 0.011 0.011 0.011 0.011 0.011 0.011 0.011 0.011 0.011 0.011 0.011 0.011 0.011 0.011 0.011 0.011 0.011 0.011 0.011 0.011 0.011 0.011 0.011 0.011 0.011 0.011 0.011 0.011 0.011 0.011 0.011 0.011 0.011 0.011 0.011 0.011 0.011 0.011 0.011 0.011 0.011 0.011 0.011 0.011 0.011 0.011 0.011 0.011 0.011 0.011 0.011 0.011 0.011 0.011 0.011 0.011 0.011 0.011 0.011 0.011 0.011 0.011 0.011 0.011 0.011 0.011 0.011 0.011 0.011 0.309 1.174 2.352 3.824 5.131 5.996 6.456 6.622 6.622 6.511 6.143 5.370 3.916 1.910 0.732 0.198 0.030 0.011 0.011 0.011 0.011 0.011 0.011 0.011 0.011 0.011 0.011 0.011 0.011 0.011 0.011 0.011 0.011 0.011 0.011 0.011 0.011 0.011 0.011 0.011 0.011 0.011 0.011 0.011 0.011 0.011 0.011 0.011 0.011 0.011 0.011 0.011 0.011 0.011 0.011 999900.000 999900.000 999900.000 
999900.000 999900.000 999900.000 0.011 0.011 0.011 0.011 0.011 0.011 0.011 0.011 0.011 0.011 0.011 0.011 0.011 0.011 0.011 0.011 0.011 0.011 0.011 0.011 0.011 0.011 0.011 0.011 0.011 0.011 0.011 0.011 0.011 0.011 0.011 0.011 0.011 0.011 0.011 0.011 0.011 0.253 0.290 0.235 0.030 0.011 0.011 0.011 0.011 0.011 0.011 0.011 0.011 0.011 0.011 0.011 0.011 0.011 0.011 0.011 0.011 0.011 0.011 0.011 0.011 0.011 0.011 0.011 0.011 0.011 0.011 0.011 0.011 0.011 0.011 0.011 0.011 0.011 0.011 0.011 0.011 0.011 0.011 0.011 0.011 0.011 0.011 0.011 0.011 0.011 0.011 0.011 0.011 0.011 0.011 0.011 0.011 0.011 0.011 0.011 0.011 0.011 0.011 0.011 0.011 0.011 0.011 0.011 0.011 0.011 0.011 0.345 1.192 2.352 3.843 5.260 6.254 6.806 7.008 7.045 6.990 6.696 6.033 4.837 3.070 1.450 0.511 0.088 0.011 0.011 0.011 0.011 0.011 0.011 0.011 0.011 0.011 0.011 0.011 0.011 0.011 0.011 0.011 0.011 0.011 0.011 0.011 0.011 0.011 0.011 0.011 0.011 0.011 0.011 0.011 0.011 0.011 0.011 0.011 0.011 0.011 0.011 0.011 0.011 0.011 0.011 999900.000 999900.000 999900.000 
999900.000 999900.000 999900.000 0.011 0.011 0.011 0.011 0.011 0.011 0.011 0.011 0.011 0.011 0.011 0.011 0.011 0.011 0.011 0.030 0.106 0.125 0.088 0.011 0.011 0.011 0.011 0.011 0.011 0.011 0.011 0.011 0.011 0.011 0.011 0.011 0.011 0.011 0.011 0.011 0.161 0.437 0.474 0.419 0.217 0.011 0.011 0.011 0.011 0.011 0.011 0.011 0.011 0.011 0.011 0.011 0.011 0.011 0.011 0.011 0.011 0.011 0.011 0.011 0.011 0.011 0.011 0.011 0.011 0.011 0.011 0.011 0.011 0.011 0.011 0.011 0.011 0.011 0.011 0.011 0.011 0.011 0.011 0.011 0.011 0.011 0.011 0.011 0.011 0.011 0.011 0.011 0.011 0.011 0.011 0.011 0.011 0.011 0.011 0.011 0.011 0.011 0.011 0.011 0.011 0.011 0.011 0.011 0.011 0.011 0.011 0.456 1.192 2.315 3.824 5.315 6.438 7.100 7.395 7.450 7.413 7.193 6.640 5.610 4.045 2.352 1.118 0.272 0.011 0.011 0.011 0.011 0.011 0.011 0.011 0.011 0.011 0.011 0.011 0.011 0.011 0.011 0.011 0.011 0.011 0.011 0.011 0.011 0.011 0.011 0.011 0.011 0.011 0.011 0.011 0.011 0.011 0.011 0.011 0.011 0.011 0.011 0.011 0.011 0.011 0.011 999900.000 999900.000 999900.000 
999900.000 999900.000 999900.000 0.011 0.011 0.011 0.011 0.011 0.011 0.011 0.011 0.011 0.011 0.011 0.011 0.011 0.011 0.011 0.217 0.364 0.401 0.364 0.125 0.011 0.011 0.011 0.011 0.011 0.011 0.011 0.011 0.011 0.011 0.011 0.011 0.011 0.011 0.011 0.011 0.419 0.658 0.677 0.585 0.327 0.011 0.011 0.011 0.011 0.011 0.011 0.011 0.011 0.011 0.011 0.011 0.011 0.011 0.011 0.011 0.011 0.011 0.011 0.011 0.011 0.011 0.011 0.011 0.011 0.011 0.011 0.011 0.011 0.011 0.011 0.011 0.011 0.011 0.011 0.011 0.011 0.011 0.011 0.011 0.011 0.011 0.011 0.011 0.011 0.011 0.011 0.011 0.011 0.011 0.011 0.011 0.011 0.011 0.011 0.011 0.011 0.011 0.011 0.011 0.011 0.011 0.011 0.011 0.011 0.011 0.011 0.493 1.174 2.260 3.769 5.334 6.548 7.340 7.726 7.837 7.837 7.689 7.229 6.327 4.873 3.180 1.818 0.824 0.050 0.011 0.011 0.011 0.011 0.011 0.011 0.011 0.011 0.011 0.011 0.011 0.011 0.011 0.011 0.011 0.011 0.011 0.011 0.011 0.011 0.011 0.011 0.011 0.011 0.011 0.011 0.011 0.011 0.011 0.011 0.011 0.011 0.011 0.011 0.011 0.011 0.011 999900.000 999900.000 999900.000 
999900.000 999900.000 999900.000 0.011 0.011 0.011 0.011 0.011 0.011 0.011 0.011 0.011 0.011 0.011 0.011 0.011 0.011 0.011 0.640 0.824 0.861 0.842 0.695 0.011 0.011 0.011 0.011 0.011 0.011 0.011 0.011 0.011 0.011 0.011 0.011 0.011 0.011 0.011 0.125 0.787 0.898 0.879 0.714 0.364 0.011 0.011 0.011 0.011 0.011 0.011 0.011 0.011 0.011 0.011 0.011 0.011 0.011 0.011 0.011 0.011 0.011 0.011 0.011 0.011 0.011 0.011 0.011 0.011 0.011 0.011 0.011 0.011 0.011 0.011 0.011 0.011 0.011 0.011 0.011 0.011 0.011 0.011 0.011 0.011 0.011 0.011 0.011 0.011 0.011 0.011 0.011 0.011 0.011 0.011 0.011 0.011 0.011 0.011 0.011 0.011 0.011 0.011 0.011 0.011 0.011 0.011 0.011 0.011 0.011 0.011 0.474 1.137 2.149 3.659 5.297 6.604 7.487 8.002 8.205 8.223 8.131 7.800 7.045 5.720 3.953 2.444 1.376 0.566 0.011 0.011 0.011 0.011 0.011 0.011 0.011 0.011 0.011 0.011 0.011 0.011 0.011 0.011 0.011 0.011 0.011 0.011 0.011 0.011 0.011 0.011 0.011 0.011 0.011 0.011 0.011 0.011 0.011 0.011 0.011 0.011 0.011 0.011 0.011 0.011 0.011 999900.000 999900.000 999900.000 
999900.000 999900.000 999900.000 0.011 0.011 0.011 0.011 0.011 0.011 0.011 0.011 0.011 0.011 0.011 0.011 0.011 0.253 0.879 1.229 1.413 1.450 1.450 1.358 1.045 0.030 0.011 0.011 0.011 0.011 0.011 0.011 0.011 0.011 0.011 0.011 0.011 0.011 0.106 0.861 1.100 1.137 1.063 0.806 0.364 0.011 0.011 0.011 0.011 0.011 0.011 0.011 0.011 0.011 0.011 0.011 0.011 0.011 0.011 0.011 0.011 0.011 0.011 0.011 0.011 0.011 0.011 0.011 0.011 0.011 0.011 0.011 0.011 0.011 0.011 0.011 0.011 0.011 0.011 0.011 0.011 0.011 0.011 0.011 0.011 0.011 0.011 0.011 0.011 0.011 0.011 0.011 0.011 0.011 0.011 0.011 0.011 0.011 0.011 0.011 0.011 0.011 0.011 0.011 0.011 0.011 0.011 0.011 0.011 0.011 0.011 0.419 1.026 1.965 3.475 5.186 6.585 7.579 8.205 8.518 8.591 8.555 8.334 7.745 6.604 4.818 3.033 1.818 0.990 0.364 0.011 0.011 0.011 0.011 0.011 0.011 0.011 0.011 0.011 0.011 0.011 0.011 0.011 0.011 0.011 0.011 0.011 0.011 0.011 0.011 0.011 0.011 0.011 0.011 0.011 0.011 0.011 0.011 0.011 0.011 0.011 0.011 0.011 0.011 0.011 0.011 999900.000 999900.000 999900.000 
999900.000 999900.000 999900.000 0.011 0.011 0.011 0.011 0.011 0.011 0.011 0.011 0.011 0.011 0.011 0.088 0.419 0.971 1.413 1.726 1.928 2.020 2.039 2.002 1.836 1.431 0.401 0.011 0.011 0.011 0.011 0.011 0.011 0.011 0.011 0.011 0.030 0.309 0.916 1.229 1.303 1.284 1.155 0.824 0.309 0.011 0.011 0.011 0.011 0.011 0.011 0.011 0.011 0.011 0.011 0.011 0.011 0.011 0.011 0.011 0.011 0.011 0.011 0.011 0.011 0.011 0.011 0.011 0.011 0.011 0.011 0.011 0.011 0.011 0.011 0.011 0.011 0.011 0.011 0.011 0.011 0.011 0.011 0.011 0.011 0.011 0.011 0.011 0.011 0.011 0.011 0.011 0.011 0.011 0.011 0.011 0.011 0.011 0.011 0.011 0.011 0.011 0.011 0.011 0.011 0.011 0.011 0.011 0.011 0.011 0.011 0.272 0.806 1.689 3.143 4.984 6.493 7.579 8.334 8.757 8.923 8.941 8.812 8.407 7.505 5.886 3.751 2.241 1.303 0.640 0.217 0.030 0.011 0.011 0.011 0.011 0.011 0.011 0.011 0.011 0.011 0.030 0.050 0.011 0.011 0.011 0.011 0.011 0.011 0.011 0.011 0.011 0.011 0.011 0.011 0.011 0.011 0.011 0.011 0.011 0.011 0.011 0.011 0.011 0.011 0.011 999900.000 999900.000 999900.000 
999900.000 999900.000 999900.000 0.011 0.011 0.011 0.011 0.106 0.161 0.198 0.217 0.253 0.309 0.419 0.640 1.008 1.358 1.689 2.002 2.260 2.444 2.554 2.573 2.517 2.352 1.947 0.990 0.548 0.419 0.382 0.364 0.364 0.382 0.419 0.493 0.640 0.934 1.247 1.358 1.376 1.339 1.174 0.824 0.235 0.011 0.011 0.011 0.011 0.011 0.011 0.011 0.011 0.011 0.011 0.011 0.011 0.011 0.011 0.011 0.011 0.011 0.011 0.011 0.011 0.011 0.011 0.011 0.011 0.011 0.011 0.011 0.011 0.011 0.011 0.011 0.011 0.011 0.011 0.011 0.011 0.011 0.011 0.011 0.011 0.011 0.011 0.011 0.011 0.011 0.011 0.011 0.011 0.011 0.011 0.011 0.011 0.011 0.011 0.011 0.011 0.011 0.011 0.011 0.011 0.011 0.011 0.011 0.011 0.011 0.011 0.011 0.437 1.247 2.665 4.616 6.291 7.505 8.370 8.923 9.199 9.272 9.217 8.978 8.352 7.064 4.855 2.738 1.579 0.824 0.345 0.069 0.011 0.011 0.011 0.011 0.011 0.011 0.011 0.011 0.011 0.050 0.069 0.011 0.011 0.011 0.011 0.011 0.011 0.011 0.011 0.011 0.011 0.011 0.011 0.011 0.011 0.011 0.011 0.011 0.011 0.011 0.011 0.011 0.011 0.011 999900.000 999900.000 999900.000 
999900.000 999900.000 999900.000 0.011 0.011 0.011 0.125 0.327 0.493 0.622 0.732 0.806 0.879 0.971 1.082 1.266 1.487 1.781 2.076 2.389 2.683 2.904 3.033 3.070 3.033 2.886 2.573 2.020 1.542 1.303 1.174 1.100 1.026 0.971 0.990 1.045 1.174 1.321 1.395 1.395 1.339 1.155 0.787 0.198 0.011 0.011 0.011 0.011 0.011 0.011 0.011 0.011 0.011 0.011 0.011 0.011 0.011 0.011 0.011 0.011 0.011 0.011 0.011 0.011 0.011 0.011 0.011 0.011 0.011 0.011 0.011 0.011 0.011 0.011 0.011 0.011 0.011 0.011 0.011 0.011 0.011 0.011 0.011 0.011 0.011 0.011 0.011 0.011 0.011 0.011 0.011 0.011 0.011 0.011 0.011 0.011 0.011 0.011 0.011 0.011 0.011 0.011 0.011 0.011 0.011 0.011 0.011 0.011 0.011 0.011 0.011 0.011 0.640 1.984 4.027 5.923 7.321 8.315 8.978 9.383 9.548 9.567 9.438 9.052 8.168 6.383 3.622 1.873 0.990 0.419 0.069 0.011 0.011 0.011 0.011 0.011 0.011 0.011 0.011 0.011 0.011 0.011 0.011 0.011 0.011 0.011 0.011 0.011 0.011 0.011 0.011 0.011 0.011 0.011 0.011 0.011 0.011 0.011 0.011 0.011 0.011 0.011 0.011 0.011 0.011 999900.000 999900.000 999900.000 
999900.000 999900.000 999900.000 0.011 0.011 0.011 0.217 0.511 0.787 1.008 1.118 1.174 1.211 1.211 1.229 1.321 1.487 1.744 2.057 2.389 2.720 3.051 3.309 3.456 3.493 3.475 3.346 3.106 2.720 2.296 1.947 1.652 1.413 1.229 1.155 1.155 1.211 1.303 1.339 1.339 1.266 1.082 0.695 0.161 0.011 0.011 0.011 0.011 0.011 0.011 0.011 0.011 0.011 0.011 0.011 0.011 0.011 0.011 0.011 0.011 0.011 0.011 0.011 0.011 0.011 0.011 0.011 0.011 0.011 0.011 0.011 0.011 0.011 0.011 0.011 0.011 0.011 0.011 0.011 0.011 0.011 0.011 0.011 0.011 0.011 0.011 0.011 0.011 0.011 0.011 0.011 0.011 0.011 0.011 0.011 0.011 0.011 0.011 0.011 0.011 0.011 0.011 0.011 0.011 0.011 0.011 0.011 0.011 0.011 0.011 0.011 0.011 0.143 1.045 3.162 5.352 6.990 8.150 8.941 9.456 9.751 9.843 9.806 9.585 9.033 7.855 5.426 2.425 1.174 0.474 0.069 0.011 0.011 0.011 0.011 0.011 0.011 0.011 0.011 0.011 0.011 0.011 0.011 0.011 0.011 0.011 0.011 0.011 0.011 0.011 0.011 0.011 0.011 0.011 0.011 0.011 0.011 0.011 0.011 0.011 0.011 0.011 0.011 0.011 0.011 999900.000 999900.000 999900.000 
999900.000 999900.000 999900.000 0.011 0.011 0.011 0.272 0.658 0.990 1.211 1.303 1.321 1.303 1.247 1.229 1.247 1.358 1.542 1.836 2.204 2.646 3.070 3.419 3.677 3.806 3.843 3.806 3.677 3.419 3.014 2.499 2.002 1.560 1.284 1.155 1.100 1.100 1.137 1.155 1.137 1.082 0.898 0.585 0.143 0.011 0.011 0.011 0.011 0.011 0.011 0.011 0.011 0.011 0.011 0.011 0.011 0.011 0.011 0.011 0.011 0.011 0.011 0.011 0.011 0.011 0.011 0.011 0.011 0.011 0.011 0.011 0.011 0.011 0.011 0.011 0.011 0.011 0.011 0.011 0.011 0.011 0.011 0.011 0.011 0.011 0.011 0.011 0.011 0.011 0.011 0.011 0.011 0.011 0.011 0.011 0.011 0.011 0.011 0.011 0.011 0.011 0.011 0.011 0.011 0.011 0.011 0.011 0.011 0.011 0.011 0.011 0.011 0.069 0.566 2.094 4.487 6.438 7.818 8.794 9.438 9.843 10.045 10.082 9.990 9.677 8.941 7.413 4.082 1.468 0.566 0.069 0.011 0.011 0.011 0.011 0.011 0.011 0.011 0.011 0.011 0.011 0.011 0.011 0.011 0.011 0.011 0.011 0.011 0.011 0.011 0.011 0.011 0.011 0.011 0.011 0.011 0.011 0.011 0.011 0.011 0.011 0.011 0.011 0.011 0.011 999900.000 999900.000 999900.000 
999900.000 999900.000 999900.000 0.011 0.011 0.030 0.327 0.750 1.082 1.266 1.339 1.358 1.303 1.155 0.971 0.861 0.842 0.898 1.082 1.523 2.204 2.904 3.401 3.751 3.953 4.045 4.064 3.990 3.824 3.456 2.867 2.168 1.597 1.211 0.953 0.769 0.677 0.658 0.658 0.695 0.695 0.622 0.437 0.106 0.011 0.011 0.011 0.011 0.011 0.011 0.011 0.011 0.011 0.011 0.011 0.011 0.011 0.011 0.011 0.011 0.011 0.011 0.011 0.011 0.011 0.011 0.011 0.011 0.011 0.011 0.011 0.011 0.011 0.011 0.011 0.011 0.011 0.011 0.011 0.011 0.011 0.011 0.011 0.011 0.011 0.011 0.011 0.011 0.011 0.011 0.011 0.011 0.011 0.011 0.011 0.011 0.011 0.011 0.011 0.011 0.011 0.011 0.011 0.011 0.011 0.011 0.011 0.011 0.011 0.011 0.011 0.011 0.011 0.437 1.303 3.346 5.628 7.303 8.499 9.328 9.861 10.174 10.285 10.285 10.137 9.696 8.775 6.843 2.444 0.714 0.088 0.011 0.011 0.011 0.011 0.011 0.011 0.011 0.011 0.011 0.011 0.011 0.011 0.011 0.011 0.011 0.011 0.011 0.011 0.011 0.011 0.011 0.011 0.011 0.011 0.011 0.011 0.011 0.011 0.011 0.011 0.011 0.011 0.011 0.011 999900.000 999900.000 999900.000 
999900.000 999900.000 999900.000 0.011 0.011 0.030 0.364 0.787 1.118 1.284 1.339 1.321 1.174 0.714 0.198 0.050 0.030 0.030 0.106 0.309 0.934 2.186 3.180 3.714 3.990 4.137 4.192 4.156 4.027 3.695 3.051 2.204 1.505 0.916 0.456 0.161 0.050 0.011 0.011 0.030 0.272 0.327 0.290 0.088 0.011 0.011 0.011 0.011 0.011 0.011 0.011 0.011 0.011 0.011 0.011 0.011 0.011 0.011 0.011 0.011 0.011 0.011 0.011 0.011 0.011 0.011 0.011 0.011 0.011 0.011 0.011 0.011 0.011 0.011 0.011 0.011 0.011 0.011 0.011 0.011 0.011 0.011 0.011 0.011 0.011 0.011 0.011 0.011 0.011 0.011 0.011 0.011 0.011 0.011 0.011 0.011 0.011 0.011 0.011 0.011 0.011 0.011 0.011 0.011 0.011 0.011 0.011 0.011 0.011 0.011 0.011 0.011 0.011 0.401 1.045 2.296 4.560 6.548 8.021 9.070 9.788 10.211 10.432 10.487 10.432 10.193 9.622 8.481 6.088 1.118 0.180 0.011 0.011 0.011 0.011 0.011 0.011 0.011 0.011 0.011 0.011 0.011 0.011 0.011 0.011 0.011 0.011 0.011 0.011 0.011 0.011 0.011 0.011 0.011 0.011 0.011 0.011 0.011 0.011 0.011 0.011 0.011 0.011 0.011 0.011 999900.000 999900.000 999900.000 
999900.000 999900.000 999900.000 0.011 0.011 0.050 0.401 0.806 1.100 1.229 1.247 1.155 0.732 0.050 0.011 0.011 0.011 0.011 0.011 0.011 0.011 0.898 2.407 3.475 3.953 4.156 4.229 4.229 4.119 3.787 3.106 2.112 1.082 0.401 0.011 0.011 0.011 0.011 0.011 0.011 0.011 0.143 0.161 0.069 0.011 0.011 0.011 0.011 0.011 0.011 0.011 0.011 0.011 0.011 0.011 0.011 0.011 0.011 0.011 0.011 0.011 0.011 0.011 0.011 0.011 0.011 0.011 0.011 0.011 0.011 0.011 0.011 0.011 0.011 0.011 0.011 0.011 0.011 0.011 0.011 0.011 0.011 0.011 0.011 0.011 0.011 0.011 0.011 0.011 0.011 0.011 0.011 0.011 0.011 0.011 0.011 0.011 0.011 0.011 0.011 0.011 0.011 0.011 0.011 0.011 0.011 0.011 0.011 0.011 0.011 0.011 0.011 0.011 0.364 0.898 1.744 3.401 5.554 7.303 8.628 9.567 10.156 10.487 10.634 10.634 10.524 10.174 9.438 8.039 5.002 0.474 0.011 0.011 0.011 0.011 0.011 0.011 0.011 0.011 0.011 0.011 0.011 0.011 0.030 0.011 0.011 0.011 0.011 0.011 0.011 0.011 0.011 0.011 0.011 0.011 0.011 0.011 0.011 0.011 0.011 0.011 0.011 0.011 0.011 0.011 999900.000 999900.000 999900.000 
999900.000 999900.000 999900.000 0.011 0.011 0.088 0.401 0.787 1.045 1.118 1.082 0.806 0.161 0.011 0.011 0.011 0.011 0.011 0.011 0.011 0.011 0.011 1.174 2.812 3.751 4.119 4.229 4.229 4.137 3.824 3.088 1.634 0.456 0.011 0.011 0.011 0.011 0.011 0.011 0.011 0.011 0.030 0.088 0.069 0.011 0.011 0.011 0.011 0.011 0.011 0.011 0.011 0.011 0.011 0.011 0.011 0.011 0.011 0.011 0.011 0.011 0.011 0.011 0.011 0.011 0.011 0.011 0.011 0.011 0.011 0.011 0.011 0.011 0.011 0.011 0.011 0.011 0.011 0.011 0.011 0.011 0.011 0.011 0.011 0.011 0.011 0.011 0.011 0.011 0.011 0.011 0.011 0.011 0.011 0.011 0.011 0.011 0.011 0.011 0.011 0.011 0.011 0.011 0.011 0.011 0.011 0.011 0.011 0.011 0.011 0.011 0.011 0.011 0.327 0.787 1.468 2.573 4.450 6.401 7.984 9.180 9.990 10.469 10.708 10.763 10.726 10.524 10.045 9.088 7.358 3.530 0.364 0.011 0.011 0.011 0.011 0.011 0.011 0.011 0.011 0.011 0.011 0.011 0.011 0.011 0.011 0.011 0.011 0.011 0.011 0.011 0.011 0.011 0.011 0.011 0.011 0.011 0.011 0.011 0.011 0.011 0.011 0.011 0.011 0.011 999900.000 999900.000 999900.000 
999900.000 999900.000 999900.000 0.011 0.011 0.088 0.401 0.750 0.916 0.934 0.824 0.382 0.011 0.011 0.011 0.011 0.011 0.011 0.011 0.011 0.011 0.011 0.677 2.039 3.327 3.953 4.174 4.211 4.137 3.824 2.941 0.953 0.125 0.011 0.011 0.011 0.011 0.011 0.011 0.011 0.011 0.011 0.011 0.011 0.011 0.011 0.011 0.011 0.011 0.011 0.011 0.011 0.011 0.011 0.011 0.011 0.011 0.011 0.011 0.011 0.011 0.011 0.011 0.011 0.011 0.011 0.011 0.011 0.011 0.011 0.011 0.011 0.011 0.011 0.011 0.011 0.011 0.011 0.011 0.011 0.011 0.011 0.011 0.011 0.011 0.011 0.011 0.011 0.011 0.011 0.011 0.011 0.011 0.011 0.011 0.011 0.011 0.011 0.011 0.011 0.011 0.011 0.011 0.011 0.011 0.011 0.011 0.011 0.011 0.011 0.011 0.011 0.011 0.290 0.658 1.229 2.076 3.475 5.352 7.137 8.628 9.696 10.377 10.726 10.855 10.874 10.763 10.432 9.733 8.481 6.291 2.389 0.493 0.088 0.011 0.011 0.011 0.011 0.011 0.011 0.011 0.011 0.011 0.011 0.011 0.011 0.011 0.011 0.011 0.011 0.011 0.011 0.011 0.011 0.011 0.011 0.011 0.011 0.011 0.011 0.011 0.011 0.011 0.011 0.011 999900.000 999900.000 999900.000 
999900.000 999900.000 999900.000 0.011 0.011 0.069 0.345 0.640 0.769 0.750 0.603 0.217 0.011 0.011 0.011 0.011 0.011 0.011 0.011 0.011 0.011 0.011 0.511 1.671 3.014 3.787 4.100 4.156 4.119 3.806 2.775 0.677 0.050 0.011 0.011 0.011 0.011 0.011 0.011 0.011 0.011 0.011 0.011 0.011 0.011 0.011 0.011 0.011 0.011 0.011 0.011 0.011 0.011 0.011 0.011 0.011 0.011 0.011 0.011 0.011 0.011 0.011 0.011 0.011 0.011 0.011 0.011 0.011 0.011 0.011 0.011 0.011 0.011 0.011 0.011 0.011 0.011 0.011 0.011 0.011 0.011 0.011 0.011 0.011 0.011 0.011 0.011 0.011 0.011 0.011 0.011 0.011 0.011 0.011 0.011 0.011 0.011 0.011 0.011 0.011 0.011 0.011 0.011 0.011 0.011 0.011 0.011 0.011 0.011 0.011 0.011 0.011 0.011 0.180 0.493 0.990 1.707 2.757 4.358 6.180 7.874 9.236 10.156 10.690 10.911 10.966 10.929 10.708 10.174 9.180 7.505 4.689 1.818 0.806 0.419 0.235 0.161 0.106 0.030 0.011 0.011 0.011 0.011 0.011 0.011 0.011 0.011 0.011 0.011 0.011 0.011 0.011 0.011 0.011 0.011 0.011 0.011 0.011 0.011 0.011 0.011 0.011 0.011 0.011 0.011 999900.000 999900.000 999900.000 
999900.000 999900.000 999900.000 0.011 0.011 0.011 0.217 0.511 0.603 0.585 0.456 0.161 0.011 0.011 0.011 0.011 0.011 0.011 0.011 0.011 0.011 0.011 0.456 1.523 2.867 3.695 4.064 4.156 4.100 3.787 2.701 0.585 0.030 0.011 0.011 0.011 0.011 0.011 0.011 0.011 0.011 0.011 0.011 0.011 0.235 0.235 0.143 0.011 0.011 0.011 0.011 0.011 0.011 0.011 0.011 0.011 0.011 0.011 0.011 0.011 0.011 0.011 0.011 0.011 0.011 0.011 0.011 0.011 0.011 0.011 0.011 0.011 0.011 0.011 0.011 0.011 0.011 0.011 0.011 0.011 0.011 0.011 0.011 0.011 0.011 0.011 0.011 0.011 0.011 0.011 0.011 0.011 0.011 0.011 0.011 0.011 0.011 0.011 0.011 0.011 0.011 0.011 0.011 0.011 0.011 0.011 0.011 0.011 0.011 0.011 0.011 0.011 0.011 0.011 0.235 0.640 1.303 2.204 3.511 5.205 6.990 8.628 9.843 10.598 10.947 11.076 11.058 10.911 10.487 9.659 8.223 5.923 2.904 1.321 0.677 0.327 0.161 0.088 0.030 0.011 0.011 0.011 0.011 0.011 0.011 0.011 0.011 0.011 0.011 0.011 0.011 0.011 0.011 0.011 0.011 0.011 0.011 0.011 0.011 0.011 0.011 0.011 0.011 0.011 0.011 999900.000 999900.000 999900.000 
999900.000 999900.000 999900.000 0.011 0.011 0.011 0.011 0.290 0.437 0.437 0.345 0.125 0.011 0.011 0.011 0.011 0.011 0.011 0.011 0.011 0.011 0.011 0.456 1.487 2.812 3.695 4.064 4.174 4.119 3.824 2.701 0.585 0.030 0.011 0.011 0.011 0.011 0.011 0.011 0.011 0.011 0.011 0.011 0.217 0.419 0.419 0.327 0.106 0.011 0.011 0.011 0.011 0.011 0.011 0.011 0.011 0.011 0.011 0.011 0.011 0.011 0.011 0.011 0.011 0.011 0.011 0.011 0.011 0.011 0.011 0.011 0.011 0.011 0.011 0.011 0.011 0.011 0.011 0.011 0.011 0.011 0.011 0.011 0.011 0.011 0.011 0.011 0.011 0.011 0.011 0.011 0.011 0.011 0.011 0.011 0.011 0.011 0.011 0.011 0.011 0.011 0.011 0.011 0.011 0.011 0.011 0.011 0.011 0.011 0.011 0.011 0.011 0.011 0.011 0.011 0.180 0.750 1.634 2.775 4.303 6.107 8.002 9.530 10.487 10.984 11.168 11.187 11.076 10.745 10.009 8.739 6.677 3.751 1.652 0.769 0.309 0.011 0.011 0.011 0.011 0.011 0.011 0.011 0.011 0.011 0.011 0.011 0.011 0.011 0.011 0.011 0.011 0.011 0.011 0.011 0.011 0.011 0.011 0.011 0.011 0.011 0.011 0.011 0.011 0.011 999900.000 999900.000 999900.000 
999900.000 999900.000 999900.000 0.011 0.011 0.011 0.011 0.011 0.030 0.272 0.235 0.088 0.011 0.011 0.011 0.011 0.011 0.011 0.011 0.011 0.011 0.011 0.474 1.487 2.812 3.714 4.119 4.248 4.211 3.916 2.830 0.658 0.030 0.011 0.011 0.011 0.011 0.011 0.011 0.011 0.011 0.011 0.011 0.437 0.585 0.585 0.437 0.161 0.011 0.011 0.011 0.011 0.011 0.011 0.011 0.011 0.011 0.011 0.011 0.011 0.011 0.011 0.011 0.011 0.011 0.011 0.011 0.011 0.011 0.011 0.011 0.011 0.011 0.011 0.011 0.011 0.011 0.011 0.011 0.011 0.011 0.011 0.011 0.011 0.011 0.011 0.011 0.011 0.011 0.011 0.011 0.011 0.011 0.011 0.011 0.011 0.011 0.011 0.011 0.011 0.011 0.011 0.011 0.011 0.011 0.011 0.011 0.011 0.011 0.011 0.011 0.011 0.011 0.011 0.011 0.011 0.143 0.953 2.057 3.456 5.297 7.469 9.272 10.432 11.039 11.279 11.315 11.260 10.966 10.303 9.125 7.211 4.358 1.873 0.750 0.011 0.011 0.011 0.011 0.011 0.011 0.011 0.011 0.011 0.011 0.011 0.011 0.011 0.011 0.011 0.011 0.011 0.011 0.011 0.011 0.011 0.011 0.011 0.011 0.011 0.011 0.011 0.011 0.011 0.011 999900.000 999900.000 999900.000 
999900.000 999900.000 999900.000 0.011 0.011 0.011 0.011 0.011 0.011 0.011 0.125 0.069 0.011 0.011 0.011 0.011 0.011 0.011 0.011 0.011 0.011 0.011 0.529 1.542 2.886 3.824 4.284 4.432 4.432 4.174 3.198 0.934 0.050 0.011 0.011 0.011 0.011 0.011 0.011 0.011 0.011 0.011 0.327 0.695 0.769 0.714 0.511 0.161 0.011 0.011 0.011 0.011 0.011 0.011 0.011 0.011 0.011 0.011 0.011 0.011 0.011 0.011 0.011 0.011 0.011 0.011 0.011 0.011 0.011 0.011 0.011 0.011 0.011 0.011 0.011 0.011 0.011 0.011 0.011 0.011 0.011 0.011 0.011 0.011 0.011 0.011 0.011 0.011 0.011 0.011 0.011 0.011 0.011 0.011 0.011 0.011 0.011 0.011 0.011 0.011 0.011 0.011 0.011 0.011 0.011 0.011 0.011 0.011 0.011 0.011 0.011 0.011 0.011 0.011 0.011 0.011 0.011 0.272 1.266 2.609 4.542 7.027 9.088 10.395 11.095 11.407 11.481 11.426 11.187 10.598 9.475 7.616 4.818 2.057 0.658 0.011 0.011 0.011 0.011 0.011 0.011 0.011 0.011 0.011 0.011 0.011 0.011 0.011 0.011 0.011 0.011 0.011 0.011 0.011 0.011 0.011 0.011 0.011 0.011 0.011 0.011 0.011 0.011 0.011 0.011 999900.000 999900.000 999900.000 
999900.000 999900.000 999900.000 0.011 0.011 0.011 0.011 0.011 0.011 0.011 0.088 0.050 0.011 0.011 0.011 0.011 0.011 0.011 0.011 0.011 0.011 0.011 0.640 1.671 3.070 4.100 4.652 4.873 4.892 4.726 3.971 1.689 0.401 0.011 0.011 0.011 0.011 0.011 0.011 0.011 0.011 0.290 0.769 0.953 0.953 0.842 0.548 0.125 0.011 0.011 0.011 0.011 0.011 0.011 0.011 0.011 0.011 0.011 0.011 0.011 0.011 0.011 0.011 0.011 0.011 0.011 0.011 0.011 0.011 0.011 0.011 0.011 0.011 0.011 0.011 0.011 0.011 0.011 0.011 0.011 0.011 0.011 0.011 0.011 0.011 0.011 0.011 0.011 0.011 0.011 0.011 0.011 0.011 0.011 0.011 0.011 0.011 0.011 0.011 0.011 0.011 0.011 0.011 0.011 0.011 0.011 0.011 0.011 0.011 0.011 0.011 0.011 0.011 0.011 0.011 0.011 0.011 0.030 0.677 1.800 3.861 6.696 8.996 10.414 11.205 11.555 11.665 11.628 11.426 10.874 9.806 7.984 5.205 2.204 0.585 0.011 0.011 0.011 0.011 0.011 0.011 0.011 0.011 0.011 0.011 0.011 0.011 0.011 0.011 0.011 0.011 0.011 0.011 0.011 0.011 0.011 0.011 0.011 0.011 0.011 0.011 0.011 0.011 0.011 0.011 999900.000 999900.000 999900.000 
999900.000 999900.000 999900.000 0.011 0.011 0.011 0.011 0.011 0.011 0.011 0.050 0.050 0.011 0.011 0.011 0.011 0.011 0.011 0.011 0.011 0.011 0.253 0.824 1.947 3.475 4.671 5.426 5.812 5.923 5.867 5.481 3.585 1.284 0.401 0.011 0.011 0.011 0.011 0.011 0.030 0.364 0.898 1.174 1.229 1.155 0.916 0.529 0.011 0.011 0.011 0.011 0.011 0.011 0.011 0.011 0.011 0.011 0.011 0.011 0.011 0.011 0.011 0.011 0.011 0.011 0.011 0.011 0.011 0.011 0.011 0.011 0.011 0.011 0.011 0.011 0.011 0.011 0.011 0.011 0.011 0.011 0.011 0.011 0.011 0.011 0.011 0.011 0.011 0.011 0.011 0.011 0.011 0.011 0.011 0.011 0.011 0.011 0.011 0.011 0.011 0.011 0.011 0.011 0.011 0.011 0.011 0.011 0.011 0.011 0.011 0.011 0.011 0.011 0.011 0.011 0.011 0.011 0.011 0.382 1.247 3.217 6.475 8.978 10.487 11.352 11.757 11.886 11.868 11.702 11.187 10.156 8.370 5.573 2.370 0.585 0.030 0.011 0.011 0.011 0.011 0.011 0.011 0.011 0.011 0.011 0.011 0.011 0.011 0.011 0.011 0.011 0.011 0.011 0.011 0.011 0.011 0.011 0.011 0.011 0.011 0.011 0.011 0.011 0.011 0.011 999900.000 999900.000 999900.000 
999900.000 999900.000 999900.000 0.011 0.011 0.011 0.011 0.011 0.011 0.011 0.011 0.030 0.011 0.011 0.011 0.011 0.011 0.011 0.011 0.011 0.011 0.456 1.174 2.517 4.284 5.830 7.100 8.039 8.555 8.702 8.628 8.186 6.585 1.542 0.842 0.585 0.529 0.529 0.585 0.806 1.284 1.579 1.634 1.560 1.339 0.953 0.456 0.011 0.011 0.011 0.011 0.011 0.011 0.011 0.011 0.011 0.011 0.011 0.011 0.011 0.011 0.011 0.011 0.011 0.011 0.011 0.011 0.011 0.011 0.011 0.011 0.011 0.011 0.011 0.011 0.011 0.011 0.011 0.011 0.011 0.011 0.011 0.011 0.011 0.011 0.011 0.011 0.011 0.011 0.011 0.011 0.011 0.011 0.011 0.011 0.011 0.011 0.011 0.011 0.011 0.011 0.011 0.011 0.011 0.011 0.011 0.011 0.011 0.011 0.011 0.011 0.011 0.011 0.011 0.011 0.011 0.011 0.011 0.217 0.898 2.683 6.364 8.978 10.598 11.555 12.033 12.181 12.181 12.033 11.555 10.542 8.775 5.959 2.591 0.640 0.069 0.011 0.011 0.011 0.011 0.011 0.011 0.011 0.011 0.011 0.011 0.011 0.011 0.011 0.011 0.011 0.011 0.011 0.011 0.011 0.011 0.011 0.011 0.011 0.011 0.011 0.011 0.011 0.011 0.011 999900.000 999900.000 999900.000 
999900.000 999900.000 999900.000 0.011 0.011 0.011 0.011 0.011 0.011 0.011 0.011 0.011 0.011 0.011 0.011 0.011 0.011 0.011 0.011 0.011 0.125 0.861 1.855 3.622 6.070 9.107 12.751 14.481 15.107 15.236 15.144 14.665 13.579 11.757 9.088 3.254 2.628 2.444 2.407 2.407 2.425 2.352 2.186 1.910 1.487 0.934 0.327 0.011 0.011 0.011 0.011 0.011 0.011 0.011 0.011 0.011 0.011 0.011 0.011 0.011 0.011 0.011 0.011 0.011 0.011 0.011 0.011 0.011 0.011 0.011 0.011 0.011 0.011 0.011 0.011 0.011 0.011 0.011 0.011 0.011 0.011 0.011 0.011 0.011 0.011 0.011 0.011 0.011 0.011 0.011 0.011 0.011 0.011 0.011 0.011 0.011 0.011 0.011 0.011 0.011 0.011 0.011 0.011 0.011 0.011 0.011 0.011 0.011 0.011 0.011 0.011 0.011 0.011 0.011 0.011 0.011 0.011 0.011 0.106 0.640 2.333 6.346 9.070 10.818 11.886 12.420 12.604 12.604 12.475 12.015 11.021 9.236 6.401 2.867 0.787 0.125 0.011 0.011 0.011 0.011 0.011 0.011 0.011 0.011 0.011 0.011 0.011 0.011 0.011 0.011 0.011 0.011 0.011 0.011 0.011 0.011 0.011 0.011 0.011 0.011 0.011 0.011 0.011 0.011 0.011 999900.000 999900.000 999900.000 
999900.000 999900.000 999900.000 0.011 0.011 0.011 0.011 0.011 0.011 0.011 0.011 0.011 0.011 0.011 0.011 0.011 0.011 0.011 0.011 0.011 0.640 1.579 3.235 6.327 15.806 21.641 24.181 25.451 25.948 26.022 25.801 25.009 23.353 20.758 17.242 13.230 9.659 5.720 4.616 4.045 3.603 3.180 2.738 2.241 1.615 0.879 0.217 0.011 0.011 0.011 0.011 0.011 0.011 0.011 0.011 0.011 0.011 0.011 0.011 0.011 0.011 0.011 0.011 0.011 0.011 0.011 0.011 0.011 0.011 0.011 0.011 0.011 0.011 0.011 0.011 0.011 0.011 0.011 0.011 0.011 0.011 0.011 0.011 0.011 0.011 0.011 0.011 0.011 0.011 0.011 0.011 0.011 0.011 0.011 0.011 0.011 0.011 0.011 0.011 0.011 0.011 0.011 0.011 0.011 0.011 0.011 0.011 0.011 0.011 0.011 0.011 0.011 0.011 0.011 0.011 0.011 0.011 0.011 0.069 0.437 2.149 6.364 9.272 11.205 12.365 12.972 13.193 13.211 13.082 12.622 11.628 9.825 6.916 3.254 1.045 0.309 0.011 0.011 0.011 0.011 0.011 0.011 0.011 0.011 0.011 0.011 0.011 0.011 0.011 0.011 0.011 0.011 0.011 0.011 0.011 0.011 0.011 0.011 0.011 0.011 0.011 0.011 0.011 0.011 0.011 999900.000 999900.000 999900.000 
999900.000 999900.000 999900.000 0.011 0.011 0.011 0.011 0.011 0.011 0.011 0.011 0.011 0.011 0.011 0.011 0.011 0.011 0.011 0.011 0.511 1.468 3.198 7.432 29.353 44.173 49.659 52.162 53.543 54.187 54.390 54.372 54.059 53.120 50.892 43.491 27.734 18.089 12.438 8.297 5.867 4.855 4.064 3.327 2.554 1.744 0.861 0.143 0.011 0.011 0.011 0.011 0.011 0.011 0.011 0.011 0.011 0.011 0.011 0.011 0.011 0.011 0.011 0.011 0.011 0.011 0.011 0.011 0.011 0.011 0.011 0.011 0.011 0.011 0.011 0.011 0.011 0.011 0.011 0.011 0.011 0.011 0.011 0.011 0.011 0.011 0.011 0.011 0.011 0.011 0.011 0.011 0.011 0.011 0.011 0.011 0.011 0.011 0.011 0.011 0.011 0.011 0.011 0.011 0.011 0.011 0.011 0.011 0.011 0.011 0.011 0.011 0.011 0.011 0.011 0.011 0.011 0.011 0.011 0.050 0.290 2.112 6.511 9.677 11.831 13.156 13.837 14.095 14.132 14.003 13.543 12.493 10.616 7.597 3.787 1.450 0.585 0.011 0.011 0.011 0.011 0.011 0.011 0.011 0.011 0.011 0.011 0.011 0.011 0.011 0.011 0.011 0.011 0.011 0.011 0.011 0.011 0.011 0.011 0.011 0.011 0.011 0.011 0.011 0.011 0.011 999900.000 999900.000 999900.000 
999900.000 999900.000 999900.000 0.011 0.011 0.011 0.011 0.011 0.011 0.011 0.069 0.050 0.011 0.011 0.011 0.011 0.011 0.011 0.585 1.652 3.769 9.880 56.967 63.411 68.324 72.262 75.354 77.709 79.384 80.414 80.948 81.095 81.059 80.746 79.807 77.746 73.624 64.773 15.806 9.990 6.640 5.168 4.027 2.941 1.892 0.842 0.088 0.011 0.011 0.011 0.011 0.011 0.011 0.011 0.011 0.011 0.011 0.011 0.011 0.011 0.011 0.011 0.011 0.011 0.011 0.011 0.011 0.011 0.011 0.011 0.011 0.011 0.011 0.011 0.011 0.011 0.011 0.011 0.011 0.011 0.011 0.011 0.011 0.011 0.011 0.011 0.011 0.011 0.011 0.011 0.011 0.011 0.011 0.011 0.011 0.011 0.011 0.011 0.011 0.011 0.011 0.011 0.011 0.011 0.011 0.011 0.011 0.011 0.011 0.011 0.011 0.011 0.011 0.011 0.011 0.011 0.011 0.011 0.030 0.217 2.223 6.935 10.487 12.935 14.481 15.291 15.622 15.678 15.549 15.052 13.929 11.886 8.647 4.579 1.984 0.934 0.327 0.050 0.011 0.011 0.011 0.011 0.011 0.011 0.011 0.011 0.011 0.011 0.011 0.011 0.011 0.011 0.011 0.011 0.011 0.011 0.011 0.011 0.011 0.011 0.011 0.011 0.011 0.011 0.011 999900.000 999900.000 999900.000 
999900.000 999900.000 999900.000 0.011 0.011 0.011 0.011 0.011 0.011 0.088 0.364 0.603 0.769 0.861 0.971 1.155 1.487 2.112 3.217 6.180 62.932 73.643 83.304 92.983 103.288 115.489 132.971 999900.000 999900.000 999900.000 999900.000 999900.000 999900.000 999900.000 999900.000 999900.000 999900.000 999900.000 999900.000 999900.000 12.015 7.137 5.076 3.511 2.112 0.879 0.050 0.011 0.011 0.011 0.011 0.011 0.011 0.011 0.011 0.011 0.011 0.011 0.011 0.011 0.011 0.011 0.011 0.011 0.011 0.011 0.011 0.011 0.011 0.011 0.011 0.011 0.011 0.011 0.011 0.011 0.011 0.011 0.011 0.011 0.011 0.011 0.011 0.011 0.011 0.011 0.011 0.011 0.011 0.011 0.011 0.011 0.011 0.011 0.011 0.011 0.011 0.011 0.011 0.011 0.011 0.011 0.011 0.011 0.011 0.011 0.011 0.011 0.011 0.011 0.011 0.011 0.011 0.011 0.011 0.011 0.011 0.011 0.011 0.309 2.646 7.910 12.125 15.144 17.113 18.236 18.715 18.807 18.696 18.126 16.782 14.297 10.469 5.775 2.701 1.413 0.585 0.125 0.011 0.011 0.011 0.011 0.011 0.011 0.011 0.011 0.011 0.011 0.011 0.011 0.011 0.011 0.011 0.011 0.011 0.011 0.011 0.011 0.011 0.011 0.011 0.011 0.011 0.011 0.011 999900.000 999900.000 999900.000 
999900.000 999900.000 999900.000 0.011 0.011 0.011 0.011 0.011 0.011 0.327 0.898 1.339 1.726 2.112 2.536 3.088 3.916 5.462 9.751 81.831 100.142 126.328 999900.000 999900.000 999900.000 999900.000 999900.000 999900.000 999900.000 999900.000 999900.000 999900.000 999900.000 999900.000 999900.000 999900.000 999900.000 999900.000 999900.000 999900.000 999900.000 999900.000 7.671 4.560 2.499 0.990 0.050 0.011 0.011 0.011 0.011 0.011 0.011 0.011 0.011 0.011 0.011 0.011 0.011 0.011 0.011 0.011 0.011 0.011 0.011 0.011 0.011 0.011 0.011 0.011 0.011 0.011 0.011 0.011 0.011 0.011 0.011 0.011 0.011 0.011 0.011 0.011 0.011 0.011 0.011 0.011 0.011 0.011 0.011 0.011 0.011 0.011 0.011 0.011 0.011 0.011 0.011 0.011 0.011 0.011 0.011 0.011 0.011 0.011 0.011 0.011 0.011 0.011 0.011 0.011 0.011 0.011 0.011 0.011 0.011 0.011 0.011 0.011 0.125 0.769 3.787 10.340 16.395 22.249 999900.000 999900.000 999900.000 999900.000 999900.000 999900.000 999900.000 999900.000 15.310 8.076 3.806 2.112 1.045 0.253 0.011 0.011 0.011 0.011 0.011 0.011 0.011 0.011 0.011 0.011 0.011 0.011 0.011 0.011 0.011 0.011 0.011 0.011 0.011 0.011 0.011 0.011 0.011 0.011 0.011 0.011 0.011 999900.000 999900.000 999900.000 
999900.000 999900.000 999900.000 0.011 0.011 0.011 0.011 0.011 0.011 0.916 1.615 2.278 2.959 3.695 4.579 5.886 8.573 89.432 128.665 999900.000 999900.000 999900.000 999900.000 999900.000 999900.000 999900.000 999900.000 999900.000 999900.000 999900.000 999900.000 999900.000 999900.000 999900.000 999900.000 999900.000 999900.000 999900.000 999900.000 999900.000 999900.000 999900.000 999900.000 10.340 3.475 1.303 0.161 0.011 0.011 0.011 0.011 0.011 0.011 0.011 0.011 0.011 0.011 0.011 0.011 0.011 0.011 0.011 0.011 0.011 0.011 0.011 0.011 0.011 0.011 0.011 0.011 0.011 0.011 0.011 0.011 0.011 0.011 0.011 0.011 0.011 0.011 0.011 0.011 0.011 0.011 0.011 0.011 0.011 0.011 0.011 0.011 0.011 0.011 0.011 0.011 0.011 0.011 0.011 0.011 0.011 0.011 0.011 0.011 0.011 0.011 0.011 0.011 0.011 0.011 0.011 0.011 0.011 0.011 0.011 0.011 0.011 0.011 0.198 0.750 1.781 7.137 999900.000 999900.000 999900.000 999900.000 999900.000 999900.000 999900.000 999900.000 999900.000 999900.000 999900.000 999900.000 999900.000 6.033 3.217 1.800 0.732 0.011 0.011 0.011 0.011 0.011 0.011 0.011 0.011 0.011 0.011 0.011 0.011 0.011 0.011 0.011 0.011 0.011 0.011 0.011 0.011 0.011 0.011 0.011 0.011 0.011 0.011 0.011 999900.000 999900.000 999900.000 
999900.000 999900.000 999900.000 0.011 0.011 0.011 0.011 0.011 0.824 1.744 2.757 3.861 5.039 6.511 8.923 17.224 999900.000 999900.000 999900.000 999900.000 999900.000 999900.000 999900.000 999900.000 999900.000 999900.000 999900.000 999900.000 999900.000 999900.000 999900.000 999900.000 999900.000 999900.000 999900.000 999900.000 999900.000 999900.000 999900.000 999900.000 999900.000 999900.000 999900.000 999900.000 999900.000 2.131 0.714 0.011 0.011 0.011 0.011 0.011 0.011 0.011 0.011 0.011 0.011 0.011 0.011 0.011 0.011 0.011 0.011 0.011 0.011 0.011 0.011 0.011 0.011 0.011 0.011 0.011 0.011 0.011 0.011 0.011 0.011 0.011 0.011 0.011 0.011 0.011 0.011 0.011 0.011 0.011 0.011 0.011 0.011 0.011 0.011 0.011 0.030 0.030 0.011 0.011 0.011 0.011 0.011 0.011 0.011 0.011 0.011 0.011 0.011 0.011 0.011 0.011 0.011 0.011 0.011 0.011 0.011 0.011 0.011 0.011 0.493 1.063 1.892 4.560 999900.000 999900.000 999900.000 999900.000 999900.000 999900.000 999900.000 999900.000 999900.000 999900.000 999900.000 999900.000 999900.000 999900.000 999900.000 5.830 3.143 1.597 0.529 0.011 0.011 0.011 0.011 0.011 0.011 0.011 0.011 0.011 0.011 0.011 0.011 0.011 0.011 0.011 0.011 0.011 0.011 0.011 0.011 0.011 0.011 0.011 0.011 0.011 0.011 999900.000 999900.000 999900.000 
999900.000 999900.000 999900.000 0.011 0.050 0.088 0.217 0.806 1.947 3.511 5.278 7.266 10.340 999900.000 999900.000 999900.000 999900.000 999900.000 999900.000 999900.000 999900.000 999900.000 999900.000 999900.000 999900.000 999900.000 999900.000 999900.000 999900.000 999900.000 999900.000 999900.000 999900.000 999900.000 999900.000 999900.000 999900.000 999900.000 999900.000 999900.000 999900.000 999900.000 999900.000 999900.000 999900.000 999900.000 1.800 0.695 0.198 0.088 0.050 0.030 0.030 0.030 0.030 0.030 0.030 0.030 0.030 0.030 0.030 0.030 0.030 0.030 0.030 0.030 0.030 0.030 0.030 0.030 0.030 0.030 0.030 0.030 0.030 0.030 0.030 0.030 0.030 0.030 0.030 0.030 0.030 0.030 0.030 0.030 0.030 0.030 0.030 0.030 0.050 0.106 0.161 0.161 0.106 0.050 0.050 0.069 0.106 0.088 0.050 0.050 0.050 0.050 0.050 0.050 0.050 0.050 0.050 0.050 0.050 0.069 0.088 0.125 0.290 0.750 1.468 2.665 999900.000 999900.000 999900.000 999900.000 999900.000 999900.000 999900.000 999900.000 999900.000 999900.000 999900.000 999900.000 999900.000 999900.000 999900.000 999900.000 999900.000 999900.000 999900.000 3.640 1.652 0.548 0.161 0.106 0.088 0.069 0.069 0.069 0.069 0.069 0.069 0.069 0.069 0.069 0.069 0.069 0.069 0.069 0.069 0.069 0.069 0.069 0.069 0.069 0.069 0.088 0.143 999900.000 999900.000 999900.000 
999900.000 999900.000 999900.000 999900.000 0.603 0.566 1.174 2.941 5.683 9.052 999900.000 999900.000 999900.000 999900.000 999900.000 999900.000 999900.000 999900.000 999900.000 999900.000 999900.000 999900.000 999900.000 999900.000 999900.000 999900.000 999900.000 999900.000 999900.000 999900.000 999900.000 999900.000 999900.000 999900.000 999900.000 999900.000 999900.000 999900.000 999900.000 999900.000 999900.000 999900.000 999900.000 999900.000 999900.000 999900.000 999900.000 999900.000 0.916 0.401 0.272 0.217 0.198 0.180 0.180 0.180 0.180 0.180 0.180 0.180 0.180 0.198 0.198 0.198 0.198 0.198 0.198 0.198 0.198 0.198 0.198 0.198 0.198 0.198 0.198 0.198 0.198 0.198 0.198 0.217 0.217 0.217 0.217 0.217 0.217 0.217 0.217 0.217 0.217 0.235 0.290 0.382 0.419 0.419 0.419 0.382 0.345 0.345 0.345 0.327 0.309 0.272 0.235 0.235 0.235 0.235 0.235 0.235 0.235 0.253 0.272 0.290 0.364 0.585 1.266 2.665 999900.000 999900.000 999900.000 999900.000 999900.000 999900.000 999900.000 999900.000 999900.000 999900.000 999900.000 999900.000 999900.000 999900.000 999900.000 999900.000 999900.000 999900.000 999900.000 999900.000 999900.000 999900.000 999900.000 2.665 0.787 0.419 0.327 0.309 0.290 0.290 0.290 0.290 0.290 0.290 0.290 0.290 0.290 0.290 0.290 0.290 0.290 0.290 0.290 0.290 0.290 0.309 0.309 0.401 999900.000 999900.000 999900.000 999900.000 
999900.000 999900.000 999900.000 999900.000 999900.000 999900.000 999900.000 999900.000 999900.000 999900.000 999900.000 999900.000 999900.000 999900.000 999900.000 999900.000 999900.000 999900.000 999900.000 999900.000 999900.000 999900.000 999900.000 999900.000 999900.000 999900.000 999900.000 999900.000 999900.000 999900.000 999900.000 999900.000 999900.000 999900.000 999900.000 999900.000 999900.000 999900.000 999900.000 999900.000 999900.000 999900.000 999900.000 999900.000 999900.000 999900.000 999900.000 999900.000 999900.000 999900.000 999900.000 0.916 0.732 0.677 0.658 0.658 0.658 0.658 0.658 0.658 0.640 0.622 0.622 0.622 0.622 0.622 0.603 0.603 0.603 0.622 0.622 0.622 0.622 0.640 0.640 0.640 0.658 0.658 0.658 0.658 0.658 0.658 0.658 0.658 0.658 0.658 0.677 0.695 0.732 0.824 0.990 1.137 1.266 1.339 1.358 1.376 1.358 1.321 1.247 1.137 1.008 0.898 0.824 0.787 0.769 0.769 0.769 0.769 0.787 0.842 0.990 1.376 999900.000 999900.000 999900.000 999900.000 999900.000 999900.000 999900.000 999900.000 999900.000 999900.000 999900.000 999900.000 999900.000 999900.000 999900.000 999900.000 999900.000 999900.000 999900.000 999900.000 999900.000 999900.000 999900.000 999900.000 999900.000 999900.000 999900.000 999900.000 999900.000 999900.000 2.554 1.211 1.008 0.934 0.898 0.879 0.879 0.879 0.861 0.861 0.861 0.842 0.842 0.842 0.842 0.842 0.842 0.861 0.898 1.008 1.560 999900.000 999900.000 999900.000 999900.000 999900.000 
999900.000 999900.000 999900.000 999900.000 999900.000 999900.000 999900.000 999900.000 999900.000 999900.000 999900.000 999900.000 999900.000 999900.000 999900.000 999900.000 999900.000 999900.000 999900.000 999900.000 999900.000 999900.000 999900.000 999900.000 999900.000 999900.000 999900.000 999900.000 999900.000 999900.000 999900.000 999900.000 999900.000 999900.000 999900.000 999900.000 999900.000 999900.000 999900.000 999900.000 999900.000 999900.000 999900.000 999900.000 999900.000 999900.000 999900.000 999900.000 999900.000 999900.000 999900.000 999900.000 999900.000 999900.000 999900.000 999900.000 999900.000 999900.000 999900.000 999900.000 999900.000 999900.000 999900.000 999900.000 999900.000 999900.000 999900.000 999900.000 999900.000 999900.000 999900.000 999900.000 999900.000 999900.000 999900.000 999900.000 999900.000 999900.000 999900.000 999900.000 999900.000 999900.000 999900.000 999900.000 999900.000 999900.000 999900.000 999900.000 999900.000 999900.000 999900.000 999900.000 999900.000 999900.000 999900.000 999900.000 999900.000 999900.000 999900.000 999900.000 999900.000 999900.000 999900.000 999900.000 999900.000 999900.000 999900.000 999900.000 999900.000 999900.000 999900.000 999900.000 999900.000 999900.000 999900.000 999900.000 999900.000 999900.000 999900.000 999900.000 999900.000 999900.000 999900.000 999900.000 999900.000 999900.000 999900.000 999900.000 999900.000 999900.000 999900.000 999900.000 999900.000 999900.000 999900.000 999900.000 999900.000 999900.000 999900.000 999900.000 999900.000 999900.000 999900.000 999900.000 999900.000 999900.000 999900.000 999900.000 999900.000 999900.000 999900.000 999900.000 999900.000 999900.000 999900.000 999900.000 999900.000 999900.000 999900.000 999900.000 999900.000 999900.000 999900.000 999900.000 999900.000 999900.000 999900.000 999900.000 
999900.000 999900.000 999900.000 999900.000 999900.000 999900.000 999900.000 999900.000 999900.000 999900.000 999900.000 999900.000 999900.000 999900.000 999900.000 999900.000 999900.000 999900.000 999900.000 999900.000 999900.000 999900.000 999900.000 999900.000 999900.000 999900.000 999900.000 999900.000 999900.000 999900.000 999900.000 999900.000 999900.000 999900.000 999900.000 999900.000 999900.000 999900.000 999900.000 999900.000 999900.000 999900.000 999900.000 999900.000 999900.000 999900.000 999900.000 999900.000 999900.000 999900.000 999900.000 999900.000 999900.000 999900.000 999900.000 999900.000 999900.000 999900.000 999900.000 999900.000 999900.000 999900.000 999900.000 999900.000 999900.000 999900.000 999900.000 999900.000 999900.000 999900.000 999900.000 999900.000 999900.000 999900.000 999900.000 999900.000 999900.000 999900.000 999900.000 999900.000 999900.000 999900.000 999900.000 999900.000 999900.000 999900.000 999900.000 999900.000 999900.000 999900.000 999900.000 999900.000 999900.000 999900.000 999900.000 999900.000 999900.000 999900.000 999900.000 999900.000 999900.000 999900.000 999900.000 999900.000 999900.000 999900.000 999900.000 999900.000 999900.000 999900.000 999900.000 999900.000 999900.000 999900.000 999900.000 999900.000 999900.000 999900.000 999900.000 999900.000 999900.000 999900.000 999900.000 999900.000 999900.000 999900.000 999900.000 999900.000 999900.000 999900.000 999900.000 999900.000 999900.000 999900.000 999900.000 999900.000 999900.000 999900.000 999900.000 999900.000 999900.000 999900.000 999900.000 999900.000 999900.000 999900.000 999900.000 999900.000 999900.000 999900.000 999900.000 999900.000 999900.000 999900.000 999900.000 999900.000 999900.000 999900.000 999900.000 999900.000 999900.000 999900.000 999900.000 999900.000 999900.000 999900.000 999900.000 999900.000 
999900.000 999900.000 999900.000 999900.000 999900.000 999900.000 999900.000 999900.000 999900.000 999900.000 999900.000 999900.000 999900.000 999900.000 999900.000 999900.000 999900.000 999900.000 999900.000 999900.000 999900.000 999900.000 999900.000 999900.000 999900.000 999900.000 999900.000 999900.000 999900.000 999900.000 999900.000 999900.000 999900.000 999900.000 999900.000 999900.000 999900.000 999900.000 999900.000 999900.000 999900.000 999900.000 999900.000 999900.000 999900.000 999900.000 999900.000 999900.000 999900.000 999900.000 999900.000 999900.000 999900.000 999900.000 999900.000 999900.000 999900.000 999900.000 999900.000 999900.000 999900.000 999900.000 999900.000 999900.000 999900.000 999900.000 999900.000 999900.000 999900.000 999900.000 999900.000 999900.000 999900.000 999900.000 999900.000 999900.000 999900.000 999900.000 999900.000 999900.000 999900.000 999900.000 999900.000 999900.000 999900.000 999900.000 999900.000 999900.000 999900.000 999900.000 999900.000 999900.000 999900.000 999900.000 999900.000 999900.000 999900.000 999900.000 999900.000 999900.000 999900.000 999900.000 999900.000 999900.000 999900.000 999900.000 999900.000 999900.000 999900.000 999900.000 999900.000 999900.000 999900.000 999900.000 999900.000 999900.000 999900.000 999900.000 999900.000 999900.000 999900.000 999900.000 999900.000 999900.000 999900.000 999900.000 999900.000 999900.000 999900.000 999900.000 999900.000 999900.000 999900.000 999900.000 999900.000 999900.000 999900.000 999900.000 999900.000 999900.000 999900.000 999900.000 999900.000 999900.000 999900.000 999900.000 999900.000 999900.000 999900.000 999900.000 999900.000 999900.000 999900.000 999900.000 999900.000 999900.000 999900.000 999900.000 999900.000 999900.000 999900.000 999900.000 999900.000 999900.000 999900.000 999900.000 999900.000 999900.000 
999900.000 999900.000 999900.000 999900.000 999900.000 999900.000 999900.000 999900.000 999900.000 999900.000 999900.000 999900.000 999900.000 999900.000 999900.000 999900.000 999900.000 999900.000 999900.000 999900.000 999900.000 999900.000 999900.000 999900.000 999900.000 999900.000 999900.000 999900.000 999900.000 999900.000 999900.000 999900.000 999900.000 999900.000 999900.000 999900.000 999900.000 999900.000 999900.000 999900.000 999900.000 999900.000 999900.000 999900.000 999900.000 999900.000 999900.000 999900.000 999900.000 999900.000 999900.000 999900.000 999900.000 999900.000 999900.000 999900.000 999900.000 999900.000 999900.000 999900.000 999900.000 999900.000 999900.000 999900.000 999900.000 999900.000 999900.000 999900.000 999900.000 999900.000 999900.000 999900.000 999900.000 999900.000 999900.000 999900.000 999900.000 999900.000 999900.000 999900.000 999900.000 999900.000 999900.000 999900.000 999900.000 999900.000 999900.000 999900.000 999900.000 999900.000 999900.000 999900.000 999900.000 999900.000 999900.000 999900.000 999900.000 999900.000 999900.000 999900.000 999900.000 999900.000 999900.000 999900.000 999900.000 999900.000 999900.000 999900.000 999900.000 999900.000 999900.000 999900.000 999900.000 999900.000 999900.000 999900.000 999900.000 999900.000 999900.000 999900.000 999900.000 999900.000 999900.000 999900.000 999900.000 999900.000 999900.000 999900.000 999900.000 999900.000 999900.000 999900.000 999900.000 999900.000 999900.000 999900.000 999900.000 999900.000 999900.000 999900.000 999900.000 999900.000 999900.000 999900.000 999900.000 999900.000 999900.000 999900.000 999900.000 999900.000 999900.000 999900.000 999900.000 999900.000 999900.000 999900.000 999900.000 999900.000 999900.000 999900.000 999900.000 999900.000 999900.000 999900.000 999900.000 999900.000 999900.000 999900.000 
