ncols 168
nrows 121
xllcenter 640304.69
yllcenter 1081277.12
cellsize 46.59
NODATA_value -9999.000
0.000 0.000 0.000 0.000 0.000 0.000 0.000 0.000 0.000 0.000 0.000 0.000 0.000 0.000 0.000 0.000 0.000 0.000 0.000 0.000 0.000 0.000 0.000 0.000 0.000 0.000 0.000 0.000 0.000 0.000 0.000 0.000 0.000 0.000 0.000 0.000 0.000 0.000 0.000 0.000 0.000 0.000 0.000 0.000 0.000 0.000 0.000 0.000 0.000 0.000 0.000 0.000 0.000 0.000 0.000 0.000 0.000 0.000 0.000 0.000 0.000 0.000 0.000 0.000 0.000 0.000 0.000 0.000 0.000 0.000 0.000 0.000 0.000 0.000 0.000 0.000 0.000 0.000 0.000 0.000 0.000 0.000 0.000 0.000 0.000 0.000 0.000 0.000 0.000 0.000 0.000 0.000 0.000 0.000 0.000 0.000 0.000 0.000 0.000 0.000 0.000 0.000 0.000 0.000 0.000 0.000 0.000 0.000 0.000 0.000 0.000 0.000 0.000 0.000 0.000 0.000 0.000 0.000 0.000 0.000 0.000 0.000 0.000 0.000 0.000 0.000 0.000 0.000 0.000 0.000 0.000 0.000 0.000 0.000 0.000 0.000 0.000 0.000 0.000 0.000 0.000 0.000 0.000 0.000 0.000 0.000 0.000 0.000 0.000 0.000 0.000 0.000 0.000 0.000 0.000 0.000 0.000 0.000 0.000 0.000 0.000 0.000 0.000 0.000 0.000 0.000 0.000 0.000 
0.000 0.397 0.397 0.397 0.296 0.018 0.018 0.000 0.000 0.000 0.024 0.303 0.397 0.397 0.397 0.397 0.397 0.397 0.397 0.397 0.397 0.397 0.397 0.397 0.397 0.397 0.397 0.397 0.397 0.397 0.397 0.397 0.397 0.397 0.481 0.481 0.614 0.784 0.955 0.955 1.032 1.061 1.061 1.061 1.061 1.054 1.054 1.036 1.033 1.033 1.012 0.958 0.784 0.784 0.609 0.498 0.519 0.519 0.678 0.853 0.853 0.986 0.311 0.501 0.501 1.060 1.047 0.944 0.944 0.815 0.686 0.686 0.644 0.691 0.821 0.821 0.950 0.580 0.251 0.251 0.931 1.064 1.064 1.064 1.064 1.064 1.064 1.068 1.081 1.131 1.131 1.181 1.199 1.199 1.127 0.921 0.684 0.684 0.439 0.472 0.334 0.334 0.188 0.856 0.856 0.930 0.757 0.571 0.571 0.460 0.485 0.671 0.671 0.857 1.018 1.018 1.156 1.258 0.760 0.760 0.516 1.272 1.263 1.263 1.162 1.067 1.067 1.067 1.067 1.067 1.067 1.067 1.067 1.067 1.068 1.068 1.068 1.068 1.068 1.068 1.068 1.068 1.068 1.068 1.068 1.068 1.068 1.069 1.069 1.069 1.069 1.069 1.069 1.013 0.445 0.445 0.644 1.038 0.914 0.914 0.730 0.531 0.328 0.328 0.101 0.000 0.000 0.000 
0.000 0.234 0.234 0.233 0.174 0.011 0.011 0.000 0.000 0.000 0.013 0.164 0.220 0.220 0.225 0.224 0.223 0.223 0.222 0.221 0.221 0.220 0.219 0.218 0.218 0.217 0.216 0.212 0.212 0.202 0.200 0.200 0.203 0.211 0.339 0.339 0.521 0.744 0.968 0.968 1.056 1.080 1.080 1.080 1.080 0.900 0.900 0.500 0.497 0.497 0.687 0.918 0.691 0.691 0.464 0.330 0.397 0.397 0.608 0.835 0.835 1.038 0.730 0.820 0.820 1.075 1.045 0.909 0.909 0.741 0.573 0.573 0.543 0.618 0.786 0.786 0.954 0.845 0.718 0.718 1.023 1.082 1.082 1.083 1.083 1.083 1.083 1.091 1.112 1.176 1.176 1.240 1.257 1.257 1.136 0.866 0.544 0.544 0.191 0.199 0.308 0.308 0.525 0.939 0.939 0.896 0.663 0.424 0.424 0.312 0.363 0.602 0.602 0.841 1.044 1.044 1.214 1.345 1.240 1.240 1.186 1.415 1.324 1.324 1.199 1.086 1.086 1.086 1.086 1.086 1.086 1.086 1.086 1.086 1.086 1.086 1.087 1.087 1.087 1.087 1.087 1.087 1.087 1.087 1.087 1.087 1.087 1.087 1.087 1.087 1.088 1.088 1.088 1.069 0.877 0.877 0.945 1.045 0.869 0.869 0.633 0.377 0.112 0.112 0.033 0.000 0.000 0.000 
0.000 0.046 0.046 0.140 0.146 0.075 0.021 0.011 0.007 0.007 0.017 0.083 0.178 0.207 0.218 0.222 0.223 0.223 0.223 0.222 0.222 0.221 0.221 0.220 0.219 0.219 0.218 0.216 0.215 0.211 0.206 0.206 0.208 0.218 0.276 0.344 0.430 0.630 0.853 0.946 0.999 1.052 1.063 1.063 1.057 0.982 0.873 0.690 0.543 0.534 0.597 0.773 0.770 0.690 0.584 0.422 0.398 0.422 0.502 0.721 0.826 0.903 0.884 0.822 0.850 0.950 1.023 0.968 0.902 0.827 0.663 0.598 0.583 0.596 0.700 0.786 0.861 0.890 0.813 0.794 0.890 1.033 1.069 1.077 1.080 1.081 1.082 1.086 1.100 1.138 1.167 1.196 1.228 1.231 1.182 1.007 0.708 0.545 0.377 0.249 0.283 0.334 0.434 0.732 0.879 0.874 0.776 0.550 0.452 0.399 0.376 0.481 0.596 0.712 0.933 1.035 1.125 1.262 1.272 1.241 1.232 1.297 1.342 1.314 1.263 1.146 1.103 1.094 1.090 1.088 1.087 1.087 1.087 1.087 1.087 1.087 1.087 1.087 1.087 1.087 1.087 1.087 1.087 1.087 1.087 1.087 1.087 1.087 1.087 1.087 1.086 1.085 1.082 1.068 0.988 0.919 0.925 0.976 0.945 0.865 0.761 0.529 0.278 0.182 0.158 0.171 0.171 0.000 
0.000 0.014 0.014 0.047 0.072 0.064 0.043 0.033 0.031 0.035 0.055 0.103 0.163 0.197 0.213 0.221 0.224 0.225 0.226 0.226 0.226 0.226 0.226 0.225 0.225 0.225 0.225 0.225 0.225 0.225 0.225 0.229 0.238 0.262 0.306 0.380 0.486 0.643 0.799 0.895 0.955 0.988 1.001 1.001 0.985 0.942 0.853 0.728 0.657 0.643 0.664 0.713 0.723 0.691 0.608 0.537 0.511 0.519 0.578 0.699 0.807 0.853 0.862 0.865 0.882 0.925 0.944 0.937 0.895 0.819 0.730 0.680 0.668 0.676 0.717 0.790 0.843 0.860 0.862 0.872 0.920 0.995 1.037 1.057 1.067 1.074 1.078 1.084 1.096 1.115 1.136 1.150 1.152 1.138 1.085 0.960 0.757 0.579 0.463 0.413 0.402 0.435 0.529 0.675 0.747 0.755 0.716 0.612 0.531 0.500 0.501 0.528 0.608 0.725 0.874 1.005 1.112 1.184 1.219 1.230 1.235 1.259 1.276 1.270 1.229 1.163 1.122 1.104 1.096 1.091 1.089 1.088 1.088 1.087 1.087 1.087 1.087 1.087 1.087 1.087 1.087 1.087 1.087 1.087 1.087 1.087 1.086 1.086 1.085 1.083 1.081 1.076 1.066 1.045 1.001 0.963 0.948 0.938 0.918 0.862 0.761 0.606 0.480 0.432 0.441 0.493 0.493 0.000 
0.000 0.001 0.001 0.017 0.046 0.059 0.061 0.061 0.064 0.074 0.094 0.127 0.168 0.197 0.213 0.222 0.227 0.229 0.231 0.232 0.233 0.233 0.234 0.234 0.235 0.236 0.237 0.239 0.242 0.246 0.253 0.265 0.285 0.317 0.365 0.436 0.537 0.665 0.779 0.857 0.906 0.932 0.940 0.940 0.931 0.904 0.846 0.769 0.725 0.708 0.706 0.715 0.714 0.695 0.651 0.620 0.612 0.618 0.649 0.719 0.795 0.839 0.861 0.878 0.895 0.912 0.917 0.912 0.887 0.834 0.781 0.754 0.746 0.748 0.761 0.799 0.838 0.862 0.881 0.905 0.941 0.989 1.021 1.040 1.053 1.062 1.070 1.077 1.083 1.090 1.095 1.093 1.084 1.058 1.006 0.912 0.768 0.639 0.563 0.532 0.527 0.539 0.587 0.658 0.692 0.696 0.682 0.637 0.595 0.582 0.582 0.597 0.641 0.725 0.841 0.965 1.058 1.120 1.163 1.193 1.208 1.215 1.215 1.210 1.192 1.156 1.125 1.107 1.098 1.093 1.090 1.089 1.088 1.088 1.088 1.088 1.088 1.088 1.088 1.088 1.088 1.088 1.088 1.088 1.087 1.087 1.086 1.084 1.082 1.079 1.074 1.067 1.056 1.037 1.009 0.979 0.956 0.933 0.906 0.860 0.785 0.707 0.666 0.656 0.670 0.707 0.707 0.000 
0.000 0.000 0.000 0.009 0.039 0.064 0.080 0.091 0.102 0.114 0.131 0.154 0.181 0.202 0.216 0.226 0.232 0.236 0.238 0.240 0.242 0.244 0.245 0.247 0.249 0.251 0.255 0.259 0.265 0.275 0.289 0.309 0.337 0.375 0.424 0.490 0.577 0.681 0.770 0.834 0.875 0.897 0.905 0.906 0.902 0.886 0.852 0.804 0.769 0.749 0.737 0.729 0.721 0.710 0.693 0.683 0.683 0.689 0.709 0.748 0.799 0.838 0.865 0.885 0.900 0.908 0.910 0.906 0.889 0.856 0.824 0.808 0.802 0.802 0.806 0.820 0.844 0.869 0.896 0.925 0.958 0.992 1.016 1.032 1.043 1.051 1.057 1.062 1.063 1.063 1.061 1.053 1.037 1.008 0.959 0.882 0.775 0.684 0.630 0.605 0.599 0.603 0.623 0.657 0.674 0.676 0.671 0.651 0.633 0.628 0.630 0.642 0.674 0.731 0.815 0.914 0.994 1.056 1.105 1.139 1.158 1.164 1.165 1.163 1.157 1.142 1.122 1.107 1.098 1.093 1.090 1.089 1.088 1.088 1.088 1.088 1.089 1.089 1.089 1.089 1.089 1.089 1.089 1.088 1.088 1.087 1.086 1.083 1.081 1.076 1.071 1.062 1.051 1.034 1.013 0.987 0.960 0.934 0.906 0.870 0.830 0.804 0.795 0.799 0.818 0.833 0.833 0.000 
0.000 0.000 0.000 0.009 0.042 0.077 0.104 0.123 0.139 0.154 0.168 0.183 0.199 0.213 0.225 0.234 0.240 0.245 0.249 0.252 0.254 0.257 0.260 0.263 0.266 0.271 0.276 0.284 0.294 0.309 0.328 0.353 0.384 0.422 0.470 0.531 0.608 0.695 0.767 0.820 0.856 0.877 0.887 0.889 0.888 0.879 0.860 0.830 0.802 0.782 0.766 0.753 0.745 0.739 0.737 0.737 0.741 0.748 0.762 0.783 0.814 0.846 0.873 0.893 0.904 0.909 0.910 0.906 0.896 0.878 0.861 0.851 0.848 0.847 0.848 0.853 0.864 0.884 0.911 0.941 0.971 0.997 1.016 1.028 1.037 1.042 1.045 1.047 1.046 1.044 1.037 1.025 1.006 0.975 0.929 0.864 0.781 0.715 0.673 0.651 0.643 0.642 0.648 0.662 0.670 0.672 0.669 0.661 0.655 0.654 0.658 0.669 0.693 0.735 0.795 0.871 0.942 0.999 1.045 1.078 1.099 1.112 1.120 1.124 1.125 1.122 1.113 1.104 1.096 1.092 1.089 1.088 1.088 1.088 1.088 1.089 1.089 1.090 1.090 1.090 1.090 1.090 1.090 1.089 1.088 1.087 1.085 1.083 1.080 1.075 1.068 1.060 1.048 1.033 1.014 0.990 0.964 0.939 0.915 0.895 0.882 0.877 0.879 0.894 0.923 0.934 0.934 0.000 
0.000 0.034 0.034 0.022 0.056 0.101 0.135 0.160 0.179 0.193 0.205 0.214 0.223 0.232 0.240 0.247 0.253 0.258 0.262 0.266 0.270 0.273 0.277 0.282 0.287 0.294 0.302 0.313 0.327 0.344 0.366 0.391 0.423 0.461 0.507 0.563 0.632 0.706 0.766 0.812 0.845 0.865 0.877 0.882 0.883 0.879 0.869 0.852 0.831 0.814 0.799 0.787 0.782 0.781 0.783 0.789 0.795 0.803 0.811 0.823 0.839 0.863 0.886 0.901 0.910 0.913 0.914 0.913 0.909 0.902 0.894 0.890 0.889 0.889 0.889 0.891 0.895 0.907 0.928 0.956 0.982 1.002 1.017 1.027 1.033 1.036 1.037 1.037 1.035 1.030 1.020 1.005 0.983 0.952 0.910 0.853 0.787 0.736 0.702 0.681 0.670 0.666 0.666 0.669 0.671 0.672 0.671 0.670 0.669 0.670 0.675 0.685 0.704 0.735 0.780 0.838 0.899 0.950 0.991 1.024 1.048 1.066 1.080 1.090 1.096 1.099 1.099 1.096 1.092 1.089 1.088 1.087 1.087 1.088 1.088 1.089 1.090 1.090 1.091 1.091 1.091 1.091 1.090 1.090 1.089 1.088 1.086 1.083 1.079 1.074 1.068 1.059 1.047 1.032 1.014 0.992 0.969 0.949 0.935 0.928 0.925 0.926 0.933 0.952 0.989 1.015 1.015 0.000 
0.000 0.071 0.071 0.060 0.094 0.141 0.177 0.203 0.221 0.234 0.242 0.248 0.252 0.256 0.261 0.266 0.270 0.275 0.279 0.284 0.288 0.293 0.298 0.304 0.311 0.320 0.330 0.343 0.359 0.377 0.399 0.425 0.456 0.493 0.537 0.589 0.651 0.715 0.768 0.809 0.839 0.860 0.873 0.880 0.882 0.882 0.879 0.871 0.859 0.846 0.836 0.830 0.828 0.829 0.834 0.841 0.848 0.853 0.859 0.865 0.873 0.887 0.903 0.914 0.920 0.923 0.925 0.926 0.927 0.927 0.927 0.926 0.927 0.928 0.929 0.931 0.933 0.939 0.952 0.972 0.993 1.009 1.021 1.028 1.032 1.034 1.033 1.032 1.027 1.019 1.008 0.991 0.968 0.937 0.897 0.846 0.792 0.751 0.721 0.701 0.689 0.682 0.678 0.677 0.676 0.676 0.676 0.676 0.677 0.680 0.684 0.694 0.709 0.734 0.768 0.812 0.862 0.907 0.945 0.976 1.003 1.024 1.042 1.056 1.067 1.076 1.081 1.084 1.084 1.084 1.085 1.085 1.086 1.087 1.088 1.089 1.090 1.090 1.091 1.091 1.091 1.091 1.091 1.091 1.090 1.088 1.086 1.083 1.079 1.074 1.067 1.058 1.047 1.032 1.014 0.995 0.977 0.965 0.958 0.956 0.955 0.958 0.966 0.985 1.019 1.047 1.047 0.000 
0.000 0.210 0.210 0.137 0.165 0.202 0.233 0.255 0.269 0.278 0.283 0.285 0.286 0.286 0.288 0.290 0.293 0.296 0.300 0.304 0.309 0.315 0.321 0.328 0.337 0.347 0.358 0.371 0.387 0.406 0.428 0.454 0.485 0.520 0.562 0.611 0.667 0.723 0.770 0.808 0.836 0.857 0.871 0.880 0.885 0.889 0.890 0.890 0.886 0.880 0.877 0.876 0.878 0.881 0.886 0.892 0.897 0.902 0.905 0.908 0.911 0.917 0.925 0.932 0.937 0.940 0.943 0.946 0.951 0.955 0.959 0.961 0.963 0.965 0.967 0.969 0.971 0.974 0.980 0.992 1.006 1.018 1.026 1.030 1.033 1.033 1.032 1.028 1.022 1.012 0.999 0.980 0.956 0.926 0.888 0.842 0.796 0.760 0.733 0.714 0.701 0.693 0.687 0.684 0.682 0.681 0.681 0.682 0.683 0.685 0.690 0.698 0.711 0.731 0.758 0.792 0.831 0.870 0.905 0.935 0.961 0.985 1.006 1.024 1.039 1.052 1.062 1.069 1.074 1.077 1.079 1.081 1.083 1.085 1.087 1.088 1.090 1.091 1.091 1.092 1.092 1.092 1.092 1.091 1.090 1.089 1.087 1.084 1.079 1.074 1.067 1.058 1.047 1.032 1.015 0.998 0.987 0.979 0.975 0.974 0.975 0.978 0.986 1.002 1.028 1.044 1.044 0.000 
0.000 0.354 0.354 0.278 0.274 0.289 0.305 0.316 0.322 0.324 0.323 0.322 0.321 0.319 0.319 0.319 0.320 0.322 0.324 0.328 0.333 0.339 0.345 0.352 0.361 0.371 0.383 0.397 0.413 0.432 0.455 0.480 0.510 0.544 0.584 0.629 0.680 0.730 0.772 0.808 0.836 0.857 0.872 0.883 0.892 0.899 0.905 0.910 0.913 0.915 0.917 0.920 0.924 0.929 0.934 0.940 0.944 0.947 0.949 0.950 0.951 0.952 0.954 0.957 0.960 0.964 0.968 0.973 0.979 0.986 0.992 0.996 0.999 1.001 1.003 1.004 1.006 1.008 1.010 1.015 1.022 1.029 1.033 1.035 1.035 1.034 1.031 1.027 1.019 1.007 0.992 0.973 0.948 0.918 0.881 0.838 0.799 0.767 0.742 0.723 0.710 0.700 0.693 0.689 0.687 0.686 0.685 0.686 0.686 0.689 0.693 0.699 0.711 0.727 0.748 0.775 0.806 0.839 0.870 0.898 0.924 0.949 0.972 0.993 1.011 1.028 1.041 1.052 1.061 1.067 1.072 1.077 1.080 1.083 1.086 1.088 1.089 1.090 1.091 1.092 1.092 1.092 1.092 1.092 1.091 1.089 1.087 1.084 1.080 1.074 1.067 1.058 1.047 1.032 1.016 1.003 0.994 0.989 0.987 0.986 0.987 0.990 0.997 1.011 1.030 1.042 1.042 0.000 
0.000 0.479 0.479 0.414 0.402 0.388 0.381 0.375 0.369 0.364 0.359 0.355 0.352 0.349 0.348 0.348 0.348 0.349 0.350 0.353 0.357 0.362 0.367 0.374 0.383 0.393 0.406 0.420 0.437 0.456 0.478 0.504 0.533 0.565 0.602 0.644 0.691 0.736 0.776 0.809 0.836 0.857 0.874 0.889 0.902 0.913 0.924 0.933 0.941 0.948 0.955 0.961 0.966 0.972 0.978 0.983 0.987 0.990 0.992 0.992 0.992 0.990 0.989 0.990 0.991 0.994 0.998 1.004 1.012 1.020 1.027 1.031 1.034 1.036 1.037 1.038 1.039 1.040 1.040 1.040 1.042 1.043 1.043 1.041 1.039 1.036 1.032 1.026 1.017 1.004 0.988 0.967 0.942 0.912 0.876 0.836 0.801 0.771 0.748 0.729 0.715 0.705 0.698 0.693 0.690 0.688 0.688 0.688 0.688 0.690 0.693 0.700 0.709 0.722 0.739 0.761 0.785 0.812 0.839 0.865 0.890 0.914 0.938 0.961 0.983 1.003 1.020 1.034 1.046 1.056 1.064 1.070 1.076 1.080 1.084 1.086 1.089 1.090 1.091 1.092 1.092 1.092 1.092 1.092 1.091 1.090 1.088 1.085 1.081 1.075 1.068 1.059 1.048 1.033 1.019 1.007 1.000 0.995 0.993 0.993 0.993 0.996 1.002 1.014 1.030 1.039 1.039 0.000 
0.000 0.603 0.603 0.537 0.496 0.462 0.438 0.421 0.407 0.397 0.388 0.382 0.378 0.375 0.373 0.373 0.372 0.373 0.374 0.375 0.378 0.382 0.387 0.394 0.403 0.414 0.426 0.441 0.458 0.478 0.500 0.525 0.553 0.584 0.619 0.658 0.701 0.742 0.779 0.810 0.837 0.860 0.880 0.898 0.915 0.931 0.945 0.959 0.971 0.981 0.990 0.998 1.005 1.012 1.018 1.023 1.027 1.030 1.032 1.032 1.032 1.031 1.029 1.029 1.029 1.031 1.034 1.040 1.048 1.056 1.062 1.066 1.068 1.069 1.070 1.070 1.070 1.070 1.069 1.067 1.063 1.060 1.056 1.052 1.047 1.041 1.034 1.026 1.016 1.002 0.985 0.963 0.938 0.908 0.873 0.835 0.802 0.774 0.752 0.733 0.719 0.708 0.700 0.695 0.692 0.690 0.689 0.689 0.689 0.691 0.694 0.699 0.707 0.718 0.731 0.748 0.767 0.789 0.813 0.836 0.859 0.883 0.906 0.930 0.954 0.977 0.997 1.015 1.030 1.043 1.054 1.063 1.070 1.076 1.081 1.085 1.087 1.089 1.091 1.092 1.092 1.092 1.092 1.092 1.091 1.090 1.089 1.086 1.082 1.076 1.069 1.060 1.049 1.036 1.022 1.011 1.003 0.999 0.996 0.996 0.996 0.998 1.004 1.015 1.029 1.036 1.036 0.000 
0.000 0.640 0.640 0.609 0.560 0.512 0.478 0.454 0.436 0.422 0.412 0.405 0.399 0.396 0.394 0.393 0.393 0.393 0.393 0.395 0.397 0.400 0.406 0.413 0.422 0.432 0.445 0.461 0.478 0.498 0.520 0.544 0.571 0.601 0.634 0.670 0.710 0.748 0.783 0.814 0.841 0.866 0.889 0.911 0.932 0.951 0.969 0.986 1.000 1.012 1.023 1.032 1.041 1.048 1.055 1.060 1.064 1.067 1.069 1.070 1.071 1.071 1.071 1.071 1.071 1.072 1.075 1.080 1.086 1.092 1.096 1.099 1.100 1.101 1.101 1.101 1.100 1.099 1.096 1.093 1.087 1.080 1.072 1.065 1.057 1.048 1.039 1.028 1.016 1.001 0.983 0.961 0.934 0.904 0.870 0.834 0.803 0.776 0.754 0.736 0.722 0.711 0.702 0.696 0.692 0.690 0.689 0.689 0.689 0.691 0.693 0.698 0.704 0.712 0.723 0.736 0.752 0.770 0.789 0.810 0.832 0.854 0.877 0.901 0.926 0.951 0.975 0.995 1.014 1.030 1.043 1.054 1.064 1.071 1.078 1.082 1.086 1.089 1.090 1.091 1.092 1.092 1.092 1.092 1.092 1.091 1.089 1.087 1.083 1.078 1.071 1.063 1.052 1.039 1.026 1.014 1.006 1.000 0.997 0.996 0.997 0.999 1.004 1.015 1.027 1.034 1.034 0.000 
0.000 0.675 0.675 0.647 0.595 0.542 0.504 0.477 0.456 0.441 0.430 0.422 0.417 0.413 0.411 0.410 0.410 0.410 0.410 0.411 0.413 0.417 0.422 0.429 0.438 0.450 0.463 0.478 0.496 0.515 0.537 0.561 0.588 0.617 0.648 0.682 0.719 0.755 0.788 0.819 0.848 0.876 0.902 0.927 0.952 0.974 0.994 1.012 1.028 1.041 1.053 1.064 1.073 1.081 1.088 1.094 1.098 1.102 1.104 1.106 1.107 1.108 1.109 1.109 1.110 1.112 1.114 1.117 1.122 1.126 1.128 1.130 1.130 1.131 1.131 1.130 1.129 1.126 1.123 1.118 1.111 1.102 1.092 1.081 1.069 1.057 1.045 1.032 1.017 1.001 0.982 0.959 0.932 0.902 0.867 0.833 0.804 0.778 0.756 0.738 0.723 0.712 0.703 0.697 0.693 0.690 0.689 0.689 0.689 0.690 0.692 0.695 0.700 0.707 0.715 0.726 0.738 0.753 0.769 0.787 0.807 0.827 0.850 0.873 0.898 0.925 0.951 0.975 0.996 1.015 1.031 1.045 1.056 1.066 1.073 1.079 1.084 1.087 1.089 1.091 1.092 1.092 1.092 1.092 1.092 1.091 1.089 1.087 1.084 1.079 1.073 1.066 1.056 1.044 1.031 1.018 1.008 1.001 0.997 0.996 0.996 0.998 1.003 1.012 1.024 1.031 1.031 0.000 
0.000 0.650 0.650 0.652 0.607 0.557 0.519 0.490 0.470 0.455 0.444 0.436 0.430 0.427 0.425 0.424 0.423 0.423 0.424 0.425 0.427 0.431 0.437 0.444 0.454 0.466 0.479 0.495 0.512 0.532 0.553 0.577 0.603 0.631 0.661 0.693 0.727 0.762 0.795 0.827 0.859 0.889 0.919 0.947 0.973 0.997 1.018 1.037 1.053 1.068 1.081 1.093 1.103 1.111 1.119 1.125 1.130 1.134 1.137 1.139 1.141 1.142 1.143 1.144 1.146 1.147 1.149 1.151 1.154 1.156 1.158 1.159 1.159 1.159 1.158 1.157 1.155 1.152 1.147 1.141 1.134 1.124 1.112 1.099 1.084 1.069 1.054 1.038 1.020 1.002 0.981 0.958 0.931 0.900 0.866 0.833 0.804 0.779 0.757 0.739 0.725 0.713 0.704 0.697 0.693 0.690 0.689 0.688 0.689 0.689 0.690 0.692 0.696 0.701 0.707 0.715 0.725 0.737 0.751 0.767 0.784 0.804 0.825 0.848 0.872 0.899 0.927 0.954 0.979 1.000 1.019 1.035 1.048 1.060 1.069 1.076 1.081 1.085 1.088 1.090 1.091 1.092 1.092 1.092 1.092 1.091 1.090 1.088 1.085 1.080 1.075 1.068 1.059 1.048 1.035 1.022 1.010 1.001 0.996 0.994 0.993 0.994 0.998 1.007 1.021 1.029 1.029 0.000 
0.000 0.624 0.624 0.632 0.607 0.563 0.525 0.498 0.478 0.463 0.453 0.446 0.441 0.437 0.436 0.435 0.434 0.434 0.435 0.436 0.439 0.444 0.450 0.458 0.468 0.480 0.494 0.510 0.527 0.547 0.568 0.591 0.616 0.644 0.673 0.704 0.736 0.770 0.804 0.838 0.872 0.905 0.937 0.966 0.993 1.018 1.040 1.059 1.077 1.093 1.107 1.119 1.130 1.139 1.147 1.153 1.159 1.163 1.166 1.169 1.171 1.173 1.175 1.176 1.177 1.179 1.180 1.182 1.184 1.185 1.186 1.186 1.186 1.185 1.184 1.182 1.180 1.176 1.170 1.163 1.155 1.145 1.132 1.118 1.102 1.084 1.065 1.046 1.026 1.004 0.982 0.957 0.930 0.899 0.865 0.833 0.805 0.780 0.758 0.740 0.725 0.713 0.704 0.697 0.693 0.690 0.688 0.687 0.687 0.687 0.687 0.689 0.691 0.694 0.699 0.705 0.713 0.723 0.734 0.748 0.764 0.782 0.802 0.824 0.848 0.875 0.903 0.933 0.960 0.985 1.006 1.024 1.040 1.053 1.063 1.072 1.078 1.083 1.087 1.089 1.091 1.091 1.092 1.092 1.091 1.091 1.090 1.088 1.085 1.081 1.076 1.069 1.061 1.051 1.039 1.025 1.012 1.001 0.993 0.988 0.986 0.986 0.989 0.998 1.015 1.026 1.026 0.000 
0.000 0.598 0.598 0.608 0.594 0.563 0.527 0.500 0.481 0.468 0.459 0.452 0.448 0.445 0.444 0.443 0.443 0.443 0.444 0.446 0.450 0.455 0.462 0.471 0.481 0.493 0.507 0.523 0.540 0.560 0.581 0.604 0.629 0.655 0.684 0.715 0.747 0.780 0.815 0.851 0.887 0.921 0.954 0.984 1.011 1.037 1.059 1.080 1.099 1.115 1.130 1.143 1.154 1.164 1.172 1.179 1.185 1.190 1.194 1.197 1.199 1.201 1.203 1.205 1.206 1.207 1.208 1.210 1.210 1.211 1.211 1.211 1.211 1.210 1.208 1.206 1.202 1.198 1.192 1.184 1.175 1.164 1.151 1.136 1.119 1.099 1.078 1.056 1.033 1.009 0.984 0.958 0.929 0.898 0.864 0.833 0.805 0.780 0.759 0.741 0.726 0.713 0.704 0.697 0.692 0.688 0.686 0.685 0.684 0.684 0.684 0.684 0.686 0.688 0.691 0.695 0.702 0.710 0.720 0.732 0.746 0.763 0.782 0.803 0.827 0.852 0.881 0.911 0.941 0.969 0.992 1.013 1.030 1.045 1.057 1.067 1.075 1.081 1.085 1.088 1.090 1.091 1.091 1.091 1.091 1.091 1.090 1.088 1.085 1.081 1.076 1.070 1.062 1.052 1.041 1.028 1.013 1.000 0.987 0.977 0.972 0.970 0.972 0.981 1.006 1.023 1.023 0.000 
0.000 0.572 0.572 0.583 0.575 0.556 0.527 0.500 0.482 0.470 0.462 0.456 0.453 0.451 0.450 0.450 0.450 0.450 0.452 0.455 0.459 0.465 0.473 0.482 0.493 0.505 0.519 0.535 0.552 0.571 0.592 0.615 0.639 0.666 0.694 0.724 0.756 0.790 0.825 0.863 0.900 0.935 0.968 0.999 1.028 1.054 1.077 1.099 1.118 1.136 1.151 1.165 1.177 1.187 1.196 1.203 1.209 1.215 1.219 1.222 1.225 1.227 1.229 1.230 1.232 1.233 1.234 1.234 1.235 1.235 1.235 1.235 1.234 1.233 1.231 1.228 1.224 1.218 1.212 1.204 1.194 1.182 1.169 1.153 1.135 1.115 1.092 1.068 1.042 1.015 0.988 0.959 0.929 0.897 0.864 0.834 0.806 0.781 0.760 0.741 0.726 0.713 0.703 0.696 0.690 0.686 0.683 0.681 0.680 0.679 0.679 0.679 0.680 0.681 0.683 0.686 0.691 0.697 0.706 0.717 0.730 0.746 0.764 0.784 0.807 0.832 0.860 0.891 0.923 0.952 0.978 1.001 1.021 1.037 1.051 1.062 1.071 1.078 1.083 1.086 1.088 1.090 1.090 1.091 1.090 1.090 1.089 1.088 1.085 1.082 1.077 1.070 1.062 1.053 1.042 1.029 1.014 0.999 0.983 0.967 0.953 0.943 0.940 0.948 0.988 1.042 1.042 0.000 
0.000 0.546 0.546 0.558 0.553 0.541 0.522 0.499 0.482 0.470 0.463 0.458 0.456 0.455 0.454 0.454 0.455 0.456 0.459 0.463 0.468 0.474 0.482 0.492 0.503 0.516 0.530 0.545 0.563 0.582 0.602 0.625 0.649 0.675 0.703 0.733 0.765 0.799 0.835 0.873 0.911 0.947 0.981 1.013 1.042 1.069 1.093 1.116 1.136 1.154 1.170 1.184 1.197 1.208 1.217 1.225 1.231 1.237 1.241 1.245 1.248 1.250 1.252 1.254 1.255 1.256 1.256 1.257 1.257 1.257 1.257 1.256 1.255 1.254 1.251 1.248 1.243 1.238 1.231 1.222 1.212 1.199 1.185 1.169 1.150 1.129 1.106 1.081 1.053 1.024 0.993 0.962 0.930 0.897 0.865 0.834 0.807 0.782 0.760 0.742 0.726 0.713 0.703 0.694 0.688 0.683 0.679 0.676 0.675 0.674 0.673 0.673 0.673 0.673 0.675 0.677 0.681 0.686 0.694 0.704 0.716 0.730 0.747 0.767 0.789 0.813 0.841 0.871 0.904 0.936 0.964 0.989 1.011 1.029 1.044 1.057 1.066 1.074 1.080 1.084 1.087 1.089 1.089 1.090 1.090 1.089 1.089 1.087 1.085 1.081 1.077 1.070 1.063 1.053 1.042 1.029 1.015 0.998 0.981 0.961 0.940 0.915 0.891 0.876 0.914 1.069 1.069 0.000 
0.000 0.520 0.520 0.533 0.530 0.523 0.511 0.495 0.480 0.469 0.463 0.459 0.457 0.457 0.457 0.457 0.459 0.461 0.465 0.469 0.475 0.482 0.491 0.501 0.512 0.525 0.539 0.554 0.572 0.590 0.611 0.633 0.657 0.683 0.711 0.741 0.773 0.807 0.843 0.881 0.920 0.957 0.992 1.025 1.055 1.082 1.108 1.131 1.152 1.170 1.187 1.202 1.215 1.226 1.236 1.244 1.251 1.257 1.262 1.266 1.269 1.271 1.273 1.275 1.276 1.276 1.277 1.277 1.277 1.277 1.277 1.276 1.275 1.273 1.270 1.266 1.262 1.255 1.248 1.239 1.228 1.215 1.201 1.184 1.165 1.143 1.119 1.093 1.064 1.033 1.001 0.967 0.932 0.898 0.866 0.835 0.808 0.783 0.761 0.742 0.726 0.712 0.701 0.692 0.684 0.678 0.674 0.671 0.668 0.667 0.666 0.666 0.666 0.666 0.666 0.668 0.671 0.676 0.683 0.692 0.703 0.716 0.732 0.751 0.772 0.797 0.823 0.853 0.886 0.919 0.950 0.977 1.000 1.020 1.037 1.051 1.062 1.070 1.077 1.082 1.085 1.087 1.088 1.089 1.089 1.089 1.088 1.087 1.085 1.081 1.077 1.070 1.063 1.053 1.042 1.029 1.014 0.998 0.979 0.959 0.934 0.903 0.858 0.783 0.685 0.679 0.679 0.000 
0.000 0.495 0.495 0.507 0.505 0.502 0.496 0.486 0.475 0.467 0.462 0.459 0.458 0.458 0.458 0.460 0.462 0.465 0.470 0.475 0.482 0.490 0.498 0.509 0.520 0.533 0.547 0.562 0.579 0.598 0.618 0.640 0.664 0.690 0.717 0.747 0.779 0.813 0.850 0.888 0.928 0.966 1.001 1.035 1.066 1.094 1.120 1.144 1.166 1.185 1.202 1.218 1.231 1.243 1.253 1.262 1.269 1.275 1.280 1.285 1.288 1.290 1.292 1.294 1.295 1.295 1.295 1.296 1.295 1.295 1.295 1.294 1.293 1.290 1.287 1.283 1.278 1.272 1.264 1.254 1.243 1.230 1.215 1.198 1.178 1.156 1.132 1.105 1.076 1.043 1.009 0.972 0.935 0.900 0.868 0.837 0.810 0.785 0.762 0.742 0.725 0.711 0.698 0.688 0.680 0.673 0.668 0.664 0.661 0.659 0.658 0.658 0.658 0.658 0.659 0.660 0.663 0.667 0.673 0.681 0.691 0.704 0.719 0.737 0.758 0.781 0.808 0.837 0.870 0.904 0.936 0.964 0.989 1.011 1.029 1.044 1.056 1.066 1.074 1.079 1.083 1.085 1.086 1.087 1.087 1.087 1.087 1.086 1.084 1.081 1.076 1.070 1.063 1.053 1.042 1.029 1.014 0.997 0.978 0.958 0.933 0.901 0.853 0.763 0.559 0.134 0.134 0.000 
0.000 0.469 0.469 0.481 0.481 0.480 0.477 0.473 0.467 0.462 0.459 0.458 0.457 0.458 0.459 0.462 0.465 0.469 0.474 0.480 0.488 0.496 0.505 0.515 0.527 0.539 0.553 0.569 0.586 0.604 0.624 0.646 0.670 0.695 0.723 0.753 0.785 0.819 0.855 0.894 0.934 0.973 1.010 1.044 1.075 1.104 1.131 1.156 1.178 1.198 1.216 1.232 1.246 1.258 1.269 1.278 1.285 1.292 1.297 1.301 1.305 1.307 1.309 1.311 1.311 1.312 1.312 1.312 1.312 1.312 1.311 1.310 1.309 1.306 1.303 1.299 1.294 1.287 1.279 1.269 1.257 1.244 1.229 1.211 1.191 1.169 1.144 1.117 1.086 1.054 1.018 0.979 0.940 0.904 0.871 0.840 0.812 0.786 0.763 0.743 0.725 0.709 0.696 0.684 0.675 0.668 0.662 0.657 0.654 0.652 0.651 0.651 0.651 0.651 0.651 0.653 0.655 0.659 0.664 0.672 0.681 0.693 0.708 0.725 0.745 0.767 0.793 0.822 0.855 0.889 0.922 0.952 0.978 1.002 1.021 1.038 1.051 1.062 1.070 1.076 1.080 1.083 1.085 1.085 1.086 1.086 1.085 1.084 1.083 1.080 1.076 1.070 1.062 1.053 1.041 1.028 1.013 0.996 0.978 0.958 0.936 0.906 0.863 0.790 0.647 0.435 0.435 0.000 
0.000 0.443 0.443 0.456 0.456 0.456 0.457 0.456 0.455 0.454 0.454 0.455 0.456 0.458 0.460 0.463 0.467 0.472 0.478 0.485 0.493 0.501 0.510 0.521 0.532 0.545 0.559 0.574 0.591 0.609 0.629 0.651 0.674 0.700 0.728 0.757 0.789 0.823 0.860 0.898 0.939 0.979 1.016 1.051 1.083 1.113 1.141 1.166 1.189 1.210 1.228 1.244 1.259 1.272 1.283 1.292 1.300 1.307 1.312 1.316 1.320 1.323 1.324 1.326 1.327 1.327 1.327 1.327 1.327 1.327 1.326 1.325 1.324 1.321 1.318 1.313 1.308 1.301 1.293 1.283 1.271 1.257 1.241 1.224 1.203 1.181 1.156 1.128 1.097 1.064 1.027 0.987 0.947 0.910 0.875 0.844 0.815 0.788 0.765 0.743 0.724 0.708 0.693 0.681 0.671 0.663 0.657 0.652 0.649 0.646 0.645 0.645 0.644 0.645 0.645 0.646 0.648 0.652 0.657 0.663 0.672 0.684 0.697 0.714 0.733 0.755 0.780 0.809 0.841 0.876 0.910 0.941 0.968 0.992 1.013 1.031 1.045 1.057 1.066 1.072 1.077 1.080 1.082 1.083 1.084 1.084 1.083 1.083 1.081 1.078 1.074 1.069 1.061 1.052 1.040 1.026 1.011 0.994 0.977 0.961 0.944 0.925 0.906 0.892 0.909 1.014 1.014 0.000 
0.000 0.417 0.417 0.430 0.431 0.433 0.434 0.437 0.440 0.443 0.447 0.450 0.453 0.456 0.460 0.464 0.469 0.475 0.482 0.489 0.497 0.505 0.515 0.525 0.537 0.550 0.563 0.578 0.595 0.613 0.633 0.655 0.678 0.704 0.731 0.761 0.793 0.827 0.863 0.902 0.943 0.984 1.022 1.057 1.090 1.121 1.149 1.175 1.198 1.220 1.239 1.255 1.270 1.283 1.295 1.305 1.313 1.320 1.325 1.330 1.333 1.336 1.338 1.339 1.340 1.341 1.341 1.341 1.341 1.341 1.340 1.339 1.337 1.334 1.331 1.326 1.321 1.314 1.305 1.295 1.283 1.269 1.253 1.235 1.215 1.192 1.167 1.139 1.108 1.074 1.037 0.996 0.955 0.916 0.880 0.848 0.818 0.791 0.766 0.744 0.724 0.707 0.692 0.679 0.668 0.659 0.652 0.647 0.644 0.641 0.640 0.639 0.639 0.639 0.639 0.640 0.642 0.645 0.650 0.656 0.664 0.675 0.688 0.704 0.722 0.744 0.769 0.797 0.828 0.863 0.898 0.930 0.959 0.984 1.005 1.024 1.039 1.051 1.061 1.068 1.074 1.077 1.079 1.081 1.081 1.081 1.081 1.080 1.079 1.076 1.072 1.067 1.059 1.050 1.038 1.024 1.007 0.991 0.977 0.966 0.958 0.954 0.957 0.975 1.038 1.132 1.132 0.000 
0.000 0.391 0.391 0.405 0.407 0.410 0.414 0.418 0.424 0.431 0.438 0.444 0.449 0.455 0.460 0.465 0.471 0.477 0.484 0.492 0.500 0.509 0.519 0.529 0.540 0.553 0.567 0.582 0.598 0.616 0.636 0.658 0.681 0.707 0.734 0.764 0.796 0.830 0.866 0.905 0.946 0.987 1.026 1.062 1.096 1.127 1.156 1.183 1.207 1.228 1.248 1.265 1.280 1.294 1.306 1.316 1.324 1.331 1.337 1.342 1.346 1.348 1.350 1.352 1.353 1.353 1.353 1.353 1.353 1.353 1.352 1.351 1.349 1.347 1.343 1.338 1.333 1.326 1.317 1.307 1.295 1.281 1.265 1.247 1.226 1.203 1.178 1.149 1.118 1.084 1.047 1.006 0.963 0.924 0.887 0.853 0.822 0.794 0.768 0.745 0.725 0.706 0.691 0.677 0.665 0.656 0.649 0.643 0.639 0.637 0.635 0.634 0.634 0.634 0.634 0.635 0.637 0.640 0.644 0.650 0.658 0.668 0.680 0.695 0.713 0.734 0.759 0.786 0.817 0.852 0.888 0.920 0.950 0.975 0.998 1.017 1.033 1.046 1.056 1.064 1.070 1.074 1.076 1.077 1.078 1.078 1.078 1.077 1.076 1.074 1.070 1.064 1.057 1.047 1.034 1.019 1.002 0.987 0.976 0.969 0.967 0.969 0.980 1.009 1.067 1.116 1.116 0.000 
0.000 0.365 0.365 0.379 0.384 0.389 0.395 0.403 0.413 0.422 0.431 0.439 0.446 0.453 0.459 0.466 0.472 0.479 0.487 0.494 0.503 0.512 0.521 0.532 0.543 0.556 0.569 0.584 0.601 0.619 0.638 0.660 0.684 0.709 0.737 0.766 0.798 0.832 0.869 0.907 0.949 0.990 1.030 1.067 1.101 1.133 1.162 1.189 1.214 1.236 1.256 1.273 1.289 1.303 1.315 1.325 1.334 1.342 1.348 1.353 1.356 1.359 1.361 1.363 1.364 1.364 1.364 1.364 1.364 1.364 1.363 1.362 1.360 1.357 1.354 1.349 1.344 1.336 1.328 1.317 1.305 1.291 1.275 1.257 1.237 1.214 1.188 1.160 1.128 1.094 1.057 1.016 0.973 0.932 0.894 0.858 0.826 0.797 0.770 0.747 0.725 0.707 0.690 0.676 0.664 0.654 0.646 0.640 0.636 0.633 0.631 0.630 0.630 0.630 0.630 0.631 0.632 0.635 0.639 0.644 0.652 0.661 0.673 0.688 0.705 0.726 0.750 0.777 0.807 0.841 0.878 0.911 0.941 0.968 0.991 1.010 1.027 1.040 1.051 1.059 1.065 1.070 1.072 1.074 1.074 1.075 1.075 1.074 1.073 1.070 1.066 1.061 1.053 1.043 1.030 1.013 0.996 0.982 0.974 0.970 0.969 0.973 0.987 1.019 1.072 1.107 1.107 0.000 
0.000 0.339 0.339 0.354 0.361 0.369 0.379 0.391 0.404 0.416 0.427 0.436 0.444 0.451 0.459 0.466 0.473 0.481 0.488 0.496 0.505 0.514 0.523 0.534 0.545 0.557 0.571 0.586 0.602 0.620 0.640 0.662 0.685 0.711 0.738 0.768 0.800 0.834 0.870 0.909 0.950 0.992 1.032 1.070 1.105 1.137 1.167 1.194 1.219 1.242 1.262 1.281 1.297 1.311 1.323 1.334 1.343 1.351 1.357 1.362 1.366 1.369 1.371 1.372 1.373 1.374 1.374 1.374 1.374 1.374 1.373 1.372 1.370 1.367 1.364 1.359 1.353 1.346 1.338 1.327 1.315 1.301 1.285 1.267 1.247 1.224 1.198 1.170 1.139 1.104 1.067 1.027 0.983 0.940 0.901 0.864 0.831 0.801 0.773 0.748 0.726 0.707 0.690 0.675 0.663 0.652 0.644 0.638 0.633 0.630 0.628 0.627 0.627 0.627 0.627 0.627 0.629 0.631 0.634 0.640 0.647 0.656 0.667 0.681 0.698 0.718 0.742 0.768 0.798 0.832 0.869 0.903 0.934 0.961 0.984 1.004 1.021 1.035 1.046 1.054 1.061 1.065 1.068 1.070 1.070 1.071 1.070 1.070 1.069 1.066 1.062 1.056 1.048 1.037 1.024 1.006 0.989 0.977 0.970 0.967 0.968 0.973 0.987 1.019 1.070 1.099 1.099 0.000 
0.000 0.314 0.314 0.329 0.339 0.351 0.365 0.383 0.399 0.412 0.424 0.434 0.443 0.451 0.459 0.466 0.474 0.482 0.490 0.498 0.506 0.515 0.525 0.535 0.546 0.559 0.572 0.587 0.604 0.622 0.641 0.663 0.686 0.712 0.739 0.769 0.801 0.835 0.871 0.910 0.951 0.994 1.034 1.072 1.108 1.141 1.171 1.199 1.224 1.247 1.268 1.287 1.303 1.318 1.331 1.341 1.351 1.359 1.365 1.370 1.374 1.377 1.380 1.381 1.382 1.382 1.383 1.383 1.383 1.382 1.382 1.381 1.379 1.376 1.373 1.368 1.363 1.355 1.347 1.337 1.325 1.311 1.295 1.277 1.256 1.233 1.208 1.180 1.148 1.114 1.077 1.037 0.994 0.950 0.909 0.871 0.836 0.805 0.776 0.750 0.728 0.708 0.690 0.675 0.662 0.652 0.643 0.636 0.631 0.628 0.626 0.624 0.624 0.624 0.624 0.624 0.625 0.628 0.631 0.636 0.642 0.651 0.662 0.676 0.692 0.712 0.735 0.761 0.790 0.824 0.860 0.896 0.927 0.954 0.978 0.999 1.016 1.030 1.041 1.050 1.056 1.061 1.063 1.065 1.066 1.066 1.066 1.065 1.064 1.061 1.057 1.051 1.043 1.031 1.017 0.999 0.981 0.969 0.962 0.960 0.960 0.965 0.980 1.012 1.064 1.095 1.095 0.000 
0.000 0.288 0.288 0.305 0.318 0.335 0.356 0.378 0.396 0.411 0.423 0.433 0.442 0.451 0.459 0.467 0.475 0.482 0.490 0.499 0.507 0.516 0.526 0.536 0.547 0.559 0.573 0.588 0.604 0.622 0.642 0.664 0.687 0.712 0.740 0.770 0.801 0.835 0.872 0.911 0.952 0.995 1.036 1.074 1.110 1.143 1.174 1.202 1.228 1.252 1.273 1.292 1.309 1.324 1.337 1.348 1.357 1.365 1.372 1.377 1.382 1.385 1.387 1.389 1.390 1.390 1.390 1.390 1.390 1.390 1.390 1.388 1.387 1.384 1.381 1.376 1.371 1.364 1.355 1.345 1.333 1.319 1.304 1.286 1.265 1.242 1.217 1.189 1.158 1.124 1.088 1.048 1.004 0.959 0.917 0.878 0.842 0.809 0.779 0.753 0.729 0.709 0.691 0.675 0.662 0.651 0.642 0.635 0.630 0.626 0.624 0.622 0.622 0.622 0.622 0.622 0.623 0.625 0.628 0.633 0.639 0.647 0.658 0.671 0.687 0.706 0.729 0.754 0.784 0.817 0.853 0.889 0.921 0.949 0.973 0.994 1.011 1.026 1.037 1.046 1.052 1.057 1.059 1.061 1.062 1.062 1.062 1.061 1.059 1.056 1.052 1.045 1.036 1.024 1.010 0.991 0.973 0.959 0.949 0.943 0.942 0.945 0.957 0.989 1.048 1.092 1.092 0.000 
0.000 0.262 0.262 0.280 0.298 0.322 0.351 0.375 0.395 0.410 0.423 0.433 0.442 0.451 0.459 0.467 0.475 0.483 0.491 0.499 0.508 0.516 0.526 0.536 0.547 0.560 0.573 0.588 0.605 0.623 0.643 0.664 0.687 0.713 0.740 0.770 0.802 0.836 0.872 0.911 0.952 0.995 1.037 1.075 1.112 1.145 1.176 1.205 1.231 1.255 1.277 1.296 1.313 1.329 1.342 1.353 1.363 1.371 1.378 1.384 1.388 1.391 1.394 1.395 1.397 1.397 1.397 1.397 1.397 1.397 1.397 1.396 1.394 1.391 1.388 1.384 1.378 1.371 1.363 1.353 1.341 1.328 1.312 1.294 1.274 1.251 1.226 1.198 1.168 1.134 1.097 1.058 1.015 0.969 0.925 0.885 0.847 0.814 0.783 0.756 0.731 0.710 0.691 0.675 0.662 0.651 0.642 0.634 0.629 0.625 0.622 0.621 0.620 0.620 0.620 0.620 0.621 0.623 0.626 0.630 0.636 0.644 0.654 0.667 0.683 0.702 0.723 0.749 0.778 0.810 0.846 0.883 0.915 0.944 0.969 0.990 1.007 1.022 1.033 1.042 1.049 1.053 1.056 1.057 1.058 1.058 1.058 1.057 1.055 1.052 1.047 1.040 1.030 1.018 1.002 0.984 0.964 0.946 0.930 0.916 0.907 0.904 0.910 0.937 1.008 1.090 1.090 0.000 
0.000 0.236 0.236 0.256 0.280 0.315 0.349 0.375 0.395 0.410 0.423 0.433 0.443 0.451 0.460 0.468 0.476 0.484 0.492 0.500 0.508 0.517 0.526 0.536 0.548 0.560 0.574 0.589 0.605 0.623 0.643 0.664 0.688 0.713 0.740 0.770 0.802 0.836 0.872 0.911 0.952 0.995 1.037 1.076 1.113 1.147 1.178 1.207 1.234 1.258 1.280 1.300 1.317 1.333 1.346 1.358 1.368 1.376 1.383 1.389 1.394 1.397 1.400 1.401 1.403 1.403 1.403 1.404 1.403 1.403 1.403 1.402 1.400 1.398 1.395 1.390 1.385 1.378 1.370 1.360 1.349 1.335 1.320 1.302 1.282 1.260 1.235 1.207 1.177 1.143 1.107 1.068 1.025 0.979 0.934 0.892 0.854 0.819 0.787 0.759 0.734 0.711 0.692 0.676 0.662 0.651 0.641 0.634 0.628 0.624 0.621 0.620 0.619 0.619 0.619 0.619 0.620 0.621 0.624 0.628 0.634 0.642 0.652 0.664 0.679 0.698 0.719 0.744 0.773 0.805 0.841 0.877 0.910 0.939 0.964 0.986 1.004 1.019 1.030 1.039 1.046 1.050 1.053 1.055 1.055 1.055 1.055 1.054 1.052 1.049 1.043 1.036 1.025 1.012 0.995 0.976 0.953 0.929 0.905 0.880 0.856 0.835 0.822 0.830 0.892 1.087 1.087 0.000 
0.000 0.210 0.210 0.232 0.266 0.313 0.349 0.376 0.396 0.412 0.424 0.435 0.444 0.452 0.461 0.468 0.476 0.484 0.492 0.500 0.508 0.517 0.526 0.536 0.548 0.560 0.574 0.589 0.605 0.623 0.643 0.664 0.688 0.713 0.740 0.770 0.802 0.836 0.872 0.911 0.952 0.995 1.037 1.077 1.113 1.148 1.179 1.209 1.236 1.260 1.282 1.302 1.320 1.336 1.350 1.362 1.372 1.381 1.388 1.394 1.398 1.402 1.405 1.407 1.408 1.408 1.409 1.409 1.409 1.409 1.408 1.407 1.406 1.404 1.400 1.396 1.391 1.384 1.376 1.367 1.356 1.342 1.327 1.310 1.290 1.268 1.243 1.216 1.186 1.153 1.117 1.077 1.035 0.989 0.943 0.900 0.860 0.824 0.791 0.762 0.736 0.713 0.694 0.677 0.663 0.651 0.641 0.634 0.628 0.624 0.621 0.619 0.618 0.618 0.618 0.618 0.619 0.620 0.623 0.627 0.632 0.640 0.649 0.662 0.677 0.694 0.716 0.740 0.768 0.800 0.836 0.873 0.906 0.935 0.961 0.983 1.001 1.016 1.028 1.037 1.043 1.048 1.051 1.052 1.053 1.053 1.053 1.052 1.050 1.046 1.040 1.032 1.022 1.007 0.990 0.968 0.942 0.913 0.880 0.843 0.802 0.754 0.699 0.639 0.584 0.612 0.612 0.000 
0.000 0.184 0.184 0.210 0.262 0.316 0.353 0.380 0.400 0.415 0.427 0.437 0.446 0.454 0.462 0.470 0.477 0.484 0.492 0.500 0.508 0.516 0.526 0.536 0.547 0.560 0.574 0.589 0.605 0.623 0.643 0.664 0.688 0.713 0.740 0.770 0.802 0.836 0.872 0.911 0.952 0.995 1.037 1.077 1.114 1.148 1.180 1.210 1.237 1.262 1.284 1.304 1.322 1.339 1.353 1.365 1.375 1.384 1.392 1.398 1.403 1.406 1.409 1.411 1.412 1.413 1.413 1.414 1.414 1.413 1.413 1.412 1.411 1.409 1.406 1.402 1.397 1.390 1.382 1.373 1.362 1.349 1.334 1.317 1.298 1.276 1.251 1.224 1.195 1.162 1.126 1.087 1.045 0.999 0.952 0.908 0.867 0.830 0.796 0.766 0.739 0.716 0.695 0.678 0.663 0.651 0.642 0.634 0.628 0.624 0.621 0.619 0.618 0.617 0.617 0.618 0.618 0.620 0.622 0.626 0.631 0.638 0.648 0.660 0.674 0.692 0.713 0.737 0.765 0.796 0.831 0.868 0.902 0.932 0.958 0.980 0.998 1.014 1.026 1.035 1.042 1.046 1.049 1.050 1.051 1.051 1.051 1.050 1.048 1.044 1.038 1.030 1.019 1.004 0.985 0.962 0.934 0.901 0.862 0.816 0.763 0.699 0.614 0.493 0.287 0.063 0.063 0.000 
0.000 0.193 0.193 0.206 0.271 0.327 0.365 0.390 0.409 0.422 0.433 0.442 0.450 0.457 0.464 0.471 0.478 0.485 0.492 0.499 0.507 0.516 0.525 0.536 0.547 0.560 0.573 0.588 0.605 0.623 0.643 0.664 0.688 0.713 0.740 0.770 0.802 0.836 0.872 0.911 0.952 0.995 1.037 1.077 1.114 1.148 1.181 1.210 1.238 1.263 1.285 1.306 1.324 1.341 1.355 1.367 1.378 1.387 1.395 1.401 1.406 1.410 1.413 1.415 1.416 1.417 1.418 1.418 1.418 1.418 1.417 1.416 1.415 1.413 1.410 1.406 1.401 1.395 1.388 1.379 1.368 1.355 1.340 1.324 1.305 1.283 1.259 1.233 1.203 1.171 1.135 1.097 1.055 1.010 0.962 0.916 0.875 0.836 0.802 0.770 0.743 0.719 0.698 0.680 0.664 0.652 0.642 0.634 0.628 0.624 0.621 0.619 0.618 0.617 0.617 0.617 0.618 0.619 0.621 0.625 0.630 0.637 0.647 0.658 0.673 0.690 0.710 0.734 0.762 0.793 0.828 0.865 0.899 0.929 0.955 0.978 0.996 1.012 1.024 1.033 1.040 1.045 1.048 1.049 1.050 1.050 1.050 1.049 1.047 1.043 1.037 1.028 1.017 1.002 0.982 0.958 0.928 0.892 0.849 0.798 0.737 0.665 0.576 0.450 0.220 0.000 0.000 0.000 
0.000 0.306 0.306 0.251 0.302 0.355 0.387 0.409 0.423 0.434 0.443 0.449 0.456 0.461 0.467 0.473 0.478 0.485 0.491 0.498 0.506 0.515 0.525 0.535 0.547 0.559 0.573 0.588 0.604 0.623 0.642 0.664 0.687 0.712 0.740 0.769 0.801 0.835 0.872 0.910 0.952 0.995 1.037 1.077 1.114 1.148 1.181 1.211 1.238 1.263 1.286 1.307 1.326 1.342 1.357 1.369 1.380 1.390 1.397 1.404 1.409 1.413 1.416 1.418 1.420 1.421 1.421 1.421 1.421 1.421 1.421 1.420 1.419 1.417 1.414 1.411 1.406 1.400 1.393 1.384 1.373 1.361 1.346 1.330 1.311 1.290 1.267 1.241 1.212 1.180 1.145 1.106 1.065 1.020 0.972 0.925 0.882 0.843 0.807 0.775 0.747 0.722 0.700 0.681 0.666 0.653 0.643 0.634 0.628 0.624 0.621 0.619 0.618 0.617 0.617 0.617 0.618 0.619 0.621 0.625 0.630 0.637 0.646 0.657 0.671 0.688 0.709 0.732 0.759 0.790 0.825 0.862 0.896 0.927 0.953 0.976 0.995 1.010 1.023 1.032 1.039 1.044 1.047 1.048 1.049 1.049 1.049 1.048 1.046 1.042 1.036 1.028 1.016 1.000 0.980 0.955 0.925 0.887 0.841 0.786 0.720 0.645 0.565 0.462 0.282 0.000 0.000 0.000 
0.000 0.436 0.436 0.368 0.379 0.407 0.427 0.439 0.446 0.452 0.456 0.459 0.463 0.466 0.470 0.474 0.479 0.484 0.490 0.497 0.505 0.514 0.524 0.534 0.546 0.558 0.572 0.587 0.604 0.622 0.642 0.663 0.686 0.712 0.739 0.769 0.800 0.834 0.871 0.910 0.951 0.994 1.037 1.076 1.114 1.148 1.181 1.211 1.238 1.264 1.287 1.308 1.326 1.343 1.358 1.371 1.382 1.391 1.399 1.406 1.411 1.415 1.419 1.421 1.423 1.424 1.424 1.424 1.424 1.424 1.424 1.423 1.422 1.420 1.418 1.414 1.410 1.404 1.397 1.388 1.378 1.366 1.352 1.336 1.318 1.297 1.274 1.248 1.220 1.188 1.154 1.116 1.075 1.030 0.982 0.935 0.891 0.850 0.813 0.780 0.751 0.725 0.703 0.684 0.668 0.654 0.643 0.635 0.629 0.624 0.621 0.619 0.618 0.617 0.617 0.617 0.618 0.619 0.621 0.625 0.630 0.636 0.645 0.657 0.670 0.687 0.707 0.730 0.757 0.788 0.822 0.859 0.894 0.925 0.951 0.974 0.993 1.009 1.022 1.031 1.038 1.043 1.046 1.048 1.049 1.049 1.048 1.047 1.045 1.042 1.036 1.027 1.015 1.000 0.980 0.954 0.923 0.885 0.838 0.780 0.709 0.631 0.570 0.535 0.526 0.492 0.492 0.000 
0.000 0.611 0.611 0.515 0.504 0.494 0.485 0.477 0.472 0.469 0.467 0.467 0.468 0.470 0.472 0.475 0.479 0.483 0.489 0.496 0.504 0.513 0.522 0.533 0.544 0.557 0.571 0.586 0.603 0.621 0.640 0.662 0.685 0.711 0.738 0.767 0.799 0.833 0.870 0.909 0.950 0.994 1.036 1.076 1.113 1.148 1.181 1.211 1.238 1.264 1.287 1.308 1.327 1.344 1.359 1.372 1.383 1.393 1.401 1.408 1.413 1.417 1.421 1.423 1.425 1.426 1.427 1.427 1.427 1.427 1.427 1.426 1.425 1.423 1.421 1.418 1.413 1.408 1.401 1.393 1.383 1.371 1.357 1.342 1.324 1.304 1.281 1.256 1.228 1.197 1.163 1.126 1.085 1.041 0.993 0.944 0.899 0.858 0.820 0.786 0.756 0.729 0.706 0.686 0.670 0.656 0.645 0.636 0.629 0.624 0.621 0.619 0.618 0.617 0.617 0.617 0.618 0.619 0.621 0.625 0.630 0.636 0.645 0.656 0.670 0.687 0.706 0.729 0.756 0.786 0.820 0.857 0.892 0.923 0.950 0.973 0.992 1.008 1.021 1.031 1.038 1.043 1.046 1.048 1.048 1.048 1.048 1.047 1.045 1.042 1.036 1.027 1.015 1.000 0.980 0.954 0.923 0.884 0.837 0.779 0.706 0.627 0.572 0.561 0.634 1.033 1.033 0.000 
0.000 0.785 0.785 0.687 0.636 0.575 0.532 0.505 0.488 0.479 0.474 0.472 0.472 0.472 0.473 0.475 0.478 0.482 0.488 0.495 0.502 0.511 0.520 0.531 0.543 0.555 0.569 0.584 0.601 0.619 0.639 0.660 0.684 0.709 0.736 0.766 0.798 0.832 0.868 0.907 0.949 0.992 1.035 1.075 1.113 1.148 1.180 1.211 1.238 1.264 1.287 1.308 1.327 1.344 1.359 1.372 1.384 1.394 1.402 1.409 1.415 1.419 1.423 1.425 1.427 1.428 1.429 1.429 1.429 1.429 1.429 1.428 1.427 1.426 1.424 1.420 1.416 1.411 1.404 1.396 1.387 1.375 1.362 1.347 1.330 1.310 1.288 1.263 1.236 1.205 1.172 1.135 1.095 1.051 1.004 0.955 0.908 0.866 0.827 0.793 0.761 0.734 0.710 0.690 0.672 0.658 0.646 0.637 0.630 0.625 0.621 0.619 0.618 0.617 0.617 0.617 0.618 0.619 0.621 0.625 0.630 0.636 0.645 0.656 0.670 0.686 0.706 0.728 0.755 0.785 0.819 0.856 0.891 0.922 0.949 0.972 0.991 1.008 1.020 1.030 1.038 1.043 1.046 1.048 1.048 1.048 1.048 1.047 1.045 1.042 1.036 1.027 1.015 1.000 0.980 0.954 0.923 0.885 0.838 0.780 0.709 0.631 0.568 0.528 0.508 0.568 0.568 0.000 
0.000 0.955 0.955 0.846 0.719 0.617 0.555 0.518 0.496 0.484 0.477 0.474 0.473 0.473 0.473 0.475 0.478 0.481 0.487 0.493 0.500 0.509 0.518 0.529 0.540 0.553 0.567 0.582 0.599 0.617 0.637 0.658 0.681 0.707 0.734 0.763 0.795 0.829 0.866 0.905 0.947 0.991 1.034 1.074 1.112 1.147 1.180 1.210 1.238 1.264 1.287 1.308 1.327 1.344 1.360 1.373 1.385 1.395 1.403 1.410 1.416 1.420 1.424 1.427 1.428 1.430 1.430 1.431 1.431 1.431 1.431 1.430 1.429 1.428 1.426 1.423 1.419 1.414 1.407 1.400 1.391 1.380 1.367 1.352 1.335 1.316 1.294 1.270 1.243 1.213 1.180 1.144 1.105 1.062 1.015 0.966 0.918 0.875 0.835 0.799 0.767 0.739 0.715 0.693 0.676 0.661 0.648 0.639 0.631 0.626 0.622 0.620 0.619 0.618 0.618 0.618 0.618 0.619 0.621 0.625 0.630 0.636 0.645 0.656 0.670 0.686 0.705 0.728 0.754 0.784 0.817 0.854 0.889 0.920 0.948 0.971 0.991 1.007 1.020 1.030 1.038 1.043 1.046 1.048 1.048 1.048 1.048 1.047 1.045 1.042 1.036 1.027 1.016 1.000 0.981 0.956 0.925 0.887 0.841 0.785 0.719 0.643 0.561 0.456 0.268 0.026 0.026 0.000 
0.000 1.004 1.004 0.925 0.744 0.628 0.560 0.521 0.498 0.485 0.478 0.474 0.473 0.473 0.473 0.475 0.477 0.480 0.485 0.491 0.498 0.506 0.515 0.526 0.537 0.550 0.564 0.579 0.596 0.614 0.634 0.655 0.678 0.704 0.731 0.760 0.792 0.826 0.863 0.902 0.944 0.988 1.032 1.073 1.111 1.146 1.179 1.210 1.238 1.264 1.287 1.308 1.327 1.344 1.360 1.373 1.385 1.395 1.404 1.411 1.417 1.421 1.425 1.428 1.430 1.431 1.432 1.432 1.432 1.432 1.432 1.432 1.431 1.430 1.428 1.425 1.421 1.416 1.410 1.403 1.394 1.383 1.371 1.357 1.340 1.321 1.300 1.277 1.250 1.221 1.189 1.153 1.115 1.072 1.026 0.977 0.929 0.884 0.843 0.807 0.774 0.745 0.720 0.698 0.679 0.664 0.651 0.641 0.633 0.628 0.624 0.621 0.619 0.619 0.619 0.619 0.619 0.620 0.622 0.625 0.630 0.636 0.645 0.656 0.670 0.686 0.705 0.728 0.753 0.783 0.816 0.853 0.888 0.920 0.947 0.971 0.990 1.007 1.020 1.030 1.038 1.043 1.046 1.048 1.049 1.049 1.048 1.048 1.046 1.042 1.036 1.028 1.017 1.002 0.982 0.958 0.928 0.891 0.848 0.796 0.734 0.662 0.571 0.445 0.218 0.000 0.000 0.000 
0.000 0.785 0.785 0.875 0.738 0.623 0.557 0.519 0.497 0.484 0.477 0.474 0.473 0.473 0.473 0.474 0.476 0.479 0.484 0.489 0.496 0.504 0.513 0.523 0.534 0.547 0.561 0.576 0.592 0.610 0.630 0.651 0.675 0.700 0.727 0.757 0.789 0.823 0.860 0.899 0.941 0.985 1.029 1.070 1.109 1.145 1.178 1.209 1.237 1.263 1.287 1.308 1.327 1.344 1.360 1.373 1.385 1.395 1.404 1.411 1.417 1.422 1.426 1.429 1.431 1.432 1.433 1.433 1.433 1.433 1.433 1.433 1.432 1.431 1.429 1.427 1.423 1.418 1.413 1.406 1.397 1.387 1.375 1.361 1.345 1.327 1.306 1.283 1.257 1.229 1.197 1.162 1.124 1.083 1.038 0.989 0.939 0.894 0.852 0.815 0.781 0.751 0.725 0.703 0.683 0.667 0.654 0.644 0.636 0.629 0.625 0.622 0.621 0.620 0.620 0.620 0.620 0.621 0.623 0.626 0.631 0.637 0.645 0.656 0.670 0.686 0.705 0.727 0.753 0.783 0.816 0.852 0.888 0.919 0.946 0.970 0.990 1.007 1.020 1.030 1.038 1.043 1.046 1.048 1.049 1.049 1.049 1.048 1.046 1.043 1.037 1.030 1.019 1.004 0.986 0.962 0.934 0.900 0.859 0.812 0.758 0.692 0.608 0.490 0.290 0.000 0.000 0.000 
0.000 0.571 0.571 0.682 0.659 0.592 0.540 0.508 0.490 0.480 0.475 0.472 0.472 0.472 0.472 0.473 0.475 0.478 0.482 0.487 0.494 0.501 0.510 0.519 0.531 0.543 0.557 0.572 0.588 0.606 0.626 0.647 0.670 0.695 0.723 0.752 0.784 0.818 0.855 0.895 0.937 0.982 1.026 1.068 1.107 1.143 1.177 1.208 1.236 1.263 1.286 1.308 1.327 1.344 1.360 1.373 1.385 1.395 1.404 1.411 1.417 1.422 1.426 1.429 1.431 1.433 1.434 1.434 1.434 1.434 1.434 1.434 1.433 1.432 1.431 1.428 1.425 1.420 1.415 1.408 1.400 1.390 1.378 1.365 1.349 1.331 1.311 1.289 1.264 1.236 1.205 1.171 1.134 1.093 1.049 1.001 0.951 0.904 0.862 0.823 0.789 0.758 0.731 0.708 0.688 0.671 0.658 0.647 0.638 0.632 0.627 0.624 0.622 0.621 0.621 0.621 0.621 0.622 0.624 0.627 0.631 0.638 0.646 0.657 0.670 0.686 0.705 0.727 0.753 0.782 0.815 0.852 0.887 0.918 0.946 0.970 0.990 1.007 1.020 1.030 1.038 1.043 1.047 1.049 1.050 1.050 1.050 1.049 1.047 1.044 1.039 1.032 1.021 1.008 0.990 0.969 0.943 0.912 0.876 0.836 0.792 0.743 0.691 0.638 0.580 0.520 0.520 0.000 
0.000 0.366 0.366 0.473 0.503 0.511 0.496 0.483 0.475 0.471 0.469 0.468 0.469 0.469 0.470 0.472 0.474 0.477 0.481 0.486 0.492 0.498 0.507 0.516 0.527 0.539 0.552 0.567 0.583 0.601 0.620 0.641 0.665 0.690 0.717 0.747 0.778 0.813 0.850 0.890 0.932 0.977 1.022 1.065 1.104 1.141 1.175 1.206 1.235 1.262 1.286 1.307 1.327 1.344 1.360 1.373 1.385 1.395 1.404 1.411 1.418 1.423 1.427 1.430 1.432 1.433 1.434 1.435 1.435 1.435 1.435 1.435 1.434 1.433 1.432 1.429 1.426 1.422 1.417 1.410 1.402 1.392 1.381 1.368 1.353 1.336 1.316 1.294 1.270 1.243 1.213 1.180 1.143 1.104 1.060 1.013 0.963 0.915 0.872 0.832 0.797 0.766 0.738 0.714 0.693 0.676 0.662 0.651 0.642 0.635 0.630 0.627 0.625 0.624 0.623 0.623 0.623 0.624 0.626 0.629 0.633 0.639 0.647 0.657 0.670 0.686 0.705 0.727 0.753 0.782 0.815 0.851 0.886 0.918 0.946 0.970 0.990 1.007 1.020 1.031 1.039 1.044 1.048 1.050 1.051 1.051 1.051 1.051 1.049 1.046 1.042 1.035 1.026 1.013 0.997 0.978 0.954 0.927 0.898 0.868 0.841 0.820 0.810 0.818 0.876 1.054 1.054 0.000 
0.000 0.213 0.213 0.304 0.372 0.412 0.433 0.445 0.452 0.456 0.459 0.461 0.464 0.466 0.468 0.470 0.473 0.476 0.480 0.484 0.490 0.496 0.503 0.512 0.522 0.534 0.547 0.561 0.577 0.595 0.614 0.635 0.658 0.683 0.710 0.740 0.772 0.807 0.844 0.884 0.926 0.972 1.018 1.061 1.101 1.138 1.173 1.204 1.234 1.260 1.284 1.306 1.326 1.344 1.359 1.373 1.385 1.395 1.404 1.412 1.418 1.423 1.427 1.430 1.432 1.434 1.435 1.435 1.435 1.435 1.435 1.435 1.435 1.434 1.432 1.430 1.427 1.423 1.418 1.412 1.404 1.395 1.384 1.371 1.357 1.340 1.321 1.300 1.276 1.249 1.220 1.188 1.152 1.113 1.071 1.025 0.975 0.927 0.882 0.842 0.806 0.774 0.745 0.721 0.699 0.682 0.667 0.655 0.645 0.638 0.633 0.630 0.627 0.626 0.626 0.626 0.626 0.626 0.628 0.631 0.635 0.641 0.648 0.659 0.671 0.687 0.706 0.728 0.753 0.782 0.815 0.851 0.886 0.918 0.946 0.970 0.990 1.007 1.020 1.031 1.039 1.045 1.049 1.052 1.053 1.053 1.053 1.053 1.052 1.049 1.045 1.039 1.031 1.020 1.006 0.989 0.968 0.946 0.925 0.909 0.898 0.894 0.897 0.918 0.980 1.054 1.054 0.000 
0.000 0.154 0.154 0.208 0.285 0.350 0.392 0.418 0.434 0.444 0.451 0.456 0.459 0.462 0.465 0.468 0.471 0.475 0.478 0.483 0.487 0.493 0.500 0.508 0.518 0.529 0.541 0.555 0.570 0.588 0.607 0.628 0.651 0.676 0.703 0.732 0.765 0.799 0.837 0.877 0.920 0.966 1.012 1.056 1.097 1.135 1.170 1.202 1.232 1.259 1.283 1.305 1.325 1.343 1.359 1.373 1.385 1.395 1.404 1.411 1.418 1.423 1.427 1.430 1.432 1.434 1.435 1.435 1.436 1.436 1.436 1.436 1.435 1.434 1.433 1.431 1.428 1.424 1.419 1.413 1.406 1.397 1.386 1.374 1.360 1.344 1.325 1.305 1.281 1.256 1.227 1.195 1.161 1.123 1.082 1.037 0.988 0.939 0.893 0.852 0.815 0.782 0.753 0.728 0.706 0.688 0.672 0.660 0.650 0.642 0.637 0.633 0.631 0.629 0.629 0.629 0.629 0.629 0.631 0.633 0.637 0.643 0.650 0.660 0.673 0.688 0.706 0.728 0.753 0.782 0.814 0.850 0.886 0.918 0.945 0.970 0.990 1.007 1.021 1.032 1.040 1.047 1.051 1.054 1.055 1.056 1.056 1.056 1.055 1.053 1.050 1.045 1.038 1.028 1.016 1.001 0.984 0.967 0.955 0.946 0.943 0.944 0.950 0.971 1.015 1.051 1.051 0.000 
0.000 0.096 0.096 0.148 0.235 0.320 0.372 0.404 0.425 0.438 0.447 0.452 0.457 0.460 0.463 0.467 0.470 0.473 0.477 0.481 0.485 0.491 0.497 0.504 0.513 0.523 0.535 0.548 0.563 0.580 0.599 0.619 0.642 0.667 0.694 0.724 0.756 0.791 0.828 0.869 0.912 0.959 1.006 1.050 1.092 1.130 1.166 1.199 1.229 1.256 1.281 1.304 1.324 1.342 1.358 1.372 1.384 1.395 1.404 1.411 1.418 1.423 1.427 1.430 1.432 1.434 1.435 1.436 1.436 1.436 1.436 1.436 1.435 1.435 1.433 1.431 1.429 1.425 1.420 1.414 1.407 1.399 1.388 1.376 1.363 1.347 1.329 1.309 1.286 1.261 1.233 1.203 1.169 1.132 1.092 1.048 1.001 0.951 0.905 0.863 0.825 0.791 0.762 0.736 0.713 0.694 0.678 0.665 0.655 0.647 0.641 0.637 0.635 0.633 0.633 0.632 0.632 0.633 0.634 0.636 0.640 0.645 0.653 0.662 0.675 0.690 0.708 0.729 0.754 0.782 0.814 0.850 0.886 0.917 0.945 0.970 0.990 1.008 1.022 1.033 1.042 1.049 1.053 1.056 1.058 1.059 1.059 1.059 1.059 1.057 1.055 1.051 1.046 1.038 1.028 1.015 1.001 0.988 0.980 0.976 0.975 0.976 0.983 0.999 1.028 1.048 1.048 0.000 
0.000 0.036 0.036 0.100 0.223 0.312 0.366 0.400 0.421 0.436 0.445 0.451 0.456 0.459 0.462 0.465 0.468 0.472 0.475 0.479 0.483 0.488 0.493 0.500 0.508 0.517 0.528 0.541 0.555 0.572 0.590 0.610 0.633 0.657 0.684 0.714 0.746 0.781 0.819 0.860 0.904 0.951 0.999 1.044 1.086 1.126 1.162 1.195 1.226 1.254 1.279 1.302 1.323 1.341 1.357 1.371 1.384 1.394 1.403 1.411 1.418 1.423 1.427 1.430 1.432 1.434 1.435 1.436 1.436 1.436 1.436 1.436 1.435 1.435 1.433 1.432 1.429 1.425 1.421 1.415 1.408 1.400 1.390 1.379 1.365 1.350 1.333 1.313 1.291 1.267 1.240 1.210 1.177 1.141 1.102 1.059 1.013 0.963 0.917 0.874 0.836 0.801 0.771 0.744 0.721 0.701 0.685 0.672 0.661 0.653 0.646 0.642 0.639 0.638 0.637 0.637 0.637 0.637 0.638 0.640 0.644 0.649 0.656 0.665 0.677 0.692 0.709 0.730 0.755 0.783 0.815 0.850 0.886 0.917 0.945 0.970 0.991 1.008 1.023 1.035 1.044 1.051 1.056 1.060 1.062 1.063 1.063 1.063 1.063 1.063 1.061 1.058 1.054 1.048 1.039 1.028 1.016 1.006 1.000 0.997 0.997 0.998 1.003 1.015 1.034 1.046 1.046 0.000 
0.000 0.134 0.134 0.118 0.239 0.316 0.366 0.399 0.421 0.435 0.445 0.451 0.456 0.459 0.462 0.465 0.467 0.470 0.473 0.476 0.480 0.485 0.490 0.496 0.503 0.512 0.522 0.533 0.547 0.563 0.580 0.600 0.622 0.647 0.673 0.703 0.735 0.770 0.809 0.850 0.894 0.942 0.991 1.037 1.080 1.120 1.157 1.191 1.222 1.251 1.277 1.300 1.321 1.339 1.356 1.370 1.383 1.394 1.403 1.411 1.417 1.422 1.427 1.430 1.432 1.434 1.435 1.436 1.436 1.436 1.436 1.436 1.436 1.435 1.434 1.432 1.429 1.426 1.422 1.416 1.409 1.401 1.392 1.381 1.368 1.353 1.336 1.317 1.295 1.272 1.245 1.216 1.184 1.149 1.111 1.069 1.024 0.976 0.929 0.886 0.846 0.811 0.780 0.753 0.729 0.709 0.692 0.679 0.667 0.659 0.652 0.648 0.645 0.643 0.642 0.642 0.642 0.642 0.643 0.645 0.648 0.653 0.660 0.669 0.680 0.694 0.712 0.732 0.756 0.784 0.815 0.850 0.886 0.917 0.946 0.970 0.991 1.009 1.024 1.036 1.046 1.054 1.059 1.063 1.066 1.067 1.068 1.068 1.068 1.067 1.066 1.064 1.060 1.055 1.049 1.040 1.029 1.021 1.016 1.013 1.013 1.013 1.016 1.024 1.036 1.043 1.043 0.000 
0.000 0.471 0.471 0.300 0.312 0.339 0.372 0.403 0.423 0.437 0.446 0.452 0.456 0.459 0.462 0.464 0.466 0.469 0.471 0.474 0.477 0.481 0.486 0.491 0.498 0.506 0.515 0.526 0.539 0.554 0.570 0.590 0.611 0.635 0.662 0.691 0.723 0.759 0.797 0.839 0.884 0.932 0.982 1.029 1.074 1.114 1.152 1.187 1.218 1.247 1.273 1.297 1.318 1.337 1.354 1.369 1.382 1.393 1.402 1.410 1.417 1.422 1.426 1.430 1.432 1.434 1.435 1.436 1.436 1.436 1.436 1.436 1.436 1.435 1.434 1.432 1.429 1.426 1.422 1.417 1.410 1.402 1.393 1.382 1.370 1.355 1.339 1.320 1.299 1.276 1.250 1.222 1.191 1.157 1.119 1.079 1.035 0.987 0.941 0.897 0.858 0.822 0.790 0.763 0.738 0.718 0.700 0.686 0.675 0.666 0.659 0.654 0.651 0.649 0.648 0.648 0.648 0.648 0.649 0.650 0.653 0.658 0.664 0.673 0.684 0.698 0.715 0.735 0.758 0.785 0.816 0.850 0.886 0.918 0.946 0.971 0.992 1.010 1.026 1.038 1.049 1.056 1.062 1.066 1.069 1.071 1.071 1.072 1.072 1.071 1.070 1.069 1.066 1.062 1.056 1.049 1.040 1.033 1.028 1.025 1.024 1.024 1.025 1.029 1.036 1.041 1.041 0.000 
0.000 0.524 0.524 0.445 0.374 0.372 0.389 0.413 0.430 0.442 0.449 0.454 0.457 0.460 0.462 0.464 0.466 0.468 0.470 0.472 0.475 0.478 0.482 0.487 0.493 0.500 0.509 0.519 0.531 0.545 0.561 0.580 0.600 0.624 0.650 0.679 0.711 0.746 0.785 0.827 0.872 0.921 0.973 1.021 1.066 1.108 1.146 1.181 1.214 1.243 1.270 1.294 1.316 1.335 1.352 1.367 1.380 1.392 1.401 1.409 1.416 1.422 1.426 1.429 1.432 1.434 1.435 1.436 1.436 1.436 1.436 1.436 1.436 1.435 1.434 1.432 1.429 1.426 1.422 1.417 1.411 1.403 1.394 1.383 1.371 1.357 1.341 1.323 1.303 1.280 1.255 1.227 1.197 1.164 1.127 1.088 1.045 0.998 0.952 0.909 0.869 0.833 0.801 0.773 0.748 0.727 0.709 0.695 0.683 0.673 0.666 0.661 0.658 0.656 0.654 0.654 0.654 0.654 0.655 0.656 0.659 0.664 0.670 0.678 0.688 0.702 0.718 0.738 0.760 0.787 0.817 0.851 0.886 0.918 0.947 0.972 0.993 1.012 1.028 1.040 1.051 1.059 1.065 1.069 1.072 1.073 1.074 1.075 1.075 1.074 1.074 1.072 1.070 1.067 1.062 1.056 1.049 1.042 1.038 1.034 1.032 1.031 1.031 1.032 1.035 1.038 1.038 0.000 
0.000 0.187 0.187 0.361 0.387 0.405 0.419 0.434 0.445 0.452 0.456 0.458 0.460 0.462 0.463 0.464 0.465 0.467 0.468 0.470 0.472 0.475 0.478 0.483 0.488 0.495 0.503 0.513 0.524 0.538 0.553 0.571 0.591 0.614 0.639 0.668 0.700 0.735 0.773 0.815 0.861 0.910 0.962 1.012 1.058 1.100 1.140 1.176 1.209 1.239 1.266 1.291 1.313 1.332 1.350 1.365 1.379 1.390 1.400 1.408 1.415 1.421 1.425 1.429 1.432 1.433 1.435 1.435 1.436 1.436 1.436 1.436 1.435 1.435 1.434 1.432 1.429 1.426 1.422 1.417 1.411 1.404 1.395 1.385 1.373 1.359 1.343 1.326 1.306 1.284 1.260 1.233 1.203 1.170 1.135 1.096 1.054 1.009 0.963 0.919 0.880 0.844 0.812 0.783 0.758 0.737 0.719 0.704 0.691 0.682 0.674 0.669 0.665 0.663 0.662 0.661 0.661 0.661 0.662 0.663 0.666 0.670 0.676 0.684 0.694 0.707 0.722 0.741 0.763 0.789 0.818 0.851 0.887 0.919 0.948 0.973 0.995 1.014 1.029 1.042 1.052 1.060 1.066 1.071 1.074 1.076 1.076 1.077 1.077 1.077 1.076 1.075 1.073 1.070 1.066 1.061 1.055 1.050 1.045 1.042 1.039 1.036 1.035 1.034 1.035 1.035 1.035 0.000 
0.000 0.200 0.200 0.269 0.403 0.445 0.459 0.466 0.468 0.468 0.467 0.466 0.465 0.465 0.464 0.465 0.465 0.466 0.466 0.468 0.470 0.472 0.475 0.479 0.484 0.490 0.498 0.507 0.517 0.530 0.545 0.562 0.582 0.604 0.629 0.658 0.689 0.724 0.763 0.805 0.850 0.900 0.952 1.002 1.049 1.093 1.133 1.170 1.203 1.234 1.262 1.287 1.309 1.329 1.347 1.363 1.377 1.388 1.399 1.407 1.414 1.420 1.425 1.428 1.431 1.433 1.434 1.435 1.435 1.436 1.436 1.435 1.435 1.435 1.433 1.432 1.429 1.426 1.422 1.417 1.411 1.404 1.395 1.385 1.374 1.360 1.345 1.328 1.309 1.287 1.264 1.237 1.208 1.176 1.142 1.104 1.063 1.019 0.973 0.930 0.891 0.855 0.823 0.794 0.769 0.747 0.729 0.713 0.701 0.691 0.683 0.678 0.674 0.671 0.670 0.669 0.669 0.669 0.670 0.671 0.673 0.677 0.683 0.690 0.700 0.712 0.727 0.745 0.767 0.792 0.821 0.853 0.888 0.920 0.949 0.974 0.996 1.015 1.031 1.044 1.054 1.062 1.068 1.072 1.075 1.077 1.078 1.079 1.079 1.079 1.078 1.077 1.075 1.072 1.068 1.064 1.059 1.054 1.051 1.047 1.044 1.042 1.039 1.036 1.034 1.033 1.033 0.000 
0.000 0.650 0.650 0.420 0.484 0.510 0.515 0.509 0.500 0.490 0.482 0.476 0.471 0.468 0.466 0.465 0.465 0.465 0.465 0.466 0.467 0.469 0.472 0.475 0.480 0.485 0.492 0.501 0.511 0.523 0.538 0.554 0.574 0.596 0.621 0.649 0.680 0.715 0.754 0.795 0.841 0.890 0.942 0.993 1.041 1.085 1.126 1.163 1.197 1.228 1.257 1.282 1.305 1.326 1.344 1.360 1.374 1.386 1.397 1.405 1.413 1.419 1.424 1.427 1.430 1.432 1.434 1.434 1.435 1.435 1.435 1.435 1.435 1.434 1.433 1.432 1.429 1.426 1.422 1.417 1.411 1.404 1.396 1.386 1.375 1.362 1.347 1.330 1.311 1.290 1.267 1.241 1.213 1.182 1.148 1.111 1.071 1.028 0.982 0.940 0.901 0.865 0.833 0.804 0.779 0.758 0.739 0.724 0.711 0.701 0.693 0.687 0.683 0.680 0.679 0.678 0.678 0.678 0.679 0.680 0.682 0.685 0.690 0.697 0.707 0.718 0.733 0.751 0.771 0.796 0.823 0.855 0.889 0.922 0.950 0.976 0.998 1.016 1.032 1.045 1.055 1.063 1.069 1.073 1.076 1.078 1.079 1.080 1.080 1.080 1.079 1.078 1.076 1.074 1.070 1.065 1.061 1.057 1.055 1.052 1.049 1.046 1.043 1.039 1.033 1.030 1.030 0.000 
0.000 0.925 0.925 0.762 0.663 0.614 0.580 0.551 0.527 0.508 0.494 0.483 0.476 0.471 0.467 0.465 0.464 0.464 0.464 0.464 0.465 0.466 0.468 0.471 0.475 0.481 0.487 0.495 0.505 0.517 0.531 0.547 0.566 0.588 0.613 0.641 0.672 0.707 0.745 0.787 0.832 0.880 0.932 0.984 1.032 1.077 1.118 1.156 1.191 1.223 1.252 1.278 1.301 1.322 1.341 1.357 1.371 1.384 1.395 1.404 1.411 1.417 1.422 1.426 1.429 1.431 1.433 1.434 1.434 1.434 1.435 1.434 1.434 1.434 1.433 1.431 1.429 1.426 1.422 1.417 1.411 1.404 1.396 1.387 1.375 1.363 1.348 1.332 1.314 1.293 1.270 1.245 1.217 1.187 1.154 1.118 1.079 1.036 0.991 0.949 0.910 0.874 0.843 0.814 0.789 0.767 0.749 0.733 0.721 0.711 0.703 0.697 0.693 0.690 0.688 0.688 0.687 0.687 0.688 0.689 0.691 0.694 0.699 0.705 0.714 0.725 0.739 0.756 0.776 0.800 0.827 0.857 0.891 0.923 0.952 0.977 0.999 1.018 1.033 1.046 1.056 1.064 1.070 1.074 1.077 1.079 1.080 1.080 1.081 1.080 1.080 1.079 1.077 1.074 1.071 1.066 1.062 1.059 1.057 1.055 1.053 1.051 1.048 1.043 1.035 1.028 1.028 0.000 
0.000 0.999 0.999 0.924 0.785 0.687 0.623 0.578 0.544 0.520 0.501 0.488 0.478 0.472 0.467 0.465 0.463 0.462 0.462 0.462 0.462 0.463 0.465 0.468 0.471 0.476 0.482 0.490 0.500 0.511 0.525 0.541 0.560 0.581 0.606 0.634 0.665 0.700 0.738 0.779 0.824 0.872 0.923 0.975 1.023 1.069 1.110 1.149 1.184 1.217 1.246 1.273 1.296 1.318 1.337 1.354 1.368 1.381 1.392 1.401 1.409 1.416 1.421 1.425 1.428 1.430 1.432 1.433 1.433 1.434 1.434 1.434 1.433 1.433 1.432 1.431 1.429 1.426 1.422 1.417 1.411 1.405 1.396 1.387 1.376 1.363 1.349 1.333 1.315 1.295 1.273 1.248 1.221 1.192 1.159 1.124 1.086 1.044 1.000 0.958 0.919 0.884 0.852 0.823 0.798 0.777 0.758 0.743 0.730 0.720 0.712 0.706 0.701 0.699 0.697 0.696 0.696 0.696 0.696 0.697 0.699 0.702 0.707 0.713 0.722 0.733 0.746 0.762 0.782 0.805 0.831 0.860 0.893 0.925 0.954 0.979 1.000 1.018 1.034 1.046 1.056 1.064 1.070 1.075 1.078 1.079 1.080 1.081 1.081 1.081 1.080 1.079 1.078 1.075 1.071 1.066 1.062 1.059 1.058 1.057 1.056 1.055 1.054 1.051 1.043 1.030 1.030 0.000 
0.000 0.994 0.994 0.960 0.832 0.720 0.644 0.592 0.554 0.526 0.505 0.490 0.480 0.472 0.467 0.464 0.462 0.461 0.460 0.460 0.460 0.461 0.462 0.464 0.467 0.472 0.478 0.485 0.494 0.506 0.519 0.535 0.554 0.576 0.600 0.628 0.659 0.694 0.731 0.772 0.816 0.864 0.914 0.966 1.015 1.061 1.103 1.142 1.178 1.210 1.240 1.267 1.292 1.313 1.333 1.350 1.365 1.378 1.389 1.399 1.407 1.413 1.419 1.423 1.426 1.429 1.431 1.432 1.432 1.433 1.433 1.433 1.432 1.432 1.431 1.430 1.428 1.425 1.422 1.417 1.411 1.404 1.396 1.387 1.376 1.364 1.350 1.334 1.317 1.297 1.276 1.252 1.225 1.196 1.164 1.130 1.092 1.052 1.008 0.966 0.927 0.892 0.860 0.832 0.807 0.785 0.767 0.751 0.738 0.728 0.720 0.714 0.709 0.707 0.705 0.704 0.704 0.704 0.704 0.705 0.707 0.710 0.714 0.720 0.728 0.739 0.752 0.768 0.787 0.809 0.834 0.863 0.896 0.927 0.955 0.980 1.001 1.019 1.034 1.047 1.057 1.065 1.071 1.075 1.078 1.080 1.081 1.081 1.081 1.081 1.081 1.080 1.078 1.075 1.071 1.066 1.062 1.059 1.058 1.057 1.057 1.059 1.061 1.064 1.064 1.064 1.064 0.000 
0.000 0.908 0.908 0.935 0.839 0.728 0.651 0.596 0.557 0.528 0.507 0.491 0.480 0.472 0.466 0.463 0.460 0.459 0.458 0.458 0.458 0.458 0.459 0.461 0.464 0.468 0.473 0.481 0.490 0.501 0.514 0.530 0.549 0.571 0.595 0.623 0.654 0.688 0.725 0.766 0.809 0.856 0.906 0.958 1.007 1.053 1.095 1.135 1.171 1.204 1.234 1.262 1.286 1.309 1.328 1.346 1.361 1.375 1.386 1.396 1.404 1.411 1.417 1.421 1.425 1.427 1.429 1.430 1.431 1.431 1.431 1.431 1.431 1.431 1.430 1.429 1.427 1.424 1.421 1.417 1.411 1.404 1.396 1.387 1.377 1.364 1.351 1.335 1.318 1.299 1.278 1.254 1.228 1.200 1.169 1.135 1.098 1.058 1.016 0.974 0.935 0.900 0.868 0.840 0.815 0.793 0.774 0.759 0.746 0.735 0.727 0.721 0.717 0.714 0.712 0.711 0.711 0.711 0.711 0.712 0.713 0.716 0.720 0.726 0.734 0.745 0.757 0.773 0.791 0.813 0.838 0.866 0.897 0.929 0.956 0.981 1.002 1.020 1.035 1.047 1.057 1.065 1.071 1.075 1.078 1.080 1.081 1.081 1.081 1.081 1.081 1.080 1.078 1.075 1.071 1.066 1.061 1.058 1.057 1.057 1.057 1.060 1.066 1.079 1.092 1.098 1.098 0.000 
0.000 0.809 0.809 0.853 0.810 0.725 0.650 0.596 0.557 0.528 0.507 0.491 0.479 0.471 0.465 0.461 0.458 0.456 0.455 0.455 0.455 0.455 0.456 0.457 0.460 0.464 0.469 0.476 0.485 0.496 0.510 0.526 0.545 0.567 0.591 0.619 0.649 0.683 0.720 0.760 0.803 0.849 0.899 0.950 0.999 1.045 1.088 1.127 1.164 1.198 1.228 1.256 1.281 1.303 1.324 1.341 1.357 1.371 1.383 1.393 1.401 1.408 1.414 1.419 1.422 1.425 1.427 1.428 1.429 1.430 1.430 1.430 1.430 1.429 1.429 1.428 1.426 1.423 1.420 1.416 1.410 1.404 1.396 1.387 1.377 1.365 1.351 1.336 1.319 1.300 1.280 1.256 1.231 1.203 1.173 1.140 1.104 1.065 1.023 0.981 0.942 0.907 0.875 0.847 0.822 0.800 0.781 0.766 0.752 0.742 0.734 0.727 0.723 0.720 0.718 0.717 0.717 0.717 0.717 0.718 0.719 0.722 0.726 0.732 0.739 0.749 0.762 0.777 0.795 0.816 0.840 0.868 0.899 0.930 0.957 0.981 1.002 1.020 1.035 1.047 1.057 1.065 1.071 1.075 1.078 1.080 1.081 1.081 1.081 1.081 1.081 1.079 1.078 1.075 1.070 1.065 1.060 1.057 1.055 1.055 1.056 1.059 1.067 1.086 1.113 1.123 1.123 0.000 
0.000 0.698 0.698 0.753 0.738 0.698 0.642 0.593 0.555 0.527 0.505 0.489 0.477 0.469 0.462 0.458 0.454 0.453 0.452 0.451 0.451 0.451 0.452 0.453 0.456 0.460 0.465 0.472 0.481 0.492 0.506 0.523 0.541 0.563 0.588 0.615 0.645 0.678 0.715 0.754 0.797 0.842 0.891 0.943 0.992 1.038 1.081 1.120 1.157 1.191 1.222 1.250 1.275 1.298 1.319 1.337 1.353 1.367 1.379 1.389 1.398 1.405 1.411 1.416 1.420 1.423 1.425 1.426 1.427 1.428 1.428 1.428 1.428 1.428 1.427 1.426 1.424 1.422 1.419 1.415 1.410 1.403 1.396 1.387 1.377 1.365 1.352 1.337 1.320 1.302 1.281 1.258 1.234 1.206 1.177 1.144 1.109 1.071 1.029 0.988 0.949 0.914 0.882 0.854 0.829 0.807 0.788 0.772 0.759 0.748 0.739 0.733 0.728 0.725 0.723 0.722 0.722 0.722 0.722 0.723 0.724 0.727 0.731 0.736 0.744 0.753 0.765 0.780 0.798 0.818 0.842 0.869 0.900 0.930 0.957 0.981 1.002 1.020 1.035 1.047 1.057 1.065 1.071 1.075 1.078 1.080 1.081 1.081 1.081 1.081 1.080 1.079 1.077 1.074 1.070 1.064 1.058 1.054 1.051 1.051 1.051 1.055 1.064 1.085 1.122 1.146 1.146 0.000 
0.000 0.594 0.594 0.645 0.646 0.639 0.617 0.582 0.549 0.523 0.502 0.486 0.474 0.465 0.458 0.453 0.450 0.449 0.448 0.447 0.447 0.447 0.448 0.450 0.452 0.456 0.461 0.468 0.478 0.489 0.503 0.520 0.539 0.560 0.585 0.612 0.641 0.674 0.710 0.749 0.791 0.836 0.884 0.935 0.984 1.030 1.073 1.113 1.150 1.184 1.215 1.244 1.269 1.292 1.313 1.332 1.348 1.362 1.375 1.385 1.394 1.402 1.408 1.413 1.417 1.420 1.422 1.424 1.425 1.425 1.426 1.426 1.426 1.425 1.425 1.424 1.422 1.420 1.417 1.413 1.409 1.402 1.395 1.387 1.376 1.365 1.352 1.337 1.321 1.302 1.282 1.260 1.236 1.209 1.180 1.148 1.113 1.076 1.035 0.994 0.956 0.920 0.888 0.860 0.835 0.813 0.794 0.777 0.764 0.753 0.745 0.738 0.733 0.730 0.728 0.727 0.727 0.726 0.727 0.727 0.729 0.731 0.735 0.740 0.747 0.757 0.768 0.783 0.800 0.820 0.844 0.870 0.900 0.931 0.958 0.982 1.002 1.020 1.035 1.047 1.057 1.065 1.071 1.075 1.078 1.079 1.080 1.080 1.081 1.080 1.080 1.078 1.076 1.073 1.068 1.062 1.055 1.049 1.044 1.042 1.041 1.044 1.053 1.076 1.121 1.154 1.154 0.000 
0.000 0.494 0.494 0.546 0.563 0.572 0.571 0.559 0.537 0.514 0.495 0.480 0.468 0.459 0.453 0.448 0.445 0.443 0.443 0.442 0.442 0.443 0.444 0.445 0.448 0.452 0.458 0.465 0.475 0.487 0.501 0.517 0.536 0.558 0.582 0.609 0.638 0.670 0.706 0.744 0.785 0.830 0.877 0.928 0.977 1.023 1.066 1.106 1.143 1.177 1.209 1.237 1.263 1.287 1.308 1.326 1.343 1.358 1.370 1.381 1.390 1.398 1.405 1.410 1.414 1.417 1.420 1.421 1.422 1.423 1.423 1.423 1.423 1.423 1.422 1.422 1.420 1.418 1.415 1.412 1.407 1.401 1.394 1.386 1.376 1.365 1.352 1.337 1.321 1.303 1.283 1.262 1.238 1.211 1.183 1.151 1.118 1.081 1.041 1.000 0.961 0.926 0.894 0.865 0.840 0.818 0.799 0.782 0.769 0.758 0.749 0.742 0.737 0.734 0.732 0.731 0.730 0.730 0.730 0.731 0.732 0.734 0.738 0.743 0.750 0.759 0.771 0.785 0.802 0.822 0.845 0.871 0.901 0.931 0.958 0.982 1.002 1.020 1.035 1.047 1.057 1.064 1.070 1.074 1.077 1.079 1.079 1.080 1.080 1.080 1.079 1.077 1.075 1.071 1.066 1.059 1.051 1.043 1.034 1.027 1.022 1.021 1.027 1.049 1.102 1.158 1.158 0.000 
0.000 0.436 0.436 0.474 0.502 0.516 0.522 0.523 0.515 0.500 0.484 0.470 0.459 0.451 0.445 0.441 0.439 0.437 0.437 0.437 0.437 0.437 0.439 0.441 0.444 0.448 0.454 0.463 0.473 0.485 0.499 0.516 0.534 0.556 0.579 0.606 0.635 0.667 0.701 0.739 0.780 0.824 0.871 0.921 0.970 1.016 1.059 1.099 1.136 1.171 1.202 1.231 1.257 1.281 1.302 1.321 1.338 1.353 1.365 1.377 1.386 1.394 1.401 1.406 1.410 1.414 1.416 1.418 1.419 1.420 1.420 1.420 1.420 1.420 1.420 1.419 1.418 1.416 1.413 1.410 1.405 1.400 1.393 1.385 1.375 1.364 1.352 1.337 1.321 1.304 1.284 1.263 1.239 1.213 1.185 1.155 1.121 1.085 1.046 1.005 0.967 0.931 0.899 0.871 0.845 0.823 0.803 0.787 0.773 0.762 0.753 0.746 0.741 0.737 0.735 0.734 0.733 0.733 0.733 0.734 0.735 0.737 0.741 0.746 0.752 0.761 0.773 0.786 0.803 0.823 0.846 0.872 0.901 0.931 0.958 0.982 1.002 1.020 1.035 1.047 1.056 1.064 1.070 1.074 1.076 1.078 1.078 1.079 1.079 1.078 1.077 1.076 1.073 1.069 1.063 1.055 1.045 1.034 1.021 1.007 0.992 0.979 0.973 0.986 1.040 1.142 1.142 0.000 
0.000 0.410 0.410 0.433 0.457 0.471 0.478 0.483 0.483 0.479 0.468 0.456 0.447 0.440 0.436 0.433 0.431 0.430 0.430 0.430 0.430 0.431 0.433 0.436 0.439 0.445 0.452 0.460 0.471 0.483 0.498 0.514 0.533 0.554 0.577 0.603 0.632 0.663 0.697 0.735 0.775 0.818 0.864 0.914 0.963 1.009 1.052 1.092 1.129 1.164 1.195 1.224 1.251 1.275 1.296 1.315 1.332 1.347 1.360 1.372 1.382 1.390 1.397 1.402 1.407 1.410 1.413 1.415 1.416 1.417 1.417 1.417 1.417 1.417 1.417 1.416 1.415 1.413 1.411 1.407 1.403 1.398 1.391 1.384 1.374 1.364 1.351 1.337 1.321 1.304 1.285 1.264 1.240 1.215 1.187 1.157 1.124 1.089 1.051 1.010 0.972 0.936 0.904 0.875 0.849 0.827 0.807 0.790 0.776 0.765 0.756 0.749 0.744 0.740 0.738 0.736 0.736 0.736 0.736 0.736 0.737 0.739 0.743 0.747 0.754 0.763 0.774 0.788 0.804 0.823 0.846 0.872 0.901 0.931 0.958 0.982 1.002 1.020 1.034 1.046 1.056 1.063 1.069 1.072 1.075 1.076 1.077 1.077 1.077 1.077 1.075 1.073 1.070 1.065 1.058 1.049 1.037 1.023 1.004 0.982 0.956 0.925 0.891 0.863 0.874 1.006 1.006 0.000 
0.000 0.384 0.384 0.403 0.420 0.431 0.439 0.444 0.448 0.449 0.446 0.439 0.432 0.427 0.424 0.422 0.421 0.421 0.421 0.422 0.423 0.425 0.427 0.431 0.435 0.442 0.449 0.458 0.469 0.482 0.496 0.513 0.531 0.552 0.575 0.601 0.629 0.660 0.694 0.730 0.770 0.812 0.858 0.907 0.956 1.002 1.045 1.085 1.122 1.157 1.189 1.218 1.244 1.268 1.290 1.309 1.327 1.342 1.355 1.367 1.377 1.385 1.392 1.398 1.402 1.406 1.409 1.411 1.412 1.413 1.413 1.413 1.413 1.413 1.413 1.413 1.412 1.410 1.408 1.405 1.401 1.396 1.389 1.382 1.373 1.362 1.350 1.337 1.321 1.304 1.285 1.264 1.241 1.216 1.189 1.159 1.127 1.093 1.055 1.015 0.976 0.941 0.908 0.879 0.853 0.830 0.810 0.793 0.779 0.768 0.758 0.751 0.746 0.742 0.740 0.738 0.738 0.737 0.737 0.738 0.739 0.741 0.744 0.749 0.755 0.764 0.775 0.788 0.804 0.824 0.846 0.872 0.901 0.931 0.958 0.981 1.002 1.019 1.033 1.045 1.055 1.062 1.067 1.071 1.073 1.074 1.075 1.075 1.075 1.074 1.073 1.070 1.066 1.061 1.053 1.042 1.027 1.009 0.986 0.959 0.927 0.888 0.837 0.758 0.600 0.435 0.435 0.000 
0.000 0.358 0.358 0.375 0.387 0.396 0.403 0.408 0.412 0.415 0.417 0.416 0.413 0.411 0.409 0.409 0.409 0.410 0.411 0.413 0.415 0.418 0.421 0.426 0.432 0.439 0.447 0.457 0.468 0.481 0.495 0.512 0.530 0.550 0.573 0.598 0.626 0.657 0.690 0.726 0.765 0.807 0.852 0.900 0.949 0.995 1.038 1.078 1.115 1.150 1.182 1.211 1.238 1.262 1.284 1.303 1.321 1.336 1.349 1.361 1.371 1.380 1.387 1.393 1.398 1.401 1.404 1.406 1.408 1.409 1.409 1.409 1.409 1.409 1.409 1.409 1.408 1.406 1.404 1.401 1.398 1.393 1.387 1.380 1.371 1.361 1.349 1.336 1.321 1.304 1.285 1.265 1.242 1.217 1.191 1.161 1.130 1.096 1.059 1.019 0.980 0.944 0.912 0.883 0.856 0.833 0.813 0.796 0.782 0.770 0.760 0.753 0.747 0.744 0.741 0.740 0.739 0.739 0.739 0.739 0.740 0.742 0.745 0.750 0.756 0.764 0.775 0.789 0.805 0.824 0.846 0.872 0.901 0.931 0.957 0.981 1.001 1.018 1.032 1.044 1.053 1.060 1.065 1.069 1.071 1.072 1.072 1.072 1.072 1.071 1.070 1.067 1.062 1.055 1.046 1.033 1.017 0.996 0.970 0.940 0.905 0.867 0.820 0.740 0.547 0.132 0.132 0.000 
0.000 0.332 0.332 0.348 0.356 0.364 0.370 0.375 0.379 0.383 0.386 0.388 0.390 0.391 0.392 0.394 0.396 0.398 0.400 0.403 0.407 0.411 0.416 0.422 0.429 0.437 0.445 0.456 0.467 0.480 0.494 0.510 0.529 0.549 0.571 0.596 0.623 0.653 0.686 0.721 0.760 0.801 0.846 0.893 0.942 0.988 1.031 1.071 1.108 1.143 1.175 1.204 1.231 1.255 1.277 1.297 1.314 1.330 1.344 1.355 1.366 1.374 1.382 1.388 1.393 1.397 1.400 1.402 1.403 1.404 1.405 1.405 1.405 1.405 1.405 1.405 1.404 1.402 1.400 1.398 1.394 1.390 1.384 1.377 1.369 1.359 1.348 1.335 1.320 1.304 1.285 1.265 1.242 1.218 1.192 1.163 1.132 1.098 1.062 1.023 0.984 0.948 0.915 0.886 0.859 0.836 0.816 0.798 0.784 0.772 0.762 0.754 0.749 0.745 0.742 0.740 0.740 0.739 0.740 0.740 0.741 0.743 0.746 0.750 0.756 0.765 0.775 0.789 0.805 0.824 0.846 0.872 0.901 0.930 0.957 0.980 1.000 1.017 1.031 1.042 1.051 1.058 1.063 1.066 1.068 1.069 1.069 1.069 1.069 1.068 1.066 1.062 1.057 1.049 1.039 1.025 1.007 0.985 0.957 0.923 0.887 0.854 0.820 0.780 0.721 0.686 0.686 0.000 
0.000 0.307 0.307 0.321 0.327 0.334 0.339 0.344 0.349 0.353 0.357 0.362 0.366 0.370 0.374 0.378 0.382 0.386 0.390 0.395 0.400 0.406 0.412 0.419 0.426 0.435 0.444 0.454 0.466 0.479 0.493 0.509 0.527 0.547 0.569 0.594 0.621 0.650 0.682 0.717 0.755 0.796 0.840 0.886 0.935 0.981 1.024 1.064 1.101 1.136 1.168 1.197 1.224 1.248 1.270 1.290 1.308 1.323 1.337 1.349 1.360 1.369 1.376 1.382 1.387 1.391 1.394 1.397 1.398 1.399 1.400 1.400 1.400 1.400 1.400 1.400 1.399 1.398 1.396 1.394 1.390 1.386 1.381 1.374 1.366 1.357 1.346 1.333 1.319 1.303 1.285 1.265 1.243 1.219 1.193 1.164 1.134 1.101 1.065 1.026 0.987 0.951 0.918 0.888 0.862 0.838 0.818 0.800 0.785 0.773 0.763 0.755 0.749 0.745 0.743 0.741 0.740 0.740 0.740 0.740 0.741 0.743 0.746 0.750 0.757 0.765 0.776 0.789 0.805 0.824 0.846 0.871 0.900 0.930 0.956 0.979 0.999 1.015 1.029 1.040 1.049 1.055 1.060 1.063 1.065 1.065 1.066 1.066 1.065 1.064 1.061 1.058 1.052 1.043 1.032 1.017 0.999 0.975 0.947 0.912 0.875 0.846 0.832 0.837 0.904 1.094 1.094 0.000 
0.000 0.281 0.281 0.295 0.300 0.305 0.311 0.316 0.321 0.326 0.332 0.339 0.346 0.352 0.358 0.364 0.370 0.376 0.382 0.388 0.394 0.401 0.408 0.416 0.424 0.433 0.443 0.453 0.465 0.478 0.492 0.508 0.526 0.546 0.567 0.592 0.618 0.647 0.679 0.713 0.750 0.790 0.833 0.880 0.928 0.974 1.017 1.057 1.094 1.129 1.161 1.190 1.217 1.241 1.263 1.283 1.301 1.317 1.331 1.343 1.353 1.363 1.370 1.376 1.382 1.386 1.389 1.391 1.393 1.394 1.395 1.395 1.395 1.395 1.395 1.395 1.394 1.393 1.392 1.389 1.386 1.382 1.377 1.371 1.363 1.354 1.344 1.331 1.318 1.302 1.284 1.265 1.243 1.219 1.193 1.165 1.135 1.102 1.067 1.029 0.990 0.954 0.921 0.891 0.864 0.840 0.819 0.801 0.786 0.774 0.764 0.756 0.750 0.746 0.743 0.741 0.740 0.740 0.740 0.741 0.741 0.743 0.746 0.750 0.757 0.765 0.775 0.789 0.805 0.823 0.845 0.871 0.899 0.929 0.954 0.977 0.997 1.013 1.027 1.037 1.046 1.052 1.056 1.059 1.061 1.061 1.061 1.061 1.061 1.059 1.057 1.052 1.046 1.037 1.025 1.010 0.991 0.968 0.940 0.905 0.868 0.842 0.831 0.841 0.917 1.092 1.092 0.000 
0.000 0.255 0.255 0.269 0.274 0.278 0.284 0.290 0.296 0.303 0.311 0.320 0.329 0.338 0.345 0.353 0.360 0.367 0.374 0.382 0.389 0.397 0.405 0.413 0.422 0.431 0.441 0.452 0.464 0.477 0.491 0.507 0.525 0.544 0.566 0.589 0.615 0.644 0.675 0.709 0.745 0.785 0.827 0.873 0.921 0.966 1.009 1.050 1.087 1.122 1.153 1.183 1.210 1.234 1.256 1.276 1.294 1.310 1.324 1.336 1.347 1.356 1.364 1.370 1.375 1.380 1.383 1.386 1.387 1.389 1.389 1.390 1.390 1.390 1.390 1.389 1.389 1.388 1.386 1.384 1.381 1.377 1.373 1.367 1.359 1.351 1.341 1.329 1.316 1.300 1.283 1.264 1.243 1.219 1.194 1.166 1.136 1.104 1.069 1.031 0.993 0.956 0.923 0.893 0.865 0.841 0.820 0.802 0.787 0.774 0.764 0.756 0.750 0.746 0.743 0.741 0.741 0.740 0.740 0.741 0.741 0.743 0.746 0.750 0.757 0.765 0.775 0.788 0.804 0.823 0.845 0.870 0.898 0.927 0.953 0.975 0.994 1.010 1.024 1.034 1.042 1.048 1.052 1.055 1.056 1.057 1.057 1.057 1.056 1.054 1.051 1.046 1.039 1.030 1.018 1.002 0.984 0.961 0.934 0.902 0.867 0.836 0.812 0.795 0.805 0.934 0.934 0.000 
0.000 0.229 0.229 0.244 0.248 0.253 0.259 0.266 0.274 0.283 0.294 0.306 0.316 0.326 0.335 0.344 0.352 0.360 0.368 0.377 0.385 0.393 0.402 0.411 0.420 0.430 0.440 0.451 0.463 0.476 0.490 0.506 0.523 0.543 0.564 0.587 0.613 0.641 0.671 0.705 0.741 0.780 0.821 0.866 0.913 0.959 1.002 1.042 1.080 1.114 1.146 1.175 1.202 1.227 1.249 1.269 1.287 1.303 1.317 1.329 1.340 1.349 1.357 1.364 1.369 1.373 1.377 1.379 1.381 1.382 1.383 1.384 1.384 1.384 1.384 1.384 1.383 1.382 1.381 1.379 1.376 1.372 1.368 1.362 1.355 1.347 1.337 1.326 1.313 1.298 1.282 1.263 1.242 1.219 1.194 1.167 1.137 1.105 1.071 1.034 0.995 0.958 0.925 0.894 0.867 0.843 0.821 0.803 0.788 0.775 0.764 0.756 0.750 0.746 0.743 0.741 0.741 0.740 0.740 0.741 0.741 0.743 0.746 0.750 0.756 0.765 0.775 0.788 0.803 0.822 0.844 0.868 0.896 0.925 0.950 0.972 0.991 1.007 1.020 1.030 1.038 1.043 1.047 1.050 1.051 1.051 1.051 1.051 1.050 1.048 1.045 1.040 1.033 1.023 1.011 0.995 0.976 0.954 0.928 0.899 0.867 0.833 0.793 0.727 0.570 0.383 0.383 0.000 
0.000 0.203 0.203 0.218 0.223 0.229 0.236 0.244 0.254 0.266 0.281 0.294 0.306 0.317 0.327 0.336 0.346 0.355 0.364 0.372 0.381 0.390 0.399 0.409 0.418 0.428 0.439 0.450 0.462 0.475 0.489 0.505 0.522 0.541 0.562 0.585 0.610 0.637 0.668 0.700 0.736 0.774 0.815 0.860 0.906 0.952 0.995 1.035 1.072 1.107 1.139 1.168 1.195 1.219 1.241 1.261 1.279 1.295 1.309 1.322 1.333 1.342 1.350 1.357 1.362 1.366 1.370 1.373 1.375 1.376 1.377 1.377 1.378 1.378 1.378 1.377 1.377 1.376 1.375 1.373 1.370 1.367 1.363 1.357 1.351 1.343 1.333 1.323 1.310 1.296 1.280 1.262 1.241 1.219 1.194 1.167 1.138 1.106 1.072 1.036 0.997 0.960 0.926 0.896 0.868 0.843 0.822 0.804 0.788 0.775 0.765 0.756 0.750 0.746 0.743 0.741 0.740 0.740 0.740 0.740 0.741 0.743 0.746 0.750 0.756 0.764 0.774 0.787 0.802 0.821 0.842 0.866 0.894 0.922 0.947 0.969 0.987 1.003 1.015 1.025 1.033 1.038 1.042 1.044 1.045 1.046 1.046 1.045 1.044 1.042 1.039 1.034 1.026 1.017 1.004 0.988 0.969 0.947 0.922 0.895 0.866 0.834 0.793 0.719 0.539 0.166 0.166 0.000 
0.000 0.178 0.178 0.192 0.198 0.206 0.214 0.225 0.238 0.254 0.271 0.285 0.298 0.310 0.321 0.331 0.341 0.350 0.360 0.369 0.378 0.388 0.397 0.407 0.417 0.427 0.437 0.449 0.461 0.474 0.488 0.503 0.520 0.539 0.560 0.582 0.607 0.634 0.664 0.696 0.731 0.769 0.809 0.853 0.899 0.945 0.987 1.027 1.064 1.099 1.131 1.160 1.187 1.211 1.233 1.253 1.271 1.287 1.302 1.314 1.325 1.334 1.342 1.349 1.355 1.359 1.363 1.366 1.368 1.369 1.370 1.371 1.371 1.371 1.371 1.371 1.370 1.370 1.368 1.367 1.364 1.361 1.357 1.352 1.346 1.338 1.329 1.319 1.307 1.293 1.277 1.260 1.240 1.218 1.194 1.167 1.138 1.107 1.073 1.037 0.999 0.962 0.928 0.897 0.869 0.844 0.822 0.804 0.788 0.775 0.765 0.756 0.750 0.746 0.743 0.741 0.740 0.740 0.740 0.740 0.741 0.743 0.745 0.749 0.755 0.763 0.773 0.786 0.801 0.819 0.840 0.864 0.891 0.919 0.943 0.964 0.983 0.998 1.010 1.020 1.027 1.032 1.036 1.038 1.039 1.039 1.039 1.039 1.038 1.036 1.032 1.027 1.020 1.010 0.997 0.981 0.962 0.940 0.915 0.891 0.868 0.843 0.813 0.774 0.724 0.712 0.712 0.000 
0.000 0.152 0.152 0.167 0.175 0.183 0.194 0.209 0.226 0.246 0.264 0.279 0.293 0.305 0.317 0.327 0.337 0.347 0.357 0.366 0.376 0.386 0.395 0.405 0.415 0.425 0.436 0.448 0.460 0.473 0.487 0.502 0.519 0.537 0.558 0.580 0.604 0.631 0.660 0.692 0.726 0.763 0.803 0.846 0.892 0.937 0.980 1.020 1.057 1.091 1.123 1.152 1.179 1.203 1.225 1.245 1.263 1.279 1.294 1.306 1.317 1.326 1.335 1.341 1.347 1.352 1.355 1.358 1.360 1.362 1.363 1.363 1.364 1.364 1.364 1.364 1.363 1.363 1.362 1.360 1.358 1.355 1.351 1.346 1.340 1.333 1.324 1.314 1.303 1.289 1.274 1.257 1.238 1.217 1.193 1.167 1.138 1.107 1.074 1.038 1.000 0.963 0.929 0.897 0.869 0.845 0.823 0.804 0.788 0.775 0.764 0.756 0.750 0.745 0.742 0.741 0.740 0.739 0.739 0.740 0.740 0.742 0.744 0.748 0.754 0.762 0.772 0.784 0.799 0.816 0.837 0.860 0.887 0.914 0.938 0.959 0.977 0.992 1.004 1.013 1.021 1.026 1.029 1.031 1.032 1.032 1.032 1.032 1.031 1.029 1.025 1.020 1.013 1.003 0.990 0.974 0.955 0.932 0.908 0.888 0.872 0.861 0.856 0.869 0.931 1.079 1.079 0.000 
0.000 0.126 0.126 0.142 0.151 0.163 0.177 0.196 0.219 0.241 0.259 0.275 0.290 0.302 0.314 0.325 0.335 0.345 0.355 0.365 0.374 0.384 0.394 0.404 0.414 0.424 0.435 0.446 0.458 0.471 0.485 0.501 0.517 0.535 0.555 0.577 0.601 0.628 0.656 0.687 0.721 0.758 0.797 0.839 0.884 0.930 0.972 1.012 1.049 1.083 1.114 1.144 1.170 1.195 1.217 1.237 1.255 1.271 1.285 1.298 1.309 1.318 1.326 1.333 1.339 1.344 1.347 1.350 1.352 1.354 1.355 1.356 1.356 1.356 1.356 1.356 1.356 1.355 1.354 1.353 1.351 1.348 1.344 1.339 1.334 1.327 1.319 1.309 1.298 1.285 1.271 1.254 1.236 1.215 1.192 1.166 1.138 1.108 1.075 1.039 1.001 0.964 0.929 0.898 0.870 0.845 0.823 0.804 0.788 0.775 0.764 0.756 0.749 0.745 0.742 0.740 0.739 0.738 0.738 0.739 0.739 0.741 0.743 0.747 0.752 0.760 0.769 0.781 0.796 0.813 0.833 0.856 0.882 0.909 0.933 0.953 0.971 0.985 0.997 1.006 1.013 1.018 1.022 1.024 1.025 1.025 1.025 1.024 1.023 1.021 1.018 1.013 1.005 0.996 0.983 0.968 0.949 0.926 0.903 0.885 0.874 0.870 0.875 0.903 0.984 1.076 1.076 0.000 
0.000 0.100 0.100 0.117 0.128 0.143 0.163 0.189 0.215 0.237 0.257 0.273 0.288 0.301 0.313 0.323 0.334 0.344 0.353 0.363 0.373 0.383 0.392 0.402 0.412 0.423 0.433 0.445 0.457 0.470 0.484 0.499 0.515 0.533 0.553 0.575 0.598 0.624 0.652 0.683 0.716 0.752 0.791 0.832 0.877 0.922 0.964 1.003 1.040 1.074 1.106 1.135 1.161 1.186 1.208 1.228 1.246 1.262 1.276 1.289 1.300 1.309 1.318 1.324 1.330 1.335 1.339 1.342 1.344 1.346 1.347 1.348 1.348 1.348 1.348 1.348 1.348 1.347 1.346 1.345 1.343 1.340 1.337 1.333 1.327 1.321 1.313 1.304 1.293 1.281 1.266 1.250 1.232 1.212 1.190 1.165 1.138 1.108 1.075 1.040 1.002 0.965 0.930 0.899 0.870 0.845 0.823 0.804 0.788 0.775 0.764 0.755 0.749 0.744 0.741 0.738 0.737 0.737 0.737 0.737 0.738 0.739 0.741 0.745 0.750 0.757 0.766 0.778 0.792 0.809 0.828 0.851 0.876 0.902 0.926 0.946 0.963 0.978 0.989 0.998 1.005 1.010 1.014 1.016 1.017 1.017 1.017 1.017 1.015 1.013 1.010 1.005 0.998 0.989 0.977 0.962 0.944 0.923 0.900 0.883 0.873 0.871 0.876 0.904 0.985 1.073 1.073 0.000 
0.000 0.075 0.075 0.092 0.106 0.127 0.155 0.186 0.213 0.236 0.255 0.272 0.287 0.300 0.312 0.323 0.333 0.343 0.353 0.362 0.372 0.381 0.391 0.401 0.411 0.421 0.432 0.443 0.455 0.468 0.482 0.497 0.513 0.531 0.550 0.572 0.595 0.620 0.648 0.678 0.711 0.746 0.784 0.825 0.869 0.914 0.956 0.995 1.032 1.065 1.097 1.126 1.152 1.177 1.199 1.218 1.236 1.252 1.267 1.279 1.290 1.300 1.308 1.315 1.321 1.326 1.330 1.333 1.335 1.337 1.338 1.339 1.339 1.340 1.340 1.339 1.339 1.339 1.338 1.337 1.335 1.332 1.329 1.325 1.320 1.314 1.306 1.297 1.287 1.275 1.262 1.246 1.229 1.209 1.187 1.163 1.137 1.107 1.075 1.040 1.003 0.965 0.931 0.899 0.870 0.845 0.823 0.804 0.787 0.774 0.763 0.754 0.747 0.742 0.739 0.737 0.735 0.735 0.735 0.735 0.735 0.737 0.739 0.742 0.747 0.754 0.763 0.774 0.787 0.803 0.822 0.844 0.869 0.895 0.918 0.938 0.955 0.969 0.981 0.990 0.997 1.002 1.005 1.007 1.008 1.008 1.008 1.008 1.007 1.005 1.002 0.997 0.990 0.981 0.970 0.956 0.940 0.920 0.899 0.882 0.869 0.863 0.861 0.877 0.940 1.071 1.071 0.000 
0.000 0.049 0.049 0.067 0.086 0.116 0.152 0.185 0.212 0.236 0.255 0.272 0.287 0.300 0.312 0.323 0.333 0.343 0.352 0.362 0.371 0.381 0.390 0.400 0.410 0.420 0.431 0.442 0.454 0.466 0.480 0.495 0.511 0.528 0.547 0.568 0.591 0.616 0.644 0.673 0.705 0.740 0.778 0.818 0.861 0.905 0.947 0.986 1.022 1.056 1.087 1.116 1.143 1.167 1.189 1.209 1.227 1.243 1.257 1.270 1.281 1.290 1.299 1.306 1.312 1.317 1.321 1.324 1.326 1.328 1.329 1.330 1.330 1.331 1.331 1.331 1.330 1.330 1.329 1.328 1.326 1.324 1.321 1.317 1.312 1.306 1.299 1.291 1.281 1.269 1.256 1.241 1.225 1.206 1.184 1.161 1.135 1.106 1.075 1.041 1.004 0.966 0.931 0.899 0.870 0.845 0.823 0.803 0.787 0.773 0.761 0.752 0.745 0.740 0.737 0.734 0.733 0.732 0.732 0.732 0.733 0.734 0.736 0.739 0.744 0.750 0.758 0.769 0.782 0.797 0.816 0.837 0.860 0.886 0.908 0.928 0.945 0.959 0.971 0.980 0.987 0.992 0.996 0.998 0.999 0.999 0.999 0.999 0.998 0.996 0.993 0.989 0.982 0.974 0.963 0.951 0.935 0.918 0.898 0.880 0.862 0.843 0.821 0.793 0.773 0.869 0.869 0.000 
0.000 0.028 0.028 0.045 0.071 0.111 0.152 0.185 0.213 0.236 0.255 0.272 0.287 0.300 0.312 0.323 0.333 0.343 0.352 0.361 0.371 0.380 0.389 0.399 0.408 0.418 0.429 0.440 0.452 0.464 0.477 0.492 0.508 0.525 0.544 0.565 0.587 0.612 0.639 0.668 0.700 0.734 0.771 0.810 0.853 0.896 0.938 0.977 1.013 1.047 1.078 1.106 1.133 1.157 1.179 1.198 1.216 1.232 1.247 1.259 1.270 1.280 1.289 1.296 1.302 1.307 1.311 1.314 1.316 1.318 1.319 1.320 1.321 1.321 1.321 1.321 1.321 1.321 1.320 1.319 1.317 1.315 1.312 1.309 1.304 1.298 1.291 1.283 1.274 1.263 1.250 1.236 1.220 1.201 1.181 1.158 1.133 1.105 1.074 1.041 1.004 0.966 0.931 0.899 0.870 0.845 0.822 0.802 0.785 0.771 0.760 0.750 0.743 0.738 0.734 0.731 0.730 0.729 0.729 0.729 0.729 0.730 0.732 0.735 0.739 0.745 0.753 0.763 0.775 0.790 0.808 0.828 0.851 0.875 0.898 0.917 0.934 0.948 0.960 0.969 0.977 0.982 0.986 0.988 0.989 0.990 0.990 0.990 0.989 0.987 0.984 0.980 0.974 0.966 0.956 0.945 0.931 0.915 0.897 0.878 0.858 0.833 0.797 0.728 0.562 0.328 0.328 0.000 
0.000 0.010 0.010 0.028 0.065 0.112 0.153 0.186 0.214 0.237 0.256 0.273 0.288 0.301 0.312 0.323 0.333 0.343 0.352 0.361 0.370 0.379 0.388 0.398 0.407 0.417 0.427 0.438 0.449 0.462 0.475 0.489 0.505 0.522 0.541 0.561 0.583 0.607 0.634 0.662 0.693 0.727 0.763 0.802 0.844 0.887 0.928 0.967 1.003 1.036 1.067 1.096 1.122 1.146 1.168 1.188 1.205 1.221 1.236 1.248 1.260 1.269 1.278 1.285 1.291 1.296 1.300 1.304 1.306 1.308 1.309 1.310 1.311 1.311 1.311 1.311 1.311 1.311 1.310 1.309 1.308 1.306 1.303 1.299 1.295 1.290 1.283 1.275 1.266 1.256 1.244 1.230 1.214 1.196 1.177 1.155 1.130 1.103 1.073 1.040 1.004 0.967 0.931 0.899 0.870 0.844 0.821 0.801 0.784 0.769 0.757 0.748 0.740 0.734 0.730 0.727 0.726 0.725 0.724 0.724 0.725 0.725 0.727 0.730 0.734 0.739 0.747 0.756 0.768 0.782 0.798 0.817 0.839 0.863 0.885 0.905 0.922 0.936 0.948 0.958 0.965 0.971 0.975 0.978 0.979 0.980 0.980 0.980 0.979 0.977 0.975 0.971 0.965 0.958 0.949 0.938 0.926 0.911 0.895 0.877 0.857 0.832 0.796 0.724 0.552 0.210 0.210 0.000 
0.000 0.030 0.030 0.029 0.067 0.116 0.157 0.190 0.217 0.240 0.259 0.275 0.290 0.302 0.314 0.324 0.334 0.343 0.352 0.361 0.370 0.379 0.388 0.397 0.406 0.415 0.425 0.436 0.447 0.459 0.472 0.486 0.501 0.518 0.536 0.556 0.578 0.602 0.628 0.656 0.687 0.720 0.755 0.794 0.835 0.877 0.918 0.957 0.992 1.026 1.056 1.085 1.111 1.135 1.156 1.176 1.194 1.210 1.224 1.237 1.248 1.258 1.267 1.274 1.280 1.285 1.289 1.293 1.295 1.297 1.299 1.300 1.300 1.300 1.301 1.301 1.300 1.300 1.300 1.299 1.298 1.296 1.293 1.290 1.286 1.281 1.274 1.267 1.258 1.248 1.236 1.223 1.208 1.191 1.172 1.150 1.126 1.100 1.071 1.039 1.004 0.967 0.931 0.899 0.870 0.843 0.820 0.799 0.782 0.767 0.754 0.744 0.736 0.730 0.726 0.722 0.721 0.720 0.719 0.719 0.719 0.720 0.721 0.724 0.727 0.732 0.739 0.748 0.759 0.772 0.788 0.806 0.827 0.850 0.872 0.891 0.908 0.923 0.935 0.945 0.953 0.959 0.964 0.967 0.969 0.970 0.970 0.969 0.969 0.967 0.965 0.962 0.957 0.951 0.943 0.933 0.921 0.907 0.892 0.875 0.858 0.838 0.813 0.779 0.738 0.746 0.746 0.000 
0.000 0.062 0.062 0.052 0.085 0.129 0.166 0.198 0.224 0.246 0.264 0.279 0.293 0.305 0.316 0.326 0.335 0.344 0.353 0.362 0.370 0.379 0.387 0.396 0.404 0.413 0.423 0.433 0.444 0.456 0.468 0.482 0.497 0.514 0.532 0.552 0.573 0.597 0.622 0.650 0.680 0.712 0.747 0.785 0.825 0.867 0.908 0.946 0.981 1.014 1.045 1.073 1.099 1.123 1.144 1.164 1.182 1.198 1.212 1.225 1.236 1.246 1.255 1.262 1.268 1.273 1.278 1.281 1.284 1.286 1.287 1.288 1.289 1.289 1.289 1.289 1.289 1.289 1.289 1.288 1.287 1.285 1.283 1.280 1.276 1.271 1.265 1.258 1.249 1.240 1.229 1.216 1.201 1.185 1.166 1.145 1.122 1.097 1.069 1.038 1.004 0.967 0.931 0.898 0.869 0.842 0.818 0.797 0.779 0.764 0.751 0.740 0.732 0.725 0.720 0.717 0.715 0.713 0.713 0.713 0.713 0.713 0.714 0.716 0.720 0.724 0.731 0.739 0.749 0.761 0.776 0.793 0.813 0.835 0.856 0.876 0.893 0.908 0.920 0.931 0.940 0.946 0.952 0.955 0.958 0.959 0.959 0.959 0.959 0.958 0.956 0.953 0.949 0.944 0.937 0.928 0.917 0.905 0.889 0.874 0.862 0.854 0.851 0.864 0.925 1.058 1.058 0.000 
0.000 0.157 0.157 0.110 0.132 0.155 0.182 0.211 0.235 0.255 0.272 0.286 0.298 0.309 0.319 0.329 0.338 0.346 0.354 0.362 0.370 0.378 0.386 0.394 0.403 0.411 0.421 0.430 0.441 0.452 0.465 0.478 0.493 0.509 0.527 0.546 0.567 0.590 0.615 0.643 0.672 0.704 0.738 0.775 0.815 0.856 0.896 0.934 0.969 1.002 1.032 1.060 1.086 1.110 1.132 1.151 1.169 1.185 1.199 1.212 1.223 1.233 1.242 1.249 1.256 1.261 1.265 1.269 1.272 1.274 1.275 1.277 1.277 1.278 1.278 1.278 1.278 1.278 1.277 1.276 1.275 1.274 1.272 1.269 1.265 1.260 1.255 1.248 1.240 1.231 1.220 1.208 1.194 1.178 1.160 1.140 1.117 1.093 1.065 1.035 1.002 0.967 0.931 0.898 0.867 0.840 0.816 0.794 0.776 0.760 0.746 0.735 0.726 0.719 0.714 0.710 0.708 0.706 0.706 0.705 0.705 0.706 0.707 0.708 0.711 0.715 0.721 0.728 0.738 0.749 0.763 0.779 0.797 0.818 0.839 0.859 0.876 0.891 0.905 0.916 0.925 0.933 0.939 0.943 0.946 0.948 0.949 0.950 0.950 0.949 0.948 0.946 0.942 0.938 0.932 0.924 0.915 0.903 0.888 0.874 0.865 0.862 0.867 0.892 0.969 1.055 1.055 0.000 
0.000 0.270 0.270 0.207 0.187 0.189 0.205 0.229 0.251 0.268 0.283 0.295 0.306 0.316 0.325 0.333 0.341 0.348 0.356 0.363 0.371 0.378 0.386 0.393 0.401 0.409 0.418 0.427 0.437 0.448 0.460 0.474 0.488 0.504 0.521 0.540 0.561 0.584 0.608 0.635 0.664 0.695 0.729 0.765 0.804 0.844 0.884 0.922 0.957 0.989 1.019 1.047 1.073 1.096 1.118 1.138 1.155 1.171 1.186 1.199 1.210 1.220 1.229 1.236 1.243 1.248 1.253 1.256 1.259 1.261 1.263 1.264 1.265 1.265 1.265 1.265 1.265 1.265 1.265 1.264 1.263 1.262 1.260 1.257 1.254 1.249 1.244 1.237 1.230 1.221 1.211 1.199 1.185 1.170 1.153 1.133 1.112 1.088 1.062 1.032 1.001 0.966 0.930 0.896 0.866 0.838 0.813 0.791 0.772 0.755 0.741 0.729 0.720 0.712 0.707 0.703 0.700 0.698 0.697 0.697 0.697 0.697 0.698 0.699 0.701 0.705 0.710 0.717 0.725 0.736 0.748 0.763 0.780 0.800 0.821 0.840 0.858 0.874 0.887 0.899 0.909 0.918 0.924 0.930 0.934 0.937 0.940 0.941 0.941 0.941 0.940 0.939 0.936 0.933 0.928 0.922 0.913 0.903 0.889 0.874 0.865 0.863 0.867 0.892 0.968 1.053 1.053 0.000 
0.000 0.175 0.175 0.219 0.213 0.225 0.240 0.257 0.274 0.287 0.298 0.308 0.317 0.324 0.332 0.339 0.345 0.352 0.359 0.365 0.372 0.378 0.385 0.392 0.399 0.407 0.415 0.424 0.434 0.444 0.456 0.469 0.483 0.498 0.515 0.534 0.554 0.576 0.600 0.626 0.655 0.686 0.719 0.754 0.792 0.832 0.871 0.909 0.943 0.975 1.005 1.033 1.059 1.082 1.104 1.123 1.141 1.157 1.171 1.184 1.196 1.206 1.215 1.222 1.229 1.234 1.239 1.243 1.246 1.248 1.250 1.251 1.252 1.252 1.252 1.252 1.252 1.252 1.252 1.251 1.251 1.249 1.247 1.245 1.241 1.237 1.232 1.226 1.219 1.210 1.201 1.189 1.176 1.162 1.145 1.126 1.105 1.082 1.057 1.029 0.998 0.965 0.929 0.895 0.863 0.835 0.809 0.787 0.767 0.750 0.735 0.723 0.713 0.705 0.698 0.694 0.691 0.689 0.687 0.687 0.687 0.687 0.687 0.688 0.690 0.693 0.698 0.704 0.712 0.721 0.733 0.746 0.762 0.780 0.800 0.820 0.838 0.854 0.868 0.881 0.892 0.901 0.909 0.916 0.921 0.926 0.929 0.932 0.933 0.934 0.934 0.933 0.931 0.929 0.925 0.920 0.913 0.903 0.890 0.876 0.864 0.855 0.851 0.862 0.916 1.050 1.050 0.000 
0.000 0.027 0.027 0.143 0.236 0.268 0.284 0.295 0.304 0.312 0.319 0.325 0.330 0.336 0.341 0.346 0.351 0.357 0.362 0.367 0.373 0.378 0.384 0.390 0.397 0.404 0.412 0.420 0.429 0.439 0.451 0.463 0.477 0.492 0.508 0.526 0.546 0.568 0.592 0.617 0.645 0.675 0.707 0.742 0.779 0.819 0.858 0.894 0.929 0.961 0.990 1.018 1.043 1.067 1.088 1.108 1.126 1.142 1.156 1.169 1.181 1.191 1.200 1.207 1.214 1.220 1.224 1.228 1.231 1.234 1.236 1.237 1.238 1.238 1.239 1.239 1.239 1.239 1.238 1.238 1.237 1.236 1.234 1.232 1.229 1.225 1.220 1.214 1.207 1.199 1.190 1.179 1.166 1.152 1.136 1.118 1.098 1.076 1.051 1.024 0.995 0.962 0.927 0.892 0.860 0.831 0.805 0.782 0.761 0.743 0.728 0.715 0.704 0.696 0.689 0.684 0.680 0.678 0.677 0.676 0.676 0.676 0.676 0.677 0.678 0.681 0.684 0.690 0.697 0.705 0.716 0.728 0.743 0.759 0.778 0.798 0.816 0.833 0.848 0.861 0.873 0.884 0.893 0.901 0.908 0.914 0.919 0.923 0.926 0.927 0.928 0.928 0.927 0.926 0.923 0.919 0.913 0.904 0.893 0.879 0.862 0.842 0.815 0.777 0.733 0.805 0.805 0.000 
0.000 0.312 0.312 0.190 0.291 0.328 0.339 0.343 0.343 0.343 0.344 0.345 0.347 0.349 0.352 0.355 0.359 0.362 0.366 0.370 0.374 0.379 0.383 0.389 0.394 0.401 0.408 0.416 0.424 0.434 0.445 0.457 0.470 0.485 0.501 0.518 0.538 0.559 0.582 0.607 0.634 0.664 0.695 0.729 0.766 0.804 0.843 0.879 0.913 0.945 0.975 1.002 1.027 1.051 1.072 1.091 1.109 1.125 1.140 1.153 1.164 1.175 1.184 1.192 1.198 1.204 1.209 1.213 1.216 1.219 1.221 1.222 1.223 1.224 1.224 1.224 1.224 1.224 1.224 1.223 1.223 1.222 1.220 1.218 1.215 1.211 1.207 1.201 1.195 1.187 1.178 1.167 1.156 1.142 1.127 1.109 1.090 1.069 1.045 1.019 0.990 0.959 0.924 0.889 0.857 0.827 0.800 0.776 0.755 0.736 0.720 0.706 0.695 0.686 0.679 0.673 0.669 0.666 0.664 0.663 0.663 0.663 0.663 0.663 0.665 0.667 0.670 0.674 0.680 0.688 0.697 0.709 0.722 0.737 0.755 0.773 0.792 0.809 0.825 0.840 0.853 0.865 0.875 0.885 0.893 0.901 0.908 0.913 0.917 0.921 0.923 0.924 0.924 0.923 0.922 0.919 0.914 0.907 0.896 0.882 0.864 0.838 0.798 0.723 0.550 0.275 0.275 0.000 
0.000 0.692 0.692 0.493 0.438 0.423 0.411 0.400 0.389 0.380 0.374 0.369 0.367 0.365 0.365 0.366 0.367 0.368 0.371 0.373 0.375 0.379 0.382 0.386 0.391 0.397 0.404 0.411 0.419 0.428 0.439 0.450 0.463 0.477 0.493 0.510 0.529 0.549 0.572 0.596 0.623 0.652 0.682 0.716 0.751 0.789 0.827 0.863 0.897 0.928 0.957 0.985 1.010 1.033 1.054 1.074 1.092 1.108 1.123 1.136 1.147 1.158 1.167 1.175 1.182 1.188 1.193 1.197 1.200 1.203 1.205 1.206 1.207 1.208 1.208 1.208 1.209 1.208 1.208 1.208 1.207 1.206 1.205 1.203 1.200 1.197 1.193 1.187 1.181 1.174 1.165 1.155 1.144 1.131 1.116 1.099 1.081 1.060 1.037 1.012 0.984 0.954 0.921 0.886 0.853 0.822 0.794 0.769 0.747 0.728 0.711 0.697 0.685 0.675 0.667 0.661 0.656 0.653 0.651 0.650 0.649 0.649 0.649 0.649 0.650 0.651 0.654 0.658 0.663 0.670 0.678 0.688 0.700 0.714 0.730 0.748 0.766 0.784 0.801 0.816 0.831 0.844 0.856 0.867 0.878 0.887 0.895 0.903 0.909 0.914 0.918 0.921 0.922 0.922 0.922 0.920 0.916 0.910 0.900 0.887 0.868 0.840 0.799 0.724 0.560 0.253 0.253 0.000 
0.000 0.746 0.746 0.682 0.578 0.517 0.478 0.450 0.428 0.412 0.400 0.391 0.384 0.379 0.376 0.374 0.373 0.373 0.374 0.375 0.376 0.378 0.381 0.384 0.388 0.393 0.399 0.406 0.414 0.422 0.432 0.443 0.455 0.469 0.484 0.500 0.518 0.539 0.560 0.584 0.610 0.638 0.668 0.701 0.735 0.772 0.810 0.845 0.879 0.910 0.939 0.966 0.991 1.015 1.036 1.055 1.073 1.089 1.104 1.117 1.129 1.140 1.149 1.157 1.164 1.170 1.175 1.179 1.183 1.186 1.188 1.189 1.191 1.191 1.192 1.192 1.192 1.192 1.192 1.192 1.191 1.190 1.189 1.187 1.185 1.181 1.177 1.172 1.167 1.160 1.151 1.142 1.131 1.118 1.104 1.088 1.071 1.051 1.028 1.004 0.977 0.948 0.916 0.881 0.847 0.816 0.788 0.762 0.739 0.719 0.701 0.686 0.674 0.663 0.654 0.648 0.642 0.639 0.636 0.634 0.633 0.633 0.633 0.633 0.634 0.635 0.637 0.640 0.644 0.650 0.657 0.666 0.677 0.690 0.705 0.721 0.739 0.757 0.775 0.791 0.807 0.822 0.836 0.848 0.861 0.872 0.882 0.891 0.900 0.907 0.913 0.918 0.921 0.922 0.922 0.921 0.919 0.914 0.906 0.894 0.876 0.851 0.819 0.781 0.748 0.778 0.778 0.000 
0.000 0.737 0.737 0.720 0.643 0.573 0.523 0.487 0.459 0.438 0.421 0.408 0.399 0.391 0.385 0.381 0.378 0.377 0.376 0.376 0.376 0.377 0.379 0.382 0.385 0.389 0.394 0.400 0.407 0.415 0.424 0.435 0.446 0.459 0.474 0.490 0.507 0.527 0.548 0.571 0.597 0.624 0.653 0.685 0.718 0.754 0.791 0.827 0.860 0.891 0.920 0.947 0.972 0.995 1.016 1.036 1.053 1.070 1.084 1.098 1.110 1.120 1.130 1.138 1.145 1.151 1.157 1.161 1.165 1.168 1.170 1.172 1.173 1.174 1.174 1.174 1.174 1.174 1.174 1.174 1.174 1.173 1.172 1.170 1.168 1.165 1.161 1.156 1.151 1.144 1.136 1.127 1.117 1.105 1.091 1.076 1.059 1.040 1.018 0.995 0.969 0.941 0.909 0.876 0.841 0.809 0.780 0.754 0.730 0.709 0.690 0.675 0.661 0.650 0.641 0.633 0.627 0.623 0.620 0.618 0.617 0.616 0.616 0.616 0.616 0.617 0.618 0.621 0.624 0.629 0.636 0.644 0.653 0.665 0.678 0.693 0.710 0.728 0.747 0.764 0.781 0.798 0.813 0.828 0.842 0.855 0.867 0.879 0.889 0.899 0.907 0.914 0.919 0.923 0.924 0.925 0.924 0.921 0.915 0.906 0.892 0.877 0.868 0.878 0.927 1.037 1.037 0.000 
0.000 0.714 0.714 0.714 0.666 0.603 0.553 0.513 0.483 0.458 0.439 0.423 0.411 0.401 0.393 0.387 0.382 0.379 0.377 0.376 0.376 0.377 0.378 0.379 0.382 0.385 0.389 0.394 0.401 0.408 0.416 0.426 0.437 0.449 0.463 0.479 0.496 0.514 0.535 0.557 0.582 0.608 0.637 0.667 0.700 0.735 0.771 0.806 0.839 0.870 0.899 0.926 0.950 0.973 0.995 1.014 1.032 1.049 1.063 1.077 1.089 1.100 1.109 1.118 1.125 1.131 1.137 1.141 1.145 1.148 1.151 1.152 1.154 1.155 1.155 1.156 1.156 1.156 1.156 1.155 1.155 1.154 1.153 1.152 1.150 1.147 1.143 1.139 1.134 1.128 1.120 1.112 1.102 1.090 1.077 1.063 1.046 1.028 1.007 0.984 0.959 0.932 0.902 0.869 0.834 0.801 0.771 0.744 0.720 0.698 0.678 0.662 0.648 0.635 0.626 0.617 0.611 0.606 0.603 0.600 0.599 0.598 0.597 0.597 0.597 0.598 0.599 0.601 0.603 0.608 0.613 0.620 0.629 0.639 0.651 0.665 0.681 0.698 0.717 0.736 0.754 0.772 0.789 0.805 0.821 0.836 0.851 0.865 0.878 0.890 0.901 0.910 0.918 0.924 0.928 0.930 0.931 0.931 0.928 0.923 0.917 0.915 0.923 0.943 0.989 1.035 1.035 0.000 
0.000 0.688 0.688 0.695 0.667 0.618 0.571 0.532 0.501 0.475 0.454 0.436 0.421 0.409 0.399 0.391 0.385 0.381 0.378 0.376 0.375 0.375 0.376 0.376 0.378 0.380 0.384 0.388 0.393 0.400 0.408 0.417 0.427 0.439 0.452 0.466 0.483 0.501 0.521 0.542 0.566 0.592 0.619 0.649 0.681 0.715 0.750 0.785 0.817 0.848 0.876 0.903 0.928 0.951 0.972 0.992 1.010 1.026 1.041 1.054 1.067 1.078 1.087 1.096 1.103 1.110 1.116 1.120 1.124 1.127 1.130 1.132 1.133 1.134 1.135 1.135 1.135 1.136 1.136 1.135 1.135 1.134 1.134 1.132 1.130 1.128 1.125 1.121 1.116 1.110 1.103 1.095 1.085 1.074 1.062 1.048 1.032 1.014 0.994 0.972 0.948 0.921 0.892 0.860 0.826 0.792 0.761 0.733 0.708 0.685 0.665 0.648 0.633 0.620 0.609 0.601 0.594 0.588 0.584 0.581 0.579 0.578 0.577 0.577 0.577 0.577 0.578 0.579 0.581 0.585 0.589 0.595 0.603 0.612 0.623 0.636 0.651 0.667 0.685 0.705 0.724 0.744 0.762 0.781 0.799 0.816 0.833 0.849 0.864 0.879 0.893 0.905 0.917 0.927 0.934 0.939 0.943 0.945 0.946 0.947 0.949 0.956 0.968 0.988 1.016 1.035 1.035 0.000 
0.000 0.662 0.662 0.672 0.656 0.622 0.581 0.546 0.515 0.489 0.467 0.447 0.431 0.416 0.404 0.395 0.387 0.382 0.378 0.375 0.374 0.373 0.373 0.373 0.374 0.375 0.378 0.381 0.386 0.392 0.399 0.407 0.416 0.427 0.439 0.453 0.469 0.486 0.505 0.526 0.549 0.574 0.600 0.629 0.660 0.693 0.727 0.761 0.794 0.824 0.852 0.879 0.904 0.927 0.948 0.967 0.985 1.002 1.017 1.031 1.043 1.054 1.064 1.073 1.080 1.087 1.093 1.098 1.102 1.105 1.108 1.110 1.111 1.112 1.113 1.114 1.114 1.114 1.114 1.114 1.114 1.113 1.112 1.111 1.109 1.107 1.104 1.100 1.096 1.090 1.084 1.076 1.067 1.056 1.044 1.031 1.016 0.999 0.979 0.958 0.935 0.909 0.881 0.850 0.816 0.782 0.750 0.722 0.695 0.672 0.651 0.633 0.617 0.603 0.592 0.582 0.575 0.569 0.564 0.561 0.558 0.557 0.556 0.555 0.555 0.555 0.556 0.557 0.558 0.561 0.565 0.570 0.576 0.584 0.594 0.606 0.620 0.635 0.653 0.672 0.693 0.713 0.734 0.754 0.774 0.793 0.812 0.831 0.849 0.866 0.883 0.899 0.914 0.929 0.941 0.951 0.958 0.964 0.970 0.976 0.984 0.995 1.008 1.023 1.035 1.038 1.038 0.000 
0.000 0.636 0.636 0.647 0.637 0.615 0.585 0.554 0.527 0.502 0.479 0.457 0.438 0.422 0.408 0.397 0.388 0.382 0.377 0.374 0.372 0.370 0.370 0.369 0.369 0.370 0.372 0.374 0.378 0.383 0.389 0.396 0.405 0.415 0.426 0.439 0.454 0.470 0.489 0.509 0.530 0.554 0.580 0.608 0.637 0.669 0.703 0.736 0.768 0.799 0.827 0.853 0.878 0.901 0.922 0.941 0.959 0.976 0.991 1.005 1.017 1.029 1.039 1.048 1.055 1.062 1.068 1.073 1.077 1.081 1.084 1.086 1.088 1.089 1.090 1.090 1.090 1.091 1.091 1.091 1.090 1.090 1.089 1.088 1.087 1.085 1.082 1.078 1.074 1.069 1.063 1.055 1.047 1.037 1.025 1.012 0.998 0.981 0.963 0.943 0.920 0.895 0.867 0.837 0.805 0.770 0.738 0.708 0.681 0.657 0.636 0.617 0.600 0.586 0.573 0.563 0.555 0.548 0.543 0.539 0.536 0.534 0.533 0.532 0.532 0.532 0.532 0.533 0.534 0.536 0.539 0.543 0.549 0.556 0.565 0.576 0.589 0.603 0.620 0.639 0.659 0.681 0.703 0.725 0.747 0.769 0.790 0.811 0.831 0.851 0.871 0.890 0.910 0.929 0.947 0.964 0.978 0.989 0.999 1.009 1.021 1.032 1.044 1.054 1.059 1.059 1.059 0.000 
0.000 0.611 0.611 0.622 0.614 0.601 0.582 0.559 0.537 0.514 0.490 0.466 0.445 0.427 0.411 0.398 0.389 0.381 0.376 0.372 0.369 0.367 0.365 0.364 0.364 0.364 0.365 0.367 0.369 0.373 0.378 0.385 0.392 0.401 0.412 0.424 0.438 0.454 0.471 0.490 0.511 0.533 0.558 0.585 0.613 0.644 0.676 0.710 0.741 0.771 0.799 0.825 0.850 0.873 0.894 0.914 0.932 0.948 0.964 0.977 0.990 1.001 1.012 1.021 1.029 1.036 1.042 1.047 1.051 1.055 1.058 1.060 1.062 1.063 1.064 1.065 1.065 1.065 1.065 1.065 1.065 1.065 1.064 1.063 1.062 1.060 1.058 1.054 1.050 1.046 1.040 1.033 1.025 1.015 1.004 0.992 0.978 0.962 0.944 0.925 0.903 0.879 0.852 0.823 0.791 0.757 0.724 0.694 0.666 0.641 0.619 0.599 0.582 0.567 0.554 0.543 0.534 0.526 0.521 0.516 0.513 0.511 0.509 0.508 0.508 0.508 0.508 0.508 0.509 0.510 0.513 0.516 0.521 0.527 0.535 0.545 0.557 0.571 0.587 0.605 0.625 0.647 0.670 0.694 0.718 0.741 0.765 0.788 0.811 0.834 0.857 0.880 0.903 0.926 0.950 0.974 0.998 1.017 1.032 1.045 1.058 1.069 1.079 1.086 1.092 1.097 1.097 0.000 
0.000 0.585 0.585 0.596 0.591 0.584 0.575 0.562 0.544 0.524 0.500 0.474 0.450 0.430 0.413 0.399 0.388 0.380 0.373 0.368 0.364 0.362 0.360 0.358 0.358 0.358 0.358 0.359 0.360 0.363 0.367 0.372 0.379 0.387 0.397 0.408 0.421 0.436 0.452 0.470 0.490 0.511 0.535 0.560 0.588 0.617 0.648 0.681 0.712 0.742 0.770 0.796 0.820 0.843 0.864 0.884 0.902 0.919 0.934 0.948 0.961 0.972 0.982 0.992 1.000 1.007 1.013 1.019 1.023 1.027 1.030 1.033 1.034 1.036 1.037 1.038 1.038 1.038 1.038 1.038 1.038 1.038 1.037 1.037 1.035 1.034 1.031 1.028 1.025 1.020 1.015 1.008 1.000 0.991 0.981 0.969 0.956 0.941 0.924 0.905 0.884 0.860 0.835 0.806 0.776 0.742 0.709 0.678 0.649 0.624 0.601 0.580 0.562 0.546 0.533 0.521 0.511 0.504 0.497 0.492 0.488 0.486 0.484 0.483 0.482 0.482 0.482 0.482 0.482 0.483 0.485 0.488 0.492 0.498 0.505 0.514 0.525 0.538 0.553 0.570 0.590 0.612 0.635 0.660 0.686 0.712 0.737 0.763 0.789 0.815 0.841 0.867 0.894 0.921 0.949 0.979 1.011 1.041 1.064 1.081 1.095 1.106 1.114 1.120 1.125 1.129 1.129 0.000 
0.000 0.559 0.559 0.572 0.575 0.575 0.572 0.565 0.551 0.532 0.508 0.481 0.454 0.432 0.414 0.399 0.387 0.378 0.370 0.364 0.359 0.356 0.353 0.351 0.350 0.350 0.349 0.350 0.351 0.352 0.355 0.360 0.365 0.372 0.381 0.391 0.403 0.417 0.432 0.449 0.467 0.488 0.510 0.534 0.561 0.589 0.619 0.650 0.681 0.711 0.738 0.764 0.789 0.811 0.832 0.852 0.870 0.887 0.902 0.916 0.929 0.941 0.951 0.960 0.969 0.976 0.982 0.988 0.993 0.997 1.000 1.002 1.004 1.006 1.007 1.008 1.008 1.009 1.009 1.009 1.009 1.008 1.008 1.007 1.006 1.005 1.003 1.000 0.997 0.992 0.987 0.981 0.974 0.965 0.955 0.944 0.931 0.917 0.901 0.882 0.862 0.840 0.815 0.788 0.758 0.725 0.692 0.660 0.631 0.605 0.581 0.560 0.541 0.525 0.511 0.498 0.488 0.479 0.473 0.467 0.463 0.460 0.457 0.456 0.455 0.455 0.455 0.455 0.455 0.456 0.457 0.459 0.463 0.468 0.474 0.482 0.492 0.504 0.519 0.535 0.554 0.576 0.600 0.625 0.652 0.679 0.707 0.736 0.764 0.793 0.822 0.852 0.882 0.913 0.945 0.979 1.018 1.058 1.091 1.115 1.131 1.142 1.150 1.155 1.157 1.157 1.157 0.000 
0.000 0.533 0.533 0.551 0.568 0.573 0.573 0.568 0.557 0.539 0.514 0.485 0.456 0.433 0.413 0.398 0.385 0.374 0.365 0.358 0.353 0.348 0.345 0.343 0.341 0.340 0.340 0.340 0.340 0.341 0.343 0.346 0.351 0.357 0.364 0.373 0.384 0.396 0.410 0.426 0.443 0.463 0.484 0.507 0.532 0.558 0.587 0.618 0.648 0.677 0.705 0.731 0.755 0.777 0.798 0.818 0.836 0.853 0.868 0.882 0.895 0.907 0.917 0.927 0.935 0.942 0.949 0.955 0.959 0.964 0.967 0.970 0.972 0.974 0.975 0.976 0.976 0.976 0.977 0.977 0.977 0.976 0.976 0.975 0.975 0.973 0.971 0.969 0.966 0.962 0.957 0.951 0.944 0.936 0.927 0.916 0.904 0.890 0.875 0.857 0.838 0.816 0.792 0.766 0.737 0.706 0.672 0.641 0.611 0.584 0.560 0.538 0.519 0.502 0.487 0.474 0.463 0.454 0.447 0.441 0.436 0.433 0.430 0.428 0.427 0.427 0.426 0.426 0.426 0.427 0.428 0.430 0.433 0.437 0.442 0.450 0.459 0.470 0.484 0.500 0.518 0.539 0.563 0.588 0.616 0.645 0.675 0.706 0.737 0.768 0.801 0.834 0.868 0.903 0.939 0.977 1.019 1.066 1.112 1.146 1.167 1.181 1.188 1.191 1.190 1.187 1.187 0.000 
0.000 0.550 0.550 0.549 0.569 0.576 0.576 0.573 0.563 0.544 0.518 0.486 0.457 0.433 0.413 0.396 0.381 0.369 0.359 0.351 0.345 0.339 0.335 0.333 0.330 0.329 0.328 0.328 0.328 0.328 0.330 0.332 0.335 0.340 0.346 0.354 0.364 0.375 0.387 0.402 0.418 0.436 0.456 0.478 0.501 0.526 0.554 0.583 0.613 0.642 0.669 0.694 0.718 0.741 0.762 0.781 0.799 0.816 0.831 0.845 0.858 0.870 0.881 0.890 0.899 0.906 0.913 0.919 0.924 0.928 0.931 0.934 0.936 0.938 0.939 0.940 0.941 0.941 0.941 0.942 0.942 0.941 0.941 0.941 0.940 0.939 0.937 0.935 0.932 0.928 0.924 0.918 0.912 0.904 0.896 0.886 0.874 0.861 0.846 0.829 0.811 0.790 0.767 0.742 0.714 0.684 0.651 0.619 0.589 0.562 0.537 0.515 0.495 0.478 0.462 0.449 0.438 0.428 0.420 0.413 0.408 0.404 0.401 0.399 0.398 0.397 0.397 0.397 0.397 0.397 0.398 0.399 0.402 0.405 0.410 0.417 0.426 0.436 0.449 0.464 0.482 0.502 0.525 0.551 0.579 0.609 0.640 0.673 0.707 0.741 0.776 0.812 0.850 0.889 0.929 0.972 1.017 1.067 1.122 1.170 1.203 1.221 1.230 1.232 1.230 1.219 1.219 0.000 
0.000 0.570 0.570 0.566 0.581 0.588 0.588 0.582 0.570 0.549 0.520 0.486 0.457 0.432 0.410 0.392 0.376 0.363 0.352 0.343 0.335 0.329 0.324 0.321 0.318 0.317 0.315 0.315 0.315 0.315 0.315 0.316 0.319 0.322 0.327 0.334 0.342 0.352 0.363 0.377 0.391 0.408 0.426 0.446 0.468 0.492 0.518 0.546 0.575 0.603 0.630 0.656 0.679 0.702 0.722 0.742 0.760 0.776 0.792 0.806 0.819 0.830 0.841 0.851 0.859 0.867 0.874 0.879 0.884 0.889 0.892 0.895 0.898 0.900 0.901 0.902 0.903 0.903 0.903 0.903 0.903 0.903 0.903 0.903 0.902 0.901 0.899 0.897 0.895 0.891 0.887 0.882 0.876 0.869 0.861 0.852 0.841 0.828 0.814 0.798 0.780 0.760 0.738 0.714 0.688 0.659 0.627 0.595 0.565 0.538 0.513 0.490 0.470 0.452 0.436 0.423 0.411 0.400 0.392 0.385 0.379 0.375 0.372 0.369 0.368 0.367 0.366 0.366 0.366 0.366 0.367 0.368 0.370 0.373 0.378 0.384 0.391 0.401 0.413 0.428 0.445 0.465 0.488 0.513 0.541 0.571 0.603 0.638 0.673 0.710 0.748 0.788 0.828 0.871 0.915 0.962 1.011 1.065 1.124 1.185 1.234 1.264 1.278 1.283 1.281 1.278 1.278 0.000 
0.000 0.664 0.664 0.612 0.617 0.617 0.611 0.598 0.579 0.553 0.520 0.486 0.455 0.429 0.406 0.386 0.369 0.355 0.343 0.333 0.324 0.317 0.312 0.308 0.305 0.302 0.301 0.300 0.299 0.299 0.299 0.300 0.301 0.304 0.308 0.313 0.320 0.328 0.338 0.350 0.363 0.378 0.395 0.413 0.434 0.456 0.480 0.506 0.534 0.563 0.589 0.614 0.638 0.660 0.680 0.700 0.717 0.734 0.749 0.763 0.776 0.788 0.798 0.808 0.816 0.824 0.831 0.837 0.842 0.846 0.850 0.853 0.856 0.857 0.859 0.860 0.861 0.861 0.861 0.862 0.862 0.862 0.861 0.861 0.860 0.860 0.858 0.856 0.854 0.851 0.847 0.843 0.837 0.831 0.823 0.814 0.804 0.792 0.778 0.763 0.746 0.728 0.707 0.684 0.658 0.631 0.601 0.569 0.539 0.512 0.487 0.464 0.443 0.425 0.409 0.395 0.382 0.372 0.363 0.355 0.349 0.344 0.341 0.338 0.336 0.335 0.335 0.334 0.334 0.334 0.335 0.336 0.337 0.340 0.344 0.349 0.357 0.366 0.377 0.391 0.408 0.427 0.449 0.474 0.502 0.532 0.565 0.600 0.637 0.676 0.717 0.759 0.803 0.848 0.896 0.947 1.001 1.058 1.120 1.188 1.254 1.306 1.336 1.350 1.354 1.353 1.353 0.000 
0.000 0.760 0.760 0.703 0.685 0.668 0.648 0.622 0.591 0.556 0.519 0.483 0.452 0.424 0.400 0.379 0.361 0.345 0.332 0.321 0.311 0.304 0.298 0.293 0.289 0.286 0.284 0.283 0.282 0.282 0.282 0.282 0.283 0.284 0.287 0.291 0.296 0.303 0.311 0.321 0.333 0.346 0.361 0.378 0.397 0.418 0.440 0.465 0.491 0.519 0.545 0.570 0.593 0.615 0.635 0.654 0.672 0.688 0.703 0.717 0.730 0.741 0.752 0.761 0.770 0.778 0.785 0.790 0.796 0.800 0.804 0.807 0.809 0.811 0.813 0.814 0.815 0.815 0.816 0.816 0.816 0.816 0.816 0.816 0.815 0.814 0.813 0.812 0.809 0.807 0.803 0.799 0.794 0.788 0.781 0.772 0.763 0.752 0.739 0.725 0.709 0.691 0.671 0.650 0.626 0.600 0.571 0.540 0.511 0.483 0.458 0.436 0.415 0.396 0.380 0.365 0.353 0.342 0.332 0.324 0.318 0.313 0.309 0.306 0.304 0.302 0.302 0.301 0.301 0.301 0.302 0.302 0.304 0.306 0.310 0.315 0.321 0.330 0.341 0.354 0.370 0.388 0.410 0.434 0.462 0.492 0.525 0.560 0.599 0.639 0.682 0.726 0.773 0.821 0.873 0.927 0.985 1.046 1.112 1.184 1.261 1.335 1.394 1.432 1.450 1.452 1.452 0.000 
0.000 0.878 0.878 0.810 0.782 0.742 0.696 0.648 0.602 0.557 0.516 0.479 0.446 0.417 0.392 0.369 0.350 0.333 0.319 0.307 0.297 0.288 0.282 0.276 0.272 0.268 0.266 0.264 0.263 0.262 0.262 0.262 0.262 0.263 0.265 0.267 0.271 0.277 0.283 0.292 0.302 0.313 0.326 0.341 0.358 0.377 0.398 0.421 0.446 0.472 0.498 0.523 0.546 0.567 0.587 0.606 0.623 0.639 0.654 0.667 0.680 0.691 0.702 0.711 0.720 0.727 0.734 0.740 0.745 0.750 0.753 0.757 0.759 0.761 0.763 0.764 0.765 0.765 0.766 0.766 0.766 0.766 0.766 0.766 0.765 0.765 0.764 0.762 0.760 0.758 0.755 0.751 0.746 0.741 0.734 0.726 0.717 0.707 0.695 0.682 0.667 0.651 0.632 0.612 0.589 0.565 0.538 0.509 0.480 0.453 0.428 0.405 0.385 0.366 0.349 0.335 0.322 0.310 0.301 0.292 0.286 0.280 0.276 0.273 0.271 0.269 0.269 0.268 0.268 0.268 0.269 0.269 0.271 0.273 0.276 0.281 0.287 0.295 0.305 0.317 0.332 0.350 0.370 0.394 0.421 0.450 0.483 0.519 0.557 0.599 0.642 0.689 0.738 0.789 0.843 0.901 0.962 1.028 1.098 1.174 1.257 1.348 1.435 1.502 1.545 1.566 1.566 0.000 
0.000 0.993 0.993 0.927 0.871 0.807 0.734 0.667 0.608 0.557 0.512 0.473 0.438 0.408 0.381 0.357 0.337 0.319 0.304 0.291 0.280 0.271 0.264 0.257 0.253 0.249 0.246 0.244 0.242 0.241 0.240 0.240 0.240 0.240 0.241 0.243 0.245 0.249 0.254 0.260 0.268 0.278 0.289 0.302 0.317 0.334 0.353 0.374 0.397 0.422 0.448 0.472 0.495 0.516 0.535 0.553 0.570 0.586 0.600 0.614 0.626 0.637 0.647 0.657 0.665 0.673 0.679 0.685 0.690 0.695 0.698 0.702 0.704 0.706 0.708 0.709 0.710 0.711 0.711 0.711 0.711 0.711 0.711 0.711 0.711 0.710 0.710 0.708 0.707 0.704 0.702 0.698 0.694 0.689 0.683 0.676 0.668 0.658 0.647 0.635 0.621 0.606 0.589 0.570 0.549 0.526 0.501 0.474 0.446 0.419 0.395 0.373 0.352 0.334 0.317 0.302 0.289 0.278 0.268 0.259 0.253 0.248 0.244 0.241 0.239 0.238 0.237 0.237 0.237 0.237 0.237 0.238 0.239 0.241 0.244 0.248 0.254 0.261 0.270 0.282 0.295 0.311 0.331 0.353 0.379 0.408 0.440 0.475 0.513 0.555 0.600 0.647 0.698 0.751 0.808 0.868 0.933 1.002 1.077 1.158 1.248 1.348 1.455 1.547 1.610 1.636 1.636 0.000 
0.000 1.031 1.031 0.996 0.934 0.851 0.759 0.678 0.611 0.554 0.506 0.464 0.428 0.396 0.368 0.343 0.321 0.303 0.287 0.273 0.262 0.252 0.244 0.237 0.231 0.227 0.223 0.221 0.219 0.218 0.217 0.216 0.216 0.216 0.216 0.217 0.218 0.220 0.223 0.228 0.234 0.242 0.251 0.263 0.276 0.291 0.308 0.326 0.347 0.370 0.394 0.418 0.440 0.461 0.480 0.497 0.514 0.529 0.543 0.556 0.568 0.579 0.589 0.598 0.606 0.613 0.620 0.625 0.630 0.635 0.639 0.642 0.644 0.646 0.648 0.649 0.650 0.651 0.651 0.652 0.652 0.652 0.652 0.652 0.651 0.651 0.650 0.649 0.648 0.646 0.643 0.640 0.637 0.632 0.627 0.620 0.613 0.604 0.595 0.583 0.571 0.557 0.541 0.524 0.504 0.483 0.460 0.435 0.409 0.383 0.359 0.337 0.318 0.299 0.283 0.268 0.255 0.244 0.235 0.227 0.221 0.216 0.213 0.210 0.209 0.207 0.207 0.207 0.207 0.207 0.207 0.208 0.209 0.211 0.213 0.217 0.222 0.229 0.237 0.247 0.259 0.274 0.291 0.312 0.336 0.364 0.395 0.429 0.467 0.508 0.553 0.601 0.652 0.707 0.766 0.829 0.896 0.969 1.047 1.134 1.231 1.340 1.460 1.566 1.645 1.685 1.685 0.000 
0.000 1.067 1.067 1.035 0.971 0.877 0.771 0.682 0.610 0.549 0.498 0.453 0.414 0.381 0.351 0.326 0.303 0.284 0.267 0.253 0.241 0.230 0.221 0.214 0.208 0.203 0.199 0.196 0.194 0.192 0.191 0.190 0.190 0.189 0.189 0.189 0.190 0.191 0.193 0.197 0.202 0.208 0.216 0.226 0.237 0.250 0.264 0.281 0.298 0.318 0.339 0.361 0.382 0.402 0.420 0.437 0.453 0.468 0.481 0.493 0.505 0.515 0.525 0.534 0.541 0.548 0.555 0.560 0.565 0.570 0.573 0.576 0.579 0.581 0.583 0.584 0.585 0.586 0.586 0.586 0.586 0.586 0.586 0.586 0.586 0.586 0.585 0.584 0.583 0.582 0.580 0.577 0.574 0.570 0.565 0.559 0.553 0.545 0.536 0.526 0.515 0.503 0.488 0.473 0.455 0.436 0.415 0.393 0.368 0.343 0.321 0.300 0.280 0.263 0.247 0.233 0.221 0.211 0.203 0.196 0.191 0.187 0.184 0.181 0.180 0.179 0.178 0.178 0.178 0.178 0.178 0.179 0.180 0.182 0.184 0.188 0.192 0.198 0.205 0.214 0.225 0.238 0.254 0.272 0.293 0.319 0.348 0.381 0.418 0.458 0.502 0.550 0.602 0.657 0.717 0.781 0.851 0.926 1.009 1.100 1.204 1.321 1.453 1.570 1.655 1.700 1.700 0.000 
0.000 1.070 1.070 1.052 0.987 0.888 0.774 0.681 0.604 0.540 0.485 0.438 0.397 0.362 0.331 0.305 0.282 0.262 0.245 0.230 0.217 0.206 0.197 0.189 0.183 0.177 0.173 0.169 0.166 0.164 0.163 0.162 0.161 0.161 0.161 0.161 0.161 0.162 0.164 0.167 0.171 0.177 0.183 0.191 0.201 0.212 0.224 0.238 0.253 0.270 0.288 0.306 0.325 0.342 0.358 0.374 0.388 0.402 0.414 0.426 0.437 0.447 0.456 0.464 0.472 0.478 0.484 0.490 0.494 0.498 0.502 0.505 0.508 0.510 0.511 0.513 0.514 0.514 0.515 0.515 0.515 0.515 0.515 0.515 0.515 0.515 0.514 0.514 0.513 0.511 0.510 0.507 0.505 0.501 0.497 0.492 0.487 0.480 0.473 0.464 0.454 0.443 0.431 0.417 0.401 0.384 0.366 0.346 0.323 0.300 0.279 0.259 0.241 0.225 0.211 0.199 0.189 0.180 0.173 0.167 0.163 0.159 0.156 0.154 0.153 0.152 0.152 0.151 0.151 0.151 0.152 0.152 0.153 0.155 0.157 0.160 0.164 0.169 0.175 0.183 0.192 0.204 0.217 0.233 0.252 0.274 0.300 0.331 0.366 0.404 0.447 0.494 0.545 0.600 0.660 0.725 0.796 0.873 0.959 1.054 1.163 1.288 1.432 1.563 1.655 1.700 1.700 0.000 
0.000 1.072 1.072 1.055 0.992 0.890 0.772 0.673 0.592 0.524 0.466 0.417 0.375 0.339 0.308 0.281 0.258 0.237 0.220 0.205 0.191 0.180 0.170 0.162 0.155 0.149 0.145 0.142 0.139 0.137 0.136 0.135 0.135 0.135 0.135 0.135 0.135 0.136 0.137 0.140 0.143 0.147 0.153 0.160 0.168 0.177 0.187 0.198 0.211 0.225 0.240 0.256 0.271 0.286 0.300 0.313 0.325 0.336 0.347 0.357 0.366 0.375 0.383 0.390 0.397 0.403 0.409 0.413 0.418 0.422 0.425 0.428 0.430 0.432 0.434 0.435 0.436 0.437 0.437 0.437 0.438 0.438 0.438 0.438 0.438 0.437 0.437 0.437 0.436 0.435 0.433 0.432 0.429 0.427 0.423 0.419 0.415 0.409 0.403 0.395 0.387 0.378 0.367 0.355 0.342 0.328 0.312 0.294 0.275 0.254 0.235 0.218 0.202 0.189 0.177 0.167 0.158 0.151 0.145 0.140 0.136 0.133 0.131 0.129 0.128 0.127 0.127 0.127 0.127 0.127 0.127 0.127 0.128 0.129 0.131 0.134 0.137 0.141 0.147 0.153 0.161 0.171 0.183 0.196 0.213 0.232 0.254 0.280 0.311 0.347 0.388 0.433 0.482 0.536 0.595 0.660 0.730 0.808 0.895 0.993 1.104 1.234 1.386 1.537 1.647 1.700 1.700 0.000 
0.000 1.075 1.075 1.057 0.990 0.882 0.758 0.655 0.571 0.500 0.441 0.391 0.348 0.312 0.280 0.253 0.230 0.209 0.192 0.176 0.163 0.151 0.142 0.134 0.128 0.123 0.119 0.116 0.114 0.113 0.112 0.111 0.111 0.110 0.110 0.111 0.111 0.112 0.113 0.115 0.117 0.121 0.125 0.131 0.137 0.145 0.153 0.162 0.173 0.184 0.197 0.210 0.222 0.234 0.246 0.257 0.267 0.276 0.285 0.293 0.301 0.308 0.314 0.320 0.326 0.331 0.335 0.340 0.343 0.346 0.349 0.351 0.353 0.355 0.356 0.357 0.358 0.359 0.359 0.359 0.359 0.360 0.360 0.360 0.359 0.359 0.359 0.359 0.358 0.357 0.356 0.355 0.353 0.351 0.348 0.345 0.341 0.336 0.331 0.325 0.318 0.311 0.302 0.292 0.281 0.269 0.256 0.242 0.226 0.209 0.193 0.179 0.166 0.155 0.146 0.137 0.130 0.124 0.119 0.115 0.112 0.109 0.107 0.106 0.105 0.104 0.104 0.104 0.104 0.104 0.104 0.104 0.105 0.106 0.108 0.110 0.112 0.116 0.121 0.126 0.133 0.141 0.151 0.162 0.176 0.192 0.210 0.232 0.258 0.289 0.325 0.366 0.413 0.464 0.521 0.584 0.653 0.730 0.816 0.913 1.023 1.152 1.305 1.477 1.624 1.700 1.700 0.000 
0.000 1.078 1.078 1.057 0.978 0.855 0.727 0.623 0.537 0.466 0.407 0.357 0.315 0.278 0.247 0.221 0.198 0.178 0.160 0.145 0.133 0.122 0.114 0.108 0.102 0.098 0.095 0.093 0.091 0.090 0.089 0.089 0.088 0.088 0.088 0.089 0.089 0.089 0.090 0.092 0.094 0.097 0.100 0.104 0.110 0.115 0.122 0.130 0.138 0.147 0.157 0.168 0.178 0.188 0.197 0.206 0.214 0.221 0.228 0.235 0.241 0.247 0.252 0.257 0.261 0.265 0.269 0.272 0.275 0.278 0.280 0.282 0.283 0.284 0.286 0.286 0.287 0.287 0.288 0.288 0.288 0.288 0.288 0.288 0.288 0.288 0.288 0.288 0.287 0.286 0.286 0.284 0.283 0.281 0.279 0.276 0.273 0.270 0.265 0.261 0.255 0.249 0.242 0.234 0.226 0.216 0.205 0.194 0.181 0.167 0.155 0.143 0.133 0.125 0.117 0.110 0.104 0.100 0.095 0.092 0.090 0.088 0.086 0.085 0.084 0.084 0.083 0.083 0.083 0.083 0.083 0.084 0.084 0.085 0.086 0.088 0.090 0.093 0.097 0.101 0.107 0.113 0.121 0.130 0.141 0.154 0.170 0.188 0.209 0.234 0.263 0.297 0.338 0.385 0.438 0.498 0.563 0.637 0.719 0.811 0.915 1.036 1.180 1.359 1.564 1.700 1.700 0.000 
0.000 1.080 1.080 1.050 0.940 0.796 0.672 0.571 0.488 0.420 0.363 0.314 0.274 0.239 0.209 0.184 0.161 0.142 0.127 0.114 0.104 0.096 0.089 0.084 0.080 0.077 0.074 0.072 0.071 0.070 0.069 0.069 0.069 0.069 0.069 0.069 0.069 0.069 0.070 0.071 0.073 0.075 0.078 0.081 0.085 0.090 0.095 0.101 0.107 0.114 0.122 0.130 0.138 0.146 0.153 0.160 0.166 0.172 0.178 0.183 0.188 0.192 0.196 0.200 0.203 0.206 0.209 0.212 0.214 0.216 0.218 0.219 0.220 0.221 0.222 0.223 0.223 0.224 0.224 0.224 0.224 0.224 0.224 0.224 0.224 0.224 0.224 0.224 0.223 0.223 0.222 0.221 0.220 0.219 0.217 0.215 0.213 0.210 0.207 0.203 0.199 0.194 0.188 0.182 0.176 0.168 0.160 0.151 0.141 0.130 0.120 0.112 0.104 0.097 0.091 0.086 0.081 0.077 0.074 0.072 0.070 0.068 0.067 0.066 0.065 0.065 0.065 0.065 0.065 0.065 0.065 0.065 0.065 0.066 0.067 0.068 0.070 0.072 0.075 0.079 0.083 0.088 0.094 0.102 0.110 0.121 0.133 0.147 0.163 0.183 0.206 0.233 0.265 0.303 0.348 0.400 0.459 0.526 0.601 0.684 0.776 0.878 0.998 1.152 1.378 1.700 1.700 0.000 
0.000 1.024 1.024 1.008 0.842 0.696 0.585 0.495 0.421 0.358 0.306 0.262 0.224 0.192 0.165 0.142 0.123 0.108 0.096 0.086 0.078 0.072 0.067 0.063 0.060 0.057 0.055 0.054 0.053 0.052 0.052 0.052 0.051 0.051 0.051 0.051 0.052 0.052 0.053 0.053 0.055 0.056 0.058 0.061 0.064 0.067 0.071 0.075 0.080 0.086 0.091 0.097 0.104 0.109 0.115 0.120 0.124 0.129 0.133 0.137 0.140 0.144 0.147 0.150 0.152 0.155 0.157 0.159 0.160 0.162 0.163 0.164 0.165 0.166 0.166 0.167 0.167 0.168 0.168 0.168 0.168 0.168 0.168 0.168 0.168 0.168 0.168 0.168 0.167 0.167 0.166 0.166 0.165 0.164 0.163 0.161 0.159 0.157 0.155 0.152 0.149 0.145 0.141 0.137 0.131 0.126 0.120 0.113 0.105 0.097 0.090 0.084 0.078 0.073 0.068 0.064 0.061 0.058 0.056 0.054 0.052 0.051 0.050 0.049 0.049 0.049 0.048 0.048 0.048 0.048 0.048 0.049 0.049 0.049 0.050 0.051 0.052 0.054 0.056 0.059 0.062 0.066 0.071 0.076 0.083 0.091 0.100 0.110 0.123 0.138 0.155 0.176 0.200 0.228 0.262 0.302 0.349 0.403 0.465 0.533 0.602 0.669 0.738 0.815 0.920 1.059 1.059 0.000 
0.000 0.477 0.477 0.759 0.637 0.536 0.459 0.393 0.333 0.280 0.235 0.197 0.166 0.140 0.119 0.102 0.088 0.077 0.068 0.061 0.056 0.051 0.048 0.045 0.043 0.041 0.039 0.038 0.038 0.037 0.037 0.037 0.037 0.037 0.037 0.037 0.037 0.037 0.037 0.038 0.039 0.040 0.041 0.043 0.045 0.048 0.050 0.054 0.057 0.061 0.065 0.069 0.074 0.078 0.082 0.085 0.089 0.092 0.095 0.097 0.100 0.102 0.105 0.107 0.108 0.110 0.112 0.113 0.114 0.115 0.116 0.117 0.117 0.118 0.118 0.119 0.119 0.119 0.119 0.119 0.120 0.120 0.120 0.120 0.120 0.119 0.119 0.119 0.119 0.119 0.118 0.118 0.117 0.117 0.116 0.115 0.113 0.112 0.110 0.108 0.106 0.103 0.100 0.097 0.094 0.090 0.085 0.080 0.075 0.069 0.064 0.060 0.055 0.052 0.048 0.046 0.043 0.041 0.040 0.038 0.037 0.036 0.036 0.035 0.035 0.035 0.034 0.034 0.034 0.034 0.034 0.035 0.035 0.035 0.036 0.036 0.037 0.039 0.040 0.042 0.044 0.047 0.050 0.054 0.059 0.065 0.071 0.079 0.088 0.098 0.111 0.126 0.143 0.163 0.188 0.216 0.250 0.290 0.335 0.381 0.420 0.449 0.465 0.459 0.384 0.199 0.199 0.000 
0.000 0.000 0.000 0.245 0.330 0.322 0.299 0.267 0.228 0.190 0.159 0.132 0.111 0.093 0.079 0.068 0.059 0.051 0.046 0.041 0.037 0.034 0.032 0.030 0.028 0.027 0.026 0.025 0.025 0.025 0.024 0.024 0.024 0.024 0.024 0.024 0.024 0.024 0.025 0.025 0.026 0.026 0.027 0.029 0.030 0.031 0.033 0.035 0.038 0.040 0.043 0.046 0.049 0.051 0.054 0.056 0.059 0.061 0.063 0.065 0.066 0.068 0.069 0.071 0.072 0.073 0.074 0.075 0.076 0.076 0.077 0.077 0.078 0.078 0.078 0.079 0.079 0.079 0.079 0.079 0.079 0.079 0.079 0.079 0.079 0.079 0.079 0.079 0.079 0.079 0.078 0.078 0.078 0.077 0.077 0.076 0.075 0.074 0.073 0.072 0.070 0.068 0.066 0.064 0.062 0.059 0.056 0.053 0.050 0.046 0.043 0.039 0.037 0.034 0.032 0.030 0.029 0.027 0.026 0.025 0.025 0.024 0.024 0.023 0.023 0.023 0.023 0.023 0.023 0.023 0.023 0.023 0.023 0.023 0.024 0.024 0.025 0.026 0.027 0.028 0.029 0.031 0.033 0.036 0.039 0.043 0.047 0.052 0.058 0.065 0.074 0.083 0.095 0.109 0.125 0.144 0.167 0.194 0.225 0.252 0.270 0.278 0.274 0.244 0.143 0.000 0.000 0.000 
0.000 0.000 0.000 0.052 0.145 0.168 0.168 0.157 0.138 0.115 0.095 0.079 0.066 0.055 0.047 0.040 0.035 0.031 0.027 0.024 0.022 0.020 0.019 0.018 0.017 0.016 0.015 0.015 0.015 0.015 0.014 0.014 0.014 0.014 0.014 0.014 0.014 0.015 0.015 0.015 0.015 0.016 0.016 0.017 0.018 0.019 0.020 0.021 0.022 0.024 0.025 0.027 0.029 0.031 0.032 0.033 0.035 0.036 0.037 0.038 0.039 0.040 0.041 0.042 0.043 0.043 0.044 0.044 0.045 0.045 0.046 0.046 0.046 0.046 0.047 0.047 0.047 0.047 0.047 0.047 0.047 0.047 0.047 0.047 0.047 0.047 0.047 0.047 0.047 0.047 0.047 0.046 0.046 0.046 0.045 0.045 0.045 0.044 0.043 0.042 0.042 0.041 0.039 0.038 0.037 0.035 0.033 0.032 0.029 0.027 0.025 0.023 0.022 0.020 0.019 0.018 0.017 0.016 0.016 0.015 0.015 0.014 0.014 0.014 0.014 0.014 0.014 0.014 0.014 0.014 0.014 0.014 0.014 0.014 0.014 0.014 0.015 0.015 0.016 0.016 0.017 0.018 0.020 0.021 0.023 0.025 0.028 0.031 0.035 0.039 0.044 0.050 0.056 0.065 0.074 0.086 0.100 0.117 0.135 0.149 0.156 0.157 0.150 0.125 0.061 0.000 0.000 0.000 
0.000 0.000 0.000 0.016 0.059 0.076 0.079 0.076 0.069 0.057 0.047 0.039 0.032 0.027 0.023 0.020 0.017 0.015 0.013 0.012 0.011 0.010 0.009 0.009 0.008 0.008 0.008 0.007 0.007 0.007 0.007 0.007 0.007 0.007 0.007 0.007 0.007 0.007 0.007 0.007 0.007 0.008 0.008 0.008 0.009 0.009 0.010 0.010 0.011 0.012 0.012 0.013 0.014 0.015 0.016 0.016 0.017 0.018 0.018 0.019 0.019 0.020 0.020 0.021 0.021 0.021 0.022 0.022 0.022 0.022 0.022 0.023 0.023 0.023 0.023 0.023 0.023 0.023 0.023 0.023 0.023 0.023 0.023 0.023 0.023 0.023 0.023 0.023 0.023 0.023 0.023 0.023 0.023 0.022 0.022 0.022 0.022 0.022 0.021 0.021 0.020 0.020 0.019 0.019 0.018 0.017 0.016 0.015 0.014 0.013 0.012 0.011 0.011 0.010 0.009 0.009 0.008 0.008 0.008 0.007 0.007 0.007 0.007 0.007 0.007 0.007 0.007 0.007 0.007 0.007 0.007 0.007 0.007 0.007 0.007 0.007 0.007 0.007 0.008 0.008 0.009 0.009 0.010 0.010 0.011 0.012 0.014 0.015 0.017 0.019 0.021 0.024 0.028 0.032 0.036 0.042 0.049 0.058 0.067 0.073 0.075 0.075 0.070 0.056 0.025 0.000 0.000 0.000 
0.000 0.000 0.000 0.004 0.018 0.023 0.025 0.024 0.022 0.019 0.015 0.012 0.010 0.009 0.007 0.006 0.006 0.005 0.004 0.004 0.003 0.003 0.003 0.003 0.003 0.003 0.002 0.002 0.002 0.002 0.002 0.002 0.002 0.002 0.002 0.002 0.002 0.002 0.002 0.002 0.002 0.002 0.003 0.003 0.003 0.003 0.003 0.003 0.004 0.004 0.004 0.004 0.005 0.005 0.005 0.005 0.005 0.006 0.006 0.006 0.006 0.006 0.006 0.007 0.007 0.007 0.007 0.007 0.007 0.007 0.007 0.007 0.007 0.007 0.007 0.007 0.007 0.007 0.007 0.007 0.007 0.007 0.007 0.007 0.007 0.007 0.007 0.007 0.007 0.007 0.007 0.007 0.007 0.007 0.007 0.007 0.007 0.007 0.007 0.007 0.007 0.006 0.006 0.006 0.006 0.006 0.005 0.005 0.005 0.004 0.004 0.004 0.003 0.003 0.003 0.003 0.003 0.003 0.002 0.002 0.002 0.002 0.002 0.002 0.002 0.002 0.002 0.002 0.002 0.002 0.002 0.002 0.002 0.002 0.002 0.002 0.002 0.002 0.002 0.003 0.003 0.003 0.003 0.003 0.004 0.004 0.004 0.005 0.005 0.006 0.007 0.008 0.009 0.010 0.012 0.014 0.016 0.019 0.022 0.023 0.024 0.024 0.022 0.017 0.007 0.000 0.000 0.000 
0.000 0.000 0.000 0.000 0.000 0.000 0.000 0.000 0.000 0.000 0.000 0.000 0.000 0.000 0.000 0.000 0.000 0.000 0.000 0.000 0.000 0.000 0.000 0.000 0.000 0.000 0.000 0.000 0.000 0.000 0.000 0.000 0.000 0.000 0.000 0.000 0.000 0.000 0.000 0.000 0.000 0.000 0.000 0.000 0.000 0.000 0.000 0.000 0.000 0.000 0.000 0.000 0.000 0.000 0.000 0.000 0.000 0.000 0.000 0.000 0.000 0.000 0.000 0.000 0.000 0.000 0.000 0.000 0.000 0.000 0.000 0.000 0.000 0.000 0.000 0.000 0.000 0.000 0.000 0.000 0.000 0.000 0.000 0.000 0.000 0.000 0.000 0.000 0.000 0.000 0.000 0.000 0.000 0.000 0.000 0.000 0.000 0.000 0.000 0.000 0.000 0.000 0.000 0.000 0.000 0.000 0.000 0.000 0.000 0.000 0.000 0.000 0.000 0.000 0.000 0.000 0.000 0.000 0.000 0.000 0.000 0.000 0.000 0.000 0.000 0.000 0.000 0.000 0.000 0.000 0.000 0.000 0.000 0.000 0.000 0.000 0.000 0.000 0.000 0.000 0.000 0.000 0.000 0.000 0.000 0.000 0.000 0.000 0.000 0.000 0.000 0.000 0.000 0.000 0.000 0.000 0.000 0.000 0.000 0.000 0.000 0.000 0.000 0.000 0.000 0.000 0.000 0.000 
0.000 0.089 0.089 0.077 0.065 0.049 0.049 0.029 0.010 0.010 0.001 0.003 0.005 0.005 0.005 0.005 0.005 0.005 0.004 0.002 0.002 0.001 0.000 0.001 0.001 0.001 0.001 0.001 0.001 0.001 0.001 0.001 0.001 0.001 0.001 0.001 0.001 0.001 0.001 0.001 0.000 0.000 0.000 0.001 0.004 0.008 0.008 0.021 0.046 0.046 0.070 0.087 0.098 0.098 0.108 0.116 0.122 0.122 0.127 0.122 0.122 0.106 0.089 0.081 0.081 0.081 0.080 0.079 0.079 0.078 0.077 0.077 0.076 0.077 0.077 0.077 0.077 0.076 0.074 0.074 0.073 0.071 0.071 0.069 0.069 0.073 0.073 0.076 0.062 0.031 0.031 0.001 0.000 0.000 0.007 0.022 0.025 0.025 0.018 0.011 0.017 0.017 0.035 0.053 0.053 0.059 0.055 0.051 0.051 0.046 0.039 0.033 0.033 0.025 0.015 0.015 0.006 0.001 0.002 0.002 0.002 0.002 0.002 0.002 0.001 0.001 0.001 0.001 0.001 0.001 0.001 0.001 0.000 0.000 0.001 0.003 0.004 0.004 0.007 0.012 0.016 0.016 0.018 0.017 0.017 0.016 0.015 0.014 0.014 0.013 0.011 0.009 0.009 0.007 0.005 0.005 0.003 0.002 0.000 0.000 0.000 0.000 0.000 0.000 0.007 0.014 0.014 0.000 
0.000 0.000 0.000 0.000 0.000 0.000 0.000 0.000 0.000 0.000 0.000 0.000 0.000 0.000 0.000 0.000 0.000 0.000 0.000 0.000 0.000 0.000 0.000 0.000 0.000 0.000 0.000 0.000 0.000 0.000 0.000 0.000 0.000 0.000 0.000 0.000 0.000 0.000 0.000 0.000 0.000 0.000 0.000 0.000 0.000 0.000 0.000 0.000 0.000 0.000 0.000 0.000 0.000 0.000 0.000 0.000 0.000 0.000 0.000 0.000 0.000 0.000 0.000 0.000 0.000 0.000 0.000 0.000 0.000 0.000 0.000 0.000 0.000 0.000 0.000 0.000 0.000 0.000 0.000 0.000 0.000 0.000 0.000 0.000 0.000 0.000 0.000 0.000 0.000 0.000 0.000 0.000 0.000 0.000 0.000 0.000 0.000 0.000 0.000 0.000 0.000 0.000 0.000 0.000 0.000 0.000 0.000 0.000 0.000 0.000 0.000 0.000 0.000 0.000 0.000 0.000 0.000 0.000 0.000 0.000 0.000 0.000 0.000 0.000 0.000 0.000 0.000 0.000 0.000 0.000 0.000 0.000 0.000 0.000 0.000 0.000 0.000 0.000 0.000 0.000 0.000 0.000 0.000 0.000 0.000 0.000 0.000 0.000 0.000 0.000 0.000 0.000 0.000 0.000 0.000 0.000 0.000 0.000 0.000 0.000 0.000 0.000 0.000 0.000 0.000 0.000 0.000 0.000 
