ncols 168
nrows 121
xllcenter 640304.69
yllcenter 1081277.12
cellsize 46.59
NODATA_value -9999.000
0.000 0.000 0.000 0.000 0.000 0.000 0.000 0.000 0.000 0.000 0.000 0.000 0.000 0.000 0.000 0.000 0.000 0.000 0.000 0.000 0.000 0.000 0.000 0.000 0.000 0.000 0.000 0.000 0.000 0.000 0.000 0.000 0.000 0.000 0.000 0.000 0.000 0.000 0.000 0.000 0.000 0.000 0.000 0.000 0.000 0.000 0.000 0.000 0.000 0.000 0.000 0.000 0.000 0.000 0.000 0.000 0.000 0.000 0.000 0.000 0.000 0.000 0.000 0.000 0.000 0.000 0.000 0.000 0.000 0.000 0.000 0.000 0.000 0.000 0.000 0.000 0.000 0.000 0.000 0.000 0.000 0.000 0.000 0.000 0.000 0.000 0.000 0.000 0.000 0.000 0.000 0.000 0.000 0.000 0.000 0.000 0.000 0.000 0.000 0.000 0.000 0.000 0.000 0.000 0.000 0.000 0.000 0.000 0.000 0.000 0.000 0.000 0.000 0.000 0.000 0.000 0.000 0.000 0.000 0.000 0.000 0.000 0.000 0.000 0.000 0.000 0.000 0.000 0.000 0.000 0.000 0.000 0.000 0.000 0.000 0.000 0.000 0.000 0.000 0.000 0.000 0.000 0.000 0.000 0.000 0.000 0.000 0.000 0.000 0.000 0.000 0.000 0.000 0.000 0.000 0.000 0.000 0.000 0.000 0.000 0.000 0.000 0.000 0.000 0.000 0.000 0.000 0.000 
0.000 0.397 0.397 0.397 0.296 0.018 0.018 0.000 0.000 0.000 0.024 0.303 0.397 0.397 0.397 0.397 0.397 0.397 0.397 0.397 0.397 0.397 0.397 0.397 0.397 0.397 0.397 0.397 0.397 0.397 0.397 0.397 0.397 0.397 0.481 0.481 0.614 0.784 0.955 0.955 1.032 1.061 1.061 1.061 1.061 1.054 1.054 1.036 1.033 1.033 1.012 0.958 0.784 0.784 0.609 0.498 0.519 0.519 0.678 0.853 0.853 0.986 0.311 0.501 0.501 1.060 1.047 0.944 0.944 0.815 0.686 0.686 0.644 0.691 0.821 0.821 0.950 0.580 0.251 0.251 0.931 1.064 1.064 1.064 1.064 1.064 1.064 1.068 1.081 1.131 1.131 1.181 1.199 1.199 1.127 0.921 0.684 0.684 0.439 0.472 0.334 0.334 0.188 0.856 0.856 0.930 0.757 0.571 0.571 0.460 0.485 0.671 0.671 0.857 1.018 1.018 1.156 1.258 0.760 0.760 0.516 1.272 1.263 1.263 1.162 1.067 1.067 1.067 1.067 1.067 1.067 1.067 1.067 1.067 1.068 1.068 1.068 1.068 1.068 1.068 1.068 1.068 1.068 1.068 1.068 1.068 1.068 1.069 1.069 1.069 1.069 1.069 1.069 1.013 0.445 0.445 0.644 1.038 0.914 0.914 0.730 0.531 0.328 0.328 0.101 0.000 0.000 0.000 
0.000 0.234 0.234 0.233 0.174 0.011 0.011 0.000 0.000 0.000 0.013 0.164 0.220 0.220 0.225 0.224 0.223 0.223 0.222 0.221 0.221 0.220 0.219 0.218 0.218 0.217 0.216 0.212 0.212 0.202 0.200 0.200 0.203 0.211 0.339 0.339 0.521 0.744 0.968 0.968 1.056 1.080 1.080 1.080 1.080 0.900 0.900 0.500 0.497 0.497 0.687 0.918 0.691 0.691 0.464 0.330 0.397 0.397 0.608 0.835 0.835 1.038 0.730 0.820 0.820 1.075 1.045 0.909 0.909 0.741 0.573 0.573 0.543 0.618 0.786 0.786 0.954 0.845 0.718 0.718 1.023 1.082 1.082 1.083 1.083 1.083 1.083 1.091 1.112 1.176 1.176 1.240 1.257 1.257 1.136 0.866 0.544 0.544 0.191 0.199 0.308 0.308 0.525 0.939 0.939 0.896 0.663 0.424 0.424 0.312 0.363 0.602 0.602 0.841 1.044 1.044 1.214 1.345 1.240 1.240 1.186 1.415 1.324 1.324 1.199 1.086 1.086 1.086 1.086 1.086 1.086 1.086 1.086 1.086 1.086 1.086 1.087 1.087 1.087 1.087 1.087 1.087 1.087 1.087 1.087 1.087 1.087 1.087 1.087 1.087 1.088 1.088 1.088 1.069 0.877 0.877 0.945 1.045 0.869 0.869 0.633 0.377 0.112 0.112 0.033 0.000 0.000 0.000 
0.000 0.046 0.046 0.140 0.146 0.075 0.021 0.011 0.007 0.007 0.017 0.083 0.178 0.207 0.218 0.222 0.223 0.223 0.223 0.222 0.222 0.221 0.220 0.219 0.219 0.219 0.218 0.216 0.214 0.211 0.206 0.205 0.208 0.218 0.275 0.344 0.430 0.630 0.853 0.947 1.000 1.053 1.064 1.064 1.057 0.984 0.876 0.693 0.543 0.534 0.598 0.776 0.773 0.694 0.587 0.422 0.397 0.422 0.504 0.724 0.830 0.907 0.887 0.825 0.854 0.954 1.025 0.971 0.906 0.830 0.664 0.598 0.583 0.597 0.701 0.788 0.864 0.892 0.816 0.795 0.892 1.036 1.071 1.078 1.081 1.082 1.084 1.089 1.103 1.140 1.168 1.196 1.229 1.231 1.182 1.007 0.708 0.544 0.376 0.249 0.282 0.333 0.433 0.729 0.878 0.873 0.775 0.548 0.451 0.398 0.375 0.479 0.593 0.709 0.930 1.032 1.121 1.260 1.270 1.238 1.229 1.295 1.342 1.313 1.262 1.144 1.102 1.094 1.091 1.089 1.088 1.088 1.089 1.089 1.090 1.090 1.090 1.091 1.091 1.091 1.091 1.091 1.091 1.091 1.091 1.091 1.091 1.091 1.091 1.090 1.089 1.088 1.084 1.070 0.990 0.921 0.926 0.977 0.946 0.866 0.762 0.529 0.278 0.182 0.158 0.171 0.171 0.000 
0.000 0.014 0.014 0.047 0.072 0.064 0.043 0.033 0.031 0.035 0.055 0.103 0.164 0.197 0.213 0.221 0.224 0.225 0.226 0.226 0.226 0.225 0.225 0.224 0.224 0.224 0.224 0.224 0.223 0.222 0.223 0.226 0.235 0.259 0.304 0.377 0.482 0.639 0.799 0.898 0.961 0.995 1.008 1.008 0.993 0.952 0.863 0.738 0.665 0.650 0.674 0.726 0.736 0.703 0.617 0.544 0.517 0.525 0.586 0.712 0.822 0.868 0.877 0.879 0.897 0.943 0.961 0.952 0.907 0.828 0.737 0.685 0.671 0.680 0.722 0.799 0.854 0.871 0.871 0.881 0.928 1.007 1.049 1.067 1.075 1.081 1.086 1.092 1.103 1.122 1.142 1.154 1.156 1.141 1.089 0.964 0.759 0.578 0.459 0.408 0.397 0.429 0.519 0.661 0.733 0.741 0.703 0.598 0.517 0.487 0.487 0.516 0.596 0.712 0.859 0.991 1.098 1.171 1.208 1.219 1.225 1.251 1.272 1.266 1.224 1.157 1.118 1.103 1.097 1.095 1.094 1.094 1.095 1.096 1.098 1.099 1.100 1.100 1.101 1.101 1.101 1.101 1.101 1.101 1.101 1.101 1.100 1.100 1.098 1.097 1.094 1.089 1.079 1.057 1.011 0.970 0.955 0.945 0.924 0.865 0.762 0.606 0.479 0.432 0.441 0.493 0.493 0.000 
0.000 0.001 0.001 0.017 0.046 0.059 0.061 0.061 0.065 0.074 0.094 0.127 0.168 0.197 0.213 0.222 0.227 0.229 0.231 0.231 0.232 0.232 0.232 0.233 0.233 0.233 0.234 0.236 0.237 0.241 0.247 0.258 0.278 0.310 0.357 0.426 0.524 0.652 0.774 0.860 0.916 0.946 0.958 0.959 0.952 0.926 0.869 0.793 0.749 0.732 0.730 0.737 0.736 0.718 0.677 0.648 0.641 0.647 0.676 0.742 0.819 0.863 0.886 0.904 0.923 0.941 0.946 0.940 0.911 0.853 0.801 0.775 0.766 0.766 0.779 0.816 0.855 0.879 0.900 0.924 0.960 1.009 1.044 1.063 1.073 1.080 1.086 1.091 1.098 1.105 1.110 1.109 1.099 1.074 1.020 0.923 0.775 0.637 0.556 0.520 0.513 0.524 0.567 0.633 0.664 0.668 0.652 0.604 0.562 0.548 0.549 0.565 0.611 0.694 0.809 0.934 1.028 1.090 1.135 1.167 1.185 1.195 1.198 1.196 1.180 1.147 1.119 1.105 1.100 1.099 1.099 1.101 1.103 1.106 1.109 1.111 1.113 1.114 1.115 1.115 1.115 1.115 1.115 1.115 1.115 1.115 1.114 1.112 1.110 1.106 1.101 1.093 1.080 1.059 1.027 0.995 0.969 0.945 0.915 0.866 0.787 0.708 0.667 0.657 0.671 0.707 0.707 0.000 
0.000 0.000 0.000 0.009 0.039 0.064 0.080 0.092 0.102 0.115 0.132 0.155 0.181 0.202 0.216 0.226 0.232 0.235 0.238 0.239 0.241 0.242 0.243 0.244 0.245 0.247 0.249 0.252 0.257 0.265 0.277 0.296 0.322 0.358 0.406 0.469 0.553 0.660 0.760 0.835 0.885 0.916 0.931 0.936 0.933 0.919 0.887 0.842 0.811 0.792 0.779 0.769 0.761 0.753 0.743 0.738 0.740 0.746 0.761 0.791 0.834 0.873 0.903 0.924 0.939 0.946 0.947 0.941 0.923 0.890 0.862 0.848 0.842 0.841 0.843 0.853 0.874 0.898 0.926 0.954 0.986 1.019 1.045 1.063 1.073 1.080 1.085 1.089 1.091 1.092 1.089 1.081 1.065 1.034 0.982 0.901 0.787 0.685 0.621 0.588 0.578 0.579 0.595 0.622 0.634 0.635 0.627 0.603 0.583 0.577 0.578 0.590 0.621 0.677 0.761 0.859 0.940 1.003 1.054 1.092 1.113 1.123 1.128 1.132 1.132 1.123 1.111 1.103 1.100 1.101 1.104 1.109 1.114 1.120 1.124 1.127 1.130 1.132 1.133 1.134 1.134 1.134 1.134 1.134 1.133 1.133 1.131 1.129 1.125 1.120 1.112 1.101 1.086 1.067 1.042 1.013 0.982 0.950 0.917 0.878 0.836 0.809 0.800 0.803 0.819 0.833 0.833 0.000 
0.000 0.000 0.000 0.009 0.042 0.078 0.104 0.124 0.140 0.154 0.169 0.184 0.200 0.214 0.225 0.234 0.240 0.244 0.248 0.250 0.252 0.254 0.256 0.258 0.260 0.263 0.267 0.273 0.281 0.293 0.310 0.332 0.361 0.397 0.442 0.501 0.575 0.666 0.752 0.818 0.866 0.898 0.917 0.926 0.928 0.923 0.908 0.885 0.864 0.847 0.831 0.818 0.811 0.810 0.814 0.822 0.828 0.834 0.842 0.852 0.871 0.899 0.927 0.947 0.956 0.958 0.957 0.953 0.945 0.930 0.918 0.912 0.909 0.908 0.907 0.907 0.913 0.930 0.954 0.983 1.010 1.033 1.051 1.065 1.075 1.081 1.085 1.086 1.086 1.083 1.077 1.064 1.044 1.011 0.962 0.891 0.799 0.718 0.663 0.631 0.615 0.609 0.611 0.618 0.621 0.620 0.613 0.600 0.591 0.589 0.591 0.600 0.623 0.663 0.721 0.794 0.862 0.919 0.965 1.000 1.024 1.042 1.057 1.071 1.083 1.090 1.093 1.094 1.097 1.101 1.108 1.117 1.128 1.136 1.142 1.147 1.151 1.153 1.155 1.156 1.157 1.157 1.157 1.157 1.156 1.155 1.153 1.149 1.144 1.137 1.128 1.115 1.099 1.079 1.056 1.029 0.996 0.961 0.931 0.907 0.893 0.888 0.889 0.900 0.924 0.934 0.934 0.000 
0.000 0.034 0.034 0.022 0.056 0.102 0.136 0.161 0.180 0.194 0.206 0.215 0.224 0.232 0.240 0.247 0.253 0.257 0.261 0.264 0.266 0.269 0.272 0.275 0.278 0.283 0.289 0.297 0.308 0.323 0.342 0.365 0.393 0.428 0.471 0.525 0.590 0.669 0.746 0.807 0.853 0.887 0.910 0.924 0.930 0.932 0.930 0.923 0.913 0.902 0.890 0.882 0.880 0.883 0.893 0.903 0.910 0.915 0.918 0.920 0.925 0.939 0.960 0.973 0.979 0.980 0.979 0.978 0.977 0.975 0.972 0.971 0.970 0.970 0.969 0.968 0.968 0.974 0.990 1.012 1.033 1.050 1.062 1.072 1.080 1.084 1.086 1.086 1.084 1.079 1.069 1.054 1.031 0.997 0.951 0.888 0.810 0.741 0.692 0.658 0.637 0.626 0.620 0.617 0.614 0.610 0.604 0.597 0.593 0.592 0.595 0.603 0.620 0.649 0.690 0.742 0.797 0.844 0.884 0.917 0.944 0.967 0.990 1.012 1.034 1.052 1.067 1.078 1.088 1.098 1.110 1.124 1.139 1.152 1.162 1.170 1.175 1.179 1.181 1.183 1.184 1.184 1.184 1.183 1.183 1.181 1.178 1.174 1.168 1.159 1.148 1.134 1.117 1.097 1.073 1.044 1.011 0.980 0.959 0.948 0.945 0.945 0.948 0.961 0.991 1.015 1.015 0.000 
0.000 0.071 0.071 0.060 0.094 0.142 0.178 0.205 0.223 0.236 0.244 0.249 0.253 0.257 0.261 0.266 0.270 0.274 0.277 0.281 0.284 0.287 0.290 0.294 0.299 0.305 0.312 0.322 0.335 0.351 0.371 0.394 0.422 0.455 0.495 0.544 0.602 0.672 0.741 0.799 0.845 0.881 0.907 0.926 0.938 0.948 0.956 0.960 0.960 0.958 0.956 0.956 0.958 0.963 0.971 0.979 0.985 0.988 0.990 0.990 0.990 0.993 1.001 1.008 1.011 1.012 1.013 1.015 1.018 1.022 1.025 1.027 1.027 1.027 1.026 1.025 1.026 1.027 1.033 1.045 1.059 1.069 1.077 1.083 1.087 1.088 1.088 1.087 1.084 1.077 1.065 1.048 1.024 0.990 0.946 0.889 0.819 0.758 0.711 0.676 0.652 0.635 0.623 0.615 0.609 0.604 0.598 0.594 0.593 0.593 0.595 0.602 0.615 0.635 0.664 0.700 0.741 0.780 0.816 0.847 0.875 0.902 0.929 0.955 0.983 1.011 1.035 1.056 1.074 1.092 1.109 1.128 1.148 1.165 1.179 1.191 1.199 1.206 1.210 1.213 1.214 1.214 1.214 1.214 1.213 1.211 1.208 1.203 1.196 1.186 1.174 1.159 1.140 1.118 1.092 1.062 1.030 1.006 0.992 0.985 0.983 0.983 0.987 0.997 1.022 1.047 1.047 0.000 
0.000 0.210 0.210 0.137 0.165 0.203 0.235 0.257 0.271 0.280 0.285 0.286 0.286 0.287 0.288 0.289 0.292 0.295 0.298 0.301 0.304 0.308 0.312 0.316 0.322 0.329 0.338 0.349 0.363 0.379 0.398 0.420 0.447 0.479 0.516 0.561 0.613 0.674 0.738 0.794 0.840 0.878 0.908 0.932 0.952 0.970 0.985 0.997 1.005 1.011 1.016 1.021 1.027 1.034 1.041 1.048 1.053 1.055 1.057 1.057 1.056 1.054 1.053 1.054 1.055 1.056 1.058 1.061 1.067 1.074 1.078 1.080 1.080 1.080 1.079 1.077 1.076 1.076 1.077 1.081 1.087 1.091 1.095 1.096 1.097 1.096 1.094 1.090 1.085 1.076 1.063 1.045 1.020 0.986 0.944 0.891 0.828 0.770 0.724 0.688 0.660 0.640 0.624 0.613 0.604 0.598 0.593 0.591 0.591 0.591 0.593 0.598 0.608 0.621 0.641 0.666 0.695 0.727 0.757 0.787 0.816 0.845 0.873 0.903 0.934 0.967 1.000 1.030 1.057 1.082 1.106 1.130 1.154 1.175 1.193 1.208 1.220 1.229 1.236 1.240 1.243 1.244 1.245 1.245 1.244 1.242 1.240 1.235 1.228 1.217 1.204 1.188 1.168 1.144 1.115 1.083 1.055 1.035 1.021 1.013 1.009 1.009 1.011 1.017 1.032 1.044 1.044 0.000 
0.000 0.354 0.354 0.278 0.275 0.291 0.308 0.319 0.325 0.327 0.326 0.324 0.322 0.320 0.319 0.318 0.319 0.320 0.322 0.324 0.327 0.331 0.335 0.340 0.346 0.354 0.363 0.375 0.388 0.404 0.423 0.444 0.470 0.500 0.535 0.575 0.623 0.677 0.736 0.790 0.837 0.878 0.912 0.942 0.971 0.996 1.017 1.034 1.048 1.059 1.069 1.078 1.087 1.095 1.103 1.109 1.114 1.116 1.117 1.118 1.117 1.116 1.113 1.110 1.109 1.110 1.112 1.116 1.122 1.127 1.129 1.130 1.130 1.129 1.126 1.123 1.120 1.118 1.117 1.116 1.117 1.116 1.115 1.113 1.110 1.106 1.101 1.095 1.087 1.077 1.063 1.043 1.018 0.985 0.944 0.894 0.835 0.779 0.733 0.695 0.665 0.642 0.624 0.610 0.599 0.592 0.588 0.587 0.587 0.587 0.589 0.592 0.598 0.607 0.619 0.636 0.657 0.682 0.709 0.736 0.765 0.794 0.824 0.855 0.888 0.924 0.962 1.001 1.036 1.069 1.100 1.129 1.156 1.182 1.204 1.222 1.237 1.249 1.258 1.264 1.268 1.270 1.271 1.272 1.271 1.270 1.268 1.264 1.258 1.249 1.236 1.220 1.199 1.174 1.143 1.110 1.082 1.060 1.044 1.033 1.027 1.025 1.025 1.028 1.035 1.042 1.042 0.000 
0.000 0.479 0.479 0.414 0.402 0.389 0.383 0.377 0.372 0.367 0.362 0.358 0.354 0.351 0.349 0.348 0.348 0.348 0.349 0.350 0.352 0.355 0.359 0.364 0.370 0.378 0.388 0.399 0.413 0.428 0.446 0.467 0.491 0.519 0.552 0.589 0.632 0.681 0.734 0.788 0.836 0.880 0.920 0.957 0.991 1.021 1.047 1.069 1.087 1.103 1.116 1.129 1.140 1.149 1.157 1.164 1.168 1.171 1.172 1.173 1.173 1.172 1.171 1.169 1.168 1.168 1.169 1.171 1.174 1.176 1.177 1.177 1.175 1.173 1.169 1.164 1.159 1.155 1.151 1.148 1.145 1.141 1.137 1.132 1.126 1.120 1.112 1.103 1.092 1.079 1.063 1.043 1.017 0.984 0.944 0.897 0.841 0.786 0.740 0.701 0.668 0.643 0.622 0.606 0.595 0.587 0.583 0.581 0.580 0.580 0.581 0.583 0.586 0.591 0.599 0.611 0.626 0.646 0.668 0.693 0.720 0.749 0.780 0.813 0.848 0.885 0.926 0.970 1.014 1.054 1.091 1.125 1.157 1.186 1.212 1.233 1.251 1.266 1.276 1.284 1.290 1.293 1.295 1.295 1.295 1.294 1.293 1.289 1.284 1.276 1.264 1.249 1.229 1.204 1.174 1.139 1.107 1.081 1.061 1.048 1.039 1.034 1.032 1.033 1.035 1.039 1.039 0.000 
0.000 0.603 0.603 0.537 0.497 0.464 0.440 0.423 0.410 0.400 0.392 0.386 0.381 0.377 0.375 0.374 0.373 0.373 0.373 0.374 0.376 0.378 0.382 0.387 0.393 0.401 0.411 0.423 0.436 0.451 0.469 0.489 0.512 0.538 0.568 0.602 0.642 0.686 0.735 0.786 0.837 0.885 0.930 0.972 1.010 1.044 1.074 1.100 1.122 1.141 1.158 1.173 1.185 1.196 1.205 1.211 1.216 1.220 1.221 1.222 1.223 1.223 1.222 1.221 1.221 1.220 1.220 1.221 1.222 1.222 1.221 1.219 1.216 1.212 1.207 1.201 1.194 1.188 1.181 1.176 1.170 1.164 1.158 1.151 1.143 1.134 1.124 1.112 1.098 1.083 1.064 1.043 1.017 0.984 0.946 0.900 0.847 0.792 0.745 0.704 0.670 0.642 0.620 0.602 0.590 0.581 0.576 0.573 0.571 0.571 0.571 0.571 0.573 0.575 0.580 0.588 0.600 0.615 0.635 0.657 0.683 0.711 0.741 0.775 0.811 0.851 0.894 0.941 0.990 1.038 1.081 1.120 1.155 1.188 1.217 1.242 1.262 1.279 1.292 1.301 1.308 1.312 1.314 1.315 1.315 1.315 1.314 1.311 1.306 1.299 1.288 1.273 1.255 1.231 1.202 1.167 1.130 1.099 1.075 1.058 1.046 1.038 1.035 1.034 1.035 1.036 1.036 0.000 
0.000 0.640 0.640 0.609 0.560 0.513 0.480 0.457 0.439 0.426 0.416 0.408 0.403 0.399 0.397 0.395 0.395 0.395 0.395 0.395 0.396 0.399 0.403 0.408 0.415 0.423 0.433 0.445 0.458 0.473 0.491 0.510 0.531 0.556 0.584 0.616 0.652 0.692 0.737 0.786 0.837 0.889 0.939 0.985 1.027 1.064 1.098 1.127 1.153 1.175 1.195 1.211 1.225 1.237 1.246 1.254 1.259 1.263 1.265 1.266 1.267 1.267 1.267 1.267 1.266 1.266 1.265 1.265 1.264 1.263 1.261 1.258 1.253 1.248 1.241 1.234 1.226 1.217 1.209 1.200 1.192 1.184 1.176 1.167 1.157 1.147 1.135 1.122 1.106 1.088 1.068 1.044 1.017 0.985 0.947 0.902 0.852 0.797 0.749 0.707 0.671 0.641 0.617 0.598 0.584 0.574 0.567 0.562 0.560 0.558 0.557 0.557 0.557 0.558 0.562 0.568 0.577 0.590 0.607 0.627 0.650 0.677 0.708 0.741 0.778 0.819 0.864 0.913 0.967 1.020 1.069 1.113 1.152 1.188 1.220 1.247 1.270 1.289 1.304 1.315 1.323 1.328 1.331 1.332 1.333 1.332 1.331 1.329 1.325 1.318 1.308 1.294 1.276 1.253 1.225 1.190 1.151 1.114 1.085 1.064 1.049 1.040 1.036 1.034 1.034 1.034 1.034 0.000 
0.000 0.675 0.675 0.647 0.595 0.543 0.506 0.479 0.459 0.445 0.434 0.426 0.421 0.417 0.415 0.414 0.413 0.413 0.413 0.413 0.415 0.418 0.422 0.428 0.435 0.444 0.455 0.466 0.480 0.495 0.511 0.530 0.550 0.574 0.600 0.629 0.662 0.700 0.741 0.788 0.838 0.892 0.945 0.995 1.041 1.082 1.119 1.151 1.180 1.205 1.226 1.245 1.260 1.273 1.283 1.291 1.296 1.301 1.303 1.305 1.306 1.306 1.306 1.306 1.306 1.305 1.304 1.303 1.302 1.299 1.296 1.292 1.286 1.280 1.272 1.263 1.254 1.244 1.233 1.223 1.213 1.202 1.192 1.181 1.170 1.158 1.145 1.130 1.114 1.094 1.072 1.047 1.018 0.986 0.948 0.905 0.856 0.802 0.752 0.709 0.671 0.640 0.614 0.593 0.577 0.565 0.556 0.550 0.546 0.543 0.542 0.542 0.542 0.542 0.545 0.549 0.557 0.568 0.583 0.601 0.623 0.649 0.678 0.711 0.749 0.791 0.837 0.888 0.944 1.002 1.056 1.104 1.148 1.186 1.221 1.251 1.276 1.297 1.313 1.326 1.335 1.341 1.344 1.346 1.347 1.347 1.346 1.344 1.341 1.334 1.325 1.312 1.294 1.272 1.244 1.210 1.170 1.128 1.094 1.068 1.050 1.040 1.035 1.032 1.032 1.031 1.031 0.000 
0.000 0.650 0.650 0.652 0.607 0.557 0.520 0.492 0.472 0.458 0.448 0.440 0.435 0.431 0.429 0.428 0.428 0.428 0.428 0.429 0.431 0.435 0.440 0.446 0.454 0.464 0.475 0.487 0.500 0.515 0.531 0.549 0.569 0.591 0.615 0.643 0.674 0.709 0.748 0.792 0.841 0.894 0.951 1.004 1.053 1.098 1.137 1.173 1.204 1.231 1.254 1.274 1.290 1.304 1.315 1.323 1.329 1.334 1.337 1.339 1.340 1.340 1.340 1.340 1.340 1.339 1.338 1.337 1.335 1.332 1.327 1.322 1.316 1.308 1.299 1.289 1.279 1.267 1.255 1.243 1.231 1.219 1.207 1.194 1.182 1.168 1.154 1.138 1.120 1.100 1.077 1.051 1.021 0.988 0.950 0.908 0.860 0.806 0.755 0.710 0.671 0.638 0.610 0.587 0.569 0.555 0.545 0.537 0.532 0.529 0.527 0.527 0.527 0.528 0.530 0.533 0.540 0.549 0.562 0.579 0.599 0.624 0.652 0.685 0.723 0.765 0.812 0.864 0.922 0.984 1.042 1.095 1.142 1.184 1.220 1.252 1.280 1.302 1.321 1.334 1.344 1.351 1.355 1.358 1.358 1.358 1.358 1.356 1.353 1.347 1.339 1.326 1.309 1.288 1.260 1.227 1.187 1.141 1.101 1.070 1.049 1.037 1.031 1.029 1.028 1.029 1.029 0.000 
0.000 0.624 0.624 0.632 0.607 0.563 0.526 0.499 0.480 0.466 0.457 0.450 0.445 0.442 0.441 0.440 0.440 0.440 0.441 0.442 0.446 0.450 0.456 0.464 0.472 0.482 0.494 0.506 0.519 0.534 0.550 0.567 0.586 0.608 0.631 0.657 0.686 0.719 0.756 0.798 0.845 0.898 0.955 1.012 1.064 1.111 1.154 1.191 1.224 1.253 1.278 1.299 1.316 1.331 1.342 1.351 1.358 1.363 1.366 1.368 1.369 1.370 1.370 1.370 1.370 1.369 1.368 1.366 1.364 1.360 1.355 1.349 1.342 1.334 1.324 1.313 1.301 1.288 1.275 1.261 1.248 1.234 1.220 1.206 1.192 1.177 1.162 1.145 1.126 1.105 1.082 1.055 1.025 0.991 0.953 0.911 0.863 0.811 0.758 0.712 0.671 0.636 0.606 0.581 0.562 0.546 0.534 0.526 0.520 0.516 0.514 0.514 0.514 0.514 0.516 0.519 0.524 0.533 0.544 0.559 0.579 0.602 0.630 0.662 0.699 0.742 0.789 0.842 0.901 0.966 1.028 1.085 1.135 1.180 1.219 1.253 1.282 1.306 1.325 1.340 1.351 1.359 1.364 1.366 1.368 1.368 1.367 1.366 1.363 1.358 1.349 1.337 1.321 1.300 1.273 1.241 1.201 1.155 1.108 1.070 1.044 1.029 1.022 1.021 1.022 1.026 1.026 0.000 
0.000 0.598 0.598 0.608 0.594 0.564 0.528 0.501 0.483 0.471 0.462 0.456 0.453 0.451 0.449 0.449 0.449 0.450 0.451 0.454 0.459 0.464 0.471 0.479 0.489 0.499 0.511 0.524 0.537 0.552 0.568 0.585 0.604 0.624 0.647 0.672 0.700 0.731 0.766 0.806 0.852 0.903 0.959 1.019 1.074 1.123 1.168 1.207 1.242 1.272 1.298 1.320 1.339 1.354 1.366 1.375 1.382 1.388 1.391 1.394 1.395 1.396 1.396 1.396 1.396 1.395 1.394 1.392 1.389 1.385 1.380 1.373 1.365 1.356 1.345 1.334 1.321 1.307 1.293 1.278 1.263 1.248 1.232 1.217 1.202 1.185 1.169 1.151 1.131 1.110 1.086 1.060 1.029 0.995 0.957 0.914 0.867 0.815 0.762 0.713 0.671 0.634 0.602 0.576 0.555 0.538 0.525 0.516 0.509 0.505 0.503 0.502 0.502 0.502 0.503 0.506 0.510 0.518 0.528 0.542 0.560 0.582 0.609 0.641 0.678 0.720 0.768 0.822 0.881 0.947 1.014 1.074 1.128 1.175 1.217 1.252 1.282 1.308 1.329 1.345 1.357 1.365 1.370 1.373 1.374 1.375 1.375 1.373 1.371 1.366 1.357 1.346 1.330 1.309 1.283 1.251 1.212 1.167 1.116 1.069 1.034 1.014 1.006 1.005 1.015 1.023 1.023 0.000 
0.000 0.572 0.572 0.583 0.575 0.556 0.527 0.502 0.484 0.472 0.465 0.460 0.458 0.456 0.456 0.456 0.456 0.458 0.461 0.465 0.470 0.477 0.485 0.494 0.504 0.515 0.527 0.540 0.554 0.568 0.584 0.601 0.620 0.640 0.662 0.687 0.714 0.744 0.778 0.816 0.860 0.910 0.965 1.025 1.082 1.134 1.180 1.222 1.258 1.289 1.316 1.339 1.358 1.373 1.386 1.396 1.404 1.409 1.413 1.416 1.417 1.418 1.418 1.418 1.418 1.417 1.416 1.414 1.411 1.407 1.401 1.394 1.386 1.376 1.365 1.352 1.339 1.324 1.309 1.293 1.277 1.260 1.244 1.227 1.210 1.193 1.175 1.156 1.136 1.114 1.090 1.063 1.033 0.999 0.961 0.918 0.871 0.819 0.765 0.715 0.671 0.633 0.600 0.572 0.549 0.531 0.517 0.507 0.499 0.495 0.492 0.491 0.490 0.491 0.491 0.494 0.498 0.504 0.514 0.527 0.544 0.565 0.591 0.622 0.658 0.700 0.748 0.802 0.862 0.929 0.999 1.063 1.120 1.170 1.213 1.251 1.282 1.309 1.330 1.347 1.360 1.369 1.375 1.378 1.380 1.380 1.380 1.379 1.376 1.371 1.364 1.352 1.336 1.316 1.290 1.258 1.220 1.176 1.124 1.071 1.024 0.989 0.972 0.972 0.997 1.042 1.042 0.000 
0.000 0.546 0.546 0.558 0.553 0.542 0.522 0.500 0.483 0.472 0.466 0.462 0.460 0.460 0.460 0.460 0.462 0.465 0.469 0.474 0.481 0.488 0.497 0.507 0.518 0.529 0.542 0.555 0.569 0.584 0.599 0.616 0.635 0.655 0.677 0.701 0.728 0.757 0.790 0.828 0.870 0.918 0.972 1.032 1.091 1.144 1.192 1.234 1.271 1.303 1.331 1.354 1.374 1.390 1.403 1.414 1.422 1.427 1.432 1.434 1.436 1.437 1.437 1.437 1.437 1.436 1.435 1.433 1.430 1.425 1.420 1.412 1.404 1.394 1.382 1.369 1.355 1.339 1.323 1.307 1.289 1.272 1.254 1.236 1.218 1.200 1.181 1.162 1.141 1.118 1.094 1.067 1.036 1.002 0.964 0.922 0.875 0.823 0.768 0.717 0.672 0.632 0.597 0.568 0.544 0.525 0.510 0.498 0.490 0.485 0.482 0.480 0.480 0.480 0.481 0.483 0.486 0.492 0.501 0.513 0.529 0.549 0.574 0.604 0.640 0.681 0.729 0.783 0.843 0.911 0.983 1.050 1.110 1.163 1.209 1.248 1.281 1.309 1.331 1.349 1.362 1.372 1.378 1.381 1.383 1.384 1.383 1.383 1.380 1.375 1.368 1.356 1.341 1.320 1.295 1.263 1.225 1.181 1.131 1.076 1.020 0.968 0.922 0.896 0.923 1.069 1.069 0.000 
0.000 0.520 0.520 0.533 0.530 0.523 0.512 0.495 0.481 0.471 0.465 0.462 0.461 0.461 0.462 0.464 0.466 0.470 0.476 0.482 0.490 0.498 0.508 0.518 0.529 0.542 0.554 0.568 0.582 0.597 0.613 0.630 0.649 0.669 0.691 0.715 0.741 0.771 0.804 0.840 0.882 0.928 0.981 1.039 1.099 1.153 1.201 1.244 1.282 1.315 1.343 1.367 1.388 1.404 1.418 1.429 1.437 1.443 1.447 1.450 1.452 1.453 1.453 1.453 1.453 1.453 1.451 1.449 1.446 1.442 1.436 1.428 1.420 1.409 1.397 1.384 1.369 1.353 1.336 1.319 1.301 1.283 1.264 1.245 1.226 1.207 1.187 1.167 1.145 1.122 1.097 1.070 1.040 1.006 0.968 0.926 0.879 0.827 0.771 0.720 0.673 0.632 0.596 0.565 0.540 0.519 0.503 0.491 0.482 0.476 0.473 0.471 0.470 0.470 0.471 0.472 0.475 0.480 0.488 0.499 0.515 0.534 0.558 0.587 0.622 0.663 0.710 0.764 0.825 0.892 0.967 1.037 1.100 1.156 1.204 1.245 1.280 1.308 1.331 1.349 1.363 1.373 1.380 1.384 1.385 1.386 1.386 1.385 1.383 1.378 1.370 1.359 1.344 1.323 1.297 1.265 1.228 1.184 1.134 1.080 1.022 0.961 0.891 0.800 0.691 0.679 0.679 0.000 
0.000 0.495 0.495 0.507 0.505 0.502 0.496 0.486 0.476 0.468 0.464 0.462 0.462 0.462 0.464 0.466 0.470 0.475 0.482 0.489 0.497 0.507 0.517 0.528 0.540 0.552 0.565 0.579 0.594 0.609 0.626 0.643 0.662 0.682 0.704 0.728 0.754 0.783 0.816 0.852 0.893 0.939 0.990 1.047 1.106 1.161 1.209 1.253 1.291 1.325 1.354 1.378 1.399 1.416 1.430 1.441 1.450 1.456 1.461 1.464 1.466 1.467 1.467 1.467 1.467 1.466 1.465 1.463 1.460 1.455 1.450 1.442 1.433 1.423 1.411 1.397 1.382 1.366 1.348 1.330 1.312 1.293 1.273 1.253 1.234 1.214 1.193 1.172 1.150 1.126 1.101 1.073 1.043 1.009 0.971 0.929 0.882 0.831 0.775 0.722 0.674 0.632 0.595 0.563 0.536 0.515 0.497 0.484 0.474 0.468 0.464 0.462 0.461 0.461 0.461 0.462 0.465 0.469 0.477 0.487 0.501 0.519 0.543 0.571 0.605 0.645 0.692 0.745 0.806 0.874 0.949 1.023 1.089 1.148 1.198 1.241 1.277 1.307 1.331 1.349 1.364 1.374 1.381 1.385 1.387 1.387 1.387 1.386 1.384 1.380 1.372 1.361 1.345 1.325 1.298 1.266 1.228 1.184 1.135 1.081 1.024 0.961 0.887 0.780 0.563 0.134 0.134 0.000 
0.000 0.469 0.469 0.481 0.481 0.480 0.477 0.472 0.467 0.463 0.461 0.460 0.461 0.462 0.464 0.468 0.473 0.479 0.487 0.495 0.504 0.514 0.525 0.536 0.548 0.561 0.575 0.589 0.604 0.620 0.637 0.654 0.673 0.693 0.715 0.739 0.766 0.795 0.827 0.863 0.904 0.949 0.999 1.054 1.113 1.167 1.216 1.260 1.299 1.333 1.362 1.387 1.408 1.426 1.440 1.452 1.460 1.467 1.472 1.475 1.477 1.478 1.478 1.479 1.478 1.478 1.477 1.475 1.472 1.467 1.462 1.454 1.445 1.435 1.423 1.409 1.394 1.377 1.359 1.341 1.322 1.302 1.282 1.261 1.241 1.220 1.199 1.177 1.154 1.130 1.105 1.077 1.046 1.012 0.974 0.932 0.886 0.835 0.779 0.725 0.676 0.633 0.595 0.561 0.533 0.510 0.492 0.478 0.467 0.460 0.455 0.453 0.452 0.451 0.451 0.452 0.455 0.459 0.465 0.475 0.488 0.506 0.528 0.555 0.589 0.628 0.674 0.727 0.788 0.856 0.932 1.008 1.078 1.138 1.191 1.236 1.274 1.305 1.330 1.349 1.364 1.374 1.381 1.385 1.387 1.388 1.388 1.387 1.385 1.380 1.373 1.362 1.346 1.325 1.299 1.267 1.228 1.184 1.135 1.082 1.026 0.968 0.900 0.809 0.653 0.435 0.435 0.000 
0.000 0.443 0.443 0.456 0.456 0.456 0.456 0.455 0.454 0.453 0.454 0.456 0.458 0.461 0.465 0.470 0.476 0.483 0.491 0.499 0.509 0.520 0.531 0.543 0.555 0.569 0.583 0.597 0.613 0.629 0.646 0.664 0.683 0.704 0.726 0.750 0.776 0.805 0.837 0.873 0.913 0.957 1.006 1.060 1.119 1.173 1.222 1.266 1.305 1.339 1.369 1.394 1.416 1.434 1.448 1.460 1.469 1.476 1.481 1.484 1.486 1.488 1.488 1.488 1.488 1.488 1.487 1.485 1.482 1.477 1.472 1.465 1.456 1.445 1.433 1.419 1.404 1.387 1.369 1.350 1.331 1.311 1.290 1.269 1.248 1.226 1.204 1.182 1.159 1.134 1.108 1.080 1.049 1.015 0.977 0.936 0.889 0.839 0.783 0.728 0.679 0.634 0.595 0.560 0.531 0.507 0.487 0.472 0.461 0.453 0.447 0.444 0.443 0.442 0.442 0.443 0.445 0.449 0.455 0.463 0.476 0.492 0.514 0.540 0.572 0.611 0.656 0.709 0.769 0.837 0.913 0.992 1.064 1.128 1.183 1.230 1.270 1.302 1.328 1.348 1.363 1.374 1.381 1.385 1.387 1.388 1.388 1.387 1.385 1.381 1.373 1.362 1.346 1.325 1.299 1.266 1.227 1.182 1.132 1.081 1.032 0.986 0.946 0.919 0.920 1.014 1.014 0.000 
0.000 0.417 0.417 0.430 0.431 0.431 0.433 0.434 0.437 0.440 0.445 0.449 0.455 0.460 0.465 0.471 0.477 0.485 0.494 0.503 0.513 0.524 0.536 0.548 0.561 0.575 0.589 0.604 0.620 0.636 0.654 0.672 0.692 0.713 0.735 0.759 0.786 0.815 0.847 0.882 0.921 0.965 1.013 1.066 1.123 1.178 1.227 1.271 1.310 1.345 1.374 1.400 1.422 1.440 1.455 1.467 1.476 1.483 1.488 1.492 1.494 1.495 1.496 1.496 1.496 1.496 1.495 1.493 1.490 1.486 1.480 1.473 1.465 1.454 1.442 1.428 1.413 1.396 1.378 1.359 1.339 1.319 1.298 1.276 1.254 1.232 1.210 1.187 1.163 1.138 1.112 1.083 1.052 1.018 0.980 0.939 0.893 0.843 0.787 0.732 0.681 0.636 0.595 0.560 0.530 0.504 0.483 0.467 0.455 0.446 0.440 0.436 0.434 0.434 0.434 0.434 0.436 0.439 0.444 0.452 0.464 0.479 0.500 0.525 0.556 0.594 0.639 0.690 0.750 0.818 0.894 0.975 1.050 1.116 1.174 1.223 1.264 1.298 1.325 1.346 1.362 1.373 1.381 1.385 1.387 1.388 1.388 1.387 1.385 1.381 1.373 1.362 1.346 1.325 1.298 1.265 1.224 1.177 1.126 1.080 1.043 1.018 1.006 1.010 1.048 1.132 1.132 0.000 
0.000 0.391 0.391 0.404 0.406 0.408 0.410 0.414 0.419 0.425 0.433 0.442 0.449 0.457 0.464 0.471 0.479 0.487 0.496 0.506 0.516 0.527 0.539 0.552 0.565 0.579 0.594 0.609 0.626 0.643 0.660 0.679 0.699 0.720 0.743 0.767 0.794 0.823 0.854 0.890 0.928 0.971 1.019 1.071 1.127 1.181 1.231 1.275 1.314 1.348 1.379 1.404 1.426 1.445 1.460 1.472 1.482 1.489 1.494 1.498 1.500 1.502 1.502 1.503 1.503 1.502 1.501 1.500 1.497 1.493 1.488 1.481 1.472 1.462 1.450 1.437 1.422 1.405 1.387 1.368 1.347 1.327 1.305 1.283 1.261 1.238 1.215 1.192 1.168 1.142 1.115 1.087 1.055 1.021 0.984 0.942 0.897 0.847 0.792 0.736 0.684 0.638 0.596 0.560 0.529 0.502 0.480 0.463 0.449 0.440 0.433 0.429 0.426 0.425 0.425 0.425 0.427 0.429 0.434 0.441 0.452 0.467 0.486 0.511 0.541 0.577 0.621 0.672 0.731 0.798 0.874 0.957 1.034 1.103 1.163 1.214 1.258 1.293 1.322 1.344 1.360 1.372 1.380 1.385 1.387 1.388 1.388 1.387 1.385 1.380 1.373 1.361 1.345 1.324 1.296 1.261 1.219 1.167 1.117 1.078 1.052 1.040 1.038 1.045 1.076 1.116 1.116 0.000 
0.000 0.365 0.365 0.379 0.382 0.385 0.390 0.396 0.404 0.414 0.425 0.435 0.444 0.453 0.462 0.471 0.479 0.488 0.498 0.508 0.518 0.530 0.542 0.555 0.568 0.582 0.597 0.613 0.630 0.647 0.666 0.685 0.705 0.726 0.749 0.774 0.801 0.829 0.861 0.896 0.934 0.977 1.023 1.075 1.130 1.184 1.233 1.277 1.317 1.351 1.382 1.408 1.430 1.448 1.464 1.476 1.486 1.493 1.499 1.503 1.505 1.507 1.508 1.508 1.508 1.507 1.507 1.505 1.503 1.499 1.494 1.487 1.479 1.469 1.457 1.444 1.429 1.412 1.395 1.375 1.355 1.334 1.312 1.290 1.267 1.245 1.221 1.197 1.172 1.147 1.119 1.090 1.059 1.025 0.987 0.946 0.901 0.851 0.797 0.740 0.688 0.640 0.598 0.561 0.528 0.500 0.477 0.459 0.444 0.434 0.426 0.421 0.418 0.417 0.417 0.417 0.418 0.420 0.424 0.431 0.441 0.455 0.473 0.496 0.525 0.561 0.603 0.653 0.711 0.778 0.853 0.937 1.017 1.089 1.151 1.204 1.250 1.287 1.317 1.340 1.358 1.370 1.378 1.383 1.386 1.387 1.387 1.386 1.384 1.379 1.372 1.360 1.344 1.322 1.293 1.257 1.210 1.157 1.110 1.075 1.055 1.047 1.047 1.056 1.081 1.107 1.107 0.000 
0.000 0.339 0.339 0.354 0.359 0.364 0.372 0.382 0.394 0.407 0.419 0.430 0.441 0.451 0.460 0.470 0.479 0.489 0.498 0.509 0.520 0.531 0.543 0.556 0.570 0.585 0.600 0.616 0.633 0.651 0.669 0.689 0.710 0.731 0.755 0.779 0.806 0.835 0.867 0.901 0.939 0.981 1.027 1.078 1.133 1.186 1.235 1.279 1.319 1.353 1.384 1.410 1.432 1.451 1.467 1.479 1.489 1.497 1.503 1.507 1.509 1.511 1.512 1.512 1.512 1.512 1.511 1.510 1.507 1.504 1.499 1.493 1.485 1.475 1.464 1.451 1.436 1.419 1.402 1.383 1.362 1.341 1.319 1.297 1.274 1.251 1.227 1.203 1.177 1.151 1.123 1.094 1.062 1.028 0.991 0.950 0.905 0.855 0.802 0.745 0.691 0.643 0.600 0.562 0.528 0.500 0.475 0.456 0.440 0.428 0.420 0.415 0.411 0.410 0.409 0.409 0.410 0.412 0.415 0.421 0.431 0.443 0.461 0.483 0.510 0.544 0.585 0.634 0.691 0.757 0.832 0.915 0.998 1.073 1.137 1.193 1.240 1.279 1.311 1.335 1.354 1.367 1.376 1.381 1.384 1.385 1.385 1.384 1.382 1.378 1.370 1.359 1.342 1.319 1.289 1.251 1.203 1.148 1.103 1.072 1.054 1.048 1.048 1.056 1.079 1.099 1.099 0.000 
0.000 0.314 0.314 0.329 0.336 0.346 0.357 0.372 0.388 0.402 0.415 0.427 0.438 0.448 0.459 0.469 0.479 0.489 0.499 0.509 0.520 0.532 0.544 0.557 0.571 0.586 0.601 0.618 0.635 0.653 0.672 0.692 0.713 0.735 0.759 0.784 0.811 0.840 0.871 0.906 0.943 0.985 1.030 1.080 1.134 1.188 1.237 1.281 1.320 1.355 1.385 1.411 1.434 1.453 1.468 1.481 1.491 1.499 1.505 1.509 1.512 1.514 1.515 1.515 1.515 1.515 1.514 1.513 1.511 1.508 1.503 1.497 1.490 1.480 1.469 1.456 1.442 1.426 1.408 1.389 1.369 1.348 1.326 1.304 1.281 1.257 1.233 1.208 1.183 1.156 1.128 1.098 1.066 1.032 0.995 0.954 0.909 0.860 0.807 0.750 0.696 0.647 0.603 0.563 0.529 0.499 0.474 0.453 0.436 0.424 0.415 0.408 0.404 0.403 0.402 0.402 0.402 0.404 0.407 0.412 0.421 0.433 0.449 0.470 0.496 0.529 0.568 0.616 0.671 0.735 0.809 0.892 0.978 1.055 1.122 1.180 1.229 1.270 1.303 1.329 1.349 1.363 1.372 1.378 1.381 1.382 1.382 1.382 1.380 1.375 1.368 1.356 1.339 1.316 1.285 1.246 1.198 1.143 1.097 1.065 1.047 1.041 1.041 1.049 1.073 1.095 1.095 0.000 
0.000 0.288 0.288 0.304 0.315 0.329 0.347 0.367 0.384 0.399 0.413 0.425 0.436 0.447 0.457 0.468 0.478 0.488 0.499 0.509 0.520 0.532 0.544 0.558 0.572 0.586 0.602 0.619 0.636 0.655 0.674 0.694 0.716 0.738 0.762 0.787 0.814 0.843 0.875 0.909 0.947 0.988 1.033 1.082 1.135 1.189 1.237 1.281 1.321 1.355 1.386 1.412 1.435 1.454 1.470 1.483 1.493 1.501 1.507 1.511 1.514 1.516 1.517 1.518 1.518 1.518 1.517 1.516 1.514 1.511 1.507 1.501 1.494 1.485 1.474 1.462 1.448 1.432 1.415 1.396 1.376 1.355 1.333 1.311 1.287 1.264 1.239 1.214 1.188 1.161 1.133 1.103 1.071 1.036 0.999 0.958 0.914 0.866 0.813 0.756 0.701 0.651 0.606 0.565 0.530 0.499 0.473 0.451 0.434 0.420 0.410 0.403 0.398 0.396 0.395 0.395 0.395 0.396 0.399 0.404 0.411 0.422 0.438 0.458 0.483 0.514 0.552 0.598 0.651 0.714 0.786 0.867 0.955 1.035 1.105 1.166 1.217 1.260 1.294 1.321 1.342 1.357 1.368 1.374 1.377 1.379 1.379 1.378 1.376 1.372 1.364 1.352 1.335 1.311 1.281 1.242 1.195 1.139 1.090 1.053 1.029 1.019 1.018 1.027 1.058 1.092 1.092 0.000 
0.000 0.262 0.262 0.279 0.295 0.316 0.342 0.364 0.383 0.399 0.412 0.424 0.435 0.446 0.456 0.467 0.477 0.488 0.498 0.509 0.520 0.532 0.544 0.558 0.572 0.587 0.603 0.619 0.637 0.656 0.675 0.696 0.717 0.740 0.764 0.789 0.817 0.846 0.877 0.912 0.949 0.990 1.034 1.083 1.136 1.189 1.238 1.282 1.321 1.356 1.386 1.413 1.435 1.455 1.471 1.484 1.494 1.502 1.508 1.513 1.516 1.518 1.519 1.519 1.519 1.519 1.519 1.518 1.516 1.513 1.509 1.504 1.497 1.489 1.478 1.466 1.453 1.437 1.420 1.402 1.382 1.362 1.340 1.318 1.294 1.270 1.246 1.220 1.194 1.167 1.138 1.108 1.076 1.041 1.004 0.963 0.919 0.871 0.819 0.762 0.706 0.655 0.609 0.568 0.532 0.500 0.473 0.450 0.431 0.417 0.406 0.398 0.393 0.390 0.389 0.388 0.389 0.390 0.392 0.396 0.403 0.413 0.428 0.446 0.471 0.501 0.537 0.581 0.633 0.694 0.763 0.842 0.930 1.013 1.086 1.149 1.203 1.247 1.284 1.312 1.334 1.350 1.361 1.368 1.372 1.374 1.374 1.373 1.371 1.367 1.360 1.347 1.330 1.306 1.276 1.237 1.191 1.136 1.082 1.035 0.999 0.976 0.968 0.975 1.020 1.090 1.090 0.000 
0.000 0.236 0.236 0.255 0.277 0.308 0.340 0.364 0.383 0.398 0.412 0.424 0.434 0.445 0.455 0.466 0.476 0.487 0.498 0.509 0.520 0.532 0.544 0.558 0.572 0.587 0.603 0.619 0.637 0.656 0.676 0.697 0.718 0.741 0.765 0.791 0.818 0.848 0.879 0.913 0.950 0.991 1.035 1.084 1.136 1.189 1.238 1.282 1.321 1.356 1.387 1.413 1.436 1.455 1.471 1.484 1.495 1.503 1.509 1.514 1.517 1.519 1.520 1.521 1.521 1.521 1.520 1.520 1.518 1.515 1.512 1.507 1.500 1.492 1.482 1.471 1.457 1.442 1.426 1.408 1.389 1.368 1.347 1.325 1.301 1.277 1.253 1.227 1.200 1.173 1.144 1.114 1.081 1.047 1.009 0.969 0.925 0.877 0.826 0.769 0.712 0.660 0.613 0.571 0.534 0.501 0.473 0.449 0.430 0.414 0.402 0.394 0.388 0.385 0.383 0.383 0.383 0.384 0.385 0.389 0.396 0.405 0.418 0.436 0.459 0.488 0.523 0.566 0.616 0.675 0.742 0.819 0.906 0.990 1.066 1.131 1.187 1.234 1.272 1.302 1.325 1.342 1.354 1.361 1.365 1.367 1.367 1.367 1.365 1.361 1.354 1.342 1.324 1.301 1.270 1.232 1.186 1.132 1.073 1.013 0.956 0.907 0.874 0.863 0.906 1.087 1.087 0.000 
0.000 0.210 0.210 0.231 0.264 0.307 0.340 0.365 0.384 0.399 0.412 0.424 0.434 0.445 0.455 0.465 0.475 0.485 0.496 0.507 0.519 0.531 0.544 0.557 0.571 0.586 0.602 0.619 0.637 0.656 0.676 0.697 0.719 0.742 0.766 0.792 0.819 0.849 0.880 0.914 0.951 0.992 1.036 1.084 1.136 1.189 1.238 1.282 1.321 1.356 1.387 1.413 1.436 1.455 1.471 1.484 1.495 1.503 1.509 1.514 1.517 1.520 1.521 1.521 1.522 1.522 1.521 1.521 1.519 1.517 1.513 1.509 1.502 1.495 1.485 1.474 1.462 1.447 1.431 1.414 1.395 1.375 1.354 1.332 1.309 1.285 1.260 1.234 1.207 1.180 1.151 1.120 1.088 1.053 1.016 0.976 0.932 0.884 0.833 0.777 0.719 0.666 0.618 0.575 0.536 0.503 0.474 0.449 0.429 0.412 0.400 0.391 0.384 0.381 0.379 0.378 0.378 0.378 0.380 0.383 0.389 0.398 0.410 0.427 0.449 0.477 0.511 0.552 0.601 0.658 0.724 0.799 0.883 0.969 1.045 1.112 1.170 1.218 1.258 1.290 1.314 1.332 1.345 1.353 1.357 1.359 1.360 1.360 1.358 1.354 1.346 1.335 1.318 1.294 1.264 1.226 1.180 1.125 1.062 0.991 0.915 0.834 0.749 0.665 0.594 0.612 0.612 0.000 
0.000 0.184 0.184 0.209 0.260 0.309 0.344 0.368 0.387 0.402 0.414 0.425 0.435 0.444 0.454 0.463 0.473 0.483 0.494 0.505 0.517 0.529 0.542 0.556 0.570 0.586 0.602 0.619 0.637 0.656 0.676 0.697 0.719 0.742 0.766 0.792 0.820 0.849 0.881 0.915 0.952 0.992 1.036 1.084 1.136 1.189 1.238 1.282 1.321 1.356 1.386 1.413 1.436 1.455 1.471 1.484 1.495 1.503 1.510 1.514 1.518 1.520 1.521 1.522 1.522 1.522 1.522 1.521 1.520 1.518 1.515 1.510 1.505 1.497 1.488 1.478 1.466 1.452 1.437 1.420 1.401 1.382 1.361 1.339 1.316 1.292 1.268 1.242 1.215 1.187 1.158 1.127 1.095 1.060 1.023 0.983 0.939 0.892 0.841 0.785 0.727 0.673 0.623 0.579 0.539 0.505 0.475 0.449 0.428 0.411 0.398 0.388 0.381 0.377 0.375 0.374 0.374 0.374 0.375 0.378 0.384 0.392 0.404 0.420 0.441 0.467 0.500 0.540 0.588 0.643 0.707 0.781 0.863 0.949 1.027 1.095 1.153 1.203 1.244 1.277 1.302 1.321 1.335 1.343 1.348 1.350 1.351 1.350 1.349 1.345 1.338 1.326 1.310 1.286 1.256 1.218 1.171 1.114 1.048 0.970 0.884 0.785 0.669 0.519 0.291 0.063 0.063 0.000 
0.000 0.193 0.193 0.206 0.269 0.320 0.354 0.377 0.394 0.407 0.418 0.427 0.436 0.444 0.453 0.461 0.471 0.480 0.491 0.502 0.514 0.526 0.540 0.554 0.568 0.584 0.601 0.618 0.636 0.656 0.676 0.697 0.719 0.742 0.766 0.792 0.820 0.849 0.881 0.915 0.952 0.992 1.036 1.084 1.136 1.189 1.237 1.281 1.321 1.356 1.386 1.413 1.435 1.455 1.471 1.484 1.495 1.503 1.510 1.514 1.518 1.520 1.521 1.522 1.522 1.522 1.522 1.522 1.521 1.519 1.516 1.512 1.506 1.499 1.491 1.481 1.469 1.456 1.441 1.425 1.407 1.388 1.368 1.347 1.324 1.300 1.276 1.250 1.224 1.196 1.166 1.136 1.103 1.068 1.031 0.991 0.948 0.901 0.850 0.794 0.736 0.680 0.629 0.583 0.543 0.507 0.476 0.450 0.428 0.411 0.397 0.386 0.379 0.374 0.372 0.370 0.370 0.370 0.372 0.374 0.379 0.387 0.398 0.413 0.433 0.459 0.491 0.530 0.576 0.630 0.693 0.765 0.846 0.932 1.011 1.079 1.139 1.189 1.231 1.265 1.291 1.310 1.324 1.333 1.338 1.341 1.342 1.341 1.340 1.337 1.330 1.319 1.302 1.279 1.249 1.211 1.163 1.105 1.035 0.954 0.860 0.753 0.631 0.476 0.224 0.000 0.000 0.000 
0.000 0.306 0.306 0.251 0.300 0.347 0.376 0.394 0.407 0.417 0.424 0.431 0.438 0.445 0.451 0.459 0.467 0.477 0.487 0.498 0.510 0.522 0.536 0.550 0.565 0.582 0.598 0.616 0.635 0.654 0.675 0.696 0.718 0.742 0.766 0.792 0.820 0.849 0.881 0.915 0.952 0.992 1.036 1.084 1.136 1.188 1.237 1.281 1.320 1.355 1.385 1.412 1.435 1.454 1.471 1.484 1.495 1.503 1.510 1.514 1.518 1.520 1.522 1.522 1.522 1.523 1.522 1.522 1.521 1.519 1.516 1.513 1.508 1.501 1.493 1.484 1.473 1.460 1.446 1.431 1.414 1.395 1.375 1.354 1.332 1.309 1.285 1.259 1.233 1.205 1.176 1.145 1.113 1.078 1.041 1.001 0.957 0.910 0.860 0.804 0.745 0.688 0.636 0.589 0.547 0.510 0.478 0.451 0.429 0.410 0.396 0.385 0.377 0.372 0.369 0.368 0.368 0.368 0.369 0.371 0.375 0.383 0.393 0.408 0.427 0.452 0.483 0.521 0.566 0.619 0.681 0.751 0.831 0.917 0.996 1.066 1.126 1.177 1.220 1.254 1.281 1.301 1.315 1.325 1.330 1.333 1.334 1.334 1.333 1.329 1.323 1.312 1.296 1.274 1.244 1.206 1.158 1.099 1.027 0.942 0.841 0.730 0.620 0.490 0.288 0.000 0.000 0.000 
0.000 0.436 0.436 0.367 0.376 0.399 0.414 0.422 0.427 0.431 0.434 0.437 0.440 0.445 0.450 0.456 0.463 0.472 0.482 0.492 0.504 0.517 0.531 0.545 0.561 0.578 0.595 0.613 0.632 0.652 0.673 0.695 0.718 0.741 0.766 0.792 0.820 0.849 0.881 0.915 0.952 0.992 1.036 1.083 1.135 1.187 1.236 1.279 1.319 1.354 1.384 1.411 1.434 1.454 1.470 1.483 1.494 1.503 1.509 1.514 1.518 1.520 1.521 1.522 1.522 1.523 1.522 1.522 1.521 1.519 1.517 1.513 1.509 1.503 1.495 1.486 1.476 1.464 1.451 1.436 1.420 1.402 1.383 1.362 1.341 1.318 1.294 1.269 1.243 1.215 1.186 1.156 1.123 1.088 1.051 1.011 0.968 0.921 0.870 0.815 0.755 0.697 0.643 0.595 0.551 0.513 0.481 0.453 0.430 0.411 0.396 0.384 0.376 0.371 0.367 0.366 0.366 0.366 0.366 0.369 0.373 0.379 0.390 0.404 0.423 0.447 0.477 0.514 0.558 0.610 0.671 0.740 0.819 0.905 0.984 1.055 1.115 1.167 1.210 1.245 1.272 1.293 1.308 1.318 1.324 1.326 1.327 1.327 1.326 1.323 1.317 1.307 1.291 1.270 1.240 1.203 1.155 1.096 1.024 0.936 0.829 0.713 0.622 0.565 0.537 0.492 0.492 0.000 
0.000 0.611 0.611 0.514 0.500 0.484 0.470 0.458 0.449 0.444 0.441 0.441 0.442 0.444 0.447 0.452 0.459 0.466 0.475 0.486 0.497 0.510 0.524 0.539 0.555 0.572 0.590 0.609 0.629 0.649 0.671 0.693 0.716 0.740 0.765 0.791 0.819 0.849 0.881 0.915 0.951 0.991 1.035 1.082 1.133 1.186 1.234 1.278 1.317 1.352 1.383 1.410 1.433 1.452 1.469 1.482 1.493 1.502 1.509 1.514 1.517 1.520 1.521 1.522 1.522 1.522 1.522 1.522 1.521 1.520 1.517 1.514 1.510 1.504 1.497 1.489 1.479 1.468 1.455 1.441 1.426 1.409 1.391 1.371 1.350 1.328 1.304 1.280 1.254 1.227 1.198 1.167 1.135 1.100 1.063 1.023 0.980 0.933 0.882 0.826 0.766 0.706 0.651 0.601 0.557 0.517 0.483 0.455 0.431 0.411 0.396 0.384 0.376 0.370 0.366 0.365 0.364 0.364 0.365 0.367 0.371 0.377 0.387 0.401 0.419 0.442 0.472 0.508 0.552 0.603 0.663 0.731 0.809 0.894 0.975 1.045 1.107 1.159 1.202 1.238 1.266 1.287 1.302 1.312 1.318 1.321 1.322 1.322 1.321 1.319 1.313 1.303 1.288 1.267 1.238 1.201 1.154 1.095 1.023 0.935 0.826 0.708 0.622 0.590 0.647 1.033 1.033 0.000 
0.000 0.785 0.785 0.686 0.631 0.564 0.514 0.482 0.462 0.450 0.444 0.442 0.442 0.443 0.445 0.448 0.453 0.460 0.468 0.478 0.489 0.502 0.516 0.531 0.548 0.565 0.584 0.603 0.624 0.645 0.667 0.690 0.713 0.738 0.763 0.790 0.818 0.848 0.880 0.914 0.950 0.990 1.033 1.080 1.131 1.183 1.231 1.275 1.314 1.349 1.380 1.407 1.431 1.450 1.467 1.481 1.492 1.501 1.508 1.513 1.517 1.519 1.521 1.522 1.522 1.522 1.522 1.522 1.521 1.520 1.517 1.514 1.510 1.505 1.498 1.491 1.482 1.471 1.459 1.446 1.431 1.415 1.398 1.379 1.359 1.338 1.315 1.291 1.266 1.239 1.210 1.180 1.148 1.113 1.076 1.036 0.993 0.946 0.894 0.839 0.778 0.717 0.660 0.608 0.562 0.522 0.487 0.457 0.432 0.412 0.396 0.384 0.375 0.369 0.366 0.364 0.363 0.363 0.364 0.366 0.369 0.376 0.385 0.398 0.416 0.439 0.468 0.504 0.547 0.598 0.657 0.725 0.801 0.886 0.967 1.038 1.099 1.152 1.196 1.232 1.260 1.282 1.297 1.308 1.314 1.317 1.318 1.319 1.318 1.315 1.310 1.300 1.286 1.265 1.237 1.201 1.154 1.095 1.023 0.935 0.829 0.713 0.619 0.554 0.518 0.568 0.568 0.000 
0.000 0.955 0.955 0.845 0.714 0.604 0.535 0.493 0.468 0.453 0.445 0.442 0.441 0.441 0.442 0.444 0.447 0.453 0.460 0.469 0.480 0.492 0.506 0.522 0.538 0.556 0.575 0.596 0.617 0.639 0.661 0.685 0.709 0.734 0.761 0.788 0.816 0.846 0.878 0.912 0.949 0.989 1.031 1.078 1.128 1.180 1.228 1.272 1.311 1.346 1.377 1.405 1.428 1.448 1.465 1.479 1.490 1.500 1.507 1.512 1.516 1.519 1.520 1.521 1.522 1.522 1.522 1.522 1.521 1.519 1.517 1.514 1.511 1.506 1.500 1.492 1.484 1.474 1.463 1.451 1.437 1.422 1.406 1.388 1.369 1.349 1.327 1.303 1.279 1.252 1.224 1.194 1.162 1.128 1.091 1.051 1.007 0.960 0.908 0.852 0.791 0.728 0.669 0.616 0.569 0.527 0.491 0.460 0.434 0.413 0.397 0.384 0.375 0.369 0.365 0.364 0.363 0.363 0.363 0.365 0.369 0.375 0.384 0.397 0.414 0.437 0.466 0.501 0.544 0.594 0.652 0.720 0.796 0.880 0.961 1.032 1.094 1.147 1.191 1.227 1.256 1.278 1.293 1.304 1.311 1.314 1.316 1.316 1.315 1.313 1.308 1.299 1.285 1.264 1.237 1.201 1.154 1.096 1.025 0.940 0.840 0.729 0.615 0.482 0.273 0.026 0.026 0.000 
0.000 1.004 1.004 0.924 0.739 0.614 0.540 0.495 0.468 0.453 0.444 0.440 0.438 0.438 0.438 0.439 0.441 0.445 0.451 0.459 0.469 0.481 0.495 0.510 0.527 0.545 0.565 0.586 0.608 0.631 0.654 0.679 0.704 0.730 0.757 0.784 0.813 0.844 0.876 0.910 0.947 0.986 1.029 1.075 1.125 1.176 1.224 1.268 1.307 1.342 1.374 1.401 1.425 1.445 1.462 1.476 1.488 1.497 1.505 1.511 1.515 1.518 1.519 1.521 1.521 1.521 1.521 1.521 1.520 1.519 1.517 1.515 1.511 1.506 1.501 1.494 1.486 1.477 1.467 1.455 1.442 1.428 1.413 1.396 1.378 1.359 1.338 1.316 1.292 1.267 1.239 1.210 1.178 1.144 1.106 1.066 1.022 0.975 0.923 0.866 0.805 0.740 0.679 0.625 0.576 0.532 0.495 0.463 0.436 0.415 0.398 0.385 0.375 0.369 0.365 0.363 0.363 0.363 0.363 0.365 0.368 0.374 0.383 0.396 0.413 0.436 0.464 0.499 0.541 0.591 0.649 0.716 0.792 0.876 0.956 1.028 1.090 1.143 1.187 1.224 1.253 1.275 1.291 1.302 1.309 1.312 1.314 1.314 1.313 1.311 1.306 1.298 1.284 1.264 1.237 1.201 1.156 1.099 1.031 0.950 0.857 0.750 0.627 0.471 0.221 0.000 0.000 0.000 
0.000 0.785 0.785 0.874 0.732 0.609 0.536 0.492 0.466 0.450 0.441 0.436 0.433 0.432 0.432 0.432 0.434 0.437 0.442 0.449 0.458 0.469 0.482 0.497 0.514 0.533 0.553 0.574 0.597 0.620 0.645 0.670 0.696 0.723 0.751 0.779 0.809 0.840 0.872 0.907 0.943 0.983 1.025 1.071 1.121 1.172 1.219 1.263 1.302 1.338 1.369 1.397 1.420 1.441 1.458 1.473 1.485 1.495 1.503 1.509 1.513 1.516 1.518 1.519 1.520 1.520 1.520 1.520 1.520 1.519 1.517 1.514 1.511 1.507 1.502 1.495 1.488 1.479 1.470 1.459 1.447 1.434 1.419 1.404 1.387 1.369 1.349 1.328 1.306 1.281 1.255 1.226 1.194 1.160 1.123 1.083 1.039 0.991 0.938 0.881 0.819 0.753 0.690 0.634 0.583 0.538 0.500 0.467 0.439 0.417 0.399 0.386 0.376 0.369 0.366 0.363 0.363 0.363 0.363 0.365 0.368 0.374 0.383 0.396 0.413 0.435 0.463 0.498 0.540 0.590 0.647 0.714 0.789 0.873 0.954 1.025 1.087 1.140 1.185 1.221 1.250 1.273 1.289 1.300 1.307 1.311 1.313 1.313 1.312 1.310 1.306 1.297 1.284 1.264 1.238 1.203 1.159 1.104 1.039 0.964 0.878 0.780 0.665 0.518 0.296 0.000 0.000 0.000 
0.000 0.571 0.571 0.681 0.652 0.577 0.517 0.480 0.457 0.442 0.434 0.429 0.426 0.425 0.425 0.425 0.425 0.427 0.431 0.437 0.445 0.455 0.468 0.482 0.499 0.518 0.538 0.560 0.583 0.608 0.633 0.660 0.687 0.715 0.743 0.773 0.803 0.834 0.867 0.902 0.939 0.978 1.021 1.066 1.115 1.166 1.214 1.257 1.297 1.332 1.364 1.391 1.416 1.437 1.454 1.469 1.482 1.492 1.500 1.506 1.511 1.514 1.517 1.518 1.519 1.519 1.519 1.519 1.519 1.518 1.516 1.514 1.511 1.507 1.502 1.497 1.490 1.482 1.473 1.462 1.451 1.439 1.425 1.411 1.395 1.378 1.359 1.340 1.318 1.295 1.269 1.242 1.211 1.178 1.141 1.101 1.056 1.008 0.955 0.897 0.834 0.766 0.702 0.644 0.591 0.545 0.505 0.471 0.442 0.419 0.401 0.387 0.377 0.370 0.366 0.364 0.363 0.363 0.363 0.365 0.368 0.374 0.383 0.395 0.413 0.435 0.463 0.498 0.539 0.589 0.646 0.713 0.788 0.871 0.952 1.023 1.085 1.138 1.183 1.220 1.249 1.271 1.288 1.299 1.306 1.310 1.312 1.312 1.312 1.310 1.305 1.297 1.284 1.265 1.239 1.206 1.163 1.112 1.050 0.981 0.904 0.825 0.745 0.667 0.591 0.520 0.520 0.000 
0.000 0.366 0.366 0.471 0.494 0.494 0.473 0.451 0.437 0.427 0.421 0.418 0.416 0.415 0.415 0.415 0.415 0.417 0.420 0.425 0.431 0.441 0.452 0.466 0.482 0.501 0.521 0.543 0.567 0.593 0.619 0.646 0.675 0.704 0.733 0.764 0.795 0.827 0.861 0.896 0.933 0.973 1.015 1.060 1.109 1.160 1.208 1.251 1.291 1.326 1.358 1.386 1.410 1.431 1.450 1.465 1.478 1.488 1.497 1.503 1.508 1.512 1.515 1.516 1.517 1.518 1.518 1.518 1.517 1.517 1.516 1.514 1.511 1.507 1.503 1.497 1.491 1.484 1.475 1.466 1.455 1.443 1.431 1.417 1.402 1.386 1.369 1.350 1.330 1.307 1.283 1.256 1.227 1.194 1.158 1.119 1.074 1.026 0.972 0.913 0.849 0.780 0.714 0.654 0.600 0.552 0.511 0.476 0.446 0.422 0.403 0.389 0.378 0.371 0.366 0.364 0.363 0.363 0.364 0.365 0.368 0.374 0.383 0.395 0.413 0.435 0.463 0.497 0.539 0.588 0.646 0.712 0.787 0.871 0.951 1.022 1.084 1.138 1.182 1.219 1.248 1.271 1.287 1.299 1.306 1.310 1.312 1.312 1.312 1.310 1.305 1.297 1.285 1.267 1.242 1.210 1.170 1.120 1.063 0.999 0.940 0.892 0.861 0.852 0.889 1.054 1.054 0.000 
0.000 0.213 0.213 0.303 0.362 0.393 0.405 0.407 0.406 0.405 0.403 0.402 0.402 0.402 0.402 0.403 0.404 0.405 0.407 0.411 0.417 0.425 0.435 0.448 0.464 0.482 0.502 0.524 0.549 0.575 0.602 0.630 0.660 0.690 0.721 0.752 0.785 0.818 0.852 0.888 0.926 0.966 1.008 1.054 1.103 1.153 1.201 1.244 1.284 1.320 1.352 1.380 1.405 1.427 1.445 1.461 1.474 1.485 1.493 1.500 1.506 1.509 1.512 1.514 1.515 1.516 1.516 1.516 1.516 1.515 1.515 1.513 1.511 1.507 1.503 1.498 1.492 1.485 1.477 1.468 1.459 1.448 1.436 1.423 1.409 1.394 1.378 1.360 1.340 1.319 1.296 1.270 1.242 1.210 1.175 1.135 1.092 1.043 0.990 0.930 0.865 0.795 0.727 0.665 0.609 0.560 0.518 0.481 0.451 0.426 0.406 0.391 0.380 0.372 0.368 0.365 0.364 0.364 0.364 0.366 0.369 0.375 0.383 0.396 0.413 0.435 0.463 0.498 0.539 0.588 0.646 0.712 0.787 0.870 0.951 1.022 1.084 1.137 1.182 1.218 1.248 1.270 1.287 1.299 1.306 1.310 1.312 1.312 1.312 1.310 1.306 1.298 1.286 1.269 1.246 1.215 1.177 1.130 1.075 1.021 0.982 0.958 0.949 0.954 0.991 1.054 1.054 0.000 
0.000 0.154 0.154 0.207 0.277 0.329 0.359 0.375 0.382 0.385 0.386 0.387 0.387 0.388 0.389 0.389 0.390 0.391 0.393 0.396 0.401 0.408 0.417 0.429 0.443 0.461 0.481 0.503 0.528 0.554 0.582 0.611 0.642 0.673 0.705 0.738 0.772 0.806 0.842 0.879 0.917 0.958 1.001 1.046 1.095 1.146 1.193 1.237 1.277 1.313 1.346 1.375 1.400 1.422 1.441 1.457 1.470 1.482 1.490 1.498 1.503 1.507 1.510 1.512 1.513 1.514 1.514 1.514 1.514 1.514 1.513 1.512 1.510 1.507 1.503 1.499 1.493 1.487 1.479 1.471 1.462 1.451 1.440 1.428 1.415 1.401 1.385 1.369 1.350 1.330 1.308 1.283 1.255 1.225 1.190 1.151 1.108 1.060 1.007 0.947 0.882 0.811 0.741 0.677 0.620 0.569 0.525 0.487 0.456 0.430 0.409 0.394 0.382 0.374 0.369 0.367 0.366 0.365 0.366 0.367 0.370 0.375 0.384 0.396 0.413 0.435 0.463 0.498 0.539 0.589 0.646 0.712 0.787 0.870 0.951 1.022 1.084 1.137 1.182 1.218 1.248 1.270 1.287 1.299 1.306 1.310 1.312 1.312 1.312 1.310 1.306 1.299 1.288 1.272 1.250 1.222 1.186 1.141 1.089 1.047 1.018 1.004 1.000 1.004 1.025 1.051 1.051 0.000 
0.000 0.096 0.096 0.147 0.228 0.298 0.337 0.358 0.368 0.373 0.375 0.376 0.376 0.376 0.376 0.376 0.377 0.378 0.379 0.382 0.385 0.391 0.399 0.409 0.422 0.438 0.457 0.479 0.504 0.531 0.559 0.589 0.621 0.654 0.687 0.721 0.756 0.792 0.829 0.867 0.906 0.948 0.991 1.038 1.087 1.138 1.186 1.230 1.271 1.308 1.341 1.370 1.396 1.418 1.438 1.454 1.468 1.479 1.488 1.495 1.501 1.505 1.508 1.510 1.512 1.512 1.513 1.513 1.513 1.513 1.512 1.511 1.509 1.507 1.503 1.499 1.494 1.488 1.481 1.473 1.464 1.455 1.444 1.433 1.420 1.407 1.393 1.377 1.359 1.340 1.319 1.295 1.268 1.238 1.204 1.167 1.124 1.076 1.023 0.964 0.899 0.827 0.755 0.689 0.630 0.578 0.533 0.494 0.462 0.435 0.414 0.397 0.385 0.377 0.372 0.369 0.368 0.367 0.368 0.369 0.372 0.377 0.386 0.398 0.415 0.437 0.464 0.499 0.540 0.589 0.647 0.713 0.788 0.871 0.951 1.022 1.084 1.137 1.182 1.218 1.248 1.270 1.287 1.299 1.306 1.310 1.312 1.313 1.312 1.311 1.308 1.301 1.291 1.276 1.256 1.229 1.196 1.154 1.108 1.072 1.047 1.033 1.029 1.029 1.038 1.048 1.048 0.000 
0.000 0.036 0.036 0.099 0.215 0.290 0.330 0.352 0.362 0.367 0.368 0.369 0.368 0.367 0.365 0.365 0.365 0.365 0.366 0.368 0.371 0.376 0.382 0.391 0.402 0.416 0.434 0.454 0.478 0.504 0.533 0.564 0.597 0.630 0.665 0.701 0.738 0.775 0.813 0.853 0.894 0.936 0.981 1.028 1.078 1.130 1.178 1.224 1.265 1.302 1.336 1.366 1.392 1.415 1.434 1.451 1.465 1.476 1.486 1.493 1.499 1.503 1.506 1.509 1.510 1.511 1.511 1.511 1.511 1.511 1.511 1.510 1.508 1.506 1.503 1.499 1.494 1.488 1.482 1.475 1.466 1.457 1.448 1.437 1.425 1.413 1.399 1.384 1.367 1.349 1.329 1.306 1.280 1.251 1.218 1.181 1.139 1.092 1.039 0.981 0.915 0.843 0.770 0.702 0.642 0.588 0.542 0.502 0.468 0.441 0.419 0.402 0.389 0.381 0.375 0.372 0.371 0.370 0.370 0.372 0.374 0.380 0.388 0.400 0.417 0.438 0.466 0.500 0.542 0.591 0.648 0.714 0.789 0.872 0.952 1.023 1.085 1.138 1.182 1.219 1.248 1.271 1.287 1.299 1.307 1.311 1.313 1.314 1.314 1.312 1.309 1.304 1.295 1.281 1.263 1.239 1.208 1.170 1.128 1.094 1.068 1.052 1.044 1.041 1.043 1.046 1.046 0.000 
0.000 0.134 0.134 0.117 0.230 0.294 0.331 0.351 0.361 0.365 0.366 0.365 0.363 0.359 0.356 0.355 0.355 0.355 0.355 0.356 0.359 0.362 0.367 0.375 0.384 0.397 0.412 0.431 0.452 0.477 0.505 0.536 0.569 0.604 0.640 0.677 0.716 0.755 0.795 0.836 0.879 0.923 0.969 1.018 1.069 1.122 1.171 1.217 1.260 1.298 1.332 1.362 1.389 1.412 1.432 1.449 1.463 1.474 1.484 1.491 1.497 1.502 1.505 1.507 1.509 1.509 1.510 1.510 1.510 1.510 1.509 1.509 1.507 1.505 1.503 1.499 1.494 1.489 1.483 1.476 1.468 1.460 1.450 1.440 1.429 1.417 1.404 1.390 1.374 1.357 1.338 1.316 1.291 1.263 1.231 1.195 1.154 1.107 1.055 0.997 0.932 0.860 0.785 0.716 0.654 0.599 0.551 0.510 0.476 0.447 0.425 0.407 0.394 0.385 0.379 0.376 0.374 0.374 0.374 0.375 0.378 0.383 0.391 0.403 0.420 0.441 0.469 0.503 0.545 0.594 0.651 0.717 0.792 0.874 0.954 1.025 1.086 1.139 1.183 1.219 1.248 1.271 1.288 1.300 1.308 1.312 1.315 1.315 1.315 1.314 1.312 1.307 1.299 1.287 1.271 1.250 1.222 1.188 1.147 1.112 1.085 1.066 1.053 1.047 1.044 1.043 1.043 0.000 
0.000 0.471 0.471 0.299 0.300 0.317 0.338 0.354 0.362 0.365 0.365 0.363 0.359 0.353 0.349 0.347 0.346 0.345 0.345 0.346 0.348 0.350 0.354 0.360 0.369 0.379 0.393 0.410 0.429 0.452 0.478 0.507 0.539 0.574 0.611 0.650 0.690 0.731 0.774 0.817 0.862 0.908 0.956 1.007 1.060 1.114 1.165 1.212 1.255 1.293 1.328 1.359 1.386 1.409 1.429 1.446 1.461 1.472 1.482 1.490 1.496 1.500 1.503 1.506 1.507 1.508 1.509 1.509 1.509 1.509 1.508 1.508 1.506 1.504 1.502 1.499 1.494 1.489 1.483 1.477 1.470 1.461 1.453 1.443 1.433 1.421 1.409 1.396 1.381 1.364 1.346 1.325 1.301 1.274 1.243 1.207 1.167 1.122 1.070 1.013 0.949 0.877 0.801 0.730 0.667 0.610 0.561 0.519 0.484 0.455 0.432 0.413 0.400 0.391 0.384 0.381 0.379 0.379 0.379 0.380 0.383 0.388 0.396 0.408 0.424 0.446 0.473 0.507 0.549 0.598 0.655 0.721 0.796 0.878 0.957 1.027 1.088 1.140 1.184 1.221 1.250 1.272 1.289 1.301 1.309 1.314 1.317 1.317 1.317 1.317 1.315 1.311 1.304 1.294 1.279 1.259 1.234 1.202 1.164 1.127 1.097 1.075 1.059 1.049 1.043 1.041 1.041 0.000 
0.000 0.524 0.524 0.441 0.359 0.350 0.356 0.365 0.369 0.369 0.367 0.363 0.356 0.349 0.344 0.340 0.338 0.337 0.337 0.337 0.338 0.340 0.343 0.348 0.355 0.364 0.376 0.391 0.409 0.430 0.454 0.482 0.512 0.546 0.582 0.621 0.662 0.705 0.749 0.795 0.842 0.891 0.942 0.995 1.051 1.106 1.158 1.206 1.250 1.289 1.325 1.356 1.383 1.407 1.427 1.444 1.459 1.471 1.480 1.488 1.494 1.499 1.502 1.504 1.506 1.507 1.507 1.508 1.508 1.507 1.507 1.506 1.505 1.504 1.501 1.498 1.494 1.489 1.484 1.478 1.471 1.463 1.454 1.445 1.436 1.425 1.413 1.400 1.386 1.371 1.353 1.333 1.310 1.284 1.254 1.219 1.180 1.136 1.085 1.029 0.965 0.895 0.818 0.745 0.680 0.623 0.573 0.530 0.493 0.463 0.440 0.421 0.407 0.397 0.391 0.387 0.386 0.385 0.385 0.386 0.389 0.394 0.402 0.413 0.430 0.451 0.479 0.513 0.554 0.603 0.661 0.727 0.801 0.884 0.962 1.031 1.092 1.143 1.187 1.223 1.252 1.274 1.291 1.303 1.312 1.317 1.319 1.320 1.320 1.320 1.318 1.315 1.309 1.299 1.286 1.267 1.243 1.213 1.177 1.139 1.107 1.082 1.063 1.050 1.042 1.038 1.038 0.000 
0.000 0.187 0.187 0.358 0.372 0.381 0.384 0.385 0.383 0.378 0.372 0.364 0.355 0.346 0.340 0.335 0.332 0.330 0.330 0.330 0.330 0.331 0.334 0.337 0.343 0.351 0.362 0.375 0.392 0.411 0.434 0.460 0.489 0.521 0.556 0.594 0.635 0.678 0.723 0.771 0.820 0.872 0.926 0.983 1.042 1.099 1.152 1.201 1.245 1.286 1.321 1.353 1.381 1.405 1.425 1.443 1.457 1.469 1.479 1.487 1.493 1.497 1.501 1.503 1.505 1.506 1.506 1.506 1.506 1.506 1.506 1.505 1.504 1.503 1.501 1.498 1.494 1.489 1.484 1.478 1.471 1.464 1.456 1.447 1.438 1.428 1.417 1.405 1.391 1.376 1.359 1.340 1.318 1.293 1.264 1.230 1.192 1.149 1.100 1.044 0.982 0.912 0.835 0.761 0.695 0.636 0.585 0.541 0.504 0.473 0.449 0.430 0.415 0.405 0.399 0.395 0.393 0.393 0.393 0.394 0.396 0.401 0.409 0.421 0.437 0.459 0.486 0.521 0.562 0.611 0.669 0.735 0.809 0.892 0.969 1.037 1.097 1.148 1.191 1.226 1.255 1.277 1.294 1.306 1.315 1.320 1.323 1.324 1.324 1.324 1.322 1.319 1.313 1.304 1.291 1.272 1.249 1.220 1.186 1.148 1.115 1.088 1.066 1.050 1.040 1.035 1.035 0.000 
0.000 0.200 0.200 0.267 0.389 0.418 0.421 0.417 0.407 0.393 0.379 0.367 0.355 0.345 0.337 0.331 0.327 0.325 0.323 0.323 0.323 0.324 0.326 0.329 0.334 0.340 0.350 0.362 0.377 0.395 0.416 0.440 0.468 0.499 0.533 0.571 0.611 0.654 0.700 0.749 0.800 0.854 0.911 0.971 1.033 1.092 1.146 1.196 1.241 1.282 1.319 1.351 1.378 1.403 1.423 1.441 1.455 1.467 1.477 1.485 1.491 1.496 1.499 1.502 1.503 1.504 1.505 1.505 1.505 1.505 1.505 1.504 1.503 1.502 1.500 1.497 1.493 1.489 1.484 1.478 1.472 1.465 1.457 1.449 1.440 1.430 1.419 1.408 1.395 1.381 1.365 1.346 1.325 1.301 1.273 1.241 1.204 1.161 1.113 1.059 0.998 0.929 0.853 0.778 0.710 0.650 0.598 0.553 0.515 0.484 0.459 0.440 0.425 0.415 0.408 0.404 0.403 0.402 0.402 0.403 0.405 0.410 0.418 0.430 0.446 0.468 0.496 0.530 0.572 0.621 0.679 0.745 0.820 0.902 0.978 1.045 1.103 1.153 1.196 1.231 1.259 1.281 1.298 1.310 1.318 1.324 1.327 1.328 1.328 1.328 1.327 1.323 1.318 1.308 1.294 1.276 1.253 1.224 1.192 1.156 1.123 1.094 1.070 1.051 1.038 1.033 1.033 0.000 
0.000 0.650 0.650 0.418 0.469 0.482 0.475 0.460 0.437 0.412 0.390 0.372 0.357 0.345 0.335 0.328 0.323 0.320 0.318 0.318 0.318 0.318 0.319 0.322 0.326 0.332 0.340 0.351 0.364 0.381 0.401 0.424 0.450 0.480 0.514 0.550 0.590 0.634 0.680 0.730 0.782 0.838 0.898 0.961 1.025 1.085 1.141 1.192 1.238 1.279 1.316 1.348 1.376 1.401 1.422 1.439 1.454 1.466 1.476 1.484 1.490 1.494 1.498 1.500 1.502 1.503 1.504 1.504 1.504 1.504 1.504 1.503 1.502 1.501 1.499 1.496 1.493 1.489 1.484 1.478 1.472 1.465 1.457 1.449 1.441 1.432 1.422 1.410 1.398 1.385 1.369 1.352 1.331 1.308 1.281 1.250 1.214 1.173 1.126 1.073 1.014 0.947 0.872 0.796 0.727 0.666 0.612 0.567 0.528 0.497 0.471 0.452 0.437 0.426 0.419 0.415 0.414 0.413 0.413 0.414 0.416 0.421 0.429 0.441 0.458 0.479 0.507 0.542 0.584 0.634 0.692 0.758 0.833 0.914 0.989 1.055 1.112 1.161 1.202 1.237 1.264 1.286 1.303 1.315 1.323 1.328 1.331 1.332 1.333 1.332 1.331 1.327 1.321 1.311 1.297 1.278 1.255 1.226 1.194 1.160 1.129 1.100 1.074 1.053 1.037 1.030 1.030 0.000 
0.000 0.925 0.925 0.760 0.649 0.587 0.541 0.500 0.462 0.428 0.400 0.377 0.359 0.345 0.334 0.326 0.320 0.317 0.315 0.314 0.313 0.314 0.314 0.316 0.319 0.325 0.332 0.342 0.354 0.370 0.388 0.410 0.436 0.465 0.497 0.533 0.573 0.616 0.663 0.713 0.767 0.824 0.886 0.951 1.017 1.079 1.136 1.187 1.234 1.276 1.313 1.346 1.374 1.399 1.420 1.438 1.452 1.464 1.474 1.482 1.488 1.493 1.497 1.499 1.501 1.502 1.502 1.503 1.503 1.503 1.503 1.502 1.501 1.500 1.498 1.495 1.492 1.488 1.484 1.478 1.472 1.465 1.458 1.450 1.442 1.433 1.423 1.413 1.401 1.388 1.373 1.356 1.337 1.314 1.288 1.258 1.223 1.184 1.138 1.087 1.029 0.963 0.891 0.814 0.744 0.682 0.628 0.582 0.543 0.511 0.485 0.465 0.450 0.439 0.432 0.428 0.426 0.426 0.426 0.427 0.429 0.434 0.442 0.454 0.471 0.493 0.522 0.557 0.599 0.649 0.708 0.775 0.850 0.930 1.003 1.067 1.123 1.171 1.211 1.244 1.271 1.292 1.308 1.320 1.328 1.333 1.336 1.337 1.337 1.336 1.335 1.331 1.324 1.313 1.298 1.279 1.255 1.226 1.194 1.163 1.134 1.106 1.081 1.058 1.039 1.028 1.028 0.000 
0.000 0.999 0.999 0.923 0.777 0.665 0.587 0.527 0.478 0.439 0.407 0.381 0.361 0.345 0.333 0.324 0.318 0.314 0.312 0.310 0.310 0.310 0.311 0.312 0.315 0.319 0.326 0.335 0.346 0.361 0.378 0.399 0.424 0.452 0.483 0.519 0.558 0.601 0.648 0.698 0.753 0.812 0.875 0.943 1.010 1.073 1.131 1.183 1.231 1.273 1.311 1.344 1.372 1.397 1.418 1.436 1.451 1.463 1.473 1.481 1.487 1.492 1.495 1.498 1.499 1.501 1.501 1.501 1.501 1.501 1.501 1.501 1.500 1.499 1.497 1.494 1.491 1.488 1.483 1.478 1.472 1.465 1.458 1.450 1.442 1.434 1.424 1.414 1.403 1.390 1.376 1.360 1.341 1.320 1.295 1.265 1.232 1.193 1.149 1.099 1.042 0.979 0.908 0.832 0.762 0.700 0.645 0.598 0.559 0.526 0.500 0.480 0.465 0.454 0.447 0.443 0.441 0.441 0.441 0.442 0.444 0.449 0.458 0.470 0.487 0.510 0.538 0.574 0.617 0.668 0.727 0.794 0.870 0.949 1.019 1.082 1.136 1.182 1.221 1.253 1.279 1.300 1.315 1.326 1.334 1.338 1.340 1.341 1.341 1.340 1.338 1.333 1.326 1.314 1.299 1.279 1.255 1.226 1.193 1.163 1.137 1.113 1.090 1.068 1.048 1.030 1.030 0.000 
0.000 0.994 0.994 0.959 0.827 0.700 0.609 0.541 0.487 0.445 0.411 0.384 0.362 0.346 0.333 0.323 0.317 0.312 0.309 0.308 0.307 0.307 0.308 0.309 0.311 0.315 0.321 0.330 0.340 0.354 0.371 0.391 0.414 0.441 0.472 0.507 0.546 0.588 0.635 0.686 0.741 0.801 0.866 0.935 1.004 1.068 1.127 1.180 1.228 1.271 1.309 1.342 1.371 1.395 1.417 1.434 1.449 1.461 1.471 1.479 1.485 1.490 1.494 1.496 1.498 1.499 1.500 1.500 1.500 1.500 1.500 1.500 1.499 1.498 1.496 1.493 1.490 1.487 1.482 1.477 1.471 1.465 1.458 1.450 1.442 1.434 1.425 1.415 1.404 1.392 1.379 1.363 1.345 1.324 1.300 1.272 1.239 1.202 1.159 1.110 1.055 0.993 0.925 0.850 0.780 0.718 0.663 0.616 0.576 0.544 0.518 0.497 0.482 0.471 0.464 0.460 0.458 0.458 0.458 0.459 0.462 0.467 0.476 0.488 0.506 0.529 0.558 0.594 0.638 0.689 0.749 0.817 0.894 0.971 1.039 1.099 1.152 1.196 1.234 1.264 1.289 1.308 1.322 1.332 1.338 1.342 1.344 1.344 1.344 1.343 1.340 1.335 1.327 1.315 1.299 1.279 1.254 1.224 1.191 1.161 1.137 1.118 1.101 1.085 1.071 1.064 1.064 0.000 
0.000 0.908 0.908 0.934 0.835 0.711 0.617 0.546 0.491 0.448 0.413 0.385 0.363 0.346 0.332 0.322 0.315 0.311 0.308 0.306 0.306 0.306 0.306 0.307 0.309 0.313 0.318 0.326 0.336 0.349 0.365 0.384 0.407 0.433 0.463 0.497 0.536 0.578 0.625 0.676 0.731 0.792 0.857 0.928 0.998 1.063 1.122 1.176 1.225 1.268 1.306 1.340 1.369 1.394 1.415 1.433 1.448 1.460 1.470 1.478 1.484 1.489 1.492 1.495 1.497 1.498 1.498 1.499 1.499 1.499 1.498 1.498 1.497 1.496 1.494 1.492 1.489 1.485 1.481 1.476 1.471 1.465 1.458 1.450 1.443 1.434 1.425 1.416 1.405 1.394 1.381 1.366 1.348 1.328 1.305 1.277 1.246 1.210 1.168 1.121 1.067 1.007 0.940 0.866 0.797 0.735 0.680 0.634 0.594 0.562 0.536 0.515 0.500 0.490 0.483 0.479 0.477 0.477 0.477 0.478 0.481 0.486 0.495 0.508 0.527 0.550 0.580 0.617 0.662 0.714 0.775 0.844 0.921 0.995 1.061 1.119 1.168 1.211 1.246 1.275 1.297 1.315 1.328 1.336 1.342 1.345 1.346 1.347 1.346 1.345 1.342 1.336 1.327 1.315 1.299 1.278 1.252 1.220 1.186 1.158 1.135 1.120 1.110 1.103 1.099 1.098 1.098 0.000 
0.000 0.809 0.809 0.852 0.804 0.709 0.617 0.547 0.492 0.448 0.413 0.385 0.363 0.345 0.332 0.322 0.315 0.310 0.307 0.305 0.305 0.305 0.305 0.306 0.308 0.311 0.316 0.323 0.333 0.345 0.361 0.379 0.401 0.427 0.456 0.490 0.528 0.570 0.616 0.667 0.723 0.784 0.850 0.921 0.993 1.058 1.119 1.173 1.222 1.266 1.304 1.338 1.367 1.392 1.413 1.431 1.446 1.458 1.468 1.476 1.482 1.487 1.491 1.493 1.495 1.496 1.497 1.497 1.497 1.497 1.497 1.496 1.496 1.494 1.493 1.490 1.488 1.484 1.480 1.475 1.470 1.464 1.457 1.450 1.442 1.434 1.426 1.416 1.406 1.395 1.382 1.368 1.351 1.331 1.308 1.282 1.251 1.216 1.176 1.130 1.078 1.019 0.953 0.881 0.812 0.750 0.696 0.650 0.610 0.578 0.552 0.532 0.517 0.507 0.500 0.497 0.495 0.495 0.495 0.496 0.499 0.505 0.514 0.528 0.546 0.571 0.602 0.640 0.685 0.738 0.800 0.870 0.947 1.018 1.081 1.136 1.183 1.223 1.256 1.283 1.304 1.320 1.332 1.340 1.345 1.347 1.348 1.348 1.348 1.346 1.343 1.337 1.328 1.315 1.298 1.276 1.249 1.215 1.180 1.151 1.131 1.118 1.112 1.113 1.119 1.123 1.123 0.000 
0.000 0.698 0.698 0.751 0.731 0.681 0.610 0.545 0.491 0.448 0.413 0.385 0.363 0.345 0.331 0.321 0.314 0.309 0.306 0.305 0.304 0.304 0.304 0.305 0.307 0.310 0.315 0.322 0.331 0.343 0.358 0.376 0.398 0.423 0.451 0.484 0.521 0.563 0.609 0.660 0.716 0.777 0.843 0.915 0.987 1.054 1.115 1.170 1.219 1.263 1.302 1.336 1.365 1.390 1.412 1.430 1.444 1.457 1.467 1.475 1.481 1.486 1.489 1.492 1.493 1.494 1.495 1.495 1.495 1.495 1.495 1.495 1.494 1.493 1.491 1.489 1.486 1.482 1.478 1.473 1.468 1.463 1.456 1.449 1.442 1.434 1.426 1.416 1.406 1.395 1.383 1.369 1.353 1.334 1.312 1.286 1.256 1.222 1.183 1.138 1.087 1.030 0.966 0.895 0.826 0.764 0.710 0.664 0.625 0.593 0.567 0.547 0.532 0.522 0.516 0.512 0.510 0.510 0.510 0.512 0.515 0.521 0.531 0.545 0.564 0.589 0.620 0.659 0.705 0.759 0.822 0.893 0.968 1.037 1.097 1.150 1.195 1.233 1.265 1.290 1.310 1.325 1.335 1.343 1.347 1.349 1.350 1.350 1.349 1.347 1.343 1.337 1.327 1.314 1.296 1.273 1.244 1.208 1.171 1.142 1.123 1.113 1.111 1.113 1.129 1.146 1.146 0.000 
0.000 0.594 0.594 0.642 0.634 0.619 0.586 0.537 0.488 0.447 0.412 0.384 0.362 0.344 0.331 0.321 0.314 0.309 0.306 0.305 0.304 0.304 0.304 0.305 0.307 0.310 0.315 0.321 0.330 0.342 0.357 0.374 0.395 0.420 0.448 0.480 0.517 0.558 0.603 0.654 0.710 0.771 0.837 0.910 0.983 1.050 1.111 1.167 1.217 1.261 1.300 1.334 1.363 1.388 1.410 1.428 1.443 1.455 1.465 1.473 1.479 1.484 1.487 1.490 1.491 1.492 1.493 1.493 1.493 1.493 1.493 1.492 1.492 1.490 1.489 1.486 1.483 1.480 1.476 1.471 1.466 1.461 1.455 1.448 1.441 1.434 1.425 1.416 1.407 1.396 1.384 1.370 1.354 1.335 1.314 1.289 1.260 1.227 1.189 1.145 1.095 1.039 0.977 0.907 0.838 0.777 0.723 0.677 0.638 0.605 0.580 0.560 0.545 0.535 0.529 0.525 0.524 0.523 0.524 0.525 0.528 0.535 0.544 0.559 0.578 0.604 0.636 0.675 0.722 0.777 0.840 0.912 0.986 1.052 1.111 1.162 1.205 1.242 1.272 1.295 1.314 1.328 1.338 1.344 1.348 1.350 1.351 1.351 1.350 1.348 1.344 1.337 1.327 1.313 1.294 1.270 1.240 1.202 1.162 1.130 1.110 1.101 1.100 1.106 1.128 1.154 1.154 0.000 
0.000 0.494 0.494 0.542 0.548 0.547 0.540 0.517 0.481 0.443 0.410 0.383 0.361 0.343 0.330 0.320 0.314 0.309 0.306 0.305 0.304 0.304 0.304 0.305 0.307 0.310 0.314 0.321 0.330 0.342 0.356 0.373 0.394 0.418 0.445 0.477 0.513 0.554 0.599 0.649 0.705 0.766 0.832 0.905 0.978 1.046 1.108 1.164 1.214 1.258 1.298 1.332 1.361 1.387 1.408 1.426 1.441 1.453 1.463 1.471 1.477 1.481 1.485 1.487 1.489 1.490 1.490 1.491 1.491 1.491 1.490 1.490 1.489 1.488 1.486 1.483 1.481 1.477 1.473 1.469 1.464 1.459 1.453 1.447 1.440 1.433 1.425 1.416 1.407 1.396 1.384 1.370 1.355 1.337 1.316 1.292 1.263 1.231 1.194 1.151 1.103 1.048 0.987 0.918 0.850 0.788 0.734 0.688 0.649 0.616 0.591 0.571 0.556 0.546 0.540 0.536 0.535 0.534 0.535 0.536 0.540 0.546 0.556 0.570 0.590 0.616 0.649 0.688 0.736 0.791 0.855 0.927 1.000 1.065 1.122 1.171 1.213 1.248 1.276 1.299 1.317 1.330 1.339 1.346 1.349 1.351 1.351 1.351 1.350 1.348 1.344 1.337 1.326 1.311 1.292 1.267 1.235 1.197 1.154 1.116 1.089 1.074 1.072 1.079 1.111 1.158 1.158 0.000 
0.000 0.436 0.436 0.470 0.486 0.490 0.489 0.483 0.465 0.436 0.406 0.380 0.359 0.342 0.329 0.320 0.313 0.309 0.306 0.305 0.304 0.304 0.304 0.305 0.307 0.310 0.315 0.321 0.330 0.342 0.356 0.373 0.393 0.417 0.444 0.475 0.510 0.550 0.595 0.645 0.700 0.761 0.827 0.900 0.974 1.042 1.105 1.161 1.211 1.256 1.295 1.330 1.359 1.385 1.406 1.424 1.439 1.451 1.461 1.468 1.474 1.479 1.482 1.485 1.486 1.487 1.488 1.488 1.488 1.488 1.487 1.487 1.486 1.484 1.483 1.480 1.477 1.474 1.470 1.466 1.461 1.456 1.450 1.445 1.438 1.431 1.424 1.416 1.406 1.396 1.384 1.371 1.355 1.338 1.317 1.294 1.266 1.234 1.198 1.156 1.109 1.055 0.995 0.928 0.860 0.798 0.744 0.697 0.658 0.626 0.600 0.580 0.565 0.555 0.549 0.545 0.544 0.543 0.544 0.545 0.549 0.555 0.565 0.580 0.600 0.626 0.659 0.699 0.747 0.803 0.867 0.939 1.011 1.074 1.130 1.177 1.218 1.252 1.280 1.302 1.319 1.332 1.340 1.346 1.349 1.351 1.351 1.351 1.350 1.348 1.343 1.336 1.325 1.310 1.289 1.263 1.231 1.192 1.147 1.101 1.061 1.029 1.013 1.015 1.051 1.142 1.142 0.000 
0.000 0.410 0.410 0.430 0.443 0.447 0.448 0.446 0.439 0.423 0.399 0.375 0.356 0.340 0.328 0.319 0.313 0.309 0.306 0.305 0.304 0.304 0.305 0.305 0.307 0.310 0.315 0.322 0.331 0.342 0.356 0.373 0.393 0.416 0.443 0.474 0.509 0.548 0.592 0.642 0.697 0.757 0.823 0.895 0.970 1.038 1.101 1.158 1.209 1.254 1.293 1.327 1.357 1.382 1.404 1.422 1.436 1.449 1.458 1.466 1.472 1.476 1.479 1.481 1.483 1.484 1.484 1.484 1.484 1.484 1.484 1.483 1.482 1.481 1.479 1.476 1.473 1.470 1.466 1.462 1.457 1.452 1.447 1.442 1.436 1.429 1.422 1.414 1.406 1.395 1.384 1.371 1.356 1.338 1.318 1.295 1.268 1.237 1.202 1.161 1.114 1.062 1.003 0.937 0.869 0.807 0.752 0.706 0.666 0.634 0.608 0.587 0.573 0.562 0.556 0.552 0.551 0.550 0.551 0.552 0.556 0.562 0.572 0.587 0.607 0.634 0.667 0.707 0.755 0.811 0.876 0.948 1.019 1.081 1.135 1.182 1.222 1.255 1.282 1.304 1.320 1.332 1.341 1.346 1.349 1.351 1.351 1.351 1.350 1.347 1.343 1.335 1.323 1.307 1.286 1.259 1.226 1.186 1.139 1.088 1.034 0.979 0.926 0.886 0.884 1.006 1.006 0.000 
0.000 0.384 0.384 0.401 0.410 0.413 0.413 0.413 0.409 0.402 0.388 0.369 0.351 0.337 0.327 0.319 0.313 0.309 0.307 0.306 0.305 0.305 0.306 0.306 0.308 0.311 0.316 0.323 0.331 0.342 0.356 0.373 0.393 0.416 0.443 0.473 0.507 0.546 0.590 0.639 0.693 0.753 0.819 0.891 0.965 1.035 1.098 1.155 1.206 1.251 1.291 1.325 1.355 1.380 1.401 1.419 1.434 1.446 1.455 1.463 1.468 1.473 1.476 1.478 1.479 1.480 1.480 1.480 1.480 1.480 1.480 1.479 1.478 1.476 1.474 1.471 1.468 1.465 1.461 1.457 1.453 1.448 1.443 1.438 1.433 1.427 1.420 1.413 1.404 1.395 1.383 1.371 1.356 1.339 1.319 1.296 1.270 1.239 1.205 1.165 1.119 1.068 1.010 0.945 0.876 0.814 0.760 0.713 0.673 0.640 0.614 0.593 0.578 0.568 0.561 0.558 0.556 0.556 0.556 0.557 0.561 0.567 0.578 0.592 0.613 0.639 0.672 0.713 0.761 0.818 0.882 0.955 1.024 1.085 1.139 1.185 1.224 1.257 1.283 1.304 1.321 1.332 1.341 1.346 1.349 1.351 1.351 1.351 1.350 1.347 1.342 1.333 1.321 1.304 1.282 1.254 1.220 1.178 1.129 1.073 1.012 0.946 0.873 0.777 0.605 0.435 0.435 0.000 
0.000 0.358 0.358 0.374 0.380 0.384 0.384 0.384 0.382 0.378 0.372 0.360 0.346 0.334 0.325 0.318 0.313 0.310 0.308 0.307 0.307 0.307 0.307 0.308 0.310 0.313 0.318 0.325 0.333 0.344 0.357 0.374 0.393 0.416 0.443 0.473 0.507 0.545 0.588 0.637 0.690 0.750 0.815 0.886 0.961 1.031 1.094 1.152 1.203 1.248 1.288 1.322 1.352 1.377 1.398 1.416 1.431 1.442 1.452 1.459 1.465 1.469 1.472 1.474 1.475 1.475 1.476 1.476 1.476 1.476 1.475 1.474 1.473 1.471 1.469 1.466 1.463 1.459 1.455 1.451 1.447 1.443 1.438 1.434 1.429 1.423 1.417 1.410 1.402 1.393 1.383 1.370 1.355 1.339 1.319 1.297 1.271 1.241 1.207 1.168 1.123 1.072 1.015 0.951 0.883 0.821 0.766 0.718 0.678 0.645 0.619 0.598 0.583 0.572 0.565 0.561 0.560 0.559 0.560 0.561 0.565 0.571 0.581 0.596 0.616 0.643 0.676 0.717 0.765 0.822 0.887 0.959 1.028 1.088 1.141 1.187 1.226 1.258 1.284 1.305 1.321 1.332 1.341 1.346 1.349 1.350 1.350 1.350 1.349 1.346 1.340 1.331 1.319 1.301 1.278 1.249 1.213 1.169 1.116 1.055 0.990 0.925 0.856 0.759 0.551 0.132 0.132 0.000 
0.000 0.332 0.332 0.347 0.353 0.357 0.358 0.359 0.358 0.356 0.353 0.347 0.338 0.329 0.322 0.317 0.313 0.311 0.309 0.309 0.309 0.309 0.310 0.311 0.313 0.316 0.321 0.328 0.336 0.347 0.360 0.376 0.395 0.417 0.443 0.473 0.506 0.544 0.587 0.634 0.688 0.746 0.811 0.882 0.957 1.027 1.091 1.148 1.200 1.245 1.285 1.319 1.349 1.374 1.395 1.413 1.427 1.439 1.448 1.455 1.460 1.464 1.467 1.469 1.470 1.470 1.470 1.471 1.470 1.470 1.469 1.468 1.467 1.465 1.462 1.459 1.456 1.452 1.449 1.445 1.441 1.437 1.433 1.428 1.424 1.419 1.413 1.407 1.400 1.391 1.381 1.369 1.355 1.338 1.319 1.297 1.272 1.243 1.209 1.170 1.127 1.077 1.020 0.957 0.889 0.827 0.771 0.723 0.683 0.649 0.622 0.601 0.586 0.575 0.568 0.564 0.562 0.562 0.562 0.564 0.567 0.573 0.584 0.598 0.619 0.645 0.678 0.719 0.768 0.824 0.889 0.961 1.029 1.090 1.142 1.188 1.226 1.258 1.284 1.305 1.321 1.332 1.340 1.345 1.348 1.349 1.349 1.349 1.347 1.344 1.338 1.329 1.316 1.297 1.273 1.243 1.205 1.159 1.103 1.037 0.969 0.910 0.856 0.798 0.727 0.686 0.686 0.000 
0.000 0.307 0.307 0.321 0.326 0.331 0.334 0.336 0.337 0.337 0.336 0.333 0.329 0.324 0.319 0.316 0.314 0.312 0.312 0.312 0.312 0.312 0.313 0.315 0.317 0.321 0.325 0.332 0.340 0.350 0.363 0.378 0.397 0.418 0.444 0.473 0.506 0.543 0.585 0.632 0.685 0.743 0.807 0.877 0.952 1.023 1.087 1.145 1.196 1.242 1.282 1.316 1.345 1.370 1.391 1.409 1.423 1.434 1.443 1.450 1.455 1.459 1.461 1.463 1.464 1.464 1.464 1.464 1.464 1.464 1.463 1.462 1.460 1.458 1.455 1.452 1.448 1.445 1.441 1.438 1.434 1.430 1.426 1.422 1.418 1.414 1.408 1.403 1.396 1.388 1.378 1.367 1.354 1.338 1.319 1.297 1.272 1.244 1.211 1.173 1.130 1.080 1.025 0.963 0.895 0.831 0.776 0.727 0.686 0.652 0.625 0.604 0.588 0.577 0.570 0.566 0.564 0.563 0.564 0.565 0.568 0.575 0.585 0.600 0.620 0.646 0.680 0.720 0.769 0.825 0.890 0.962 1.030 1.090 1.143 1.188 1.226 1.258 1.284 1.304 1.320 1.331 1.339 1.344 1.346 1.347 1.347 1.347 1.345 1.342 1.335 1.326 1.312 1.293 1.268 1.237 1.198 1.151 1.094 1.025 0.955 0.899 0.867 0.860 0.913 1.094 1.094 0.000 
0.000 0.281 0.281 0.295 0.300 0.305 0.311 0.315 0.318 0.321 0.322 0.322 0.321 0.319 0.317 0.316 0.315 0.315 0.315 0.315 0.315 0.316 0.318 0.320 0.323 0.326 0.331 0.338 0.346 0.356 0.368 0.383 0.400 0.421 0.445 0.474 0.506 0.543 0.584 0.631 0.682 0.740 0.803 0.873 0.948 1.019 1.083 1.141 1.193 1.238 1.278 1.312 1.341 1.366 1.387 1.404 1.418 1.429 1.437 1.444 1.449 1.452 1.455 1.456 1.457 1.457 1.457 1.457 1.457 1.456 1.455 1.454 1.452 1.449 1.446 1.443 1.439 1.436 1.433 1.429 1.426 1.422 1.419 1.415 1.412 1.407 1.403 1.397 1.391 1.384 1.375 1.364 1.352 1.336 1.318 1.297 1.273 1.245 1.212 1.175 1.132 1.084 1.029 0.967 0.900 0.836 0.779 0.730 0.689 0.655 0.627 0.605 0.589 0.578 0.571 0.567 0.565 0.564 0.564 0.566 0.569 0.575 0.585 0.600 0.620 0.647 0.680 0.721 0.769 0.826 0.891 0.962 1.030 1.090 1.143 1.188 1.226 1.257 1.283 1.303 1.319 1.330 1.337 1.342 1.344 1.345 1.345 1.344 1.343 1.339 1.332 1.322 1.307 1.288 1.262 1.230 1.191 1.144 1.087 1.020 0.949 0.894 0.866 0.866 0.927 1.092 1.092 0.000 
0.000 0.255 0.255 0.270 0.275 0.281 0.288 0.295 0.301 0.306 0.310 0.313 0.314 0.316 0.316 0.316 0.317 0.317 0.318 0.319 0.320 0.322 0.324 0.326 0.330 0.334 0.339 0.345 0.353 0.362 0.374 0.388 0.405 0.425 0.448 0.475 0.507 0.543 0.583 0.629 0.680 0.736 0.799 0.868 0.943 1.014 1.079 1.137 1.188 1.234 1.273 1.308 1.337 1.361 1.382 1.398 1.412 1.423 1.431 1.437 1.442 1.445 1.447 1.449 1.449 1.449 1.449 1.449 1.449 1.448 1.447 1.445 1.442 1.439 1.436 1.433 1.429 1.426 1.423 1.420 1.417 1.414 1.411 1.407 1.404 1.400 1.396 1.391 1.386 1.379 1.371 1.361 1.349 1.334 1.317 1.297 1.273 1.245 1.213 1.176 1.134 1.087 1.032 0.971 0.904 0.840 0.783 0.733 0.691 0.656 0.628 0.606 0.590 0.578 0.571 0.567 0.565 0.564 0.565 0.566 0.569 0.576 0.586 0.600 0.620 0.647 0.680 0.721 0.769 0.826 0.891 0.962 1.030 1.090 1.142 1.187 1.225 1.256 1.282 1.301 1.316 1.327 1.334 1.339 1.341 1.341 1.341 1.341 1.339 1.335 1.328 1.317 1.302 1.282 1.256 1.224 1.184 1.137 1.082 1.018 0.950 0.892 0.848 0.818 0.814 0.934 0.934 0.000 
0.000 0.229 0.229 0.244 0.250 0.258 0.266 0.275 0.284 0.293 0.300 0.306 0.310 0.313 0.315 0.317 0.319 0.321 0.323 0.324 0.327 0.329 0.332 0.335 0.338 0.343 0.348 0.354 0.362 0.371 0.382 0.395 0.411 0.430 0.452 0.478 0.508 0.543 0.582 0.627 0.677 0.733 0.795 0.864 0.938 1.009 1.074 1.132 1.184 1.229 1.268 1.302 1.331 1.356 1.376 1.392 1.405 1.416 1.424 1.430 1.434 1.437 1.439 1.440 1.440 1.441 1.441 1.440 1.440 1.439 1.437 1.435 1.432 1.428 1.425 1.421 1.418 1.415 1.412 1.410 1.407 1.404 1.401 1.398 1.395 1.392 1.388 1.384 1.379 1.373 1.365 1.356 1.345 1.332 1.315 1.296 1.272 1.245 1.214 1.178 1.137 1.089 1.036 0.975 0.908 0.843 0.785 0.735 0.693 0.657 0.629 0.607 0.590 0.578 0.571 0.567 0.565 0.564 0.565 0.566 0.569 0.576 0.586 0.600 0.620 0.647 0.680 0.720 0.769 0.825 0.890 0.962 1.029 1.089 1.141 1.185 1.223 1.254 1.279 1.298 1.313 1.323 1.330 1.334 1.336 1.337 1.337 1.336 1.334 1.329 1.322 1.311 1.296 1.276 1.250 1.217 1.178 1.131 1.077 1.017 0.953 0.893 0.830 0.746 0.575 0.383 0.383 0.000 
0.000 0.203 0.203 0.219 0.226 0.235 0.245 0.257 0.270 0.282 0.292 0.300 0.307 0.312 0.316 0.319 0.322 0.325 0.328 0.331 0.334 0.337 0.340 0.344 0.348 0.353 0.358 0.364 0.371 0.380 0.390 0.403 0.418 0.435 0.456 0.481 0.510 0.543 0.581 0.625 0.674 0.729 0.791 0.859 0.933 1.004 1.069 1.127 1.178 1.223 1.263 1.296 1.325 1.349 1.369 1.385 1.398 1.408 1.415 1.421 1.425 1.428 1.429 1.430 1.431 1.431 1.430 1.430 1.429 1.428 1.426 1.423 1.419 1.416 1.412 1.409 1.406 1.403 1.400 1.398 1.396 1.393 1.391 1.388 1.386 1.383 1.380 1.376 1.371 1.366 1.359 1.351 1.341 1.328 1.313 1.294 1.272 1.245 1.215 1.179 1.138 1.092 1.039 0.979 0.912 0.846 0.788 0.737 0.694 0.658 0.629 0.607 0.590 0.578 0.571 0.567 0.565 0.564 0.564 0.566 0.569 0.575 0.585 0.600 0.620 0.646 0.679 0.719 0.767 0.824 0.888 0.960 1.027 1.087 1.138 1.182 1.219 1.250 1.274 1.294 1.308 1.318 1.325 1.328 1.330 1.331 1.331 1.330 1.328 1.323 1.316 1.305 1.289 1.269 1.242 1.210 1.170 1.124 1.072 1.014 0.955 0.895 0.830 0.739 0.544 0.166 0.166 0.000 
0.000 0.178 0.178 0.193 0.202 0.213 0.225 0.240 0.257 0.273 0.286 0.296 0.305 0.311 0.316 0.321 0.325 0.330 0.333 0.337 0.341 0.344 0.348 0.352 0.356 0.361 0.366 0.372 0.379 0.387 0.397 0.409 0.423 0.440 0.460 0.483 0.511 0.543 0.580 0.623 0.671 0.725 0.786 0.853 0.927 0.998 1.063 1.121 1.172 1.217 1.256 1.290 1.318 1.342 1.361 1.377 1.389 1.399 1.406 1.411 1.415 1.417 1.419 1.419 1.420 1.420 1.419 1.419 1.418 1.416 1.413 1.410 1.406 1.402 1.398 1.395 1.392 1.390 1.388 1.386 1.384 1.381 1.379 1.377 1.375 1.373 1.370 1.367 1.363 1.358 1.352 1.345 1.335 1.323 1.309 1.291 1.270 1.245 1.215 1.180 1.140 1.094 1.042 0.982 0.916 0.849 0.790 0.739 0.695 0.659 0.629 0.607 0.590 0.578 0.570 0.566 0.564 0.563 0.564 0.565 0.568 0.574 0.584 0.598 0.618 0.644 0.677 0.717 0.765 0.821 0.885 0.956 1.023 1.082 1.134 1.177 1.214 1.244 1.268 1.287 1.301 1.311 1.317 1.321 1.323 1.323 1.323 1.322 1.320 1.315 1.308 1.297 1.281 1.260 1.234 1.202 1.162 1.116 1.063 1.007 0.953 0.903 0.852 0.794 0.731 0.712 0.712 0.000 
0.000 0.152 0.152 0.168 0.179 0.192 0.207 0.226 0.247 0.266 0.281 0.294 0.303 0.311 0.318 0.324 0.329 0.334 0.338 0.342 0.347 0.351 0.355 0.359 0.363 0.368 0.373 0.379 0.385 0.393 0.402 0.414 0.427 0.443 0.462 0.485 0.512 0.543 0.579 0.621 0.668 0.721 0.781 0.848 0.920 0.992 1.056 1.114 1.165 1.210 1.249 1.282 1.310 1.333 1.352 1.368 1.380 1.389 1.396 1.400 1.404 1.406 1.407 1.407 1.407 1.407 1.407 1.406 1.405 1.402 1.399 1.395 1.391 1.387 1.384 1.381 1.379 1.377 1.375 1.374 1.372 1.370 1.369 1.367 1.365 1.363 1.361 1.358 1.355 1.351 1.345 1.338 1.329 1.318 1.305 1.288 1.268 1.244 1.215 1.181 1.141 1.096 1.044 0.986 0.920 0.853 0.792 0.740 0.696 0.659 0.629 0.606 0.589 0.577 0.569 0.565 0.562 0.562 0.562 0.563 0.566 0.572 0.582 0.596 0.616 0.641 0.674 0.713 0.761 0.816 0.880 0.951 1.017 1.076 1.127 1.170 1.206 1.236 1.260 1.279 1.293 1.302 1.308 1.312 1.314 1.314 1.314 1.313 1.311 1.306 1.299 1.287 1.272 1.251 1.225 1.192 1.153 1.105 1.049 0.994 0.950 0.917 0.898 0.894 0.940 1.079 1.079 0.000 
0.000 0.126 0.126 0.143 0.156 0.171 0.191 0.215 0.240 0.261 0.279 0.292 0.303 0.312 0.320 0.327 0.333 0.338 0.343 0.347 0.351 0.356 0.360 0.364 0.368 0.373 0.378 0.384 0.390 0.397 0.406 0.417 0.430 0.446 0.464 0.486 0.512 0.542 0.578 0.618 0.665 0.717 0.776 0.841 0.913 0.984 1.049 1.106 1.157 1.202 1.240 1.273 1.301 1.324 1.342 1.357 1.369 1.378 1.384 1.389 1.391 1.393 1.394 1.394 1.394 1.394 1.394 1.392 1.391 1.388 1.384 1.380 1.377 1.373 1.371 1.369 1.367 1.366 1.364 1.363 1.362 1.360 1.359 1.358 1.356 1.355 1.353 1.351 1.348 1.344 1.339 1.333 1.324 1.314 1.301 1.285 1.266 1.242 1.214 1.181 1.143 1.098 1.047 0.989 0.924 0.856 0.795 0.741 0.696 0.659 0.629 0.605 0.588 0.575 0.567 0.562 0.560 0.559 0.559 0.560 0.563 0.569 0.578 0.592 0.611 0.637 0.668 0.708 0.754 0.809 0.872 0.942 1.008 1.067 1.117 1.160 1.196 1.226 1.250 1.268 1.282 1.291 1.298 1.301 1.303 1.303 1.303 1.302 1.300 1.295 1.288 1.276 1.261 1.240 1.214 1.182 1.142 1.094 1.037 0.984 0.945 0.924 0.919 0.932 0.993 1.076 1.076 0.000 
0.000 0.100 0.100 0.118 0.133 0.152 0.177 0.208 0.236 0.259 0.277 0.292 0.304 0.314 0.322 0.329 0.336 0.341 0.346 0.351 0.355 0.359 0.364 0.368 0.372 0.377 0.382 0.387 0.393 0.400 0.409 0.420 0.432 0.447 0.465 0.486 0.512 0.542 0.576 0.616 0.661 0.713 0.770 0.835 0.905 0.976 1.040 1.097 1.148 1.192 1.231 1.263 1.291 1.313 1.332 1.346 1.357 1.366 1.372 1.376 1.378 1.379 1.380 1.380 1.380 1.380 1.379 1.378 1.376 1.374 1.371 1.367 1.364 1.361 1.359 1.358 1.356 1.355 1.354 1.353 1.352 1.351 1.350 1.350 1.349 1.347 1.346 1.344 1.341 1.338 1.334 1.328 1.320 1.310 1.298 1.282 1.264 1.241 1.214 1.181 1.144 1.100 1.050 0.992 0.928 0.859 0.797 0.742 0.696 0.658 0.627 0.603 0.585 0.572 0.564 0.559 0.556 0.555 0.555 0.556 0.559 0.564 0.573 0.587 0.605 0.630 0.661 0.700 0.746 0.799 0.861 0.930 0.996 1.054 1.104 1.147 1.183 1.213 1.237 1.255 1.269 1.278 1.284 1.288 1.290 1.290 1.290 1.289 1.287 1.282 1.275 1.264 1.249 1.228 1.203 1.171 1.131 1.084 1.029 0.979 0.942 0.923 0.920 0.934 0.995 1.073 1.073 0.000 
0.000 0.075 0.075 0.093 0.110 0.135 0.169 0.205 0.234 0.258 0.277 0.292 0.305 0.315 0.324 0.332 0.339 0.344 0.349 0.354 0.358 0.362 0.367 0.371 0.375 0.379 0.384 0.389 0.395 0.402 0.411 0.421 0.433 0.448 0.465 0.486 0.511 0.541 0.574 0.613 0.658 0.708 0.764 0.827 0.897 0.967 1.031 1.088 1.138 1.182 1.220 1.252 1.279 1.302 1.320 1.334 1.345 1.353 1.358 1.362 1.364 1.366 1.366 1.366 1.366 1.366 1.366 1.365 1.363 1.361 1.358 1.355 1.352 1.350 1.349 1.347 1.346 1.346 1.345 1.344 1.344 1.343 1.343 1.342 1.342 1.341 1.340 1.338 1.336 1.333 1.329 1.323 1.316 1.307 1.295 1.280 1.262 1.240 1.213 1.182 1.145 1.102 1.052 0.996 0.932 0.862 0.799 0.743 0.696 0.657 0.625 0.601 0.582 0.568 0.559 0.554 0.551 0.550 0.550 0.551 0.553 0.558 0.567 0.580 0.598 0.621 0.652 0.689 0.734 0.786 0.847 0.914 0.980 1.038 1.088 1.131 1.167 1.197 1.221 1.239 1.253 1.263 1.269 1.273 1.275 1.275 1.275 1.274 1.272 1.267 1.260 1.249 1.234 1.215 1.190 1.159 1.121 1.077 1.025 0.977 0.939 0.913 0.900 0.904 0.950 1.071 1.071 0.000 
0.000 0.049 0.049 0.067 0.090 0.124 0.166 0.203 0.233 0.258 0.277 0.293 0.306 0.318 0.327 0.335 0.341 0.347 0.352 0.356 0.361 0.365 0.369 0.373 0.377 0.381 0.386 0.391 0.397 0.404 0.412 0.422 0.434 0.448 0.465 0.486 0.511 0.539 0.572 0.610 0.654 0.703 0.758 0.819 0.887 0.957 1.020 1.077 1.127 1.171 1.208 1.240 1.267 1.289 1.307 1.321 1.331 1.339 1.345 1.348 1.351 1.352 1.353 1.353 1.354 1.353 1.353 1.352 1.351 1.349 1.347 1.344 1.342 1.340 1.339 1.338 1.337 1.337 1.337 1.336 1.336 1.336 1.336 1.336 1.336 1.335 1.334 1.333 1.331 1.328 1.325 1.319 1.313 1.304 1.292 1.278 1.260 1.239 1.213 1.182 1.146 1.104 1.055 0.999 0.936 0.866 0.801 0.744 0.696 0.655 0.623 0.597 0.577 0.563 0.553 0.547 0.544 0.543 0.543 0.543 0.545 0.550 0.558 0.570 0.587 0.610 0.639 0.675 0.719 0.770 0.828 0.894 0.959 1.017 1.067 1.111 1.147 1.177 1.201 1.220 1.234 1.244 1.251 1.255 1.257 1.257 1.257 1.257 1.255 1.250 1.243 1.233 1.219 1.200 1.175 1.146 1.110 1.069 1.022 0.976 0.933 0.893 0.854 0.813 0.780 0.869 0.869 0.000 
0.000 0.028 0.028 0.045 0.075 0.119 0.165 0.203 0.234 0.258 0.278 0.295 0.309 0.320 0.329 0.337 0.344 0.349 0.354 0.358 0.362 0.366 0.370 0.374 0.378 0.382 0.386 0.391 0.397 0.404 0.412 0.422 0.434 0.448 0.465 0.486 0.509 0.537 0.570 0.607 0.649 0.697 0.750 0.810 0.877 0.946 1.009 1.065 1.115 1.158 1.196 1.227 1.254 1.276 1.293 1.307 1.317 1.325 1.331 1.335 1.338 1.340 1.341 1.342 1.342 1.342 1.341 1.341 1.340 1.338 1.336 1.334 1.332 1.331 1.330 1.330 1.329 1.329 1.329 1.329 1.330 1.330 1.330 1.330 1.330 1.330 1.329 1.328 1.327 1.324 1.321 1.316 1.310 1.301 1.290 1.276 1.259 1.238 1.213 1.183 1.147 1.105 1.057 1.002 0.940 0.870 0.804 0.745 0.695 0.653 0.619 0.591 0.571 0.555 0.545 0.539 0.535 0.534 0.533 0.534 0.536 0.540 0.547 0.558 0.574 0.596 0.624 0.658 0.700 0.749 0.805 0.869 0.934 0.992 1.043 1.086 1.123 1.154 1.179 1.198 1.213 1.224 1.231 1.235 1.237 1.238 1.238 1.237 1.235 1.231 1.224 1.214 1.201 1.183 1.160 1.132 1.099 1.061 1.018 0.973 0.928 0.882 0.828 0.744 0.566 0.328 0.328 0.000 
0.000 0.010 0.010 0.029 0.068 0.120 0.167 0.204 0.235 0.260 0.281 0.298 0.311 0.323 0.332 0.340 0.346 0.351 0.356 0.360 0.364 0.367 0.371 0.375 0.378 0.382 0.387 0.392 0.397 0.404 0.412 0.422 0.434 0.448 0.465 0.485 0.508 0.535 0.566 0.602 0.643 0.690 0.742 0.801 0.866 0.934 0.996 1.052 1.102 1.145 1.182 1.213 1.240 1.261 1.279 1.293 1.303 1.312 1.318 1.323 1.326 1.329 1.330 1.331 1.331 1.331 1.331 1.330 1.329 1.328 1.327 1.325 1.324 1.323 1.322 1.322 1.322 1.322 1.322 1.323 1.324 1.324 1.325 1.325 1.325 1.325 1.325 1.324 1.323 1.320 1.317 1.313 1.307 1.299 1.288 1.275 1.258 1.238 1.213 1.183 1.148 1.107 1.060 1.006 0.944 0.875 0.807 0.746 0.694 0.649 0.614 0.585 0.563 0.547 0.535 0.528 0.524 0.522 0.522 0.522 0.524 0.527 0.534 0.544 0.559 0.579 0.605 0.638 0.677 0.724 0.778 0.839 0.904 0.962 1.013 1.057 1.095 1.127 1.152 1.173 1.188 1.200 1.207 1.212 1.214 1.215 1.215 1.215 1.213 1.209 1.203 1.193 1.181 1.164 1.142 1.116 1.086 1.050 1.011 0.968 0.924 0.879 0.825 0.740 0.556 0.210 0.210 0.000 
0.000 0.030 0.030 0.029 0.070 0.124 0.171 0.208 0.239 0.264 0.285 0.301 0.315 0.326 0.335 0.342 0.348 0.353 0.357 0.361 0.365 0.368 0.371 0.375 0.378 0.382 0.387 0.392 0.397 0.404 0.412 0.422 0.433 0.447 0.464 0.483 0.506 0.532 0.562 0.597 0.637 0.682 0.733 0.790 0.853 0.920 0.982 1.038 1.087 1.130 1.167 1.198 1.225 1.246 1.264 1.278 1.290 1.299 1.306 1.311 1.315 1.317 1.319 1.320 1.320 1.321 1.321 1.320 1.320 1.319 1.318 1.317 1.316 1.315 1.315 1.315 1.315 1.315 1.316 1.317 1.318 1.319 1.320 1.321 1.321 1.321 1.321 1.320 1.319 1.317 1.314 1.310 1.304 1.296 1.286 1.273 1.257 1.237 1.213 1.184 1.150 1.109 1.063 1.009 0.949 0.880 0.810 0.748 0.693 0.646 0.608 0.577 0.554 0.536 0.524 0.516 0.511 0.509 0.508 0.509 0.510 0.513 0.518 0.527 0.541 0.559 0.583 0.614 0.651 0.695 0.746 0.804 0.867 0.926 0.978 1.023 1.062 1.095 1.122 1.144 1.161 1.173 1.182 1.187 1.189 1.190 1.190 1.190 1.188 1.185 1.179 1.170 1.158 1.143 1.123 1.099 1.070 1.037 1.000 0.959 0.920 0.883 0.843 0.795 0.743 0.746 0.746 0.000 
0.000 0.062 0.062 0.052 0.087 0.136 0.180 0.216 0.246 0.271 0.291 0.307 0.320 0.330 0.338 0.345 0.350 0.355 0.359 0.362 0.365 0.368 0.371 0.375 0.378 0.382 0.386 0.391 0.397 0.404 0.412 0.421 0.432 0.446 0.462 0.481 0.502 0.528 0.558 0.592 0.630 0.674 0.723 0.779 0.840 0.906 0.967 1.023 1.072 1.114 1.151 1.183 1.209 1.231 1.250 1.265 1.277 1.286 1.294 1.300 1.304 1.307 1.309 1.310 1.311 1.311 1.311 1.311 1.311 1.310 1.309 1.309 1.308 1.308 1.308 1.308 1.308 1.309 1.310 1.311 1.313 1.315 1.316 1.317 1.317 1.317 1.317 1.316 1.315 1.314 1.311 1.307 1.302 1.294 1.285 1.272 1.256 1.237 1.213 1.185 1.151 1.112 1.066 1.013 0.954 0.886 0.815 0.750 0.693 0.644 0.603 0.570 0.544 0.525 0.511 0.502 0.496 0.494 0.493 0.493 0.493 0.496 0.500 0.508 0.520 0.536 0.558 0.586 0.620 0.661 0.709 0.764 0.825 0.884 0.938 0.984 1.025 1.059 1.088 1.111 1.130 1.143 1.153 1.159 1.162 1.163 1.163 1.163 1.161 1.158 1.152 1.144 1.134 1.119 1.102 1.080 1.054 1.023 0.986 0.948 0.917 0.894 0.882 0.883 0.931 1.058 1.058 0.000 
0.000 0.157 0.157 0.111 0.135 0.161 0.194 0.229 0.257 0.280 0.299 0.313 0.325 0.335 0.342 0.348 0.353 0.357 0.360 0.363 0.365 0.368 0.371 0.374 0.378 0.382 0.386 0.391 0.396 0.403 0.411 0.420 0.431 0.444 0.459 0.477 0.499 0.523 0.552 0.585 0.622 0.665 0.713 0.766 0.825 0.890 0.951 1.006 1.055 1.098 1.135 1.167 1.194 1.216 1.235 1.251 1.264 1.274 1.282 1.288 1.293 1.296 1.299 1.300 1.301 1.302 1.302 1.302 1.302 1.302 1.302 1.301 1.301 1.301 1.301 1.301 1.302 1.303 1.304 1.306 1.308 1.310 1.312 1.313 1.313 1.313 1.313 1.313 1.312 1.311 1.308 1.305 1.299 1.292 1.283 1.271 1.256 1.237 1.214 1.186 1.153 1.114 1.069 1.018 0.959 0.892 0.820 0.754 0.695 0.644 0.600 0.564 0.535 0.513 0.497 0.487 0.480 0.476 0.475 0.475 0.475 0.476 0.480 0.486 0.496 0.510 0.530 0.555 0.586 0.623 0.667 0.718 0.776 0.836 0.891 0.940 0.983 1.019 1.050 1.075 1.095 1.111 1.122 1.129 1.133 1.135 1.135 1.134 1.133 1.130 1.126 1.119 1.110 1.098 1.082 1.063 1.040 1.012 0.978 0.942 0.915 0.901 0.899 0.914 0.976 1.055 1.055 0.000 
0.000 0.270 0.270 0.208 0.190 0.195 0.217 0.248 0.273 0.294 0.310 0.322 0.332 0.340 0.347 0.351 0.355 0.358 0.361 0.363 0.365 0.368 0.371 0.374 0.377 0.381 0.385 0.389 0.395 0.401 0.409 0.418 0.428 0.441 0.456 0.473 0.494 0.517 0.545 0.577 0.613 0.654 0.701 0.752 0.810 0.873 0.934 0.989 1.038 1.081 1.118 1.150 1.178 1.202 1.221 1.238 1.251 1.262 1.270 1.277 1.282 1.286 1.289 1.291 1.292 1.293 1.293 1.294 1.294 1.294 1.294 1.294 1.294 1.294 1.295 1.295 1.296 1.297 1.299 1.301 1.304 1.306 1.308 1.309 1.309 1.310 1.310 1.309 1.309 1.308 1.305 1.302 1.297 1.290 1.281 1.270 1.255 1.237 1.214 1.187 1.155 1.117 1.073 1.022 0.964 0.899 0.827 0.758 0.697 0.644 0.598 0.560 0.529 0.504 0.486 0.472 0.464 0.459 0.456 0.455 0.455 0.456 0.459 0.463 0.471 0.483 0.499 0.521 0.548 0.582 0.622 0.668 0.722 0.781 0.839 0.890 0.935 0.974 1.007 1.035 1.057 1.075 1.088 1.098 1.103 1.107 1.108 1.108 1.107 1.105 1.102 1.096 1.089 1.079 1.066 1.049 1.029 1.004 0.974 0.940 0.914 0.901 0.899 0.914 0.974 1.053 1.053 0.000 
0.000 0.175 0.175 0.220 0.217 0.232 0.251 0.275 0.295 0.311 0.324 0.333 0.341 0.347 0.352 0.355 0.358 0.360 0.362 0.363 0.365 0.367 0.370 0.372 0.376 0.379 0.383 0.387 0.393 0.399 0.406 0.415 0.425 0.437 0.451 0.468 0.488 0.511 0.537 0.568 0.603 0.643 0.688 0.738 0.794 0.855 0.916 0.971 1.020 1.063 1.101 1.134 1.162 1.187 1.207 1.224 1.238 1.250 1.259 1.266 1.271 1.276 1.279 1.281 1.283 1.284 1.285 1.285 1.286 1.286 1.286 1.287 1.287 1.288 1.288 1.289 1.290 1.292 1.294 1.296 1.299 1.302 1.304 1.305 1.306 1.306 1.306 1.306 1.306 1.304 1.302 1.299 1.295 1.288 1.280 1.268 1.254 1.236 1.215 1.189 1.157 1.120 1.077 1.028 0.971 0.906 0.834 0.764 0.701 0.645 0.597 0.557 0.523 0.496 0.476 0.460 0.450 0.443 0.439 0.437 0.437 0.437 0.439 0.442 0.448 0.458 0.472 0.490 0.513 0.543 0.578 0.619 0.667 0.722 0.780 0.835 0.883 0.924 0.960 0.991 1.016 1.036 1.052 1.064 1.073 1.079 1.082 1.084 1.084 1.083 1.080 1.077 1.071 1.062 1.052 1.038 1.020 0.999 0.972 0.942 0.914 0.893 0.881 0.881 0.923 1.050 1.050 0.000 
0.000 0.027 0.027 0.143 0.239 0.275 0.296 0.312 0.324 0.334 0.341 0.347 0.352 0.355 0.357 0.359 0.360 0.361 0.362 0.363 0.364 0.366 0.368 0.371 0.373 0.376 0.380 0.384 0.389 0.395 0.402 0.410 0.420 0.431 0.445 0.461 0.480 0.502 0.528 0.558 0.592 0.630 0.673 0.722 0.776 0.836 0.896 0.951 1.001 1.045 1.084 1.117 1.147 1.172 1.193 1.211 1.226 1.238 1.247 1.255 1.261 1.266 1.269 1.272 1.274 1.275 1.276 1.277 1.278 1.278 1.279 1.280 1.280 1.281 1.282 1.283 1.284 1.286 1.288 1.291 1.295 1.298 1.300 1.301 1.302 1.303 1.303 1.303 1.302 1.301 1.300 1.297 1.292 1.286 1.278 1.267 1.253 1.236 1.215 1.190 1.159 1.123 1.081 1.033 0.977 0.914 0.843 0.770 0.705 0.648 0.598 0.555 0.519 0.490 0.467 0.450 0.437 0.429 0.424 0.421 0.420 0.420 0.421 0.424 0.428 0.436 0.447 0.462 0.482 0.508 0.539 0.575 0.618 0.666 0.720 0.775 0.826 0.871 0.909 0.943 0.971 0.995 1.014 1.030 1.043 1.052 1.058 1.062 1.063 1.063 1.062 1.059 1.055 1.049 1.040 1.028 1.014 0.996 0.973 0.945 0.914 0.881 0.842 0.791 0.738 0.805 0.805 0.000 
0.000 0.312 0.312 0.191 0.295 0.336 0.351 0.358 0.361 0.362 0.363 0.364 0.364 0.363 0.363 0.362 0.362 0.361 0.362 0.362 0.363 0.364 0.366 0.368 0.370 0.373 0.376 0.380 0.385 0.390 0.397 0.405 0.414 0.425 0.438 0.454 0.472 0.493 0.518 0.546 0.579 0.616 0.658 0.706 0.758 0.816 0.876 0.932 0.982 1.027 1.066 1.101 1.131 1.157 1.179 1.198 1.213 1.226 1.236 1.244 1.250 1.255 1.259 1.262 1.265 1.266 1.268 1.269 1.270 1.271 1.272 1.273 1.273 1.274 1.276 1.277 1.279 1.281 1.283 1.287 1.290 1.294 1.296 1.298 1.299 1.299 1.299 1.299 1.299 1.298 1.297 1.294 1.290 1.284 1.276 1.266 1.252 1.236 1.215 1.190 1.160 1.125 1.085 1.037 0.983 0.922 0.852 0.778 0.710 0.651 0.599 0.554 0.517 0.485 0.460 0.441 0.427 0.417 0.410 0.407 0.405 0.405 0.405 0.407 0.410 0.416 0.425 0.438 0.455 0.477 0.504 0.536 0.574 0.617 0.666 0.718 0.769 0.816 0.858 0.894 0.926 0.953 0.977 0.996 1.012 1.025 1.034 1.041 1.045 1.046 1.046 1.044 1.042 1.037 1.031 1.022 1.010 0.994 0.974 0.948 0.916 0.877 0.825 0.737 0.554 0.275 0.275 0.000 
0.000 0.692 0.692 0.493 0.442 0.431 0.422 0.412 0.402 0.393 0.386 0.380 0.375 0.371 0.368 0.365 0.363 0.361 0.361 0.361 0.361 0.362 0.363 0.364 0.366 0.368 0.371 0.375 0.379 0.384 0.390 0.398 0.406 0.417 0.430 0.444 0.462 0.482 0.506 0.534 0.566 0.602 0.642 0.688 0.739 0.795 0.855 0.912 0.963 1.008 1.049 1.085 1.116 1.142 1.165 1.184 1.200 1.213 1.224 1.233 1.240 1.245 1.249 1.253 1.255 1.257 1.259 1.261 1.262 1.263 1.264 1.265 1.267 1.268 1.269 1.271 1.273 1.275 1.278 1.282 1.286 1.289 1.292 1.294 1.295 1.296 1.296 1.296 1.296 1.295 1.294 1.291 1.287 1.282 1.274 1.264 1.251 1.235 1.215 1.190 1.161 1.127 1.087 1.041 0.988 0.929 0.861 0.787 0.717 0.655 0.601 0.554 0.515 0.482 0.455 0.434 0.418 0.406 0.398 0.394 0.391 0.390 0.391 0.391 0.394 0.398 0.405 0.416 0.430 0.449 0.473 0.502 0.535 0.574 0.618 0.666 0.717 0.765 0.809 0.848 0.883 0.913 0.940 0.963 0.982 0.998 1.011 1.020 1.027 1.031 1.032 1.032 1.031 1.028 1.024 1.017 1.008 0.994 0.976 0.952 0.920 0.880 0.825 0.739 0.564 0.253 0.253 0.000 
0.000 0.746 0.746 0.683 0.581 0.522 0.485 0.457 0.436 0.419 0.405 0.394 0.385 0.378 0.372 0.367 0.363 0.361 0.359 0.358 0.358 0.358 0.359 0.359 0.361 0.363 0.365 0.368 0.372 0.377 0.382 0.389 0.398 0.408 0.420 0.434 0.451 0.470 0.493 0.520 0.551 0.586 0.626 0.670 0.720 0.775 0.834 0.891 0.943 0.990 1.031 1.068 1.100 1.127 1.151 1.171 1.187 1.201 1.213 1.222 1.229 1.235 1.240 1.243 1.246 1.249 1.251 1.252 1.254 1.255 1.257 1.258 1.260 1.261 1.263 1.265 1.267 1.270 1.273 1.277 1.281 1.285 1.288 1.290 1.291 1.292 1.292 1.292 1.292 1.292 1.290 1.288 1.284 1.279 1.272 1.262 1.250 1.234 1.214 1.190 1.162 1.128 1.089 1.044 0.993 0.934 0.869 0.796 0.724 0.660 0.604 0.555 0.514 0.479 0.450 0.427 0.409 0.396 0.387 0.382 0.379 0.377 0.377 0.377 0.379 0.382 0.388 0.396 0.409 0.425 0.446 0.471 0.501 0.536 0.576 0.620 0.669 0.718 0.763 0.805 0.842 0.875 0.905 0.931 0.953 0.972 0.987 1.000 1.010 1.016 1.021 1.022 1.023 1.022 1.019 1.015 1.007 0.996 0.979 0.957 0.927 0.889 0.845 0.796 0.753 0.778 0.778 0.000 
0.000 0.737 0.737 0.721 0.645 0.577 0.528 0.491 0.463 0.440 0.421 0.406 0.394 0.383 0.375 0.368 0.363 0.359 0.357 0.355 0.354 0.354 0.353 0.354 0.354 0.356 0.358 0.360 0.363 0.368 0.373 0.379 0.387 0.397 0.408 0.422 0.438 0.457 0.479 0.505 0.535 0.569 0.608 0.651 0.700 0.754 0.813 0.871 0.924 0.971 1.014 1.051 1.084 1.112 1.137 1.157 1.175 1.189 1.201 1.211 1.218 1.225 1.230 1.234 1.237 1.240 1.242 1.244 1.246 1.248 1.249 1.251 1.253 1.255 1.257 1.259 1.261 1.264 1.268 1.272 1.277 1.281 1.284 1.286 1.287 1.288 1.289 1.289 1.289 1.288 1.287 1.285 1.281 1.276 1.269 1.260 1.248 1.233 1.213 1.190 1.162 1.129 1.090 1.046 0.996 0.939 0.875 0.803 0.731 0.665 0.607 0.556 0.513 0.476 0.446 0.421 0.402 0.388 0.378 0.371 0.367 0.365 0.364 0.364 0.365 0.368 0.372 0.379 0.389 0.403 0.421 0.444 0.471 0.503 0.539 0.580 0.625 0.673 0.721 0.764 0.804 0.839 0.871 0.899 0.924 0.946 0.964 0.979 0.992 1.002 1.009 1.014 1.016 1.017 1.016 1.014 1.008 0.999 0.985 0.965 0.938 0.912 0.895 0.895 0.932 1.037 1.037 0.000 
0.000 0.714 0.714 0.714 0.667 0.606 0.556 0.516 0.483 0.457 0.434 0.416 0.401 0.388 0.377 0.369 0.362 0.357 0.353 0.351 0.349 0.348 0.347 0.347 0.347 0.348 0.349 0.351 0.354 0.357 0.362 0.368 0.375 0.384 0.395 0.408 0.424 0.443 0.464 0.490 0.519 0.552 0.590 0.632 0.680 0.733 0.791 0.850 0.904 0.953 0.996 1.035 1.068 1.097 1.122 1.144 1.162 1.177 1.189 1.199 1.207 1.214 1.219 1.224 1.227 1.230 1.233 1.235 1.238 1.240 1.242 1.244 1.246 1.248 1.250 1.252 1.255 1.258 1.262 1.267 1.271 1.276 1.279 1.282 1.283 1.284 1.284 1.285 1.284 1.284 1.283 1.281 1.278 1.273 1.266 1.257 1.246 1.231 1.212 1.189 1.161 1.129 1.091 1.047 0.998 0.942 0.879 0.809 0.736 0.669 0.610 0.557 0.512 0.474 0.442 0.416 0.396 0.380 0.369 0.361 0.356 0.353 0.353 0.352 0.353 0.354 0.358 0.363 0.372 0.384 0.400 0.420 0.444 0.473 0.507 0.545 0.587 0.633 0.680 0.725 0.767 0.804 0.838 0.868 0.895 0.919 0.941 0.959 0.975 0.988 0.998 1.006 1.012 1.015 1.015 1.014 1.011 1.004 0.993 0.976 0.958 0.949 0.949 0.958 0.992 1.035 1.035 0.000 
0.000 0.688 0.688 0.695 0.668 0.620 0.573 0.533 0.499 0.471 0.446 0.425 0.407 0.392 0.379 0.368 0.360 0.354 0.349 0.345 0.342 0.340 0.339 0.338 0.338 0.338 0.339 0.340 0.343 0.346 0.350 0.355 0.362 0.371 0.381 0.394 0.409 0.427 0.448 0.473 0.501 0.534 0.571 0.613 0.660 0.712 0.770 0.829 0.885 0.934 0.978 1.018 1.052 1.082 1.108 1.130 1.148 1.164 1.177 1.187 1.196 1.203 1.209 1.214 1.218 1.221 1.224 1.227 1.229 1.231 1.234 1.236 1.238 1.241 1.243 1.246 1.249 1.252 1.256 1.261 1.266 1.270 1.274 1.277 1.278 1.279 1.280 1.280 1.280 1.279 1.278 1.277 1.274 1.269 1.263 1.254 1.243 1.228 1.210 1.187 1.160 1.128 1.091 1.048 0.999 0.944 0.882 0.814 0.741 0.673 0.612 0.558 0.512 0.472 0.439 0.412 0.390 0.373 0.360 0.352 0.346 0.343 0.341 0.341 0.341 0.342 0.345 0.349 0.356 0.367 0.381 0.398 0.420 0.447 0.478 0.513 0.552 0.596 0.642 0.689 0.731 0.770 0.806 0.838 0.867 0.894 0.917 0.938 0.957 0.973 0.987 0.998 1.007 1.013 1.016 1.017 1.016 1.012 1.004 0.994 0.987 0.986 0.989 0.998 1.018 1.035 1.035 0.000 
0.000 0.662 0.662 0.672 0.656 0.623 0.582 0.545 0.512 0.483 0.456 0.433 0.412 0.395 0.380 0.367 0.357 0.349 0.343 0.338 0.334 0.331 0.329 0.328 0.328 0.328 0.328 0.329 0.330 0.333 0.336 0.341 0.348 0.356 0.366 0.378 0.392 0.410 0.431 0.455 0.483 0.515 0.552 0.593 0.640 0.691 0.748 0.809 0.865 0.915 0.960 1.000 1.036 1.066 1.093 1.115 1.134 1.151 1.164 1.175 1.184 1.192 1.198 1.203 1.207 1.211 1.214 1.217 1.220 1.223 1.225 1.228 1.230 1.233 1.236 1.238 1.242 1.245 1.250 1.255 1.260 1.264 1.268 1.271 1.273 1.274 1.274 1.274 1.274 1.274 1.273 1.271 1.269 1.264 1.258 1.250 1.239 1.224 1.207 1.185 1.158 1.127 1.090 1.048 0.999 0.945 0.884 0.817 0.744 0.676 0.614 0.559 0.511 0.470 0.436 0.407 0.384 0.366 0.353 0.343 0.336 0.333 0.331 0.330 0.330 0.331 0.332 0.336 0.342 0.351 0.363 0.379 0.399 0.423 0.451 0.484 0.521 0.562 0.607 0.653 0.697 0.738 0.775 0.808 0.839 0.868 0.894 0.917 0.939 0.958 0.975 0.990 1.003 1.012 1.019 1.023 1.025 1.024 1.022 1.018 1.018 1.020 1.024 1.031 1.038 1.038 1.038 0.000 
0.000 0.636 0.636 0.647 0.637 0.616 0.585 0.553 0.523 0.494 0.467 0.441 0.417 0.397 0.380 0.365 0.353 0.344 0.336 0.329 0.325 0.321 0.319 0.317 0.316 0.316 0.316 0.316 0.317 0.319 0.322 0.326 0.332 0.339 0.349 0.361 0.375 0.392 0.413 0.437 0.464 0.496 0.532 0.573 0.619 0.671 0.727 0.788 0.845 0.896 0.942 0.983 1.019 1.050 1.077 1.100 1.120 1.137 1.151 1.162 1.172 1.180 1.186 1.192 1.197 1.200 1.204 1.207 1.210 1.213 1.216 1.219 1.221 1.224 1.227 1.230 1.234 1.238 1.242 1.247 1.253 1.258 1.261 1.264 1.266 1.267 1.268 1.268 1.268 1.268 1.267 1.265 1.262 1.258 1.252 1.244 1.233 1.220 1.202 1.181 1.155 1.125 1.089 1.047 0.999 0.945 0.885 0.819 0.747 0.677 0.615 0.559 0.510 0.468 0.433 0.403 0.379 0.360 0.345 0.335 0.327 0.323 0.320 0.319 0.319 0.319 0.321 0.324 0.329 0.336 0.347 0.361 0.379 0.401 0.428 0.458 0.493 0.531 0.574 0.619 0.664 0.706 0.744 0.779 0.812 0.842 0.870 0.896 0.920 0.942 0.962 0.981 0.997 1.012 1.024 1.033 1.039 1.042 1.045 1.047 1.051 1.054 1.058 1.061 1.061 1.059 1.059 0.000 
0.000 0.611 0.611 0.622 0.614 0.600 0.581 0.557 0.532 0.505 0.477 0.448 0.422 0.398 0.379 0.362 0.348 0.337 0.327 0.320 0.314 0.310 0.306 0.304 0.303 0.303 0.302 0.303 0.303 0.304 0.307 0.310 0.315 0.322 0.331 0.343 0.357 0.374 0.394 0.417 0.445 0.477 0.512 0.553 0.599 0.650 0.706 0.767 0.824 0.876 0.923 0.964 1.001 1.033 1.061 1.084 1.105 1.122 1.136 1.149 1.159 1.167 1.174 1.180 1.185 1.189 1.193 1.196 1.199 1.203 1.206 1.209 1.212 1.215 1.218 1.221 1.225 1.229 1.234 1.239 1.245 1.249 1.253 1.256 1.258 1.259 1.260 1.260 1.260 1.260 1.259 1.257 1.255 1.251 1.245 1.237 1.227 1.213 1.197 1.176 1.151 1.121 1.086 1.045 0.998 0.945 0.886 0.820 0.749 0.678 0.615 0.559 0.509 0.466 0.429 0.399 0.373 0.353 0.338 0.326 0.318 0.313 0.310 0.309 0.308 0.309 0.309 0.312 0.316 0.323 0.332 0.345 0.361 0.381 0.406 0.434 0.467 0.503 0.543 0.587 0.632 0.674 0.714 0.750 0.784 0.816 0.846 0.874 0.901 0.925 0.948 0.970 0.991 1.010 1.029 1.045 1.058 1.066 1.073 1.079 1.084 1.088 1.090 1.091 1.093 1.097 1.097 0.000 
0.000 0.585 0.585 0.596 0.591 0.583 0.573 0.559 0.539 0.514 0.486 0.455 0.425 0.399 0.377 0.358 0.342 0.329 0.318 0.309 0.302 0.297 0.293 0.291 0.289 0.288 0.288 0.288 0.288 0.289 0.291 0.294 0.298 0.305 0.313 0.324 0.338 0.355 0.374 0.398 0.425 0.457 0.492 0.533 0.578 0.628 0.684 0.745 0.803 0.856 0.903 0.945 0.982 1.015 1.043 1.067 1.088 1.106 1.121 1.134 1.144 1.153 1.160 1.166 1.172 1.176 1.180 1.184 1.187 1.191 1.194 1.197 1.201 1.204 1.207 1.211 1.215 1.219 1.224 1.229 1.235 1.240 1.244 1.246 1.248 1.250 1.250 1.250 1.250 1.250 1.249 1.248 1.245 1.242 1.236 1.229 1.218 1.206 1.189 1.169 1.145 1.116 1.082 1.042 0.996 0.944 0.886 0.821 0.749 0.679 0.615 0.558 0.508 0.464 0.426 0.394 0.368 0.347 0.331 0.318 0.310 0.304 0.300 0.298 0.298 0.298 0.298 0.300 0.304 0.309 0.318 0.329 0.344 0.363 0.385 0.412 0.442 0.477 0.515 0.556 0.600 0.643 0.684 0.721 0.757 0.790 0.822 0.852 0.881 0.908 0.934 0.959 0.983 1.006 1.030 1.053 1.076 1.093 1.105 1.113 1.118 1.122 1.124 1.125 1.126 1.129 1.129 0.000 
0.000 0.559 0.559 0.572 0.574 0.573 0.570 0.560 0.544 0.522 0.494 0.460 0.427 0.398 0.374 0.353 0.335 0.320 0.307 0.297 0.290 0.283 0.279 0.276 0.274 0.273 0.273 0.272 0.273 0.273 0.274 0.277 0.281 0.287 0.295 0.306 0.319 0.335 0.355 0.378 0.405 0.436 0.472 0.512 0.557 0.607 0.662 0.723 0.781 0.834 0.882 0.925 0.962 0.995 1.024 1.049 1.071 1.089 1.104 1.117 1.128 1.137 1.145 1.151 1.157 1.162 1.166 1.170 1.174 1.177 1.181 1.184 1.188 1.191 1.195 1.199 1.203 1.207 1.212 1.218 1.223 1.228 1.232 1.235 1.237 1.238 1.239 1.239 1.239 1.238 1.238 1.236 1.234 1.230 1.225 1.218 1.208 1.196 1.180 1.160 1.137 1.109 1.076 1.037 0.993 0.942 0.884 0.820 0.750 0.679 0.615 0.557 0.506 0.461 0.422 0.390 0.363 0.341 0.323 0.310 0.301 0.294 0.290 0.288 0.287 0.287 0.288 0.289 0.292 0.297 0.304 0.314 0.328 0.345 0.366 0.391 0.419 0.452 0.488 0.528 0.570 0.613 0.654 0.692 0.729 0.764 0.797 0.829 0.860 0.889 0.918 0.946 0.973 1.001 1.028 1.056 1.086 1.113 1.134 1.146 1.153 1.157 1.159 1.159 1.159 1.157 1.157 0.000 
0.000 0.533 0.533 0.551 0.567 0.571 0.570 0.563 0.550 0.528 0.499 0.463 0.427 0.396 0.369 0.346 0.326 0.310 0.296 0.285 0.276 0.269 0.264 0.261 0.258 0.257 0.256 0.256 0.256 0.257 0.258 0.260 0.264 0.270 0.277 0.287 0.300 0.316 0.335 0.358 0.385 0.415 0.451 0.490 0.535 0.585 0.640 0.700 0.759 0.812 0.860 0.903 0.941 0.975 1.004 1.029 1.051 1.070 1.085 1.099 1.110 1.120 1.128 1.134 1.140 1.145 1.150 1.154 1.158 1.162 1.166 1.169 1.173 1.177 1.181 1.184 1.189 1.193 1.198 1.204 1.209 1.214 1.218 1.220 1.222 1.224 1.224 1.224 1.224 1.224 1.224 1.222 1.220 1.216 1.211 1.204 1.195 1.183 1.168 1.149 1.126 1.099 1.067 1.030 0.987 0.937 0.881 0.819 0.750 0.679 0.614 0.556 0.504 0.458 0.419 0.385 0.357 0.334 0.316 0.302 0.292 0.285 0.280 0.278 0.277 0.277 0.277 0.278 0.280 0.284 0.291 0.300 0.312 0.328 0.347 0.370 0.397 0.428 0.462 0.500 0.540 0.582 0.624 0.663 0.701 0.737 0.772 0.806 0.838 0.870 0.901 0.932 0.963 0.993 1.024 1.055 1.089 1.124 1.156 1.177 1.189 1.194 1.196 1.196 1.193 1.187 1.187 0.000 
0.000 0.550 0.550 0.548 0.567 0.573 0.573 0.568 0.555 0.533 0.503 0.464 0.426 0.393 0.364 0.339 0.317 0.299 0.284 0.272 0.262 0.255 0.249 0.245 0.242 0.241 0.240 0.240 0.240 0.240 0.241 0.244 0.247 0.252 0.260 0.270 0.282 0.297 0.316 0.338 0.364 0.394 0.429 0.468 0.513 0.562 0.616 0.676 0.735 0.788 0.836 0.880 0.918 0.952 0.981 1.007 1.029 1.048 1.065 1.078 1.090 1.100 1.108 1.115 1.121 1.127 1.131 1.136 1.140 1.144 1.148 1.152 1.155 1.159 1.163 1.167 1.172 1.176 1.181 1.187 1.192 1.197 1.200 1.203 1.205 1.206 1.207 1.207 1.207 1.207 1.206 1.205 1.203 1.199 1.194 1.188 1.179 1.167 1.153 1.135 1.113 1.087 1.056 1.020 0.978 0.930 0.876 0.816 0.749 0.678 0.613 0.554 0.501 0.455 0.414 0.380 0.351 0.328 0.309 0.294 0.283 0.276 0.271 0.268 0.266 0.266 0.266 0.267 0.268 0.272 0.278 0.286 0.297 0.311 0.329 0.351 0.376 0.405 0.437 0.473 0.511 0.552 0.594 0.634 0.673 0.710 0.746 0.781 0.815 0.849 0.883 0.916 0.950 0.984 1.018 1.053 1.088 1.127 1.168 1.203 1.224 1.234 1.237 1.237 1.233 1.219 1.219 0.000 
0.000 0.570 0.570 0.565 0.580 0.585 0.584 0.577 0.562 0.538 0.504 0.463 0.423 0.388 0.357 0.330 0.307 0.288 0.272 0.258 0.248 0.240 0.234 0.229 0.227 0.225 0.224 0.224 0.224 0.224 0.225 0.227 0.230 0.235 0.242 0.252 0.264 0.278 0.296 0.318 0.344 0.373 0.407 0.446 0.489 0.538 0.592 0.650 0.709 0.762 0.811 0.854 0.893 0.927 0.957 0.983 1.005 1.024 1.041 1.055 1.067 1.077 1.085 1.093 1.099 1.105 1.110 1.114 1.119 1.123 1.127 1.131 1.135 1.139 1.143 1.147 1.151 1.156 1.161 1.167 1.172 1.176 1.180 1.182 1.184 1.185 1.186 1.186 1.186 1.186 1.185 1.184 1.182 1.179 1.174 1.167 1.159 1.148 1.134 1.117 1.096 1.071 1.041 1.006 0.966 0.921 0.869 0.810 0.745 0.676 0.610 0.550 0.497 0.450 0.410 0.375 0.345 0.321 0.301 0.286 0.275 0.266 0.261 0.257 0.256 0.255 0.255 0.255 0.257 0.260 0.265 0.272 0.282 0.295 0.311 0.331 0.355 0.382 0.413 0.446 0.483 0.523 0.564 0.604 0.644 0.682 0.719 0.756 0.792 0.828 0.864 0.899 0.935 0.972 1.009 1.047 1.085 1.126 1.171 1.218 1.255 1.277 1.286 1.288 1.284 1.278 1.278 0.000 
0.000 0.664 0.664 0.611 0.616 0.614 0.607 0.593 0.571 0.541 0.503 0.459 0.418 0.381 0.348 0.320 0.296 0.276 0.259 0.245 0.234 0.225 0.219 0.214 0.211 0.209 0.208 0.208 0.208 0.208 0.209 0.211 0.214 0.219 0.225 0.234 0.245 0.260 0.277 0.298 0.323 0.352 0.385 0.423 0.465 0.513 0.566 0.623 0.681 0.735 0.783 0.826 0.865 0.899 0.929 0.955 0.978 0.997 1.014 1.028 1.040 1.051 1.059 1.067 1.074 1.079 1.085 1.089 1.094 1.098 1.102 1.106 1.110 1.114 1.118 1.123 1.127 1.132 1.137 1.142 1.147 1.151 1.154 1.157 1.159 1.160 1.160 1.160 1.160 1.160 1.160 1.159 1.157 1.153 1.149 1.143 1.135 1.124 1.111 1.094 1.074 1.050 1.022 0.989 0.951 0.907 0.858 0.802 0.739 0.671 0.605 0.546 0.492 0.445 0.404 0.369 0.339 0.314 0.294 0.278 0.266 0.257 0.251 0.247 0.245 0.244 0.244 0.244 0.245 0.247 0.252 0.258 0.267 0.279 0.294 0.312 0.334 0.359 0.388 0.420 0.455 0.493 0.533 0.574 0.614 0.653 0.691 0.729 0.767 0.805 0.842 0.880 0.918 0.957 0.997 1.037 1.079 1.123 1.170 1.222 1.275 1.318 1.344 1.354 1.356 1.353 1.353 0.000 
0.000 0.760 0.760 0.703 0.684 0.666 0.645 0.617 0.582 0.542 0.498 0.453 0.410 0.372 0.339 0.310 0.285 0.263 0.246 0.231 0.219 0.210 0.204 0.199 0.195 0.193 0.192 0.192 0.192 0.192 0.193 0.194 0.197 0.202 0.208 0.216 0.227 0.241 0.257 0.278 0.302 0.330 0.362 0.399 0.440 0.486 0.538 0.594 0.652 0.704 0.752 0.795 0.834 0.868 0.897 0.924 0.946 0.966 0.983 0.997 1.010 1.020 1.029 1.037 1.044 1.050 1.055 1.060 1.064 1.069 1.073 1.077 1.081 1.085 1.089 1.094 1.098 1.103 1.108 1.113 1.118 1.121 1.124 1.127 1.128 1.129 1.130 1.130 1.130 1.130 1.129 1.128 1.126 1.123 1.119 1.113 1.105 1.095 1.083 1.067 1.048 1.026 0.999 0.968 0.931 0.890 0.842 0.789 0.730 0.665 0.599 0.539 0.486 0.439 0.397 0.361 0.331 0.306 0.285 0.269 0.256 0.247 0.240 0.236 0.234 0.233 0.233 0.233 0.233 0.235 0.239 0.244 0.252 0.262 0.276 0.293 0.313 0.337 0.364 0.394 0.427 0.463 0.502 0.542 0.583 0.623 0.662 0.701 0.740 0.780 0.819 0.858 0.898 0.939 0.981 1.024 1.068 1.115 1.166 1.220 1.282 1.346 1.400 1.435 1.451 1.452 1.452 0.000 
0.000 0.878 0.878 0.810 0.781 0.740 0.694 0.643 0.591 0.541 0.491 0.444 0.401 0.362 0.328 0.298 0.272 0.250 0.232 0.217 0.205 0.196 0.189 0.183 0.180 0.178 0.176 0.176 0.176 0.176 0.177 0.178 0.181 0.185 0.190 0.198 0.209 0.222 0.238 0.257 0.280 0.307 0.338 0.373 0.414 0.458 0.508 0.563 0.619 0.671 0.718 0.761 0.799 0.832 0.862 0.888 0.911 0.930 0.947 0.962 0.974 0.985 0.994 1.002 1.009 1.015 1.020 1.025 1.030 1.034 1.038 1.043 1.047 1.051 1.055 1.059 1.064 1.068 1.073 1.078 1.082 1.086 1.088 1.091 1.092 1.093 1.093 1.093 1.093 1.093 1.093 1.092 1.090 1.087 1.083 1.077 1.070 1.061 1.049 1.034 1.016 0.995 0.970 0.941 0.906 0.867 0.823 0.772 0.716 0.654 0.590 0.531 0.477 0.430 0.389 0.353 0.322 0.297 0.276 0.259 0.246 0.237 0.230 0.225 0.223 0.221 0.221 0.221 0.221 0.223 0.225 0.230 0.237 0.246 0.258 0.274 0.292 0.314 0.339 0.368 0.399 0.434 0.471 0.510 0.550 0.591 0.631 0.671 0.712 0.752 0.792 0.833 0.874 0.917 0.960 1.005 1.052 1.103 1.156 1.215 1.281 1.357 1.439 1.504 1.545 1.566 1.566 0.000 
0.000 0.993 0.993 0.927 0.871 0.807 0.733 0.660 0.595 0.537 0.483 0.434 0.390 0.351 0.316 0.285 0.259 0.237 0.218 0.203 0.191 0.181 0.173 0.168 0.164 0.162 0.160 0.160 0.160 0.160 0.160 0.161 0.164 0.167 0.173 0.180 0.190 0.202 0.217 0.236 0.258 0.283 0.313 0.347 0.385 0.428 0.476 0.529 0.583 0.634 0.680 0.722 0.759 0.793 0.822 0.848 0.870 0.890 0.906 0.921 0.933 0.944 0.953 0.961 0.968 0.974 0.980 0.985 0.989 0.994 0.998 1.002 1.006 1.010 1.014 1.019 1.023 1.027 1.032 1.036 1.040 1.043 1.046 1.048 1.049 1.050 1.050 1.050 1.050 1.050 1.050 1.048 1.047 1.044 1.040 1.035 1.028 1.019 1.008 0.995 0.978 0.958 0.935 0.907 0.876 0.839 0.797 0.750 0.698 0.639 0.577 0.519 0.466 0.420 0.379 0.343 0.313 0.287 0.266 0.249 0.236 0.226 0.219 0.214 0.211 0.209 0.209 0.208 0.209 0.210 0.212 0.216 0.221 0.230 0.240 0.254 0.271 0.291 0.315 0.342 0.371 0.404 0.439 0.477 0.516 0.557 0.598 0.639 0.680 0.721 0.762 0.804 0.846 0.890 0.934 0.981 1.031 1.084 1.141 1.205 1.276 1.359 1.457 1.548 1.611 1.636 1.636 0.000 
0.000 1.031 1.031 0.996 0.934 0.852 0.757 0.670 0.596 0.531 0.474 0.423 0.378 0.338 0.302 0.272 0.245 0.223 0.204 0.189 0.176 0.166 0.158 0.153 0.148 0.146 0.144 0.143 0.143 0.143 0.144 0.145 0.147 0.150 0.155 0.162 0.171 0.182 0.197 0.214 0.235 0.259 0.287 0.319 0.356 0.396 0.442 0.491 0.544 0.593 0.638 0.679 0.715 0.748 0.776 0.802 0.824 0.843 0.860 0.874 0.886 0.897 0.906 0.914 0.921 0.927 0.932 0.937 0.942 0.946 0.950 0.954 0.958 0.963 0.967 0.971 0.975 0.979 0.983 0.987 0.991 0.993 0.996 0.997 0.998 0.999 0.999 0.999 0.999 0.999 0.999 0.998 0.996 0.993 0.990 0.985 0.979 0.971 0.960 0.948 0.933 0.914 0.893 0.867 0.838 0.804 0.766 0.722 0.674 0.619 0.560 0.503 0.452 0.406 0.366 0.331 0.301 0.275 0.254 0.237 0.224 0.214 0.206 0.201 0.198 0.196 0.196 0.195 0.195 0.196 0.198 0.201 0.206 0.213 0.222 0.235 0.250 0.269 0.290 0.315 0.343 0.374 0.407 0.443 0.481 0.521 0.562 0.603 0.644 0.686 0.728 0.770 0.813 0.857 0.903 0.951 1.002 1.057 1.118 1.187 1.264 1.354 1.461 1.567 1.645 1.685 1.685 0.000 
0.000 1.067 1.067 1.036 0.971 0.878 0.768 0.673 0.592 0.523 0.463 0.410 0.363 0.323 0.287 0.257 0.230 0.208 0.189 0.174 0.161 0.151 0.143 0.137 0.132 0.130 0.128 0.127 0.126 0.126 0.127 0.127 0.129 0.132 0.136 0.143 0.151 0.162 0.175 0.191 0.210 0.233 0.259 0.289 0.323 0.362 0.404 0.451 0.501 0.548 0.591 0.630 0.665 0.697 0.724 0.749 0.770 0.789 0.806 0.820 0.832 0.842 0.851 0.859 0.866 0.872 0.877 0.882 0.887 0.891 0.895 0.899 0.903 0.907 0.910 0.914 0.918 0.922 0.926 0.930 0.933 0.935 0.937 0.938 0.939 0.940 0.940 0.940 0.940 0.940 0.939 0.938 0.937 0.934 0.931 0.926 0.921 0.913 0.904 0.893 0.879 0.862 0.843 0.820 0.793 0.762 0.727 0.687 0.643 0.593 0.538 0.483 0.434 0.389 0.350 0.316 0.287 0.262 0.241 0.225 0.211 0.201 0.193 0.188 0.185 0.183 0.182 0.181 0.181 0.182 0.183 0.185 0.190 0.196 0.204 0.215 0.228 0.245 0.265 0.288 0.313 0.342 0.374 0.408 0.444 0.483 0.523 0.563 0.605 0.646 0.688 0.730 0.773 0.817 0.864 0.912 0.965 1.022 1.086 1.158 1.242 1.339 1.455 1.571 1.656 1.700 1.700 0.000 
0.000 1.070 1.070 1.052 0.988 0.889 0.771 0.670 0.585 0.512 0.449 0.394 0.347 0.306 0.271 0.241 0.214 0.192 0.174 0.158 0.145 0.135 0.127 0.121 0.116 0.113 0.111 0.110 0.109 0.109 0.109 0.110 0.111 0.114 0.118 0.123 0.130 0.140 0.152 0.167 0.185 0.206 0.230 0.257 0.289 0.324 0.363 0.406 0.453 0.497 0.539 0.576 0.609 0.639 0.666 0.689 0.710 0.728 0.744 0.757 0.769 0.779 0.788 0.796 0.802 0.808 0.813 0.818 0.822 0.826 0.830 0.834 0.838 0.842 0.845 0.849 0.853 0.856 0.859 0.862 0.865 0.867 0.868 0.869 0.870 0.870 0.871 0.871 0.871 0.870 0.870 0.869 0.867 0.865 0.862 0.858 0.853 0.846 0.838 0.828 0.816 0.801 0.783 0.763 0.739 0.712 0.680 0.645 0.605 0.560 0.510 0.458 0.411 0.369 0.331 0.299 0.270 0.246 0.226 0.210 0.197 0.186 0.179 0.173 0.170 0.168 0.167 0.166 0.166 0.166 0.167 0.169 0.173 0.178 0.185 0.194 0.206 0.221 0.239 0.259 0.283 0.309 0.339 0.371 0.405 0.441 0.480 0.519 0.559 0.600 0.642 0.683 0.726 0.770 0.816 0.865 0.918 0.977 1.042 1.118 1.205 1.310 1.436 1.564 1.655 1.700 1.700 0.000 
0.000 1.072 1.072 1.055 0.992 0.891 0.768 0.661 0.572 0.496 0.431 0.376 0.328 0.287 0.253 0.223 0.197 0.175 0.157 0.142 0.129 0.119 0.110 0.104 0.099 0.096 0.094 0.093 0.092 0.092 0.092 0.093 0.094 0.096 0.099 0.104 0.110 0.118 0.129 0.142 0.158 0.176 0.198 0.223 0.251 0.283 0.318 0.357 0.399 0.441 0.480 0.514 0.546 0.574 0.599 0.621 0.641 0.658 0.673 0.686 0.697 0.707 0.715 0.723 0.729 0.735 0.740 0.744 0.748 0.752 0.756 0.759 0.763 0.766 0.770 0.773 0.776 0.779 0.782 0.784 0.786 0.788 0.789 0.790 0.790 0.790 0.790 0.790 0.790 0.790 0.790 0.789 0.787 0.785 0.783 0.779 0.774 0.769 0.762 0.753 0.742 0.729 0.714 0.696 0.676 0.652 0.625 0.593 0.558 0.519 0.475 0.427 0.383 0.344 0.308 0.277 0.251 0.228 0.209 0.193 0.180 0.170 0.163 0.157 0.154 0.151 0.150 0.150 0.149 0.150 0.150 0.152 0.154 0.158 0.164 0.172 0.183 0.196 0.211 0.230 0.251 0.275 0.302 0.331 0.363 0.396 0.432 0.470 0.508 0.548 0.588 0.629 0.670 0.713 0.759 0.807 0.860 0.918 0.985 1.061 1.151 1.260 1.392 1.539 1.647 1.700 1.700 0.000 
0.000 1.075 1.075 1.057 0.990 0.882 0.753 0.642 0.550 0.473 0.408 0.353 0.306 0.265 0.231 0.202 0.177 0.156 0.139 0.124 0.111 0.101 0.093 0.087 0.083 0.080 0.078 0.077 0.077 0.076 0.077 0.077 0.078 0.079 0.082 0.086 0.091 0.098 0.106 0.117 0.130 0.146 0.164 0.186 0.210 0.238 0.269 0.303 0.340 0.379 0.414 0.446 0.475 0.501 0.524 0.544 0.562 0.578 0.592 0.604 0.615 0.624 0.632 0.639 0.645 0.650 0.655 0.659 0.663 0.667 0.670 0.673 0.676 0.679 0.682 0.685 0.688 0.690 0.692 0.694 0.696 0.697 0.697 0.698 0.698 0.698 0.698 0.698 0.698 0.698 0.697 0.696 0.695 0.693 0.691 0.688 0.684 0.679 0.673 0.666 0.657 0.647 0.634 0.619 0.602 0.582 0.559 0.532 0.503 0.469 0.431 0.390 0.349 0.313 0.281 0.252 0.227 0.206 0.188 0.173 0.161 0.152 0.145 0.139 0.136 0.133 0.132 0.131 0.131 0.131 0.132 0.133 0.135 0.138 0.143 0.149 0.158 0.169 0.182 0.198 0.217 0.238 0.262 0.288 0.317 0.347 0.380 0.415 0.451 0.488 0.526 0.565 0.605 0.646 0.690 0.736 0.787 0.845 0.910 0.985 1.075 1.183 1.316 1.479 1.624 1.700 1.700 0.000 
0.000 1.078 1.078 1.057 0.978 0.854 0.721 0.609 0.518 0.441 0.377 0.323 0.278 0.239 0.207 0.179 0.155 0.135 0.119 0.104 0.093 0.083 0.076 0.071 0.067 0.065 0.063 0.062 0.062 0.062 0.062 0.062 0.063 0.064 0.066 0.069 0.073 0.079 0.086 0.094 0.105 0.118 0.132 0.150 0.169 0.192 0.217 0.245 0.276 0.310 0.341 0.369 0.395 0.418 0.439 0.457 0.474 0.488 0.501 0.512 0.521 0.530 0.537 0.543 0.549 0.554 0.558 0.562 0.565 0.569 0.572 0.575 0.577 0.580 0.582 0.585 0.587 0.588 0.590 0.591 0.592 0.593 0.593 0.593 0.593 0.593 0.593 0.593 0.593 0.593 0.592 0.591 0.590 0.589 0.587 0.584 0.581 0.577 0.572 0.567 0.560 0.551 0.542 0.530 0.516 0.500 0.482 0.461 0.437 0.410 0.379 0.344 0.309 0.276 0.247 0.222 0.200 0.180 0.164 0.151 0.140 0.131 0.124 0.119 0.116 0.113 0.112 0.111 0.111 0.111 0.111 0.112 0.113 0.115 0.119 0.124 0.131 0.140 0.151 0.164 0.179 0.197 0.218 0.241 0.266 0.293 0.322 0.353 0.386 0.419 0.454 0.490 0.528 0.566 0.607 0.651 0.700 0.754 0.815 0.886 0.970 1.071 1.197 1.362 1.563 1.700 1.700 0.000 
0.000 1.080 1.080 1.050 0.939 0.794 0.664 0.558 0.471 0.398 0.338 0.287 0.244 0.208 0.178 0.152 0.130 0.112 0.096 0.084 0.073 0.066 0.060 0.056 0.053 0.051 0.049 0.049 0.048 0.048 0.048 0.049 0.049 0.050 0.052 0.054 0.057 0.062 0.067 0.074 0.082 0.092 0.103 0.117 0.132 0.150 0.169 0.191 0.216 0.242 0.266 0.289 0.310 0.329 0.346 0.362 0.375 0.388 0.398 0.408 0.416 0.423 0.430 0.435 0.440 0.444 0.448 0.451 0.454 0.457 0.460 0.462 0.465 0.467 0.469 0.470 0.471 0.472 0.473 0.474 0.474 0.474 0.474 0.474 0.474 0.474 0.474 0.474 0.474 0.473 0.473 0.472 0.471 0.470 0.468 0.467 0.464 0.461 0.458 0.454 0.449 0.443 0.436 0.428 0.418 0.407 0.394 0.378 0.361 0.340 0.316 0.290 0.261 0.233 0.208 0.186 0.167 0.151 0.137 0.125 0.115 0.107 0.101 0.096 0.093 0.091 0.089 0.089 0.088 0.088 0.088 0.089 0.090 0.091 0.094 0.098 0.103 0.110 0.119 0.129 0.141 0.156 0.172 0.191 0.211 0.234 0.258 0.284 0.312 0.342 0.373 0.405 0.438 0.473 0.510 0.550 0.594 0.643 0.698 0.760 0.831 0.915 1.019 1.160 1.378 1.700 1.700 0.000 
0.000 1.024 1.024 1.008 0.842 0.692 0.577 0.484 0.407 0.342 0.287 0.242 0.203 0.171 0.144 0.121 0.102 0.086 0.073 0.063 0.056 0.050 0.045 0.042 0.040 0.038 0.037 0.037 0.036 0.036 0.036 0.036 0.037 0.038 0.039 0.041 0.043 0.046 0.050 0.055 0.062 0.069 0.078 0.088 0.099 0.112 0.127 0.144 0.162 0.181 0.200 0.217 0.233 0.247 0.260 0.272 0.282 0.291 0.300 0.307 0.313 0.318 0.323 0.327 0.331 0.334 0.337 0.340 0.342 0.344 0.346 0.348 0.350 0.352 0.353 0.354 0.355 0.355 0.356 0.356 0.356 0.357 0.357 0.357 0.357 0.357 0.357 0.356 0.356 0.356 0.355 0.355 0.354 0.353 0.352 0.351 0.349 0.347 0.344 0.341 0.338 0.333 0.328 0.323 0.316 0.307 0.298 0.287 0.275 0.261 0.244 0.226 0.205 0.183 0.163 0.145 0.130 0.116 0.105 0.096 0.088 0.081 0.077 0.073 0.070 0.069 0.067 0.067 0.067 0.067 0.067 0.067 0.068 0.069 0.071 0.074 0.078 0.083 0.090 0.097 0.107 0.118 0.130 0.144 0.159 0.176 0.195 0.215 0.236 0.259 0.283 0.309 0.337 0.366 0.398 0.432 0.469 0.510 0.556 0.605 0.655 0.707 0.763 0.828 0.924 1.059 1.059 0.000 
0.000 0.477 0.477 0.759 0.636 0.532 0.453 0.384 0.322 0.269 0.224 0.186 0.154 0.127 0.105 0.088 0.073 0.062 0.053 0.046 0.040 0.036 0.033 0.030 0.028 0.027 0.027 0.026 0.026 0.026 0.026 0.026 0.026 0.027 0.028 0.029 0.031 0.033 0.036 0.039 0.044 0.049 0.055 0.062 0.071 0.080 0.091 0.102 0.115 0.129 0.143 0.155 0.166 0.177 0.186 0.194 0.202 0.208 0.214 0.219 0.223 0.227 0.231 0.234 0.236 0.239 0.241 0.243 0.244 0.246 0.247 0.249 0.250 0.251 0.252 0.253 0.253 0.254 0.254 0.254 0.254 0.255 0.255 0.255 0.255 0.255 0.254 0.254 0.254 0.254 0.254 0.253 0.253 0.252 0.251 0.250 0.249 0.247 0.246 0.244 0.241 0.238 0.234 0.230 0.225 0.220 0.213 0.205 0.196 0.186 0.175 0.162 0.147 0.131 0.117 0.104 0.093 0.083 0.075 0.068 0.063 0.058 0.055 0.052 0.050 0.049 0.048 0.048 0.048 0.048 0.048 0.048 0.048 0.049 0.051 0.053 0.056 0.059 0.064 0.070 0.076 0.084 0.093 0.103 0.114 0.126 0.139 0.154 0.169 0.185 0.202 0.221 0.241 0.262 0.285 0.310 0.338 0.368 0.401 0.432 0.459 0.478 0.487 0.471 0.388 0.199 0.199 0.000 
0.000 0.000 0.000 0.245 0.329 0.319 0.295 0.261 0.222 0.184 0.152 0.125 0.103 0.085 0.070 0.058 0.049 0.041 0.035 0.030 0.027 0.024 0.022 0.020 0.019 0.018 0.018 0.017 0.017 0.017 0.017 0.017 0.017 0.018 0.018 0.019 0.020 0.022 0.024 0.026 0.029 0.033 0.037 0.041 0.047 0.053 0.060 0.068 0.076 0.086 0.095 0.103 0.110 0.117 0.123 0.129 0.134 0.138 0.142 0.145 0.148 0.151 0.153 0.155 0.157 0.158 0.160 0.161 0.162 0.163 0.164 0.165 0.166 0.167 0.167 0.168 0.168 0.168 0.169 0.169 0.169 0.169 0.169 0.169 0.169 0.169 0.169 0.169 0.169 0.169 0.168 0.168 0.168 0.167 0.167 0.166 0.165 0.164 0.163 0.162 0.160 0.158 0.156 0.153 0.150 0.146 0.141 0.136 0.130 0.124 0.116 0.107 0.098 0.087 0.078 0.069 0.062 0.055 0.050 0.045 0.042 0.039 0.036 0.035 0.033 0.033 0.032 0.032 0.032 0.032 0.032 0.032 0.032 0.033 0.034 0.035 0.037 0.040 0.043 0.046 0.051 0.056 0.062 0.068 0.076 0.084 0.093 0.102 0.112 0.123 0.135 0.147 0.160 0.174 0.189 0.206 0.225 0.247 0.268 0.285 0.295 0.298 0.290 0.254 0.145 0.000 0.000 0.000 
0.000 0.000 0.000 0.052 0.144 0.166 0.166 0.155 0.134 0.111 0.091 0.075 0.061 0.051 0.042 0.035 0.029 0.025 0.021 0.018 0.016 0.014 0.013 0.012 0.011 0.011 0.010 0.010 0.010 0.010 0.010 0.010 0.010 0.011 0.011 0.011 0.012 0.013 0.014 0.016 0.017 0.019 0.022 0.025 0.028 0.031 0.036 0.040 0.045 0.051 0.056 0.061 0.066 0.070 0.073 0.077 0.080 0.082 0.084 0.086 0.088 0.090 0.091 0.092 0.093 0.094 0.095 0.096 0.096 0.097 0.098 0.098 0.099 0.099 0.099 0.100 0.100 0.100 0.100 0.100 0.100 0.100 0.100 0.100 0.100 0.100 0.100 0.100 0.100 0.100 0.100 0.100 0.100 0.099 0.099 0.099 0.098 0.098 0.097 0.096 0.095 0.094 0.092 0.091 0.089 0.087 0.084 0.081 0.078 0.074 0.069 0.064 0.058 0.052 0.046 0.041 0.037 0.033 0.030 0.027 0.025 0.023 0.022 0.021 0.020 0.019 0.019 0.019 0.019 0.019 0.019 0.019 0.019 0.020 0.020 0.021 0.022 0.024 0.025 0.028 0.030 0.033 0.037 0.041 0.045 0.050 0.055 0.061 0.067 0.073 0.080 0.087 0.095 0.103 0.113 0.123 0.134 0.148 0.160 0.167 0.171 0.169 0.160 0.131 0.062 0.000 0.000 0.000 
0.000 0.000 0.000 0.016 0.058 0.075 0.077 0.075 0.067 0.055 0.045 0.037 0.030 0.025 0.021 0.017 0.014 0.012 0.010 0.009 0.008 0.007 0.006 0.006 0.006 0.005 0.005 0.005 0.005 0.005 0.005 0.005 0.005 0.005 0.005 0.006 0.006 0.006 0.007 0.008 0.008 0.009 0.011 0.012 0.014 0.015 0.017 0.020 0.022 0.025 0.028 0.030 0.032 0.034 0.036 0.038 0.039 0.040 0.041 0.042 0.043 0.044 0.045 0.045 0.046 0.046 0.047 0.047 0.047 0.048 0.048 0.048 0.048 0.049 0.049 0.049 0.049 0.049 0.049 0.049 0.049 0.049 0.049 0.049 0.049 0.049 0.049 0.049 0.049 0.049 0.049 0.049 0.049 0.049 0.049 0.048 0.048 0.048 0.048 0.047 0.047 0.046 0.045 0.045 0.044 0.043 0.041 0.040 0.038 0.036 0.034 0.031 0.029 0.025 0.023 0.020 0.018 0.016 0.015 0.013 0.012 0.011 0.011 0.010 0.010 0.010 0.009 0.009 0.009 0.009 0.009 0.009 0.009 0.010 0.010 0.010 0.011 0.012 0.012 0.014 0.015 0.016 0.018 0.020 0.022 0.024 0.027 0.030 0.033 0.036 0.039 0.043 0.047 0.051 0.055 0.060 0.066 0.073 0.079 0.082 0.082 0.081 0.075 0.059 0.025 0.000 0.000 0.000 
0.000 0.000 0.000 0.004 0.017 0.023 0.024 0.024 0.022 0.018 0.014 0.012 0.010 0.008 0.007 0.005 0.005 0.004 0.003 0.003 0.003 0.002 0.002 0.002 0.002 0.002 0.002 0.002 0.002 0.002 0.002 0.002 0.002 0.002 0.002 0.002 0.002 0.002 0.002 0.002 0.003 0.003 0.003 0.004 0.004 0.005 0.006 0.006 0.007 0.008 0.009 0.010 0.010 0.011 0.012 0.012 0.013 0.013 0.013 0.014 0.014 0.014 0.014 0.015 0.015 0.015 0.015 0.015 0.015 0.015 0.015 0.016 0.016 0.016 0.016 0.016 0.016 0.016 0.016 0.016 0.016 0.016 0.016 0.016 0.016 0.016 0.016 0.016 0.016 0.016 0.016 0.016 0.016 0.016 0.016 0.016 0.016 0.015 0.015 0.015 0.015 0.015 0.015 0.014 0.014 0.014 0.013 0.013 0.012 0.012 0.011 0.010 0.009 0.008 0.007 0.006 0.006 0.005 0.005 0.004 0.004 0.004 0.003 0.003 0.003 0.003 0.003 0.003 0.003 0.003 0.003 0.003 0.003 0.003 0.003 0.003 0.003 0.004 0.004 0.004 0.005 0.005 0.006 0.006 0.007 0.008 0.009 0.010 0.011 0.012 0.013 0.014 0.015 0.016 0.018 0.019 0.021 0.024 0.025 0.026 0.026 0.026 0.024 0.018 0.007 0.000 0.000 0.000 
0.000 0.000 0.000 0.000 0.000 0.000 0.000 0.000 0.000 0.000 0.000 0.000 0.000 0.000 0.000 0.000 0.000 0.000 0.000 0.000 0.000 0.000 0.000 0.000 0.000 0.000 0.000 0.000 0.000 0.000 0.000 0.000 0.000 0.000 0.000 0.000 0.000 0.000 0.000 0.000 0.000 0.000 0.000 0.000 0.000 0.000 0.000 0.000 0.000 0.000 0.000 0.000 0.000 0.000 0.000 0.000 0.000 0.000 0.000 0.000 0.000 0.000 0.000 0.000 0.000 0.000 0.000 0.000 0.000 0.000 0.000 0.000 0.000 0.000 0.000 0.000 0.000 0.000 0.000 0.000 0.000 0.000 0.000 0.000 0.000 0.000 0.000 0.000 0.000 0.000 0.000 0.000 0.000 0.000 0.000 0.000 0.000 0.000 0.000 0.000 0.000 0.000 0.000 0.000 0.000 0.000 0.000 0.000 0.000 0.000 0.000 0.000 0.000 0.000 0.000 0.000 0.000 0.000 0.000 0.000 0.000 0.000 0.000 0.000 0.000 0.000 0.000 0.000 0.000 0.000 0.000 0.000 0.000 0.000 0.000 0.000 0.000 0.000 0.000 0.000 0.000 0.000 0.000 0.000 0.000 0.000 0.000 0.000 0.000 0.000 0.000 0.000 0.000 0.000 0.000 0.000 0.000 0.000 0.000 0.000 0.000 0.000 0.000 0.000 0.000 0.000 0.000 0.000 
0.000 0.089 0.089 0.077 0.065 0.049 0.049 0.029 0.010 0.010 0.001 0.003 0.005 0.005 0.005 0.005 0.005 0.005 0.004 0.002 0.002 0.001 0.000 0.001 0.001 0.001 0.001 0.001 0.001 0.001 0.001 0.001 0.001 0.001 0.001 0.001 0.001 0.001 0.001 0.001 0.000 0.000 0.000 0.001 0.004 0.008 0.008 0.021 0.046 0.046 0.070 0.087 0.098 0.098 0.108 0.116 0.122 0.122 0.127 0.122 0.122 0.106 0.089 0.081 0.081 0.081 0.080 0.079 0.079 0.078 0.077 0.077 0.076 0.077 0.077 0.077 0.077 0.076 0.074 0.074 0.073 0.071 0.071 0.069 0.069 0.073 0.073 0.076 0.062 0.031 0.031 0.001 0.000 0.000 0.007 0.022 0.025 0.025 0.018 0.011 0.017 0.017 0.035 0.053 0.053 0.059 0.055 0.051 0.051 0.046 0.039 0.033 0.033 0.025 0.015 0.015 0.006 0.001 0.002 0.002 0.002 0.002 0.002 0.002 0.001 0.001 0.001 0.001 0.001 0.001 0.001 0.001 0.000 0.000 0.001 0.003 0.004 0.004 0.007 0.012 0.016 0.016 0.018 0.017 0.017 0.016 0.015 0.014 0.014 0.013 0.011 0.009 0.009 0.007 0.005 0.005 0.003 0.002 0.000 0.000 0.000 0.000 0.000 0.000 0.007 0.014 0.014 0.000 
0.000 0.000 0.000 0.000 0.000 0.000 0.000 0.000 0.000 0.000 0.000 0.000 0.000 0.000 0.000 0.000 0.000 0.000 0.000 0.000 0.000 0.000 0.000 0.000 0.000 0.000 0.000 0.000 0.000 0.000 0.000 0.000 0.000 0.000 0.000 0.000 0.000 0.000 0.000 0.000 0.000 0.000 0.000 0.000 0.000 0.000 0.000 0.000 0.000 0.000 0.000 0.000 0.000 0.000 0.000 0.000 0.000 0.000 0.000 0.000 0.000 0.000 0.000 0.000 0.000 0.000 0.000 0.000 0.000 0.000 0.000 0.000 0.000 0.000 0.000 0.000 0.000 0.000 0.000 0.000 0.000 0.000 0.000 0.000 0.000 0.000 0.000 0.000 0.000 0.000 0.000 0.000 0.000 0.000 0.000 0.000 0.000 0.000 0.000 0.000 0.000 0.000 0.000 0.000 0.000 0.000 0.000 0.000 0.000 0.000 0.000 0.000 0.000 0.000 0.000 0.000 0.000 0.000 0.000 0.000 0.000 0.000 0.000 0.000 0.000 0.000 0.000 0.000 0.000 0.000 0.000 0.000 0.000 0.000 0.000 0.000 0.000 0.000 0.000 0.000 0.000 0.000 0.000 0.000 0.000 0.000 0.000 0.000 0.000 0.000 0.000 0.000 0.000 0.000 0.000 0.000 0.000 0.000 0.000 0.000 0.000 0.000 0.000 0.000 0.000 0.000 0.000 0.000 
