ncols 168
nrows 121
xllcenter 640304.69
yllcenter 1081277.12
cellsize 46.59
NODATA_value -9999.000
0.000 0.000 0.000 0.000 0.000 0.000 0.000 0.000 0.000 0.000 0.000 0.000 0.000 0.000 0.000 0.000 0.000 0.000 0.000 0.000 0.000 0.000 0.000 0.000 0.000 0.000 0.000 0.000 0.000 0.000 0.000 0.000 0.000 0.000 0.000 0.000 0.000 0.000 0.000 0.000 0.000 0.000 0.000 0.000 0.000 0.000 0.000 0.000 0.000 0.000 0.000 0.000 0.000 0.000 0.000 0.000 0.000 0.000 0.000 0.000 0.000 0.000 0.000 0.000 0.000 0.000 0.000 0.000 0.000 0.000 0.000 0.000 0.000 0.000 0.000 0.000 0.000 0.000 0.000 0.000 0.000 0.000 0.000 0.000 0.000 0.000 0.000 0.000 0.000 0.000 0.000 0.000 0.000 0.000 0.000 0.000 0.000 0.000 0.000 0.000 0.000 0.000 0.000 0.000 0.000 0.000 0.000 0.000 0.000 0.000 0.000 0.000 0.000 0.000 0.000 0.000 0.000 0.000 0.000 0.000 0.000 0.000 0.000 0.000 0.000 0.000 0.000 0.000 0.000 0.000 0.000 0.000 0.000 0.000 0.000 0.000 0.000 0.000 0.000 0.000 0.000 0.000 0.000 0.000 0.000 0.000 0.000 0.000 0.000 0.000 0.000 0.000 0.000 0.000 0.000 0.000 0.000 0.000 0.000 0.000 0.000 0.000 0.000 0.000 0.000 0.000 0.000 0.000 
0.000 0.397 0.397 0.397 0.296 0.018 0.018 0.000 0.000 0.000 0.024 0.303 0.397 0.397 0.397 0.397 0.397 0.397 0.397 0.397 0.397 0.397 0.397 0.397 0.397 0.397 0.397 0.397 0.397 0.397 0.397 0.397 0.397 0.397 0.481 0.481 0.614 0.784 0.955 0.955 1.032 1.061 1.061 1.061 1.061 1.054 1.054 1.036 1.033 1.033 1.012 0.958 0.784 0.784 0.609 0.498 0.519 0.519 0.678 0.853 0.853 0.986 0.311 0.501 0.501 1.060 1.047 0.944 0.944 0.815 0.686 0.686 0.644 0.691 0.821 0.821 0.950 0.580 0.251 0.251 0.931 1.064 1.064 1.064 1.064 1.064 1.064 1.068 1.081 1.131 1.131 1.181 1.199 1.199 1.127 0.921 0.684 0.684 0.439 0.472 0.334 0.334 0.188 0.856 0.856 0.930 0.757 0.571 0.571 0.460 0.485 0.671 0.671 0.857 1.018 1.018 1.156 1.258 0.760 0.760 0.516 1.272 1.263 1.263 1.162 1.067 1.067 1.067 1.067 1.067 1.067 1.067 1.067 1.067 1.068 1.068 1.068 1.068 1.068 1.068 1.068 1.068 1.068 1.068 1.068 1.068 1.068 1.069 1.069 1.069 1.069 1.069 1.069 1.013 0.445 0.445 0.644 1.038 0.914 0.914 0.730 0.531 0.328 0.328 0.101 0.000 0.000 0.000 
0.000 0.234 0.234 0.233 0.174 0.011 0.011 0.000 0.000 0.000 0.013 0.164 0.220 0.220 0.225 0.224 0.223 0.223 0.222 0.221 0.221 0.220 0.219 0.218 0.218 0.217 0.216 0.212 0.212 0.202 0.200 0.200 0.203 0.211 0.339 0.339 0.521 0.744 0.968 0.968 1.056 1.080 1.080 1.080 1.080 0.900 0.900 0.500 0.497 0.497 0.687 0.918 0.691 0.691 0.464 0.330 0.397 0.397 0.608 0.835 0.835 1.038 0.730 0.820 0.820 1.075 1.045 0.909 0.909 0.741 0.573 0.573 0.543 0.618 0.786 0.786 0.954 0.845 0.718 0.718 1.023 1.082 1.082 1.083 1.083 1.083 1.083 1.091 1.112 1.176 1.176 1.240 1.257 1.257 1.136 0.866 0.544 0.544 0.191 0.199 0.308 0.308 0.525 0.939 0.939 0.896 0.663 0.424 0.424 0.312 0.363 0.602 0.602 0.841 1.044 1.044 1.214 1.345 1.240 1.240 1.186 1.415 1.324 1.324 1.199 1.086 1.086 1.086 1.086 1.086 1.086 1.086 1.086 1.086 1.086 1.086 1.087 1.087 1.087 1.087 1.087 1.087 1.087 1.087 1.087 1.087 1.087 1.087 1.087 1.087 1.088 1.088 1.088 1.069 0.877 0.877 0.945 1.045 0.869 0.869 0.633 0.377 0.112 0.112 0.033 0.000 0.000 0.000 
0.000 0.046 0.046 0.140 0.146 0.075 0.021 0.011 0.007 0.007 0.017 0.083 0.178 0.207 0.218 0.222 0.223 0.223 0.223 0.222 0.222 0.221 0.221 0.220 0.219 0.219 0.218 0.216 0.215 0.211 0.206 0.206 0.208 0.218 0.276 0.344 0.430 0.630 0.852 0.946 0.999 1.052 1.063 1.063 1.057 0.982 0.872 0.689 0.543 0.534 0.597 0.772 0.769 0.689 0.584 0.422 0.398 0.422 0.502 0.720 0.825 0.902 0.883 0.821 0.848 0.948 1.022 0.968 0.902 0.827 0.663 0.598 0.583 0.597 0.700 0.785 0.860 0.889 0.813 0.793 0.889 1.033 1.069 1.077 1.079 1.081 1.082 1.086 1.099 1.138 1.167 1.195 1.228 1.231 1.182 1.007 0.708 0.546 0.378 0.249 0.283 0.334 0.435 0.732 0.880 0.875 0.777 0.550 0.452 0.399 0.376 0.482 0.596 0.712 0.933 1.036 1.126 1.262 1.272 1.241 1.232 1.297 1.342 1.314 1.263 1.146 1.103 1.094 1.090 1.088 1.087 1.086 1.086 1.086 1.086 1.086 1.086 1.086 1.086 1.086 1.087 1.087 1.087 1.087 1.087 1.087 1.087 1.087 1.087 1.086 1.086 1.085 1.082 1.068 0.987 0.918 0.924 0.975 0.944 0.865 0.761 0.529 0.278 0.182 0.158 0.171 0.171 0.000 
0.000 0.014 0.014 0.047 0.072 0.064 0.043 0.033 0.031 0.035 0.055 0.103 0.163 0.197 0.213 0.221 0.224 0.225 0.226 0.226 0.226 0.226 0.225 0.225 0.225 0.225 0.225 0.225 0.225 0.224 0.225 0.229 0.238 0.262 0.306 0.380 0.485 0.642 0.798 0.894 0.953 0.986 0.999 0.999 0.983 0.940 0.851 0.725 0.655 0.641 0.662 0.710 0.720 0.689 0.607 0.536 0.510 0.519 0.576 0.696 0.804 0.849 0.858 0.860 0.877 0.920 0.940 0.933 0.892 0.816 0.728 0.680 0.667 0.675 0.716 0.788 0.840 0.858 0.860 0.870 0.916 0.992 1.035 1.055 1.066 1.072 1.077 1.083 1.094 1.114 1.135 1.149 1.152 1.137 1.085 0.961 0.758 0.580 0.464 0.414 0.403 0.436 0.531 0.678 0.750 0.758 0.719 0.614 0.533 0.502 0.503 0.530 0.610 0.728 0.877 1.008 1.114 1.186 1.220 1.230 1.236 1.259 1.276 1.269 1.229 1.163 1.122 1.104 1.095 1.091 1.088 1.087 1.086 1.086 1.086 1.086 1.086 1.086 1.086 1.086 1.086 1.086 1.086 1.086 1.086 1.085 1.085 1.085 1.084 1.082 1.080 1.074 1.063 1.041 0.996 0.958 0.945 0.936 0.916 0.861 0.761 0.606 0.480 0.432 0.441 0.493 0.493 0.000 
0.000 0.001 0.001 0.017 0.046 0.059 0.061 0.061 0.064 0.074 0.094 0.127 0.168 0.197 0.213 0.222 0.226 0.229 0.231 0.232 0.232 0.233 0.234 0.234 0.235 0.236 0.237 0.239 0.242 0.246 0.253 0.265 0.285 0.317 0.365 0.436 0.536 0.663 0.776 0.853 0.901 0.926 0.934 0.934 0.925 0.897 0.840 0.764 0.719 0.703 0.701 0.710 0.709 0.690 0.646 0.614 0.607 0.613 0.644 0.714 0.789 0.832 0.854 0.870 0.887 0.904 0.908 0.903 0.880 0.829 0.776 0.749 0.742 0.743 0.757 0.795 0.834 0.857 0.876 0.900 0.936 0.983 1.016 1.036 1.049 1.059 1.067 1.073 1.080 1.087 1.092 1.091 1.082 1.058 1.007 0.914 0.771 0.641 0.567 0.535 0.530 0.543 0.591 0.664 0.698 0.702 0.688 0.642 0.600 0.587 0.587 0.602 0.646 0.731 0.849 0.971 1.063 1.124 1.166 1.194 1.209 1.215 1.215 1.210 1.192 1.157 1.125 1.107 1.097 1.091 1.088 1.087 1.086 1.085 1.085 1.085 1.085 1.085 1.085 1.085 1.085 1.084 1.084 1.084 1.084 1.083 1.082 1.081 1.079 1.075 1.070 1.061 1.049 1.029 1.000 0.971 0.950 0.929 0.903 0.859 0.784 0.707 0.665 0.655 0.670 0.707 0.707 0.000 
0.000 0.000 0.000 0.009 0.039 0.064 0.080 0.091 0.101 0.114 0.131 0.154 0.180 0.201 0.216 0.225 0.231 0.235 0.238 0.240 0.242 0.243 0.245 0.247 0.249 0.251 0.254 0.259 0.265 0.275 0.288 0.309 0.337 0.374 0.424 0.489 0.575 0.679 0.765 0.827 0.867 0.888 0.896 0.897 0.892 0.876 0.842 0.794 0.759 0.739 0.728 0.720 0.713 0.701 0.683 0.672 0.671 0.677 0.698 0.738 0.791 0.830 0.855 0.875 0.889 0.897 0.898 0.894 0.879 0.846 0.814 0.798 0.793 0.793 0.797 0.812 0.837 0.862 0.888 0.916 0.950 0.983 1.007 1.024 1.035 1.044 1.051 1.056 1.058 1.058 1.056 1.050 1.035 1.007 0.960 0.884 0.779 0.689 0.636 0.611 0.605 0.609 0.630 0.665 0.682 0.685 0.679 0.659 0.641 0.637 0.639 0.652 0.684 0.742 0.827 0.925 1.004 1.064 1.110 1.143 1.160 1.166 1.167 1.165 1.158 1.143 1.123 1.107 1.097 1.091 1.088 1.086 1.085 1.084 1.084 1.083 1.083 1.083 1.083 1.083 1.083 1.083 1.082 1.082 1.081 1.080 1.079 1.076 1.072 1.067 1.060 1.051 1.039 1.022 1.000 0.976 0.952 0.929 0.903 0.868 0.829 0.803 0.793 0.798 0.817 0.833 0.833 0.000 
0.000 0.000 0.000 0.009 0.042 0.077 0.103 0.123 0.139 0.153 0.168 0.183 0.199 0.213 0.225 0.233 0.240 0.245 0.248 0.251 0.254 0.257 0.259 0.262 0.266 0.270 0.276 0.283 0.294 0.308 0.328 0.352 0.383 0.421 0.469 0.530 0.606 0.691 0.761 0.812 0.846 0.865 0.874 0.876 0.874 0.866 0.847 0.817 0.789 0.768 0.753 0.740 0.731 0.724 0.720 0.720 0.723 0.730 0.744 0.767 0.801 0.834 0.860 0.879 0.891 0.896 0.896 0.893 0.883 0.864 0.846 0.836 0.833 0.832 0.834 0.839 0.851 0.873 0.899 0.929 0.959 0.985 1.004 1.017 1.026 1.032 1.036 1.038 1.038 1.036 1.031 1.021 1.003 0.974 0.930 0.868 0.787 0.722 0.681 0.660 0.652 0.651 0.657 0.671 0.680 0.682 0.680 0.672 0.667 0.667 0.671 0.683 0.709 0.751 0.811 0.888 0.957 1.012 1.055 1.086 1.106 1.118 1.125 1.128 1.128 1.124 1.115 1.104 1.096 1.090 1.087 1.085 1.083 1.082 1.082 1.082 1.081 1.081 1.081 1.081 1.081 1.080 1.080 1.079 1.078 1.076 1.074 1.071 1.066 1.060 1.053 1.044 1.032 1.017 0.998 0.977 0.954 0.932 0.910 0.891 0.878 0.874 0.876 0.892 0.922 0.934 0.934 0.000 
0.000 0.034 0.034 0.022 0.056 0.101 0.135 0.160 0.178 0.193 0.204 0.214 0.223 0.231 0.239 0.246 0.252 0.257 0.261 0.265 0.269 0.273 0.277 0.281 0.286 0.293 0.301 0.312 0.326 0.344 0.365 0.390 0.421 0.459 0.505 0.562 0.630 0.702 0.760 0.803 0.833 0.853 0.863 0.866 0.867 0.863 0.852 0.834 0.813 0.795 0.779 0.768 0.761 0.759 0.760 0.764 0.770 0.777 0.787 0.801 0.820 0.846 0.869 0.884 0.893 0.897 0.898 0.896 0.892 0.883 0.874 0.869 0.867 0.867 0.868 0.871 0.877 0.891 0.913 0.941 0.967 0.988 1.004 1.014 1.020 1.024 1.026 1.026 1.024 1.021 1.013 1.000 0.980 0.952 0.912 0.857 0.794 0.745 0.712 0.692 0.682 0.678 0.678 0.680 0.683 0.684 0.684 0.683 0.684 0.686 0.692 0.704 0.724 0.755 0.800 0.858 0.917 0.967 1.006 1.037 1.059 1.076 1.087 1.095 1.100 1.102 1.101 1.097 1.091 1.087 1.084 1.082 1.081 1.080 1.080 1.079 1.079 1.079 1.078 1.078 1.078 1.077 1.077 1.076 1.074 1.072 1.069 1.066 1.061 1.055 1.047 1.038 1.026 1.012 0.996 0.977 0.957 0.940 0.928 0.921 0.919 0.920 0.928 0.949 0.989 1.015 1.015 0.000 
0.000 0.071 0.071 0.060 0.094 0.141 0.177 0.203 0.221 0.233 0.241 0.247 0.251 0.256 0.260 0.265 0.270 0.274 0.278 0.283 0.287 0.292 0.297 0.303 0.310 0.319 0.329 0.342 0.357 0.375 0.397 0.423 0.454 0.491 0.535 0.587 0.649 0.710 0.760 0.799 0.827 0.846 0.857 0.863 0.865 0.864 0.859 0.850 0.836 0.821 0.810 0.802 0.800 0.800 0.803 0.809 0.815 0.821 0.828 0.836 0.847 0.863 0.881 0.892 0.899 0.902 0.904 0.905 0.905 0.903 0.900 0.899 0.899 0.900 0.902 0.904 0.908 0.916 0.931 0.953 0.975 0.992 1.005 1.013 1.017 1.019 1.019 1.018 1.015 1.009 0.999 0.985 0.964 0.936 0.899 0.851 0.800 0.761 0.732 0.714 0.703 0.697 0.694 0.692 0.691 0.691 0.692 0.694 0.696 0.700 0.706 0.716 0.733 0.757 0.791 0.835 0.884 0.928 0.964 0.994 1.018 1.037 1.053 1.065 1.074 1.080 1.084 1.085 1.084 1.081 1.080 1.078 1.077 1.077 1.077 1.076 1.076 1.076 1.075 1.075 1.075 1.074 1.073 1.072 1.070 1.068 1.065 1.061 1.056 1.050 1.042 1.033 1.022 1.008 0.993 0.977 0.963 0.953 0.948 0.946 0.947 0.950 0.960 0.982 1.018 1.047 1.047 0.000 
0.000 0.210 0.210 0.137 0.165 0.202 0.233 0.254 0.269 0.277 0.282 0.284 0.284 0.285 0.286 0.289 0.291 0.295 0.299 0.303 0.308 0.313 0.319 0.327 0.335 0.345 0.356 0.369 0.385 0.404 0.426 0.452 0.482 0.518 0.560 0.608 0.664 0.718 0.762 0.797 0.823 0.842 0.855 0.862 0.866 0.867 0.867 0.864 0.858 0.850 0.844 0.842 0.843 0.845 0.848 0.853 0.859 0.863 0.868 0.872 0.878 0.886 0.897 0.905 0.910 0.913 0.916 0.919 0.922 0.925 0.927 0.928 0.929 0.931 0.934 0.936 0.940 0.945 0.953 0.968 0.985 0.998 1.007 1.013 1.016 1.017 1.016 1.014 1.009 1.001 0.990 0.974 0.952 0.925 0.890 0.847 0.805 0.772 0.747 0.730 0.718 0.711 0.706 0.703 0.702 0.701 0.702 0.703 0.706 0.709 0.715 0.724 0.737 0.757 0.783 0.817 0.856 0.895 0.928 0.957 0.981 1.002 1.020 1.035 1.048 1.058 1.065 1.070 1.072 1.073 1.073 1.073 1.073 1.073 1.073 1.073 1.072 1.072 1.072 1.072 1.071 1.071 1.070 1.068 1.067 1.064 1.061 1.057 1.052 1.046 1.038 1.029 1.018 1.005 0.991 0.979 0.970 0.965 0.963 0.963 0.964 0.969 0.979 0.999 1.027 1.044 1.044 0.000 
0.000 0.354 0.354 0.278 0.274 0.289 0.305 0.315 0.321 0.323 0.322 0.321 0.319 0.318 0.317 0.317 0.318 0.320 0.323 0.326 0.331 0.337 0.343 0.351 0.359 0.369 0.380 0.394 0.410 0.429 0.452 0.477 0.507 0.541 0.581 0.626 0.677 0.724 0.764 0.797 0.822 0.841 0.854 0.863 0.870 0.874 0.878 0.880 0.880 0.880 0.880 0.881 0.884 0.887 0.891 0.896 0.900 0.903 0.906 0.908 0.911 0.914 0.918 0.923 0.926 0.930 0.934 0.938 0.943 0.949 0.953 0.957 0.959 0.962 0.964 0.967 0.969 0.973 0.978 0.985 0.996 1.005 1.011 1.015 1.016 1.016 1.015 1.011 1.005 0.995 0.983 0.966 0.944 0.917 0.884 0.845 0.809 0.780 0.757 0.741 0.729 0.721 0.716 0.712 0.711 0.710 0.710 0.711 0.713 0.716 0.721 0.728 0.739 0.755 0.776 0.802 0.833 0.866 0.896 0.923 0.948 0.970 0.990 1.007 1.022 1.035 1.046 1.053 1.059 1.062 1.064 1.066 1.067 1.067 1.068 1.068 1.068 1.068 1.068 1.068 1.067 1.067 1.066 1.064 1.063 1.060 1.057 1.053 1.048 1.042 1.035 1.026 1.015 1.003 0.991 0.982 0.976 0.973 0.972 0.972 0.974 0.979 0.990 1.008 1.030 1.042 1.042 0.000 
0.000 0.479 0.479 0.414 0.402 0.388 0.380 0.374 0.369 0.363 0.358 0.354 0.350 0.348 0.347 0.346 0.346 0.347 0.349 0.351 0.355 0.360 0.365 0.372 0.381 0.391 0.403 0.417 0.433 0.453 0.475 0.500 0.529 0.562 0.599 0.641 0.687 0.730 0.767 0.797 0.822 0.841 0.855 0.867 0.876 0.885 0.892 0.898 0.904 0.909 0.913 0.917 0.922 0.926 0.931 0.936 0.939 0.942 0.943 0.944 0.944 0.944 0.945 0.947 0.949 0.952 0.956 0.962 0.968 0.975 0.981 0.986 0.989 0.992 0.994 0.996 0.998 1.000 1.002 1.006 1.010 1.015 1.017 1.018 1.018 1.017 1.014 1.009 1.002 0.991 0.978 0.960 0.938 0.911 0.879 0.843 0.812 0.785 0.765 0.749 0.737 0.729 0.723 0.719 0.718 0.717 0.717 0.717 0.718 0.721 0.725 0.731 0.740 0.753 0.770 0.790 0.815 0.842 0.869 0.894 0.918 0.940 0.961 0.980 0.997 1.012 1.025 1.035 1.043 1.049 1.054 1.057 1.059 1.061 1.062 1.063 1.063 1.064 1.064 1.063 1.063 1.063 1.062 1.060 1.059 1.056 1.054 1.050 1.045 1.040 1.032 1.024 1.014 1.002 0.992 0.984 0.980 0.978 0.977 0.978 0.979 0.985 0.994 1.011 1.029 1.039 1.039 0.000 
0.000 0.603 0.603 0.537 0.496 0.462 0.438 0.420 0.407 0.396 0.388 0.381 0.377 0.373 0.372 0.371 0.371 0.371 0.372 0.374 0.376 0.380 0.385 0.392 0.400 0.411 0.423 0.438 0.454 0.474 0.496 0.521 0.548 0.580 0.615 0.654 0.697 0.736 0.770 0.798 0.822 0.842 0.859 0.873 0.886 0.898 0.909 0.919 0.929 0.937 0.944 0.951 0.957 0.963 0.968 0.972 0.975 0.978 0.979 0.979 0.979 0.978 0.977 0.977 0.978 0.980 0.984 0.989 0.996 1.004 1.010 1.015 1.019 1.021 1.022 1.024 1.025 1.025 1.026 1.026 1.027 1.027 1.026 1.024 1.022 1.019 1.015 1.009 1.000 0.989 0.974 0.956 0.933 0.907 0.876 0.843 0.814 0.790 0.770 0.755 0.743 0.735 0.728 0.725 0.722 0.721 0.721 0.721 0.722 0.724 0.727 0.732 0.739 0.750 0.764 0.780 0.800 0.822 0.845 0.868 0.890 0.912 0.933 0.953 0.972 0.989 1.004 1.016 1.027 1.035 1.042 1.047 1.051 1.054 1.056 1.057 1.058 1.058 1.059 1.059 1.059 1.058 1.057 1.056 1.055 1.053 1.050 1.047 1.042 1.037 1.030 1.022 1.012 1.001 0.992 0.986 0.982 0.980 0.979 0.980 0.981 0.986 0.996 1.012 1.028 1.036 1.036 0.000 
0.000 0.640 0.640 0.609 0.560 0.512 0.478 0.454 0.436 0.422 0.411 0.404 0.398 0.395 0.393 0.392 0.391 0.391 0.392 0.393 0.395 0.398 0.403 0.410 0.419 0.429 0.442 0.457 0.474 0.493 0.515 0.539 0.566 0.596 0.629 0.666 0.705 0.741 0.773 0.801 0.825 0.846 0.865 0.882 0.899 0.914 0.929 0.943 0.955 0.965 0.974 0.982 0.989 0.996 1.001 1.006 1.009 1.012 1.013 1.014 1.014 1.013 1.012 1.011 1.012 1.013 1.016 1.021 1.028 1.035 1.041 1.045 1.047 1.049 1.050 1.051 1.051 1.051 1.050 1.048 1.045 1.042 1.038 1.033 1.029 1.023 1.017 1.009 1.000 0.987 0.972 0.953 0.930 0.904 0.873 0.842 0.815 0.793 0.774 0.759 0.748 0.739 0.733 0.728 0.726 0.724 0.724 0.724 0.724 0.725 0.728 0.732 0.738 0.747 0.758 0.772 0.787 0.806 0.825 0.846 0.866 0.887 0.907 0.928 0.947 0.966 0.982 0.997 1.010 1.020 1.029 1.036 1.041 1.045 1.048 1.050 1.052 1.053 1.054 1.054 1.054 1.054 1.053 1.052 1.051 1.049 1.046 1.043 1.039 1.034 1.028 1.021 1.012 1.001 0.993 0.986 0.982 0.980 0.980 0.980 0.982 0.987 0.996 1.011 1.026 1.034 1.034 0.000 
0.000 0.675 0.675 0.647 0.595 0.542 0.504 0.477 0.456 0.441 0.430 0.422 0.416 0.412 0.410 0.409 0.408 0.408 0.408 0.409 0.411 0.415 0.420 0.427 0.435 0.446 0.459 0.474 0.492 0.511 0.532 0.556 0.582 0.611 0.642 0.676 0.713 0.747 0.777 0.805 0.830 0.853 0.874 0.895 0.915 0.933 0.951 0.967 0.980 0.992 1.003 1.012 1.020 1.027 1.032 1.037 1.041 1.044 1.046 1.047 1.048 1.048 1.048 1.048 1.048 1.049 1.052 1.055 1.061 1.067 1.071 1.073 1.075 1.076 1.076 1.076 1.076 1.075 1.073 1.070 1.065 1.059 1.052 1.045 1.037 1.029 1.021 1.011 1.000 0.986 0.970 0.950 0.927 0.901 0.871 0.842 0.817 0.795 0.777 0.763 0.751 0.742 0.736 0.731 0.728 0.726 0.725 0.725 0.726 0.726 0.728 0.732 0.737 0.744 0.753 0.764 0.777 0.792 0.808 0.826 0.845 0.864 0.884 0.904 0.924 0.943 0.961 0.977 0.992 1.004 1.015 1.023 1.030 1.036 1.040 1.043 1.046 1.047 1.048 1.048 1.049 1.049 1.048 1.048 1.047 1.045 1.043 1.040 1.037 1.032 1.026 1.019 1.011 1.002 0.993 0.987 0.982 0.980 0.979 0.979 0.981 0.985 0.994 1.008 1.023 1.031 1.031 0.000 
0.000 0.650 0.650 0.652 0.607 0.557 0.519 0.491 0.470 0.455 0.443 0.435 0.430 0.426 0.424 0.423 0.422 0.422 0.422 0.423 0.425 0.429 0.434 0.442 0.451 0.462 0.476 0.491 0.508 0.527 0.548 0.571 0.597 0.624 0.654 0.686 0.720 0.753 0.783 0.811 0.837 0.863 0.887 0.911 0.933 0.954 0.973 0.990 1.005 1.018 1.029 1.039 1.047 1.055 1.061 1.067 1.071 1.074 1.076 1.078 1.079 1.080 1.081 1.082 1.083 1.084 1.086 1.089 1.093 1.096 1.099 1.100 1.101 1.102 1.102 1.101 1.100 1.099 1.096 1.091 1.085 1.078 1.068 1.059 1.048 1.038 1.026 1.014 1.001 0.986 0.969 0.949 0.926 0.899 0.870 0.842 0.818 0.797 0.780 0.765 0.754 0.745 0.738 0.733 0.729 0.727 0.726 0.726 0.726 0.727 0.728 0.731 0.735 0.740 0.748 0.756 0.767 0.780 0.794 0.809 0.826 0.843 0.862 0.882 0.902 0.922 0.941 0.958 0.974 0.988 1.000 1.010 1.019 1.026 1.031 1.036 1.039 1.041 1.042 1.043 1.044 1.044 1.044 1.043 1.043 1.041 1.039 1.037 1.034 1.030 1.024 1.018 1.011 1.002 0.994 0.987 0.982 0.979 0.977 0.977 0.978 0.981 0.989 1.003 1.020 1.029 1.029 0.000 
0.000 0.624 0.624 0.632 0.607 0.563 0.525 0.498 0.478 0.463 0.453 0.445 0.440 0.437 0.435 0.434 0.433 0.433 0.434 0.435 0.438 0.442 0.448 0.456 0.465 0.477 0.490 0.506 0.523 0.542 0.563 0.585 0.610 0.637 0.665 0.696 0.728 0.759 0.790 0.819 0.848 0.876 0.903 0.929 0.953 0.975 0.995 1.012 1.027 1.041 1.053 1.064 1.073 1.081 1.088 1.094 1.098 1.102 1.105 1.107 1.109 1.110 1.111 1.112 1.114 1.115 1.117 1.119 1.121 1.124 1.125 1.126 1.126 1.126 1.126 1.125 1.124 1.121 1.117 1.112 1.105 1.097 1.086 1.074 1.062 1.048 1.034 1.019 1.004 0.987 0.969 0.948 0.924 0.898 0.869 0.843 0.819 0.799 0.782 0.768 0.756 0.747 0.739 0.734 0.730 0.728 0.727 0.726 0.726 0.727 0.728 0.730 0.733 0.737 0.743 0.750 0.759 0.769 0.781 0.794 0.809 0.825 0.843 0.861 0.881 0.902 0.922 0.940 0.957 0.972 0.985 0.997 1.007 1.015 1.022 1.027 1.031 1.034 1.036 1.038 1.038 1.039 1.039 1.039 1.038 1.037 1.036 1.034 1.031 1.027 1.023 1.017 1.010 1.002 0.994 0.987 0.981 0.976 0.972 0.971 0.971 0.973 0.979 0.993 1.013 1.026 1.026 0.000 
0.000 0.598 0.598 0.608 0.594 0.564 0.527 0.501 0.482 0.468 0.459 0.452 0.448 0.445 0.443 0.443 0.442 0.443 0.443 0.445 0.449 0.454 0.460 0.469 0.479 0.490 0.504 0.519 0.536 0.555 0.576 0.598 0.622 0.648 0.676 0.705 0.736 0.767 0.799 0.830 0.862 0.892 0.920 0.947 0.971 0.994 1.014 1.032 1.048 1.063 1.076 1.087 1.097 1.105 1.113 1.119 1.124 1.128 1.131 1.134 1.136 1.138 1.139 1.140 1.142 1.143 1.145 1.146 1.148 1.149 1.150 1.150 1.150 1.150 1.149 1.148 1.146 1.142 1.138 1.132 1.124 1.115 1.104 1.091 1.076 1.061 1.044 1.026 1.008 0.990 0.970 0.948 0.923 0.897 0.869 0.843 0.821 0.801 0.784 0.769 0.758 0.748 0.741 0.735 0.731 0.728 0.727 0.726 0.726 0.726 0.727 0.728 0.730 0.734 0.738 0.744 0.751 0.759 0.770 0.781 0.795 0.810 0.826 0.844 0.863 0.883 0.904 0.923 0.941 0.957 0.972 0.984 0.995 1.005 1.012 1.019 1.024 1.027 1.030 1.032 1.033 1.034 1.034 1.034 1.034 1.033 1.032 1.030 1.028 1.025 1.021 1.016 1.009 1.002 0.994 0.987 0.979 0.972 0.965 0.960 0.958 0.958 0.962 0.976 1.005 1.023 1.023 0.000 
0.000 0.572 0.572 0.583 0.575 0.556 0.527 0.501 0.483 0.470 0.462 0.457 0.453 0.451 0.450 0.449 0.449 0.450 0.452 0.454 0.459 0.464 0.471 0.480 0.491 0.503 0.516 0.532 0.549 0.567 0.588 0.610 0.633 0.659 0.686 0.715 0.745 0.776 0.809 0.843 0.875 0.906 0.936 0.963 0.988 1.011 1.032 1.051 1.068 1.083 1.096 1.108 1.119 1.128 1.136 1.142 1.147 1.152 1.156 1.159 1.161 1.163 1.165 1.166 1.167 1.169 1.170 1.171 1.172 1.173 1.173 1.173 1.173 1.172 1.171 1.169 1.166 1.162 1.157 1.151 1.143 1.133 1.121 1.108 1.092 1.074 1.055 1.036 1.015 0.994 0.971 0.948 0.923 0.896 0.869 0.844 0.822 0.802 0.785 0.771 0.759 0.749 0.741 0.736 0.731 0.728 0.727 0.726 0.726 0.726 0.726 0.727 0.728 0.730 0.734 0.738 0.744 0.751 0.760 0.770 0.782 0.796 0.811 0.828 0.846 0.866 0.886 0.907 0.926 0.943 0.959 0.972 0.984 0.994 1.003 1.010 1.016 1.020 1.024 1.026 1.028 1.029 1.029 1.029 1.029 1.029 1.028 1.027 1.025 1.022 1.019 1.014 1.008 1.002 0.994 0.986 0.977 0.968 0.958 0.947 0.938 0.932 0.931 0.942 0.986 1.042 1.042 0.000 
0.000 0.546 0.546 0.558 0.553 0.542 0.522 0.499 0.482 0.471 0.463 0.459 0.456 0.455 0.454 0.454 0.455 0.456 0.459 0.462 0.467 0.474 0.482 0.491 0.502 0.514 0.527 0.543 0.560 0.578 0.598 0.620 0.643 0.668 0.695 0.723 0.754 0.785 0.819 0.853 0.887 0.919 0.949 0.977 1.003 1.026 1.048 1.068 1.085 1.101 1.115 1.128 1.139 1.148 1.157 1.163 1.169 1.174 1.178 1.181 1.184 1.186 1.188 1.190 1.191 1.192 1.193 1.194 1.194 1.194 1.194 1.194 1.194 1.193 1.191 1.189 1.185 1.181 1.175 1.168 1.160 1.149 1.137 1.123 1.107 1.089 1.068 1.046 1.023 0.999 0.975 0.949 0.923 0.896 0.869 0.845 0.823 0.804 0.787 0.772 0.760 0.750 0.742 0.736 0.731 0.728 0.726 0.725 0.725 0.724 0.724 0.725 0.725 0.727 0.729 0.733 0.737 0.743 0.751 0.760 0.771 0.783 0.798 0.814 0.831 0.850 0.871 0.892 0.912 0.930 0.947 0.961 0.974 0.985 0.994 1.002 1.008 1.013 1.017 1.020 1.022 1.024 1.024 1.025 1.025 1.025 1.024 1.023 1.022 1.019 1.016 1.012 1.007 1.001 0.994 0.985 0.975 0.965 0.952 0.938 0.922 0.903 0.883 0.870 0.911 1.069 1.069 0.000 
0.000 0.520 0.520 0.533 0.530 0.523 0.512 0.495 0.480 0.470 0.463 0.460 0.458 0.457 0.457 0.458 0.459 0.462 0.465 0.470 0.475 0.482 0.491 0.500 0.511 0.524 0.537 0.553 0.569 0.587 0.607 0.629 0.652 0.676 0.703 0.731 0.761 0.793 0.827 0.862 0.897 0.930 0.961 0.989 1.016 1.040 1.063 1.083 1.101 1.118 1.133 1.146 1.157 1.167 1.176 1.183 1.189 1.195 1.199 1.202 1.205 1.208 1.209 1.211 1.212 1.213 1.214 1.214 1.214 1.214 1.214 1.214 1.213 1.212 1.210 1.207 1.204 1.199 1.193 1.185 1.176 1.165 1.153 1.138 1.121 1.102 1.081 1.058 1.033 1.007 0.980 0.952 0.924 0.896 0.870 0.846 0.825 0.806 0.789 0.774 0.761 0.751 0.743 0.736 0.731 0.728 0.725 0.724 0.723 0.723 0.722 0.722 0.723 0.724 0.725 0.728 0.731 0.737 0.743 0.751 0.761 0.773 0.786 0.801 0.818 0.836 0.856 0.878 0.899 0.918 0.936 0.951 0.964 0.976 0.986 0.994 1.001 1.007 1.011 1.014 1.017 1.018 1.019 1.020 1.020 1.020 1.020 1.019 1.018 1.016 1.014 1.010 1.005 0.999 0.992 0.983 0.974 0.962 0.949 0.934 0.915 0.889 0.850 0.778 0.683 0.679 0.679 0.000 
0.000 0.495 0.495 0.507 0.506 0.502 0.496 0.487 0.475 0.467 0.462 0.460 0.459 0.459 0.459 0.461 0.463 0.466 0.471 0.476 0.483 0.490 0.499 0.509 0.520 0.532 0.546 0.561 0.578 0.596 0.615 0.636 0.659 0.683 0.710 0.738 0.768 0.800 0.834 0.870 0.906 0.939 0.971 1.000 1.028 1.053 1.076 1.097 1.116 1.133 1.148 1.162 1.174 1.184 1.193 1.201 1.208 1.213 1.218 1.222 1.225 1.227 1.229 1.230 1.231 1.232 1.233 1.233 1.233 1.233 1.233 1.232 1.231 1.230 1.228 1.225 1.221 1.215 1.209 1.201 1.191 1.180 1.167 1.152 1.135 1.115 1.094 1.070 1.043 1.015 0.986 0.955 0.926 0.898 0.872 0.848 0.827 0.807 0.790 0.775 0.763 0.752 0.743 0.736 0.731 0.727 0.724 0.722 0.721 0.720 0.720 0.720 0.720 0.720 0.721 0.723 0.726 0.731 0.736 0.744 0.753 0.763 0.776 0.790 0.806 0.824 0.844 0.865 0.887 0.907 0.925 0.941 0.955 0.968 0.978 0.987 0.994 1.000 1.005 1.009 1.011 1.013 1.014 1.015 1.015 1.016 1.015 1.015 1.014 1.013 1.010 1.007 1.003 0.997 0.990 0.981 0.971 0.960 0.947 0.932 0.914 0.887 0.843 0.758 0.558 0.134 0.134 0.000 
0.000 0.469 0.469 0.481 0.481 0.480 0.478 0.474 0.467 0.463 0.460 0.459 0.459 0.459 0.461 0.463 0.466 0.471 0.476 0.482 0.489 0.497 0.506 0.516 0.527 0.540 0.554 0.569 0.585 0.603 0.622 0.643 0.665 0.690 0.716 0.744 0.774 0.806 0.840 0.876 0.913 0.947 0.980 1.010 1.038 1.064 1.088 1.109 1.129 1.147 1.162 1.177 1.189 1.200 1.209 1.218 1.225 1.230 1.235 1.239 1.242 1.245 1.247 1.248 1.249 1.250 1.250 1.250 1.250 1.250 1.250 1.249 1.248 1.246 1.244 1.241 1.236 1.231 1.224 1.216 1.206 1.194 1.181 1.165 1.148 1.128 1.106 1.081 1.054 1.024 0.993 0.960 0.929 0.901 0.875 0.851 0.829 0.810 0.792 0.777 0.764 0.753 0.744 0.736 0.730 0.726 0.722 0.720 0.718 0.717 0.717 0.717 0.716 0.717 0.718 0.719 0.722 0.726 0.731 0.737 0.745 0.755 0.767 0.780 0.796 0.813 0.832 0.853 0.876 0.897 0.916 0.932 0.947 0.960 0.971 0.980 0.988 0.994 0.999 1.003 1.006 1.008 1.009 1.010 1.011 1.011 1.011 1.011 1.010 1.009 1.007 1.004 0.999 0.994 0.987 0.979 0.969 0.958 0.946 0.932 0.915 0.891 0.853 0.784 0.644 0.435 0.435 0.000 
0.000 0.443 0.443 0.456 0.456 0.457 0.457 0.457 0.456 0.455 0.455 0.456 0.457 0.459 0.462 0.465 0.469 0.474 0.480 0.487 0.494 0.503 0.512 0.523 0.534 0.546 0.560 0.575 0.591 0.608 0.627 0.648 0.671 0.695 0.721 0.749 0.779 0.811 0.846 0.882 0.919 0.954 0.987 1.018 1.047 1.074 1.098 1.120 1.140 1.159 1.175 1.190 1.203 1.214 1.224 1.233 1.240 1.246 1.251 1.255 1.258 1.261 1.263 1.264 1.265 1.266 1.266 1.266 1.266 1.266 1.266 1.265 1.264 1.262 1.259 1.256 1.251 1.245 1.238 1.230 1.220 1.208 1.194 1.178 1.160 1.140 1.117 1.092 1.064 1.034 1.000 0.966 0.934 0.905 0.878 0.854 0.832 0.812 0.794 0.779 0.765 0.754 0.744 0.736 0.729 0.724 0.720 0.717 0.715 0.714 0.714 0.713 0.713 0.714 0.714 0.716 0.718 0.721 0.726 0.732 0.739 0.748 0.759 0.772 0.787 0.803 0.822 0.843 0.865 0.887 0.907 0.924 0.940 0.953 0.965 0.974 0.982 0.989 0.994 0.998 1.001 1.003 1.004 1.005 1.006 1.006 1.006 1.006 1.005 1.004 1.003 1.000 0.996 0.990 0.983 0.975 0.965 0.955 0.945 0.934 0.923 0.909 0.894 0.884 0.907 1.014 1.014 0.000 
0.000 0.417 0.417 0.430 0.431 0.433 0.435 0.438 0.441 0.444 0.448 0.451 0.455 0.458 0.462 0.467 0.472 0.478 0.484 0.491 0.499 0.508 0.518 0.528 0.539 0.552 0.565 0.580 0.596 0.613 0.632 0.653 0.675 0.699 0.725 0.753 0.784 0.816 0.850 0.886 0.924 0.960 0.994 1.025 1.055 1.082 1.107 1.130 1.151 1.170 1.187 1.202 1.215 1.227 1.237 1.246 1.254 1.260 1.265 1.269 1.273 1.275 1.277 1.279 1.280 1.280 1.280 1.280 1.280 1.280 1.280 1.279 1.278 1.276 1.273 1.269 1.265 1.259 1.251 1.243 1.232 1.220 1.206 1.190 1.172 1.151 1.128 1.103 1.074 1.043 1.009 0.974 0.940 0.910 0.883 0.858 0.835 0.815 0.796 0.780 0.766 0.754 0.744 0.736 0.728 0.723 0.718 0.715 0.713 0.712 0.711 0.711 0.711 0.711 0.711 0.712 0.714 0.717 0.721 0.727 0.734 0.742 0.753 0.765 0.779 0.795 0.813 0.834 0.856 0.878 0.899 0.917 0.933 0.947 0.959 0.969 0.977 0.984 0.989 0.993 0.996 0.998 0.999 1.000 1.001 1.001 1.001 1.001 1.000 1.000 0.998 0.995 0.991 0.986 0.979 0.970 0.961 0.952 0.944 0.939 0.936 0.935 0.942 0.967 1.036 1.132 1.132 0.000 
0.000 0.391 0.391 0.405 0.407 0.411 0.414 0.419 0.426 0.433 0.440 0.446 0.451 0.457 0.462 0.468 0.474 0.481 0.488 0.495 0.503 0.512 0.522 0.533 0.544 0.556 0.570 0.584 0.600 0.617 0.636 0.656 0.679 0.703 0.729 0.757 0.787 0.819 0.853 0.890 0.928 0.964 0.999 1.031 1.061 1.089 1.115 1.138 1.160 1.179 1.197 1.212 1.226 1.238 1.249 1.258 1.266 1.272 1.278 1.282 1.286 1.289 1.291 1.292 1.293 1.293 1.294 1.294 1.294 1.293 1.293 1.292 1.291 1.289 1.286 1.282 1.277 1.271 1.264 1.255 1.244 1.232 1.218 1.202 1.183 1.162 1.139 1.113 1.085 1.053 1.018 0.982 0.948 0.916 0.888 0.862 0.839 0.818 0.799 0.782 0.768 0.755 0.745 0.735 0.728 0.722 0.717 0.714 0.711 0.710 0.709 0.708 0.708 0.708 0.709 0.710 0.711 0.714 0.718 0.722 0.729 0.737 0.747 0.758 0.772 0.788 0.805 0.825 0.848 0.870 0.891 0.910 0.927 0.941 0.953 0.964 0.972 0.979 0.984 0.988 0.991 0.993 0.995 0.996 0.996 0.996 0.996 0.996 0.995 0.994 0.992 0.990 0.986 0.980 0.973 0.964 0.955 0.948 0.943 0.941 0.942 0.948 0.964 1.000 1.065 1.116 1.116 0.000 
0.000 0.365 0.365 0.380 0.384 0.389 0.396 0.404 0.414 0.425 0.433 0.441 0.449 0.456 0.462 0.469 0.476 0.483 0.490 0.498 0.507 0.516 0.526 0.536 0.548 0.560 0.573 0.587 0.603 0.620 0.639 0.659 0.682 0.706 0.732 0.760 0.790 0.822 0.856 0.892 0.931 0.968 1.003 1.036 1.067 1.095 1.122 1.146 1.168 1.188 1.206 1.222 1.236 1.249 1.259 1.269 1.277 1.284 1.289 1.294 1.298 1.300 1.303 1.304 1.305 1.305 1.306 1.306 1.306 1.305 1.305 1.304 1.303 1.300 1.298 1.294 1.289 1.283 1.275 1.266 1.256 1.243 1.229 1.213 1.194 1.173 1.150 1.124 1.095 1.063 1.028 0.991 0.956 0.923 0.894 0.867 0.843 0.821 0.802 0.784 0.769 0.756 0.745 0.736 0.728 0.721 0.716 0.712 0.710 0.708 0.707 0.706 0.706 0.706 0.707 0.707 0.709 0.711 0.714 0.719 0.725 0.733 0.742 0.753 0.766 0.781 0.799 0.818 0.840 0.863 0.885 0.904 0.921 0.936 0.948 0.959 0.968 0.975 0.980 0.984 0.987 0.989 0.991 0.991 0.992 0.992 0.991 0.991 0.990 0.989 0.987 0.984 0.979 0.973 0.966 0.957 0.949 0.944 0.941 0.941 0.943 0.951 0.971 1.011 1.070 1.107 1.107 0.000 
0.000 0.339 0.339 0.354 0.361 0.370 0.380 0.393 0.406 0.419 0.429 0.439 0.447 0.455 0.462 0.470 0.477 0.485 0.493 0.501 0.510 0.519 0.529 0.539 0.550 0.562 0.575 0.590 0.605 0.623 0.641 0.662 0.684 0.708 0.734 0.762 0.792 0.824 0.858 0.894 0.933 0.971 1.007 1.040 1.072 1.101 1.128 1.152 1.175 1.195 1.213 1.230 1.245 1.258 1.269 1.279 1.287 1.294 1.300 1.305 1.308 1.311 1.313 1.315 1.316 1.316 1.316 1.316 1.316 1.316 1.316 1.315 1.313 1.311 1.308 1.304 1.300 1.293 1.286 1.277 1.266 1.254 1.239 1.223 1.204 1.184 1.160 1.134 1.105 1.073 1.039 1.001 0.964 0.931 0.900 0.872 0.847 0.825 0.805 0.787 0.771 0.757 0.746 0.736 0.728 0.721 0.716 0.712 0.709 0.707 0.706 0.705 0.705 0.705 0.705 0.706 0.707 0.709 0.712 0.716 0.722 0.729 0.738 0.748 0.761 0.776 0.793 0.812 0.833 0.857 0.879 0.899 0.916 0.931 0.944 0.955 0.964 0.971 0.976 0.981 0.984 0.986 0.987 0.987 0.988 0.988 0.987 0.987 0.986 0.984 0.981 0.977 0.972 0.966 0.958 0.948 0.941 0.938 0.937 0.937 0.941 0.950 0.971 1.011 1.068 1.099 1.099 0.000 
0.000 0.314 0.314 0.330 0.340 0.352 0.367 0.384 0.401 0.415 0.427 0.437 0.446 0.455 0.463 0.471 0.479 0.487 0.495 0.503 0.512 0.521 0.531 0.541 0.552 0.564 0.577 0.592 0.607 0.625 0.643 0.664 0.686 0.710 0.736 0.764 0.794 0.826 0.860 0.896 0.934 0.973 1.009 1.044 1.075 1.105 1.132 1.158 1.181 1.201 1.220 1.237 1.252 1.266 1.277 1.287 1.296 1.303 1.309 1.314 1.318 1.321 1.323 1.324 1.325 1.326 1.326 1.326 1.326 1.326 1.326 1.325 1.323 1.321 1.318 1.314 1.309 1.303 1.296 1.287 1.276 1.264 1.249 1.233 1.214 1.193 1.170 1.144 1.115 1.084 1.049 1.011 0.974 0.939 0.907 0.878 0.852 0.829 0.808 0.789 0.773 0.759 0.747 0.736 0.728 0.721 0.715 0.711 0.708 0.706 0.704 0.704 0.703 0.703 0.704 0.704 0.705 0.707 0.710 0.714 0.719 0.726 0.734 0.745 0.757 0.771 0.788 0.807 0.828 0.851 0.874 0.894 0.911 0.927 0.940 0.951 0.960 0.968 0.973 0.977 0.980 0.982 0.983 0.984 0.984 0.984 0.984 0.983 0.982 0.979 0.976 0.971 0.966 0.958 0.949 0.940 0.933 0.929 0.928 0.929 0.932 0.942 0.963 1.004 1.062 1.095 1.095 0.000 
0.000 0.288 0.288 0.305 0.319 0.336 0.357 0.380 0.398 0.413 0.426 0.437 0.446 0.455 0.463 0.471 0.480 0.488 0.496 0.505 0.514 0.523 0.532 0.543 0.553 0.565 0.579 0.593 0.609 0.626 0.645 0.665 0.687 0.711 0.737 0.765 0.795 0.827 0.861 0.897 0.935 0.974 1.011 1.046 1.079 1.109 1.136 1.162 1.186 1.207 1.226 1.243 1.259 1.272 1.284 1.295 1.304 1.311 1.317 1.322 1.326 1.329 1.332 1.333 1.334 1.335 1.335 1.335 1.335 1.335 1.334 1.334 1.332 1.330 1.327 1.323 1.318 1.312 1.305 1.296 1.285 1.273 1.259 1.242 1.224 1.203 1.180 1.154 1.125 1.094 1.060 1.022 0.983 0.947 0.915 0.885 0.857 0.833 0.811 0.792 0.775 0.760 0.748 0.737 0.728 0.721 0.715 0.711 0.707 0.705 0.704 0.703 0.703 0.702 0.703 0.703 0.704 0.706 0.708 0.712 0.717 0.723 0.731 0.741 0.753 0.767 0.783 0.802 0.823 0.846 0.869 0.889 0.908 0.923 0.937 0.948 0.957 0.965 0.970 0.975 0.978 0.979 0.981 0.981 0.981 0.981 0.981 0.980 0.978 0.975 0.972 0.966 0.959 0.951 0.941 0.931 0.922 0.917 0.913 0.912 0.913 0.921 0.940 0.979 1.046 1.092 1.092 0.000 
0.000 0.262 0.262 0.280 0.298 0.323 0.352 0.378 0.397 0.413 0.426 0.437 0.446 0.455 0.464 0.472 0.481 0.489 0.498 0.506 0.515 0.524 0.533 0.543 0.554 0.566 0.579 0.594 0.610 0.627 0.646 0.666 0.688 0.712 0.738 0.766 0.796 0.828 0.862 0.898 0.936 0.975 1.013 1.048 1.081 1.111 1.140 1.166 1.190 1.211 1.231 1.249 1.264 1.278 1.291 1.301 1.310 1.318 1.325 1.330 1.334 1.337 1.339 1.341 1.342 1.343 1.343 1.343 1.343 1.343 1.342 1.342 1.340 1.338 1.335 1.332 1.327 1.321 1.313 1.304 1.294 1.282 1.267 1.251 1.233 1.212 1.189 1.163 1.135 1.104 1.070 1.033 0.993 0.956 0.922 0.891 0.863 0.838 0.815 0.795 0.777 0.762 0.749 0.738 0.729 0.721 0.715 0.711 0.707 0.705 0.703 0.702 0.702 0.702 0.702 0.702 0.703 0.704 0.707 0.710 0.715 0.721 0.729 0.739 0.750 0.764 0.780 0.798 0.818 0.841 0.865 0.886 0.904 0.920 0.934 0.945 0.955 0.962 0.968 0.972 0.975 0.977 0.978 0.979 0.979 0.979 0.978 0.977 0.975 0.972 0.968 0.962 0.954 0.945 0.933 0.921 0.910 0.899 0.891 0.884 0.880 0.881 0.892 0.926 1.006 1.090 1.090 0.000 
0.000 0.236 0.236 0.256 0.280 0.315 0.351 0.377 0.397 0.413 0.426 0.437 0.447 0.456 0.465 0.473 0.482 0.490 0.499 0.507 0.515 0.524 0.534 0.544 0.555 0.567 0.580 0.594 0.610 0.628 0.646 0.667 0.689 0.713 0.739 0.767 0.796 0.828 0.862 0.898 0.936 0.976 1.014 1.049 1.083 1.114 1.142 1.169 1.193 1.215 1.235 1.253 1.269 1.284 1.296 1.307 1.316 1.324 1.331 1.336 1.341 1.344 1.346 1.348 1.349 1.350 1.350 1.350 1.350 1.350 1.350 1.349 1.348 1.346 1.343 1.339 1.334 1.328 1.321 1.312 1.302 1.290 1.276 1.260 1.241 1.221 1.198 1.172 1.144 1.113 1.079 1.043 1.003 0.965 0.930 0.898 0.869 0.842 0.819 0.798 0.780 0.764 0.750 0.739 0.729 0.721 0.715 0.711 0.707 0.704 0.703 0.702 0.701 0.701 0.701 0.702 0.702 0.704 0.706 0.709 0.714 0.720 0.727 0.736 0.748 0.761 0.777 0.794 0.815 0.837 0.861 0.882 0.901 0.917 0.931 0.943 0.953 0.960 0.966 0.970 0.973 0.975 0.976 0.977 0.977 0.977 0.976 0.975 0.973 0.970 0.965 0.958 0.950 0.939 0.926 0.911 0.895 0.879 0.862 0.845 0.828 0.814 0.806 0.820 0.889 1.087 1.087 0.000 
0.000 0.210 0.210 0.232 0.267 0.314 0.351 0.378 0.399 0.415 0.428 0.439 0.449 0.458 0.467 0.475 0.483 0.491 0.499 0.508 0.516 0.524 0.534 0.544 0.555 0.567 0.580 0.595 0.611 0.628 0.647 0.667 0.689 0.713 0.739 0.767 0.797 0.828 0.862 0.898 0.937 0.976 1.015 1.050 1.084 1.115 1.144 1.171 1.196 1.218 1.239 1.257 1.273 1.288 1.301 1.312 1.321 1.330 1.336 1.342 1.346 1.350 1.352 1.354 1.355 1.356 1.357 1.357 1.357 1.357 1.356 1.355 1.354 1.352 1.349 1.346 1.341 1.335 1.328 1.319 1.309 1.297 1.283 1.267 1.249 1.229 1.206 1.181 1.153 1.122 1.089 1.053 1.013 0.974 0.938 0.905 0.875 0.847 0.823 0.801 0.782 0.766 0.752 0.740 0.730 0.722 0.716 0.711 0.707 0.704 0.703 0.702 0.701 0.701 0.701 0.701 0.702 0.703 0.705 0.708 0.713 0.718 0.726 0.735 0.746 0.759 0.774 0.792 0.812 0.834 0.858 0.879 0.898 0.915 0.929 0.941 0.951 0.959 0.965 0.969 0.972 0.974 0.975 0.975 0.975 0.975 0.975 0.973 0.971 0.968 0.962 0.955 0.946 0.935 0.920 0.903 0.883 0.861 0.835 0.806 0.773 0.732 0.683 0.631 0.581 0.612 0.612 0.000 
0.000 0.184 0.184 0.210 0.263 0.317 0.355 0.383 0.404 0.419 0.432 0.442 0.452 0.461 0.469 0.477 0.485 0.492 0.500 0.508 0.516 0.524 0.534 0.544 0.555 0.567 0.580 0.595 0.611 0.628 0.647 0.667 0.690 0.713 0.739 0.767 0.797 0.828 0.862 0.898 0.937 0.976 1.015 1.051 1.085 1.116 1.146 1.173 1.198 1.221 1.241 1.260 1.277 1.292 1.305 1.316 1.326 1.334 1.341 1.347 1.352 1.355 1.358 1.360 1.361 1.362 1.362 1.362 1.362 1.362 1.362 1.361 1.360 1.358 1.355 1.352 1.347 1.342 1.335 1.326 1.316 1.304 1.291 1.275 1.257 1.237 1.214 1.189 1.162 1.131 1.098 1.062 1.023 0.983 0.946 0.912 0.881 0.853 0.827 0.805 0.785 0.768 0.754 0.741 0.731 0.723 0.716 0.711 0.707 0.704 0.703 0.702 0.701 0.701 0.701 0.701 0.702 0.703 0.705 0.708 0.712 0.718 0.725 0.733 0.744 0.757 0.772 0.789 0.809 0.831 0.855 0.877 0.896 0.913 0.927 0.939 0.949 0.957 0.963 0.968 0.971 0.973 0.974 0.974 0.974 0.974 0.974 0.972 0.970 0.966 0.961 0.953 0.944 0.931 0.916 0.897 0.874 0.847 0.815 0.778 0.733 0.676 0.600 0.485 0.286 0.063 0.063 0.000 
0.000 0.193 0.193 0.206 0.272 0.329 0.367 0.394 0.413 0.427 0.439 0.448 0.456 0.464 0.472 0.479 0.486 0.493 0.500 0.508 0.516 0.524 0.534 0.544 0.555 0.567 0.580 0.595 0.611 0.628 0.647 0.667 0.690 0.714 0.739 0.767 0.797 0.828 0.862 0.898 0.937 0.976 1.015 1.051 1.085 1.117 1.147 1.174 1.199 1.222 1.243 1.262 1.279 1.295 1.308 1.320 1.330 1.338 1.345 1.351 1.356 1.360 1.363 1.365 1.366 1.367 1.367 1.367 1.367 1.367 1.367 1.366 1.365 1.363 1.361 1.357 1.353 1.347 1.341 1.332 1.322 1.311 1.297 1.282 1.264 1.244 1.222 1.198 1.170 1.140 1.107 1.071 1.033 0.992 0.954 0.919 0.887 0.858 0.832 0.809 0.788 0.771 0.756 0.743 0.732 0.723 0.717 0.711 0.707 0.705 0.703 0.702 0.701 0.701 0.701 0.701 0.702 0.703 0.705 0.708 0.712 0.717 0.724 0.732 0.743 0.756 0.770 0.787 0.807 0.829 0.852 0.875 0.894 0.911 0.926 0.938 0.948 0.956 0.962 0.967 0.970 0.972 0.973 0.974 0.974 0.974 0.973 0.972 0.969 0.965 0.960 0.952 0.942 0.929 0.913 0.893 0.868 0.838 0.802 0.759 0.707 0.644 0.562 0.443 0.219 0.000 0.000 0.000 
0.000 0.306 0.306 0.251 0.303 0.356 0.390 0.413 0.428 0.440 0.449 0.456 0.463 0.469 0.475 0.482 0.488 0.494 0.500 0.507 0.515 0.524 0.533 0.544 0.555 0.567 0.580 0.595 0.611 0.628 0.647 0.667 0.690 0.713 0.739 0.767 0.797 0.828 0.862 0.898 0.936 0.976 1.015 1.051 1.085 1.117 1.147 1.175 1.200 1.224 1.245 1.264 1.282 1.297 1.311 1.322 1.333 1.341 1.349 1.355 1.360 1.364 1.367 1.369 1.370 1.371 1.372 1.372 1.372 1.372 1.371 1.371 1.370 1.368 1.366 1.362 1.358 1.353 1.346 1.338 1.328 1.317 1.304 1.288 1.271 1.252 1.230 1.205 1.178 1.149 1.116 1.081 1.042 1.001 0.962 0.926 0.893 0.864 0.837 0.813 0.792 0.774 0.758 0.745 0.734 0.725 0.717 0.712 0.708 0.705 0.703 0.702 0.701 0.701 0.701 0.701 0.702 0.703 0.705 0.707 0.711 0.717 0.723 0.732 0.742 0.754 0.769 0.786 0.805 0.827 0.850 0.873 0.892 0.910 0.925 0.937 0.947 0.955 0.962 0.966 0.970 0.972 0.973 0.973 0.973 0.973 0.973 0.971 0.969 0.965 0.959 0.952 0.941 0.928 0.911 0.890 0.864 0.833 0.794 0.747 0.690 0.624 0.552 0.455 0.280 0.000 0.000 0.000 
0.000 0.436 0.436 0.368 0.379 0.409 0.431 0.444 0.452 0.459 0.463 0.467 0.471 0.475 0.479 0.484 0.489 0.494 0.500 0.507 0.515 0.523 0.533 0.543 0.555 0.567 0.580 0.595 0.611 0.628 0.647 0.667 0.690 0.713 0.739 0.767 0.797 0.828 0.862 0.898 0.936 0.976 1.015 1.051 1.086 1.118 1.148 1.175 1.201 1.225 1.246 1.266 1.283 1.299 1.313 1.325 1.335 1.344 1.352 1.358 1.363 1.367 1.370 1.372 1.374 1.375 1.375 1.376 1.376 1.376 1.375 1.375 1.374 1.372 1.370 1.367 1.363 1.357 1.351 1.343 1.334 1.322 1.309 1.295 1.278 1.258 1.237 1.213 1.186 1.157 1.125 1.090 1.052 1.011 0.971 0.934 0.900 0.870 0.842 0.817 0.796 0.777 0.761 0.747 0.735 0.726 0.718 0.713 0.708 0.705 0.703 0.702 0.701 0.701 0.701 0.701 0.702 0.703 0.705 0.707 0.711 0.716 0.723 0.731 0.741 0.754 0.768 0.784 0.803 0.825 0.848 0.871 0.891 0.908 0.923 0.936 0.947 0.955 0.961 0.966 0.969 0.972 0.973 0.973 0.973 0.973 0.972 0.971 0.969 0.965 0.959 0.951 0.941 0.928 0.911 0.889 0.863 0.831 0.791 0.742 0.681 0.612 0.558 0.526 0.523 0.492 0.492 0.000 
0.000 0.611 0.611 0.515 0.505 0.496 0.489 0.483 0.479 0.477 0.476 0.477 0.478 0.480 0.482 0.485 0.489 0.494 0.500 0.506 0.514 0.523 0.532 0.543 0.554 0.567 0.580 0.595 0.611 0.628 0.647 0.667 0.689 0.713 0.739 0.767 0.796 0.828 0.862 0.898 0.936 0.976 1.015 1.051 1.085 1.118 1.148 1.176 1.202 1.225 1.247 1.267 1.284 1.300 1.314 1.327 1.337 1.346 1.354 1.361 1.366 1.370 1.373 1.375 1.377 1.378 1.379 1.379 1.379 1.379 1.379 1.378 1.377 1.376 1.374 1.371 1.367 1.362 1.355 1.348 1.338 1.328 1.315 1.300 1.284 1.265 1.244 1.220 1.194 1.165 1.133 1.098 1.061 1.020 0.979 0.942 0.907 0.876 0.847 0.822 0.800 0.780 0.764 0.749 0.737 0.728 0.720 0.714 0.709 0.706 0.704 0.702 0.702 0.701 0.701 0.701 0.702 0.703 0.705 0.707 0.711 0.716 0.723 0.731 0.741 0.753 0.767 0.783 0.802 0.823 0.847 0.870 0.890 0.907 0.923 0.935 0.946 0.955 0.961 0.966 0.969 0.971 0.973 0.973 0.973 0.973 0.972 0.971 0.969 0.965 0.959 0.951 0.941 0.927 0.910 0.889 0.863 0.830 0.790 0.741 0.678 0.608 0.560 0.553 0.631 1.033 1.033 0.000 
0.000 0.785 0.785 0.688 0.637 0.578 0.537 0.511 0.496 0.488 0.484 0.483 0.482 0.483 0.484 0.486 0.490 0.494 0.499 0.506 0.513 0.522 0.531 0.542 0.553 0.566 0.580 0.594 0.610 0.628 0.646 0.667 0.689 0.713 0.738 0.766 0.796 0.827 0.861 0.897 0.935 0.975 1.014 1.051 1.085 1.118 1.148 1.176 1.202 1.226 1.247 1.267 1.285 1.301 1.315 1.328 1.339 1.348 1.356 1.363 1.368 1.372 1.376 1.378 1.380 1.381 1.382 1.382 1.382 1.382 1.382 1.381 1.380 1.379 1.377 1.374 1.370 1.365 1.359 1.352 1.343 1.332 1.320 1.306 1.289 1.271 1.250 1.227 1.201 1.173 1.141 1.107 1.070 1.029 0.988 0.950 0.914 0.882 0.853 0.827 0.804 0.784 0.767 0.752 0.740 0.730 0.721 0.715 0.710 0.707 0.704 0.703 0.702 0.702 0.702 0.702 0.702 0.703 0.705 0.708 0.711 0.716 0.723 0.731 0.741 0.753 0.767 0.783 0.801 0.822 0.845 0.868 0.889 0.907 0.922 0.935 0.946 0.954 0.961 0.966 0.969 0.971 0.973 0.973 0.973 0.973 0.973 0.971 0.969 0.965 0.959 0.952 0.941 0.928 0.911 0.889 0.863 0.831 0.791 0.742 0.680 0.612 0.556 0.520 0.506 0.568 0.568 0.000 
0.000 0.955 0.955 0.846 0.720 0.620 0.560 0.525 0.504 0.493 0.488 0.485 0.485 0.485 0.485 0.487 0.490 0.494 0.499 0.506 0.513 0.521 0.531 0.541 0.553 0.565 0.579 0.594 0.610 0.627 0.646 0.666 0.688 0.712 0.738 0.765 0.795 0.826 0.860 0.896 0.934 0.974 1.014 1.050 1.085 1.117 1.148 1.176 1.202 1.226 1.248 1.268 1.286 1.302 1.316 1.329 1.340 1.349 1.357 1.364 1.370 1.374 1.378 1.380 1.382 1.383 1.384 1.384 1.384 1.384 1.384 1.384 1.383 1.382 1.380 1.377 1.373 1.369 1.363 1.356 1.347 1.337 1.325 1.311 1.295 1.277 1.256 1.234 1.208 1.180 1.149 1.116 1.079 1.039 0.997 0.958 0.922 0.889 0.859 0.833 0.809 0.789 0.771 0.755 0.742 0.732 0.723 0.717 0.711 0.708 0.705 0.704 0.703 0.702 0.702 0.702 0.703 0.704 0.705 0.708 0.711 0.716 0.723 0.731 0.741 0.752 0.766 0.782 0.800 0.821 0.844 0.867 0.888 0.906 0.921 0.934 0.945 0.954 0.961 0.966 0.969 0.972 0.973 0.973 0.973 0.973 0.973 0.971 0.969 0.965 0.960 0.952 0.942 0.929 0.912 0.891 0.865 0.833 0.794 0.747 0.689 0.623 0.548 0.449 0.267 0.026 0.026 0.000 
0.000 1.004 1.004 0.925 0.746 0.631 0.566 0.528 0.506 0.495 0.489 0.486 0.485 0.485 0.486 0.488 0.490 0.494 0.499 0.506 0.513 0.521 0.530 0.540 0.552 0.564 0.578 0.593 0.609 0.626 0.645 0.665 0.687 0.711 0.736 0.764 0.794 0.825 0.859 0.895 0.933 0.973 1.013 1.050 1.085 1.117 1.147 1.176 1.202 1.226 1.248 1.268 1.286 1.302 1.317 1.330 1.341 1.350 1.359 1.366 1.371 1.376 1.379 1.382 1.384 1.385 1.386 1.386 1.386 1.386 1.386 1.386 1.385 1.384 1.382 1.380 1.376 1.372 1.366 1.359 1.351 1.341 1.329 1.315 1.300 1.282 1.262 1.240 1.215 1.188 1.157 1.124 1.088 1.048 1.006 0.966 0.930 0.896 0.866 0.838 0.814 0.793 0.775 0.759 0.746 0.735 0.726 0.718 0.713 0.709 0.706 0.705 0.704 0.703 0.703 0.703 0.703 0.704 0.706 0.708 0.712 0.717 0.723 0.731 0.741 0.752 0.766 0.782 0.800 0.820 0.843 0.866 0.887 0.905 0.921 0.934 0.945 0.954 0.961 0.966 0.970 0.972 0.973 0.974 0.974 0.974 0.973 0.972 0.970 0.966 0.961 0.953 0.943 0.930 0.914 0.894 0.869 0.838 0.801 0.757 0.704 0.640 0.558 0.438 0.216 0.000 0.000 0.000 
0.000 0.785 0.785 0.875 0.739 0.627 0.563 0.526 0.505 0.494 0.488 0.486 0.485 0.485 0.486 0.488 0.491 0.495 0.500 0.506 0.513 0.521 0.529 0.540 0.551 0.563 0.576 0.591 0.607 0.625 0.643 0.664 0.686 0.709 0.735 0.762 0.792 0.823 0.857 0.893 0.931 0.972 1.011 1.049 1.084 1.117 1.147 1.175 1.202 1.226 1.248 1.268 1.286 1.302 1.317 1.330 1.341 1.351 1.359 1.366 1.372 1.377 1.381 1.383 1.385 1.387 1.388 1.388 1.388 1.388 1.388 1.388 1.387 1.386 1.384 1.382 1.379 1.374 1.369 1.362 1.354 1.344 1.333 1.320 1.305 1.287 1.268 1.246 1.222 1.195 1.165 1.132 1.097 1.058 1.016 0.975 0.938 0.903 0.872 0.845 0.820 0.798 0.779 0.763 0.749 0.738 0.728 0.721 0.715 0.711 0.708 0.706 0.705 0.704 0.704 0.704 0.705 0.705 0.707 0.709 0.712 0.717 0.723 0.731 0.741 0.752 0.766 0.782 0.799 0.820 0.842 0.866 0.886 0.905 0.920 0.934 0.945 0.954 0.961 0.966 0.970 0.972 0.974 0.974 0.974 0.974 0.974 0.973 0.971 0.967 0.962 0.955 0.946 0.933 0.918 0.899 0.875 0.847 0.814 0.775 0.728 0.670 0.594 0.482 0.288 0.000 0.000 0.000 
0.000 0.571 0.571 0.683 0.660 0.596 0.545 0.516 0.499 0.491 0.486 0.485 0.485 0.485 0.486 0.488 0.491 0.495 0.500 0.506 0.512 0.520 0.529 0.539 0.549 0.562 0.575 0.589 0.605 0.623 0.641 0.662 0.684 0.707 0.733 0.760 0.790 0.821 0.855 0.891 0.929 0.970 1.010 1.047 1.083 1.116 1.146 1.175 1.201 1.225 1.248 1.268 1.286 1.302 1.317 1.330 1.342 1.352 1.360 1.367 1.373 1.378 1.382 1.384 1.387 1.388 1.389 1.389 1.390 1.390 1.389 1.389 1.389 1.388 1.386 1.384 1.381 1.376 1.371 1.365 1.357 1.347 1.336 1.324 1.309 1.292 1.273 1.252 1.228 1.201 1.172 1.140 1.105 1.067 1.026 0.984 0.946 0.911 0.879 0.851 0.826 0.803 0.784 0.767 0.753 0.741 0.731 0.723 0.717 0.713 0.710 0.708 0.706 0.706 0.706 0.706 0.706 0.707 0.708 0.710 0.713 0.718 0.724 0.732 0.741 0.752 0.766 0.781 0.799 0.819 0.842 0.865 0.886 0.904 0.920 0.934 0.945 0.954 0.961 0.967 0.971 0.973 0.975 0.975 0.976 0.976 0.975 0.974 0.972 0.969 0.965 0.958 0.949 0.938 0.924 0.906 0.885 0.861 0.832 0.800 0.764 0.722 0.676 0.628 0.576 0.520 0.520 0.000 
0.000 0.366 0.366 0.474 0.505 0.514 0.502 0.491 0.485 0.482 0.481 0.482 0.482 0.484 0.486 0.488 0.492 0.496 0.500 0.506 0.513 0.520 0.528 0.538 0.548 0.560 0.573 0.587 0.603 0.620 0.639 0.659 0.681 0.705 0.730 0.758 0.787 0.818 0.852 0.888 0.927 0.967 1.008 1.046 1.081 1.115 1.146 1.174 1.201 1.225 1.247 1.268 1.286 1.302 1.317 1.330 1.342 1.352 1.360 1.368 1.374 1.378 1.382 1.385 1.387 1.389 1.390 1.390 1.391 1.391 1.391 1.390 1.390 1.389 1.387 1.385 1.382 1.378 1.373 1.367 1.359 1.350 1.340 1.327 1.313 1.296 1.278 1.257 1.234 1.208 1.179 1.148 1.114 1.076 1.036 0.994 0.955 0.919 0.887 0.858 0.832 0.809 0.789 0.772 0.757 0.745 0.735 0.727 0.720 0.715 0.712 0.710 0.708 0.708 0.708 0.708 0.708 0.708 0.709 0.712 0.715 0.719 0.725 0.732 0.741 0.753 0.766 0.781 0.799 0.819 0.841 0.864 0.885 0.904 0.920 0.934 0.945 0.954 0.962 0.967 0.972 0.974 0.976 0.977 0.977 0.977 0.977 0.976 0.975 0.972 0.968 0.962 0.954 0.944 0.932 0.917 0.899 0.879 0.857 0.835 0.815 0.800 0.793 0.807 0.873 1.054 1.054 0.000 
0.000 0.213 0.213 0.304 0.374 0.416 0.439 0.453 0.462 0.468 0.472 0.476 0.479 0.482 0.485 0.489 0.492 0.496 0.501 0.507 0.513 0.520 0.528 0.537 0.547 0.558 0.571 0.585 0.600 0.617 0.636 0.656 0.678 0.701 0.727 0.754 0.784 0.815 0.849 0.885 0.923 0.964 1.005 1.043 1.079 1.113 1.144 1.173 1.200 1.225 1.247 1.267 1.286 1.302 1.317 1.330 1.342 1.352 1.360 1.368 1.374 1.379 1.383 1.386 1.388 1.390 1.391 1.391 1.391 1.392 1.391 1.391 1.391 1.390 1.389 1.387 1.384 1.380 1.375 1.369 1.362 1.353 1.343 1.330 1.317 1.301 1.282 1.262 1.239 1.214 1.186 1.155 1.122 1.085 1.045 1.003 0.964 0.928 0.895 0.865 0.838 0.815 0.795 0.777 0.762 0.749 0.738 0.730 0.723 0.718 0.715 0.712 0.711 0.710 0.710 0.710 0.710 0.710 0.711 0.713 0.716 0.720 0.726 0.733 0.742 0.753 0.766 0.781 0.799 0.818 0.840 0.864 0.885 0.903 0.920 0.933 0.945 0.955 0.962 0.968 0.973 0.976 0.978 0.979 0.980 0.980 0.979 0.979 0.978 0.975 0.972 0.967 0.961 0.952 0.942 0.930 0.915 0.901 0.888 0.878 0.873 0.872 0.879 0.907 0.977 1.054 1.054 0.000 
0.000 0.154 0.154 0.208 0.286 0.353 0.398 0.426 0.444 0.457 0.465 0.471 0.476 0.481 0.485 0.489 0.493 0.497 0.502 0.507 0.513 0.519 0.527 0.535 0.545 0.556 0.569 0.582 0.597 0.614 0.632 0.652 0.674 0.698 0.723 0.750 0.779 0.811 0.845 0.881 0.919 0.960 1.002 1.040 1.077 1.111 1.143 1.172 1.199 1.224 1.246 1.267 1.285 1.302 1.317 1.330 1.342 1.352 1.361 1.368 1.374 1.379 1.383 1.386 1.388 1.390 1.391 1.392 1.392 1.392 1.392 1.392 1.392 1.391 1.389 1.388 1.385 1.381 1.377 1.371 1.364 1.355 1.345 1.333 1.320 1.304 1.287 1.267 1.245 1.220 1.193 1.163 1.130 1.094 1.055 1.013 0.973 0.936 0.903 0.873 0.845 0.822 0.801 0.782 0.767 0.754 0.743 0.734 0.727 0.722 0.718 0.715 0.714 0.713 0.712 0.712 0.712 0.713 0.714 0.716 0.718 0.722 0.728 0.735 0.743 0.754 0.767 0.782 0.799 0.818 0.840 0.863 0.884 0.903 0.919 0.934 0.945 0.955 0.963 0.970 0.974 0.978 0.980 0.982 0.982 0.983 0.983 0.982 0.982 0.980 0.977 0.974 0.969 0.962 0.954 0.945 0.935 0.926 0.920 0.917 0.917 0.920 0.932 0.960 1.012 1.051 1.051 0.000 
0.000 0.096 0.096 0.148 0.236 0.324 0.378 0.413 0.436 0.451 0.461 0.469 0.475 0.480 0.484 0.489 0.493 0.497 0.502 0.507 0.513 0.519 0.526 0.534 0.544 0.554 0.566 0.579 0.594 0.610 0.628 0.648 0.670 0.693 0.718 0.745 0.775 0.806 0.840 0.876 0.915 0.956 0.998 1.037 1.074 1.109 1.141 1.170 1.198 1.223 1.245 1.266 1.285 1.302 1.317 1.330 1.342 1.352 1.361 1.368 1.374 1.379 1.383 1.386 1.389 1.390 1.392 1.392 1.392 1.393 1.393 1.392 1.392 1.391 1.390 1.388 1.386 1.382 1.378 1.372 1.365 1.357 1.347 1.336 1.323 1.308 1.291 1.271 1.250 1.225 1.199 1.169 1.137 1.102 1.064 1.023 0.983 0.945 0.911 0.880 0.853 0.828 0.807 0.788 0.772 0.759 0.748 0.738 0.731 0.726 0.722 0.719 0.717 0.716 0.716 0.715 0.716 0.716 0.717 0.718 0.721 0.725 0.730 0.736 0.745 0.755 0.768 0.782 0.799 0.818 0.840 0.863 0.884 0.903 0.919 0.934 0.946 0.956 0.964 0.971 0.976 0.980 0.983 0.985 0.986 0.987 0.987 0.987 0.986 0.985 0.984 0.981 0.978 0.973 0.967 0.960 0.954 0.949 0.947 0.946 0.947 0.953 0.965 0.990 1.026 1.048 1.048 0.000 
0.000 0.036 0.036 0.100 0.225 0.316 0.372 0.408 0.433 0.449 0.460 0.468 0.475 0.480 0.484 0.489 0.493 0.498 0.502 0.507 0.512 0.518 0.525 0.533 0.542 0.552 0.563 0.576 0.590 0.606 0.624 0.643 0.664 0.688 0.713 0.740 0.769 0.801 0.834 0.871 0.910 0.951 0.993 1.033 1.071 1.106 1.138 1.168 1.196 1.221 1.244 1.265 1.284 1.301 1.316 1.330 1.342 1.352 1.360 1.368 1.374 1.379 1.383 1.386 1.389 1.391 1.392 1.392 1.393 1.393 1.393 1.393 1.392 1.392 1.391 1.389 1.386 1.383 1.379 1.373 1.367 1.359 1.349 1.338 1.325 1.311 1.294 1.275 1.254 1.231 1.205 1.176 1.145 1.110 1.073 1.033 0.992 0.954 0.920 0.889 0.861 0.836 0.814 0.795 0.778 0.764 0.753 0.743 0.736 0.730 0.726 0.723 0.721 0.720 0.719 0.719 0.719 0.719 0.720 0.722 0.724 0.727 0.732 0.739 0.747 0.757 0.769 0.783 0.799 0.818 0.839 0.862 0.884 0.903 0.919 0.934 0.946 0.957 0.966 0.973 0.979 0.983 0.986 0.989 0.990 0.991 0.991 0.992 0.991 0.991 0.990 0.989 0.986 0.983 0.979 0.974 0.970 0.968 0.967 0.967 0.969 0.975 0.986 1.006 1.032 1.046 1.046 0.000 
0.000 0.134 0.134 0.118 0.241 0.320 0.373 0.408 0.432 0.449 0.460 0.469 0.475 0.480 0.485 0.489 0.493 0.498 0.502 0.507 0.512 0.518 0.524 0.531 0.540 0.549 0.560 0.572 0.586 0.602 0.619 0.638 0.659 0.682 0.706 0.733 0.763 0.794 0.828 0.865 0.904 0.945 0.988 1.029 1.067 1.102 1.135 1.166 1.194 1.219 1.243 1.264 1.283 1.300 1.316 1.329 1.341 1.352 1.360 1.368 1.374 1.379 1.383 1.387 1.389 1.391 1.392 1.393 1.393 1.393 1.393 1.393 1.393 1.392 1.391 1.389 1.387 1.384 1.380 1.374 1.368 1.360 1.351 1.340 1.328 1.313 1.297 1.279 1.258 1.235 1.210 1.182 1.151 1.118 1.082 1.042 1.002 0.964 0.929 0.897 0.869 0.844 0.821 0.802 0.785 0.771 0.759 0.749 0.741 0.735 0.731 0.727 0.725 0.724 0.723 0.723 0.723 0.723 0.724 0.725 0.728 0.731 0.735 0.741 0.749 0.759 0.770 0.784 0.800 0.819 0.839 0.862 0.883 0.903 0.920 0.934 0.947 0.958 0.967 0.975 0.981 0.986 0.989 0.992 0.994 0.995 0.996 0.996 0.996 0.996 0.996 0.995 0.993 0.991 0.988 0.985 0.983 0.982 0.982 0.983 0.985 0.991 1.000 1.016 1.034 1.043 1.043 0.000 
0.000 0.471 0.471 0.301 0.314 0.343 0.378 0.412 0.435 0.451 0.462 0.470 0.476 0.481 0.485 0.490 0.494 0.498 0.502 0.506 0.511 0.516 0.522 0.529 0.537 0.546 0.557 0.568 0.582 0.597 0.613 0.632 0.652 0.675 0.699 0.726 0.755 0.787 0.821 0.858 0.897 0.939 0.982 1.024 1.062 1.098 1.132 1.163 1.191 1.217 1.241 1.262 1.282 1.299 1.315 1.329 1.341 1.351 1.360 1.368 1.374 1.379 1.383 1.387 1.389 1.391 1.392 1.393 1.393 1.393 1.393 1.393 1.393 1.392 1.391 1.389 1.387 1.384 1.380 1.375 1.369 1.361 1.352 1.342 1.330 1.316 1.300 1.282 1.262 1.240 1.215 1.188 1.158 1.125 1.090 1.051 1.011 0.973 0.938 0.906 0.877 0.852 0.829 0.809 0.792 0.777 0.765 0.755 0.747 0.741 0.736 0.732 0.730 0.729 0.728 0.728 0.728 0.728 0.728 0.730 0.732 0.735 0.739 0.745 0.752 0.761 0.772 0.786 0.801 0.819 0.839 0.862 0.883 0.903 0.920 0.935 0.948 0.959 0.969 0.976 0.983 0.988 0.992 0.995 0.997 0.998 0.999 1.000 1.000 1.000 1.000 1.000 0.999 0.997 0.996 0.994 0.994 0.993 0.994 0.995 0.997 1.002 1.010 1.022 1.034 1.041 1.041 0.000 
0.000 0.524 0.524 0.445 0.377 0.376 0.395 0.422 0.442 0.456 0.466 0.473 0.478 0.483 0.487 0.491 0.494 0.498 0.502 0.506 0.510 0.515 0.521 0.527 0.535 0.543 0.553 0.564 0.577 0.591 0.607 0.625 0.645 0.667 0.692 0.718 0.747 0.779 0.813 0.850 0.890 0.932 0.976 1.018 1.057 1.094 1.128 1.159 1.188 1.214 1.239 1.261 1.280 1.298 1.314 1.328 1.340 1.351 1.360 1.367 1.374 1.379 1.383 1.386 1.389 1.391 1.392 1.393 1.393 1.393 1.393 1.393 1.393 1.392 1.391 1.390 1.387 1.384 1.380 1.376 1.370 1.362 1.354 1.343 1.332 1.318 1.302 1.285 1.265 1.244 1.219 1.193 1.164 1.132 1.097 1.060 1.020 0.982 0.947 0.915 0.886 0.860 0.837 0.817 0.799 0.785 0.772 0.762 0.753 0.747 0.742 0.738 0.736 0.734 0.733 0.733 0.733 0.733 0.734 0.735 0.736 0.739 0.743 0.748 0.755 0.764 0.775 0.788 0.803 0.820 0.840 0.862 0.883 0.903 0.920 0.935 0.949 0.960 0.970 0.978 0.984 0.989 0.994 0.997 0.999 1.001 1.002 1.003 1.003 1.004 1.004 1.003 1.003 1.003 1.002 1.001 1.001 1.001 1.002 1.004 1.006 1.010 1.017 1.025 1.034 1.038 1.038 0.000 
0.000 0.187 0.187 0.361 0.389 0.409 0.425 0.443 0.457 0.466 0.473 0.478 0.482 0.486 0.489 0.492 0.495 0.498 0.501 0.505 0.509 0.513 0.519 0.525 0.532 0.540 0.549 0.560 0.572 0.586 0.601 0.618 0.638 0.659 0.683 0.709 0.738 0.770 0.804 0.842 0.882 0.924 0.969 1.012 1.052 1.089 1.123 1.155 1.184 1.211 1.236 1.258 1.278 1.296 1.312 1.327 1.339 1.350 1.359 1.367 1.373 1.379 1.383 1.386 1.389 1.391 1.392 1.393 1.393 1.393 1.393 1.393 1.393 1.392 1.391 1.390 1.387 1.385 1.381 1.376 1.370 1.363 1.354 1.344 1.333 1.320 1.305 1.288 1.268 1.247 1.224 1.197 1.169 1.138 1.104 1.067 1.028 0.991 0.956 0.924 0.895 0.869 0.846 0.825 0.808 0.792 0.779 0.769 0.760 0.753 0.748 0.744 0.742 0.740 0.739 0.739 0.739 0.739 0.739 0.740 0.742 0.744 0.748 0.753 0.759 0.768 0.778 0.790 0.805 0.821 0.840 0.862 0.883 0.903 0.920 0.936 0.949 0.961 0.970 0.979 0.985 0.991 0.995 0.998 1.001 1.003 1.004 1.005 1.006 1.006 1.006 1.006 1.006 1.006 1.006 1.006 1.007 1.007 1.009 1.011 1.014 1.017 1.022 1.028 1.033 1.035 1.035 0.000 
0.000 0.200 0.200 0.269 0.405 0.449 0.466 0.475 0.480 0.483 0.485 0.487 0.489 0.491 0.492 0.494 0.496 0.498 0.501 0.504 0.507 0.511 0.516 0.522 0.528 0.536 0.545 0.555 0.566 0.580 0.594 0.611 0.630 0.651 0.674 0.700 0.729 0.761 0.795 0.833 0.873 0.916 0.961 1.005 1.045 1.083 1.118 1.151 1.181 1.208 1.233 1.256 1.276 1.294 1.311 1.325 1.338 1.349 1.358 1.366 1.373 1.378 1.383 1.386 1.389 1.390 1.392 1.392 1.393 1.393 1.393 1.393 1.393 1.392 1.391 1.390 1.387 1.385 1.381 1.376 1.370 1.363 1.355 1.345 1.334 1.321 1.306 1.290 1.271 1.250 1.227 1.202 1.174 1.143 1.110 1.074 1.036 0.998 0.964 0.932 0.903 0.877 0.854 0.833 0.816 0.800 0.787 0.776 0.768 0.761 0.755 0.751 0.748 0.747 0.746 0.745 0.745 0.745 0.745 0.746 0.747 0.750 0.753 0.758 0.764 0.772 0.781 0.793 0.807 0.823 0.841 0.862 0.884 0.903 0.921 0.936 0.950 0.961 0.971 0.979 0.986 0.992 0.996 1.000 1.002 1.004 1.006 1.007 1.007 1.008 1.008 1.008 1.009 1.009 1.009 1.010 1.010 1.011 1.013 1.016 1.019 1.023 1.026 1.029 1.031 1.033 1.033 0.000 
0.000 0.650 0.650 0.420 0.486 0.516 0.522 0.519 0.513 0.506 0.502 0.498 0.496 0.496 0.495 0.496 0.496 0.498 0.500 0.502 0.505 0.509 0.513 0.518 0.525 0.532 0.540 0.550 0.561 0.573 0.587 0.604 0.622 0.643 0.666 0.692 0.721 0.752 0.787 0.824 0.864 0.908 0.953 0.998 1.039 1.077 1.113 1.146 1.176 1.204 1.229 1.252 1.273 1.292 1.309 1.323 1.336 1.347 1.357 1.365 1.372 1.378 1.382 1.386 1.388 1.390 1.391 1.392 1.393 1.393 1.393 1.393 1.393 1.392 1.391 1.390 1.387 1.385 1.381 1.376 1.371 1.364 1.356 1.346 1.335 1.322 1.308 1.292 1.273 1.253 1.231 1.206 1.178 1.149 1.116 1.081 1.043 1.006 0.971 0.940 0.911 0.885 0.862 0.841 0.823 0.808 0.795 0.784 0.775 0.768 0.762 0.758 0.755 0.753 0.752 0.752 0.751 0.751 0.752 0.752 0.754 0.756 0.759 0.763 0.769 0.776 0.785 0.797 0.810 0.825 0.843 0.862 0.884 0.904 0.921 0.937 0.950 0.962 0.972 0.980 0.987 0.992 0.997 1.000 1.003 1.005 1.007 1.008 1.008 1.009 1.009 1.010 1.010 1.011 1.011 1.012 1.012 1.014 1.016 1.020 1.024 1.028 1.030 1.031 1.031 1.030 1.030 0.000 
0.000 0.925 0.925 0.762 0.665 0.619 0.588 0.562 0.541 0.525 0.514 0.507 0.502 0.499 0.497 0.497 0.497 0.497 0.498 0.500 0.503 0.506 0.510 0.515 0.521 0.527 0.535 0.544 0.555 0.567 0.581 0.597 0.615 0.636 0.659 0.685 0.713 0.744 0.779 0.816 0.856 0.899 0.945 0.990 1.032 1.071 1.107 1.141 1.171 1.200 1.226 1.249 1.270 1.289 1.306 1.321 1.334 1.346 1.356 1.364 1.371 1.377 1.381 1.385 1.388 1.390 1.391 1.392 1.392 1.393 1.393 1.393 1.392 1.392 1.391 1.389 1.387 1.385 1.381 1.376 1.371 1.364 1.356 1.347 1.336 1.323 1.309 1.293 1.276 1.256 1.234 1.209 1.182 1.153 1.122 1.087 1.050 1.013 0.979 0.947 0.918 0.892 0.869 0.848 0.830 0.815 0.801 0.790 0.781 0.774 0.768 0.764 0.761 0.759 0.758 0.757 0.757 0.757 0.757 0.758 0.759 0.761 0.764 0.768 0.774 0.781 0.789 0.800 0.813 0.827 0.844 0.863 0.884 0.904 0.921 0.937 0.950 0.962 0.972 0.980 0.987 0.993 0.997 1.001 1.004 1.006 1.007 1.008 1.009 1.010 1.010 1.011 1.011 1.011 1.012 1.013 1.014 1.015 1.018 1.021 1.027 1.032 1.034 1.034 1.033 1.028 1.028 0.000 
0.000 0.999 0.999 0.924 0.787 0.692 0.631 0.589 0.559 0.537 0.522 0.512 0.505 0.500 0.498 0.497 0.496 0.497 0.497 0.498 0.500 0.503 0.506 0.511 0.516 0.522 0.530 0.539 0.549 0.561 0.574 0.590 0.608 0.629 0.652 0.678 0.706 0.737 0.771 0.808 0.848 0.891 0.936 0.982 1.024 1.064 1.101 1.135 1.166 1.195 1.221 1.245 1.267 1.286 1.303 1.319 1.332 1.344 1.354 1.362 1.370 1.375 1.380 1.384 1.387 1.389 1.390 1.391 1.392 1.392 1.392 1.392 1.392 1.391 1.391 1.389 1.387 1.384 1.381 1.376 1.371 1.364 1.356 1.347 1.336 1.324 1.310 1.295 1.277 1.258 1.236 1.212 1.186 1.158 1.126 1.093 1.056 1.020 0.985 0.954 0.925 0.899 0.875 0.855 0.837 0.821 0.808 0.796 0.787 0.780 0.774 0.770 0.767 0.765 0.763 0.763 0.762 0.762 0.763 0.763 0.764 0.766 0.769 0.773 0.778 0.785 0.793 0.803 0.815 0.830 0.846 0.864 0.885 0.904 0.922 0.937 0.950 0.962 0.972 0.980 0.987 0.993 0.998 1.001 1.004 1.006 1.008 1.009 1.009 1.010 1.011 1.011 1.011 1.012 1.012 1.013 1.014 1.016 1.018 1.022 1.028 1.035 1.040 1.041 1.040 1.030 1.030 0.000 
0.000 0.994 0.994 0.960 0.833 0.724 0.652 0.602 0.568 0.543 0.526 0.514 0.506 0.501 0.498 0.496 0.496 0.496 0.496 0.496 0.498 0.500 0.503 0.507 0.512 0.517 0.525 0.533 0.543 0.555 0.569 0.584 0.602 0.623 0.646 0.672 0.700 0.731 0.765 0.801 0.841 0.883 0.928 0.974 1.017 1.057 1.094 1.129 1.161 1.190 1.217 1.241 1.263 1.282 1.300 1.316 1.329 1.341 1.352 1.361 1.368 1.374 1.379 1.383 1.386 1.388 1.390 1.391 1.391 1.391 1.392 1.391 1.391 1.391 1.390 1.389 1.387 1.384 1.381 1.376 1.371 1.364 1.356 1.347 1.337 1.325 1.311 1.296 1.279 1.260 1.238 1.215 1.189 1.161 1.131 1.098 1.062 1.026 0.991 0.960 0.931 0.905 0.881 0.861 0.843 0.827 0.813 0.802 0.793 0.785 0.779 0.775 0.771 0.769 0.768 0.767 0.767 0.767 0.767 0.768 0.768 0.770 0.773 0.777 0.782 0.788 0.796 0.806 0.818 0.831 0.847 0.865 0.885 0.904 0.922 0.937 0.951 0.962 0.972 0.980 0.987 0.993 0.998 1.001 1.004 1.006 1.008 1.009 1.010 1.010 1.011 1.011 1.011 1.012 1.012 1.013 1.014 1.016 1.018 1.022 1.028 1.037 1.047 1.055 1.060 1.064 1.064 0.000 
0.000 0.908 0.908 0.935 0.840 0.732 0.658 0.607 0.571 0.545 0.527 0.515 0.506 0.501 0.497 0.495 0.494 0.494 0.494 0.494 0.495 0.496 0.499 0.502 0.507 0.512 0.519 0.528 0.538 0.550 0.563 0.579 0.597 0.618 0.641 0.666 0.694 0.725 0.758 0.795 0.833 0.875 0.920 0.966 1.009 1.050 1.088 1.122 1.155 1.184 1.212 1.236 1.259 1.279 1.297 1.313 1.327 1.339 1.349 1.358 1.366 1.372 1.377 1.382 1.385 1.387 1.389 1.390 1.390 1.391 1.391 1.391 1.391 1.390 1.389 1.388 1.386 1.384 1.380 1.376 1.371 1.364 1.356 1.347 1.337 1.325 1.312 1.297 1.280 1.261 1.240 1.217 1.192 1.165 1.135 1.102 1.067 1.031 0.997 0.965 0.936 0.910 0.887 0.866 0.848 0.832 0.818 0.807 0.797 0.790 0.784 0.779 0.776 0.773 0.772 0.771 0.771 0.771 0.771 0.771 0.772 0.774 0.776 0.780 0.785 0.791 0.799 0.808 0.820 0.833 0.848 0.866 0.885 0.905 0.922 0.937 0.951 0.962 0.972 0.980 0.987 0.993 0.998 1.001 1.004 1.006 1.008 1.009 1.010 1.010 1.011 1.011 1.011 1.012 1.012 1.013 1.014 1.015 1.018 1.022 1.028 1.037 1.052 1.072 1.090 1.098 1.098 0.000 
0.000 0.809 0.809 0.853 0.811 0.729 0.657 0.607 0.571 0.546 0.527 0.514 0.506 0.500 0.496 0.494 0.492 0.492 0.491 0.491 0.492 0.493 0.495 0.498 0.502 0.508 0.515 0.523 0.533 0.545 0.558 0.574 0.593 0.613 0.636 0.661 0.689 0.720 0.753 0.788 0.827 0.868 0.912 0.957 1.001 1.042 1.080 1.116 1.149 1.179 1.206 1.231 1.254 1.274 1.293 1.309 1.323 1.336 1.347 1.356 1.364 1.370 1.376 1.380 1.383 1.386 1.387 1.388 1.389 1.389 1.390 1.390 1.389 1.389 1.388 1.387 1.385 1.383 1.380 1.375 1.370 1.364 1.356 1.347 1.337 1.325 1.312 1.297 1.281 1.262 1.242 1.219 1.195 1.168 1.138 1.106 1.072 1.036 1.002 0.970 0.941 0.915 0.892 0.871 0.853 0.837 0.823 0.811 0.802 0.794 0.788 0.783 0.779 0.777 0.776 0.775 0.774 0.774 0.774 0.775 0.775 0.777 0.779 0.783 0.787 0.793 0.801 0.810 0.821 0.834 0.849 0.866 0.885 0.905 0.922 0.937 0.951 0.962 0.972 0.980 0.987 0.993 0.998 1.001 1.004 1.006 1.008 1.009 1.009 1.010 1.010 1.011 1.011 1.011 1.012 1.012 1.013 1.014 1.016 1.020 1.026 1.036 1.052 1.079 1.111 1.123 1.123 0.000 
0.000 0.698 0.698 0.753 0.740 0.702 0.649 0.603 0.569 0.544 0.526 0.513 0.504 0.498 0.494 0.491 0.489 0.488 0.488 0.488 0.488 0.489 0.491 0.494 0.498 0.503 0.510 0.518 0.528 0.540 0.554 0.570 0.588 0.609 0.632 0.657 0.684 0.714 0.747 0.782 0.820 0.861 0.904 0.949 0.993 1.035 1.073 1.109 1.142 1.173 1.200 1.226 1.249 1.270 1.288 1.305 1.320 1.332 1.344 1.353 1.361 1.368 1.373 1.378 1.381 1.384 1.386 1.387 1.388 1.388 1.388 1.388 1.388 1.388 1.387 1.386 1.384 1.382 1.379 1.375 1.370 1.363 1.356 1.347 1.337 1.326 1.312 1.298 1.281 1.263 1.243 1.221 1.197 1.170 1.141 1.110 1.076 1.041 1.006 0.975 0.946 0.920 0.896 0.875 0.857 0.841 0.827 0.815 0.805 0.797 0.791 0.786 0.782 0.780 0.778 0.778 0.777 0.777 0.777 0.777 0.778 0.780 0.782 0.785 0.789 0.795 0.803 0.812 0.822 0.835 0.850 0.867 0.885 0.905 0.922 0.937 0.951 0.962 0.972 0.980 0.987 0.993 0.997 1.001 1.004 1.006 1.007 1.008 1.009 1.010 1.010 1.010 1.010 1.010 1.010 1.010 1.010 1.011 1.012 1.015 1.021 1.031 1.048 1.078 1.121 1.146 1.146 0.000 
0.000 0.594 0.594 0.646 0.649 0.644 0.624 0.593 0.563 0.539 0.522 0.509 0.500 0.494 0.490 0.487 0.485 0.484 0.484 0.484 0.484 0.485 0.487 0.489 0.493 0.499 0.506 0.514 0.524 0.536 0.550 0.567 0.585 0.605 0.628 0.653 0.680 0.710 0.742 0.777 0.814 0.854 0.896 0.941 0.986 1.027 1.066 1.102 1.135 1.166 1.195 1.220 1.244 1.265 1.284 1.301 1.316 1.329 1.340 1.350 1.358 1.365 1.371 1.376 1.379 1.382 1.384 1.385 1.386 1.386 1.387 1.387 1.387 1.386 1.386 1.385 1.383 1.381 1.378 1.374 1.369 1.363 1.356 1.347 1.337 1.326 1.313 1.298 1.282 1.264 1.244 1.222 1.198 1.172 1.144 1.113 1.080 1.045 1.010 0.979 0.950 0.924 0.900 0.879 0.860 0.844 0.830 0.818 0.808 0.800 0.794 0.789 0.785 0.782 0.781 0.780 0.779 0.779 0.779 0.780 0.780 0.782 0.784 0.787 0.791 0.797 0.804 0.813 0.823 0.836 0.850 0.867 0.885 0.905 0.922 0.937 0.950 0.962 0.972 0.980 0.987 0.993 0.997 1.001 1.003 1.005 1.007 1.008 1.008 1.009 1.009 1.009 1.009 1.009 1.008 1.007 1.007 1.006 1.006 1.007 1.011 1.019 1.036 1.068 1.120 1.154 1.154 0.000 
0.000 0.494 0.494 0.547 0.567 0.578 0.580 0.570 0.550 0.530 0.515 0.503 0.494 0.488 0.484 0.481 0.480 0.479 0.479 0.479 0.479 0.480 0.482 0.485 0.489 0.495 0.502 0.510 0.521 0.533 0.547 0.563 0.582 0.602 0.624 0.649 0.676 0.705 0.737 0.771 0.808 0.847 0.889 0.933 0.978 1.020 1.059 1.095 1.129 1.160 1.188 1.214 1.238 1.260 1.279 1.296 1.311 1.325 1.336 1.346 1.355 1.362 1.368 1.373 1.377 1.379 1.382 1.383 1.384 1.384 1.385 1.385 1.385 1.384 1.384 1.383 1.381 1.379 1.376 1.373 1.368 1.362 1.355 1.347 1.337 1.325 1.313 1.298 1.282 1.264 1.245 1.223 1.200 1.174 1.146 1.116 1.083 1.048 1.014 0.983 0.954 0.927 0.903 0.882 0.863 0.847 0.833 0.821 0.811 0.803 0.796 0.791 0.787 0.784 0.783 0.782 0.781 0.781 0.781 0.781 0.782 0.783 0.785 0.788 0.792 0.798 0.805 0.814 0.824 0.836 0.851 0.867 0.885 0.904 0.922 0.937 0.950 0.962 0.972 0.980 0.987 0.992 0.997 1.000 1.003 1.005 1.006 1.007 1.007 1.008 1.008 1.007 1.007 1.006 1.005 1.003 1.001 0.998 0.996 0.994 0.993 0.997 1.010 1.039 1.100 1.158 1.158 0.000 
0.000 0.436 0.436 0.474 0.506 0.523 0.532 0.534 0.528 0.516 0.502 0.492 0.485 0.479 0.476 0.474 0.473 0.472 0.472 0.473 0.473 0.475 0.477 0.480 0.485 0.491 0.498 0.507 0.518 0.530 0.544 0.561 0.579 0.599 0.621 0.645 0.672 0.701 0.732 0.766 0.802 0.840 0.882 0.926 0.970 1.012 1.051 1.088 1.122 1.153 1.182 1.208 1.232 1.254 1.274 1.291 1.307 1.320 1.332 1.343 1.351 1.359 1.365 1.370 1.374 1.377 1.379 1.380 1.381 1.382 1.382 1.382 1.382 1.382 1.382 1.381 1.380 1.378 1.375 1.371 1.367 1.361 1.354 1.346 1.336 1.325 1.312 1.298 1.282 1.265 1.245 1.224 1.201 1.176 1.148 1.118 1.086 1.051 1.017 0.986 0.957 0.930 0.906 0.885 0.866 0.850 0.835 0.823 0.813 0.804 0.798 0.793 0.789 0.786 0.784 0.783 0.783 0.782 0.782 0.783 0.783 0.784 0.786 0.789 0.793 0.799 0.806 0.814 0.824 0.836 0.851 0.867 0.885 0.904 0.922 0.937 0.950 0.961 0.971 0.979 0.986 0.992 0.996 0.999 1.002 1.003 1.005 1.005 1.006 1.006 1.005 1.005 1.004 1.003 1.000 0.997 0.993 0.988 0.981 0.974 0.965 0.958 0.958 0.975 1.036 1.142 1.142 0.000 
0.000 0.410 0.410 0.433 0.460 0.477 0.488 0.494 0.496 0.493 0.485 0.477 0.472 0.468 0.465 0.464 0.464 0.464 0.464 0.465 0.467 0.469 0.472 0.476 0.481 0.487 0.494 0.504 0.515 0.527 0.542 0.558 0.576 0.596 0.618 0.642 0.668 0.696 0.727 0.760 0.796 0.834 0.875 0.918 0.962 1.004 1.044 1.080 1.114 1.146 1.175 1.202 1.226 1.248 1.268 1.286 1.302 1.315 1.328 1.338 1.347 1.355 1.361 1.366 1.370 1.374 1.376 1.378 1.379 1.379 1.380 1.380 1.380 1.380 1.379 1.378 1.377 1.375 1.373 1.369 1.365 1.359 1.353 1.345 1.335 1.325 1.312 1.298 1.282 1.265 1.246 1.225 1.202 1.177 1.149 1.120 1.088 1.054 1.020 0.988 0.959 0.933 0.909 0.887 0.868 0.852 0.837 0.825 0.814 0.806 0.799 0.794 0.790 0.787 0.785 0.784 0.784 0.783 0.783 0.784 0.784 0.785 0.787 0.790 0.794 0.799 0.806 0.814 0.824 0.837 0.851 0.867 0.885 0.904 0.921 0.936 0.950 0.961 0.971 0.979 0.985 0.991 0.995 0.998 1.000 1.002 1.003 1.003 1.003 1.003 1.003 1.002 1.000 0.998 0.995 0.990 0.983 0.974 0.963 0.948 0.929 0.905 0.878 0.853 0.870 1.006 1.006 0.000 
0.000 0.384 0.384 0.403 0.423 0.437 0.447 0.455 0.461 0.463 0.462 0.458 0.455 0.453 0.452 0.452 0.452 0.453 0.455 0.457 0.459 0.462 0.466 0.470 0.476 0.483 0.491 0.501 0.512 0.525 0.540 0.556 0.574 0.593 0.615 0.638 0.664 0.692 0.722 0.755 0.790 0.828 0.868 0.910 0.954 0.996 1.036 1.073 1.107 1.139 1.168 1.195 1.220 1.242 1.262 1.280 1.296 1.310 1.323 1.334 1.343 1.351 1.357 1.362 1.367 1.370 1.373 1.374 1.375 1.376 1.377 1.377 1.377 1.377 1.376 1.376 1.374 1.373 1.370 1.367 1.363 1.358 1.351 1.343 1.334 1.324 1.312 1.298 1.282 1.265 1.246 1.225 1.202 1.178 1.151 1.122 1.090 1.056 1.022 0.991 0.962 0.935 0.911 0.889 0.870 0.853 0.839 0.826 0.816 0.807 0.800 0.795 0.791 0.788 0.786 0.785 0.784 0.784 0.784 0.784 0.785 0.786 0.788 0.790 0.794 0.799 0.806 0.814 0.825 0.837 0.851 0.867 0.885 0.904 0.921 0.936 0.949 0.960 0.970 0.978 0.984 0.989 0.993 0.996 0.998 1.000 1.000 1.000 1.000 1.000 1.000 0.998 0.996 0.993 0.988 0.981 0.971 0.959 0.943 0.924 0.900 0.869 0.825 0.751 0.597 0.435 0.435 0.000 
0.000 0.358 0.358 0.375 0.389 0.401 0.410 0.418 0.424 0.429 0.432 0.434 0.434 0.435 0.436 0.437 0.439 0.441 0.444 0.447 0.450 0.454 0.459 0.465 0.472 0.479 0.488 0.498 0.510 0.523 0.537 0.553 0.571 0.591 0.612 0.635 0.661 0.688 0.718 0.750 0.784 0.821 0.861 0.903 0.947 0.989 1.028 1.065 1.100 1.131 1.161 1.188 1.213 1.235 1.256 1.274 1.290 1.305 1.317 1.328 1.338 1.346 1.353 1.358 1.363 1.366 1.369 1.371 1.372 1.373 1.373 1.373 1.373 1.373 1.373 1.372 1.371 1.370 1.367 1.364 1.360 1.355 1.349 1.342 1.333 1.323 1.311 1.297 1.282 1.265 1.246 1.225 1.203 1.178 1.152 1.123 1.092 1.058 1.024 0.993 0.963 0.937 0.912 0.891 0.871 0.854 0.840 0.827 0.817 0.808 0.801 0.796 0.791 0.788 0.786 0.785 0.785 0.784 0.784 0.785 0.785 0.786 0.788 0.791 0.794 0.800 0.806 0.814 0.824 0.836 0.850 0.866 0.884 0.903 0.920 0.935 0.948 0.959 0.968 0.976 0.983 0.987 0.991 0.994 0.996 0.997 0.997 0.997 0.997 0.997 0.996 0.994 0.991 0.986 0.980 0.971 0.959 0.945 0.926 0.905 0.879 0.848 0.808 0.734 0.545 0.132 0.132 0.000 
0.000 0.332 0.332 0.348 0.358 0.368 0.376 0.383 0.390 0.395 0.400 0.405 0.409 0.413 0.416 0.420 0.423 0.427 0.431 0.436 0.441 0.447 0.453 0.460 0.467 0.476 0.485 0.496 0.508 0.521 0.535 0.551 0.569 0.588 0.609 0.632 0.657 0.684 0.713 0.745 0.779 0.815 0.854 0.895 0.939 0.981 1.020 1.057 1.092 1.124 1.154 1.181 1.206 1.229 1.249 1.268 1.284 1.299 1.312 1.323 1.333 1.341 1.348 1.354 1.358 1.362 1.365 1.367 1.368 1.369 1.369 1.369 1.369 1.369 1.369 1.369 1.368 1.366 1.364 1.361 1.357 1.353 1.347 1.339 1.331 1.321 1.309 1.296 1.281 1.265 1.246 1.225 1.203 1.179 1.152 1.124 1.093 1.060 1.026 0.994 0.965 0.938 0.914 0.892 0.872 0.855 0.841 0.828 0.817 0.809 0.801 0.796 0.792 0.789 0.787 0.785 0.785 0.785 0.785 0.785 0.785 0.786 0.788 0.791 0.795 0.800 0.806 0.814 0.824 0.836 0.850 0.866 0.884 0.902 0.919 0.934 0.947 0.958 0.967 0.974 0.980 0.985 0.989 0.991 0.992 0.993 0.993 0.993 0.993 0.992 0.991 0.989 0.985 0.979 0.972 0.962 0.949 0.933 0.913 0.889 0.862 0.837 0.809 0.773 0.718 0.686 0.686 0.000 
0.000 0.307 0.307 0.322 0.329 0.337 0.344 0.351 0.358 0.364 0.371 0.377 0.384 0.390 0.396 0.402 0.408 0.414 0.420 0.426 0.433 0.440 0.447 0.455 0.463 0.473 0.483 0.494 0.506 0.519 0.533 0.549 0.566 0.585 0.606 0.629 0.653 0.680 0.709 0.740 0.773 0.809 0.847 0.888 0.931 0.973 1.012 1.050 1.084 1.116 1.146 1.173 1.199 1.222 1.242 1.261 1.278 1.293 1.306 1.317 1.327 1.336 1.343 1.348 1.353 1.357 1.360 1.362 1.363 1.364 1.365 1.365 1.365 1.365 1.365 1.365 1.364 1.362 1.360 1.358 1.354 1.349 1.344 1.337 1.329 1.319 1.308 1.295 1.280 1.264 1.246 1.225 1.203 1.179 1.153 1.124 1.094 1.061 1.027 0.995 0.966 0.939 0.915 0.893 0.873 0.856 0.841 0.828 0.818 0.809 0.802 0.796 0.792 0.789 0.787 0.786 0.785 0.785 0.785 0.785 0.785 0.786 0.788 0.791 0.794 0.800 0.806 0.814 0.824 0.836 0.850 0.865 0.883 0.901 0.918 0.932 0.945 0.956 0.965 0.972 0.978 0.982 0.985 0.987 0.989 0.989 0.989 0.989 0.989 0.988 0.986 0.983 0.979 0.972 0.964 0.954 0.940 0.924 0.903 0.877 0.850 0.830 0.820 0.829 0.901 1.094 1.094 0.000 
0.000 0.281 0.281 0.296 0.301 0.308 0.315 0.322 0.329 0.337 0.344 0.353 0.362 0.371 0.379 0.387 0.394 0.402 0.409 0.417 0.425 0.433 0.442 0.450 0.460 0.470 0.480 0.492 0.504 0.517 0.531 0.547 0.564 0.583 0.603 0.625 0.649 0.676 0.704 0.735 0.767 0.803 0.840 0.880 0.923 0.965 1.004 1.042 1.076 1.108 1.138 1.166 1.191 1.214 1.235 1.254 1.271 1.286 1.299 1.311 1.321 1.330 1.337 1.343 1.348 1.352 1.355 1.357 1.359 1.360 1.360 1.360 1.361 1.360 1.360 1.360 1.359 1.358 1.356 1.354 1.350 1.346 1.340 1.334 1.326 1.317 1.306 1.293 1.279 1.263 1.245 1.225 1.203 1.179 1.153 1.125 1.095 1.062 1.028 0.996 0.967 0.940 0.915 0.893 0.874 0.856 0.841 0.829 0.818 0.809 0.802 0.796 0.792 0.789 0.787 0.786 0.785 0.785 0.785 0.785 0.785 0.786 0.788 0.791 0.794 0.799 0.806 0.814 0.824 0.835 0.849 0.864 0.882 0.900 0.916 0.931 0.943 0.954 0.962 0.969 0.975 0.979 0.982 0.983 0.984 0.985 0.985 0.984 0.984 0.983 0.981 0.977 0.972 0.966 0.957 0.946 0.932 0.916 0.895 0.870 0.843 0.825 0.820 0.833 0.913 1.092 1.092 0.000 
0.000 0.255 0.255 0.270 0.275 0.281 0.288 0.295 0.303 0.312 0.322 0.333 0.345 0.355 0.365 0.374 0.383 0.392 0.401 0.410 0.418 0.428 0.437 0.446 0.456 0.467 0.478 0.489 0.502 0.515 0.529 0.545 0.562 0.580 0.600 0.622 0.646 0.672 0.699 0.729 0.762 0.796 0.833 0.873 0.915 0.957 0.996 1.033 1.068 1.100 1.130 1.158 1.183 1.207 1.228 1.247 1.264 1.279 1.292 1.304 1.315 1.323 1.331 1.337 1.342 1.346 1.349 1.352 1.353 1.354 1.355 1.355 1.355 1.355 1.355 1.355 1.354 1.353 1.351 1.349 1.346 1.342 1.337 1.330 1.323 1.314 1.303 1.291 1.277 1.261 1.244 1.224 1.203 1.179 1.153 1.125 1.095 1.063 1.029 0.997 0.968 0.941 0.916 0.894 0.874 0.857 0.842 0.829 0.818 0.809 0.802 0.796 0.792 0.789 0.787 0.786 0.785 0.785 0.785 0.785 0.785 0.786 0.788 0.790 0.794 0.799 0.805 0.813 0.823 0.834 0.848 0.863 0.880 0.898 0.914 0.928 0.941 0.951 0.959 0.966 0.971 0.975 0.977 0.979 0.979 0.980 0.980 0.979 0.979 0.977 0.975 0.971 0.966 0.959 0.950 0.938 0.925 0.909 0.889 0.866 0.841 0.819 0.801 0.788 0.802 0.934 0.934 0.000 
0.000 0.229 0.229 0.244 0.249 0.255 0.263 0.271 0.280 0.291 0.304 0.318 0.330 0.342 0.353 0.363 0.373 0.383 0.393 0.403 0.413 0.423 0.433 0.443 0.453 0.464 0.475 0.487 0.500 0.513 0.527 0.543 0.559 0.578 0.597 0.619 0.642 0.667 0.695 0.724 0.756 0.790 0.827 0.865 0.907 0.949 0.988 1.025 1.060 1.092 1.122 1.150 1.175 1.199 1.220 1.239 1.256 1.272 1.285 1.297 1.308 1.317 1.324 1.330 1.336 1.340 1.343 1.346 1.347 1.349 1.349 1.350 1.350 1.350 1.350 1.349 1.349 1.348 1.346 1.344 1.341 1.337 1.332 1.326 1.319 1.310 1.300 1.288 1.275 1.260 1.242 1.223 1.202 1.179 1.153 1.125 1.096 1.064 1.030 0.998 0.968 0.941 0.916 0.894 0.874 0.857 0.842 0.829 0.818 0.809 0.802 0.796 0.792 0.789 0.787 0.785 0.785 0.784 0.784 0.785 0.785 0.786 0.788 0.790 0.794 0.799 0.805 0.813 0.822 0.833 0.846 0.861 0.878 0.896 0.912 0.926 0.938 0.947 0.956 0.962 0.967 0.970 0.972 0.973 0.974 0.974 0.974 0.974 0.973 0.971 0.969 0.965 0.959 0.952 0.943 0.931 0.918 0.902 0.884 0.863 0.840 0.815 0.782 0.721 0.568 0.383 0.383 0.000 
0.000 0.203 0.203 0.218 0.224 0.231 0.239 0.249 0.260 0.274 0.290 0.305 0.319 0.332 0.344 0.355 0.366 0.377 0.387 0.397 0.408 0.418 0.429 0.439 0.450 0.461 0.473 0.485 0.497 0.511 0.525 0.540 0.557 0.575 0.594 0.616 0.638 0.663 0.690 0.719 0.750 0.784 0.820 0.858 0.899 0.940 0.980 1.017 1.051 1.084 1.114 1.141 1.167 1.190 1.212 1.231 1.248 1.264 1.278 1.290 1.300 1.309 1.317 1.324 1.329 1.333 1.337 1.339 1.341 1.342 1.343 1.343 1.344 1.344 1.344 1.343 1.343 1.342 1.341 1.338 1.336 1.332 1.327 1.321 1.314 1.306 1.296 1.285 1.272 1.257 1.240 1.222 1.201 1.178 1.153 1.125 1.096 1.064 1.030 0.998 0.968 0.941 0.916 0.894 0.874 0.857 0.842 0.829 0.818 0.809 0.802 0.796 0.792 0.788 0.786 0.785 0.784 0.784 0.784 0.784 0.784 0.785 0.787 0.789 0.793 0.798 0.804 0.811 0.821 0.832 0.844 0.859 0.876 0.893 0.909 0.922 0.934 0.943 0.951 0.957 0.962 0.965 0.967 0.968 0.968 0.968 0.968 0.968 0.967 0.965 0.962 0.958 0.953 0.945 0.936 0.924 0.911 0.895 0.878 0.860 0.840 0.816 0.781 0.713 0.537 0.166 0.166 0.000 
0.000 0.178 0.178 0.193 0.200 0.208 0.217 0.229 0.244 0.262 0.280 0.296 0.311 0.324 0.337 0.349 0.360 0.371 0.382 0.393 0.404 0.415 0.425 0.436 0.447 0.459 0.470 0.482 0.495 0.508 0.523 0.538 0.554 0.572 0.591 0.612 0.635 0.659 0.685 0.714 0.745 0.778 0.813 0.850 0.890 0.932 0.971 1.008 1.043 1.075 1.105 1.133 1.158 1.182 1.203 1.223 1.240 1.256 1.269 1.282 1.292 1.302 1.310 1.316 1.322 1.326 1.330 1.332 1.334 1.336 1.336 1.337 1.337 1.337 1.337 1.337 1.336 1.336 1.334 1.332 1.330 1.326 1.322 1.316 1.309 1.301 1.292 1.281 1.268 1.254 1.238 1.220 1.199 1.177 1.152 1.125 1.096 1.064 1.031 0.999 0.969 0.941 0.916 0.894 0.874 0.857 0.842 0.829 0.818 0.809 0.801 0.796 0.791 0.788 0.786 0.784 0.784 0.783 0.783 0.783 0.784 0.785 0.786 0.788 0.792 0.796 0.802 0.810 0.819 0.829 0.842 0.857 0.873 0.890 0.905 0.918 0.930 0.939 0.946 0.952 0.956 0.959 0.961 0.962 0.962 0.962 0.962 0.962 0.961 0.959 0.956 0.952 0.946 0.939 0.929 0.918 0.904 0.889 0.873 0.858 0.843 0.825 0.801 0.767 0.722 0.712 0.712 0.000 
0.000 0.152 0.152 0.167 0.176 0.185 0.197 0.213 0.232 0.253 0.273 0.290 0.305 0.319 0.332 0.344 0.356 0.367 0.378 0.389 0.400 0.411 0.422 0.433 0.445 0.456 0.468 0.480 0.493 0.506 0.520 0.535 0.552 0.569 0.588 0.609 0.631 0.655 0.681 0.709 0.739 0.771 0.806 0.843 0.882 0.923 0.962 0.999 1.034 1.066 1.096 1.124 1.149 1.173 1.194 1.214 1.231 1.247 1.261 1.273 1.284 1.293 1.301 1.308 1.314 1.318 1.322 1.325 1.327 1.328 1.329 1.330 1.330 1.330 1.330 1.330 1.329 1.329 1.327 1.326 1.323 1.320 1.316 1.310 1.304 1.296 1.287 1.277 1.264 1.250 1.235 1.217 1.197 1.175 1.151 1.125 1.096 1.064 1.031 0.999 0.969 0.941 0.916 0.894 0.874 0.857 0.841 0.828 0.817 0.808 0.801 0.795 0.790 0.787 0.785 0.783 0.783 0.782 0.782 0.782 0.783 0.783 0.785 0.787 0.790 0.795 0.800 0.808 0.816 0.827 0.839 0.853 0.869 0.886 0.901 0.914 0.924 0.933 0.941 0.946 0.950 0.953 0.954 0.955 0.956 0.956 0.956 0.955 0.954 0.952 0.949 0.945 0.940 0.932 0.923 0.912 0.899 0.883 0.869 0.857 0.849 0.843 0.842 0.860 0.928 1.079 1.079 0.000 
0.000 0.126 0.126 0.142 0.152 0.164 0.180 0.200 0.224 0.248 0.268 0.286 0.302 0.316 0.329 0.341 0.353 0.364 0.375 0.386 0.397 0.409 0.420 0.431 0.442 0.454 0.465 0.478 0.490 0.504 0.518 0.533 0.549 0.566 0.585 0.605 0.627 0.650 0.676 0.703 0.733 0.765 0.799 0.835 0.874 0.914 0.953 0.990 1.025 1.057 1.087 1.114 1.140 1.164 1.185 1.204 1.222 1.238 1.252 1.264 1.275 1.285 1.293 1.300 1.305 1.310 1.314 1.317 1.319 1.320 1.321 1.322 1.322 1.322 1.322 1.322 1.322 1.321 1.320 1.318 1.316 1.313 1.309 1.304 1.298 1.290 1.282 1.272 1.260 1.246 1.231 1.214 1.195 1.173 1.150 1.124 1.095 1.064 1.031 0.999 0.969 0.941 0.916 0.894 0.874 0.856 0.841 0.828 0.817 0.807 0.800 0.794 0.789 0.786 0.784 0.782 0.781 0.781 0.781 0.781 0.781 0.782 0.783 0.785 0.788 0.793 0.798 0.805 0.813 0.824 0.836 0.849 0.865 0.881 0.896 0.908 0.919 0.927 0.934 0.939 0.943 0.946 0.948 0.948 0.949 0.949 0.949 0.948 0.947 0.945 0.943 0.938 0.933 0.926 0.917 0.907 0.894 0.879 0.866 0.857 0.852 0.852 0.861 0.893 0.982 1.076 1.076 0.000 
0.000 0.100 0.100 0.117 0.129 0.145 0.166 0.193 0.220 0.244 0.265 0.283 0.299 0.314 0.327 0.339 0.351 0.362 0.373 0.384 0.395 0.406 0.417 0.428 0.440 0.451 0.463 0.475 0.488 0.501 0.515 0.530 0.546 0.563 0.581 0.601 0.623 0.646 0.671 0.698 0.727 0.758 0.792 0.827 0.865 0.905 0.944 0.981 1.015 1.047 1.077 1.105 1.130 1.154 1.175 1.195 1.212 1.228 1.242 1.255 1.266 1.276 1.284 1.291 1.297 1.301 1.305 1.308 1.310 1.312 1.313 1.314 1.314 1.314 1.314 1.314 1.314 1.313 1.312 1.311 1.308 1.306 1.302 1.297 1.291 1.284 1.276 1.266 1.255 1.241 1.227 1.210 1.191 1.170 1.147 1.122 1.094 1.064 1.031 0.999 0.969 0.941 0.916 0.894 0.874 0.856 0.840 0.827 0.816 0.806 0.799 0.793 0.788 0.784 0.782 0.780 0.779 0.779 0.779 0.779 0.779 0.780 0.781 0.783 0.786 0.790 0.795 0.802 0.810 0.820 0.831 0.845 0.860 0.876 0.890 0.902 0.912 0.920 0.927 0.932 0.936 0.939 0.940 0.941 0.942 0.942 0.942 0.941 0.940 0.938 0.936 0.932 0.926 0.920 0.912 0.902 0.890 0.877 0.864 0.856 0.852 0.853 0.862 0.895 0.983 1.073 1.073 0.000 
0.000 0.075 0.075 0.092 0.107 0.128 0.157 0.189 0.218 0.243 0.264 0.282 0.299 0.313 0.326 0.338 0.350 0.361 0.372 0.382 0.393 0.404 0.415 0.426 0.437 0.449 0.460 0.472 0.485 0.498 0.512 0.527 0.542 0.559 0.577 0.597 0.618 0.641 0.666 0.692 0.721 0.751 0.784 0.819 0.857 0.896 0.935 0.971 1.005 1.037 1.067 1.095 1.120 1.144 1.165 1.185 1.202 1.218 1.233 1.245 1.256 1.266 1.274 1.281 1.287 1.292 1.296 1.299 1.301 1.303 1.304 1.305 1.305 1.305 1.305 1.305 1.305 1.304 1.304 1.302 1.300 1.297 1.294 1.289 1.284 1.277 1.269 1.260 1.249 1.236 1.222 1.205 1.187 1.167 1.145 1.120 1.093 1.063 1.031 0.999 0.969 0.941 0.916 0.893 0.873 0.855 0.840 0.826 0.815 0.805 0.797 0.791 0.786 0.782 0.780 0.778 0.777 0.776 0.776 0.776 0.776 0.777 0.778 0.780 0.783 0.786 0.791 0.798 0.806 0.815 0.826 0.839 0.853 0.869 0.882 0.894 0.904 0.913 0.919 0.925 0.928 0.931 0.933 0.934 0.934 0.934 0.934 0.934 0.933 0.931 0.928 0.925 0.920 0.914 0.907 0.898 0.887 0.875 0.863 0.854 0.848 0.845 0.848 0.868 0.937 1.071 1.071 0.000 
0.000 0.049 0.049 0.067 0.087 0.116 0.154 0.189 0.218 0.243 0.264 0.282 0.298 0.313 0.326 0.338 0.349 0.360 0.371 0.381 0.392 0.403 0.413 0.424 0.435 0.446 0.458 0.469 0.482 0.495 0.509 0.523 0.539 0.555 0.573 0.593 0.614 0.636 0.660 0.686 0.714 0.744 0.777 0.811 0.848 0.887 0.925 0.961 0.995 1.027 1.057 1.084 1.110 1.133 1.155 1.174 1.192 1.208 1.222 1.235 1.246 1.256 1.264 1.271 1.277 1.282 1.286 1.289 1.292 1.293 1.295 1.295 1.296 1.296 1.296 1.296 1.296 1.295 1.294 1.293 1.291 1.289 1.285 1.281 1.276 1.269 1.262 1.252 1.242 1.230 1.216 1.200 1.183 1.163 1.141 1.117 1.091 1.062 1.031 0.998 0.968 0.940 0.915 0.892 0.872 0.854 0.838 0.824 0.813 0.803 0.795 0.788 0.783 0.780 0.777 0.775 0.774 0.773 0.773 0.773 0.773 0.774 0.775 0.776 0.779 0.782 0.787 0.793 0.800 0.809 0.820 0.832 0.846 0.861 0.874 0.886 0.896 0.904 0.911 0.916 0.920 0.923 0.925 0.926 0.927 0.927 0.927 0.926 0.925 0.924 0.921 0.918 0.914 0.908 0.902 0.894 0.884 0.874 0.862 0.851 0.840 0.827 0.810 0.786 0.771 0.869 0.869 0.000 
0.000 0.028 0.028 0.045 0.072 0.112 0.154 0.189 0.218 0.243 0.264 0.282 0.298 0.313 0.326 0.338 0.349 0.360 0.370 0.380 0.391 0.401 0.411 0.422 0.433 0.444 0.455 0.466 0.479 0.491 0.505 0.519 0.535 0.551 0.569 0.588 0.608 0.631 0.654 0.680 0.708 0.737 0.769 0.803 0.839 0.877 0.915 0.951 0.985 1.016 1.046 1.073 1.099 1.122 1.143 1.163 1.181 1.197 1.211 1.224 1.235 1.245 1.253 1.260 1.266 1.271 1.276 1.279 1.281 1.283 1.284 1.285 1.286 1.286 1.286 1.286 1.286 1.285 1.284 1.283 1.282 1.279 1.276 1.272 1.267 1.261 1.253 1.245 1.235 1.223 1.210 1.194 1.177 1.158 1.137 1.114 1.088 1.060 1.030 0.998 0.967 0.940 0.914 0.891 0.871 0.852 0.836 0.822 0.811 0.801 0.792 0.786 0.780 0.776 0.773 0.771 0.770 0.769 0.769 0.769 0.769 0.770 0.770 0.772 0.774 0.778 0.782 0.787 0.794 0.803 0.813 0.825 0.838 0.852 0.865 0.877 0.887 0.895 0.902 0.907 0.911 0.915 0.917 0.918 0.919 0.919 0.919 0.919 0.918 0.917 0.915 0.912 0.908 0.903 0.897 0.890 0.882 0.872 0.862 0.850 0.836 0.818 0.787 0.722 0.560 0.328 0.328 0.000 
0.000 0.010 0.010 0.028 0.065 0.113 0.155 0.190 0.219 0.244 0.265 0.283 0.299 0.313 0.326 0.338 0.349 0.360 0.370 0.380 0.390 0.400 0.410 0.420 0.430 0.441 0.452 0.463 0.475 0.488 0.501 0.515 0.530 0.547 0.564 0.583 0.603 0.625 0.648 0.673 0.700 0.729 0.761 0.794 0.829 0.867 0.904 0.940 0.974 1.005 1.035 1.062 1.087 1.110 1.132 1.151 1.169 1.185 1.199 1.212 1.223 1.233 1.242 1.249 1.255 1.260 1.264 1.268 1.270 1.272 1.273 1.274 1.275 1.275 1.275 1.275 1.275 1.275 1.274 1.273 1.271 1.269 1.266 1.262 1.257 1.251 1.244 1.236 1.226 1.215 1.202 1.188 1.171 1.153 1.133 1.110 1.085 1.058 1.028 0.997 0.966 0.938 0.913 0.890 0.869 0.850 0.834 0.820 0.808 0.797 0.789 0.782 0.776 0.772 0.769 0.767 0.766 0.765 0.764 0.764 0.764 0.765 0.765 0.767 0.769 0.772 0.776 0.781 0.788 0.796 0.805 0.816 0.828 0.842 0.855 0.866 0.876 0.885 0.892 0.897 0.902 0.906 0.908 0.910 0.911 0.911 0.911 0.911 0.911 0.910 0.908 0.906 0.903 0.898 0.893 0.887 0.879 0.871 0.861 0.849 0.836 0.818 0.786 0.719 0.550 0.210 0.210 0.000 
0.000 0.030 0.030 0.029 0.067 0.117 0.159 0.194 0.223 0.247 0.268 0.285 0.301 0.315 0.327 0.339 0.350 0.360 0.370 0.380 0.389 0.399 0.408 0.418 0.428 0.438 0.449 0.460 0.471 0.484 0.497 0.511 0.526 0.542 0.559 0.577 0.597 0.619 0.642 0.666 0.693 0.721 0.752 0.784 0.819 0.856 0.893 0.929 0.962 0.994 1.023 1.050 1.075 1.098 1.119 1.139 1.156 1.172 1.187 1.200 1.211 1.221 1.229 1.237 1.243 1.248 1.252 1.256 1.258 1.260 1.262 1.263 1.263 1.263 1.264 1.264 1.263 1.263 1.263 1.262 1.260 1.258 1.255 1.252 1.247 1.241 1.235 1.227 1.218 1.207 1.194 1.180 1.164 1.147 1.127 1.105 1.081 1.055 1.026 0.995 0.965 0.937 0.911 0.888 0.867 0.848 0.831 0.817 0.804 0.794 0.785 0.778 0.772 0.767 0.764 0.762 0.760 0.759 0.759 0.759 0.759 0.759 0.760 0.761 0.763 0.765 0.769 0.774 0.780 0.787 0.796 0.806 0.818 0.831 0.844 0.855 0.865 0.873 0.881 0.887 0.892 0.896 0.899 0.901 0.903 0.904 0.904 0.904 0.904 0.903 0.902 0.900 0.898 0.894 0.890 0.884 0.877 0.869 0.860 0.850 0.838 0.824 0.804 0.773 0.736 0.746 0.746 0.000 
0.000 0.062 0.062 0.052 0.085 0.130 0.169 0.202 0.229 0.253 0.272 0.289 0.304 0.317 0.329 0.340 0.351 0.361 0.370 0.380 0.389 0.398 0.407 0.416 0.426 0.436 0.446 0.456 0.467 0.479 0.492 0.506 0.520 0.536 0.553 0.571 0.591 0.612 0.634 0.659 0.685 0.713 0.743 0.775 0.809 0.845 0.882 0.917 0.950 0.981 1.010 1.037 1.062 1.085 1.106 1.126 1.143 1.159 1.174 1.186 1.198 1.208 1.216 1.224 1.230 1.235 1.240 1.243 1.246 1.248 1.249 1.250 1.251 1.251 1.251 1.251 1.251 1.251 1.251 1.250 1.248 1.246 1.244 1.240 1.236 1.231 1.224 1.217 1.208 1.197 1.186 1.172 1.157 1.140 1.121 1.100 1.076 1.051 1.023 0.993 0.963 0.935 0.909 0.885 0.864 0.845 0.828 0.813 0.800 0.789 0.780 0.773 0.767 0.762 0.758 0.756 0.754 0.753 0.752 0.752 0.752 0.752 0.753 0.754 0.755 0.758 0.761 0.765 0.771 0.778 0.786 0.795 0.806 0.818 0.831 0.842 0.852 0.861 0.869 0.875 0.881 0.886 0.889 0.892 0.895 0.896 0.898 0.898 0.898 0.898 0.897 0.895 0.893 0.891 0.887 0.882 0.876 0.868 0.859 0.851 0.844 0.840 0.840 0.857 0.923 1.058 1.058 0.000 
0.000 0.157 0.157 0.110 0.132 0.156 0.184 0.214 0.240 0.262 0.280 0.296 0.309 0.322 0.333 0.343 0.353 0.362 0.371 0.380 0.389 0.397 0.406 0.415 0.423 0.433 0.442 0.452 0.463 0.475 0.487 0.500 0.515 0.530 0.547 0.564 0.584 0.604 0.627 0.651 0.676 0.704 0.733 0.765 0.798 0.833 0.870 0.905 0.938 0.968 0.997 1.024 1.049 1.072 1.093 1.112 1.130 1.146 1.160 1.173 1.184 1.194 1.203 1.210 1.217 1.222 1.226 1.230 1.233 1.235 1.236 1.237 1.238 1.238 1.238 1.238 1.238 1.238 1.238 1.237 1.236 1.234 1.231 1.228 1.224 1.219 1.213 1.206 1.197 1.187 1.176 1.163 1.148 1.132 1.113 1.093 1.071 1.046 1.019 0.990 0.960 0.932 0.906 0.882 0.860 0.841 0.824 0.808 0.795 0.784 0.775 0.767 0.760 0.755 0.752 0.749 0.747 0.746 0.745 0.745 0.745 0.745 0.745 0.746 0.747 0.749 0.752 0.756 0.761 0.767 0.775 0.783 0.794 0.805 0.817 0.828 0.838 0.848 0.856 0.863 0.869 0.875 0.879 0.883 0.886 0.889 0.891 0.892 0.892 0.892 0.892 0.891 0.890 0.887 0.884 0.880 0.875 0.868 0.859 0.852 0.848 0.848 0.856 0.885 0.967 1.055 1.055 0.000 
0.000 0.270 0.270 0.207 0.187 0.190 0.208 0.233 0.257 0.275 0.291 0.305 0.317 0.328 0.338 0.347 0.356 0.364 0.372 0.380 0.389 0.396 0.404 0.413 0.421 0.430 0.439 0.448 0.459 0.470 0.482 0.495 0.509 0.524 0.540 0.557 0.576 0.597 0.618 0.642 0.667 0.694 0.723 0.754 0.786 0.821 0.857 0.892 0.924 0.955 0.983 1.010 1.034 1.057 1.078 1.097 1.115 1.131 1.145 1.158 1.169 1.179 1.188 1.196 1.202 1.207 1.212 1.216 1.218 1.221 1.222 1.223 1.224 1.224 1.224 1.224 1.224 1.224 1.224 1.223 1.222 1.220 1.218 1.215 1.211 1.206 1.201 1.194 1.186 1.176 1.165 1.153 1.139 1.123 1.105 1.086 1.064 1.040 1.015 0.987 0.957 0.928 0.902 0.878 0.856 0.836 0.819 0.803 0.790 0.778 0.768 0.760 0.753 0.748 0.744 0.741 0.739 0.737 0.736 0.736 0.736 0.736 0.736 0.737 0.738 0.739 0.742 0.745 0.750 0.756 0.762 0.770 0.780 0.790 0.802 0.813 0.823 0.833 0.842 0.849 0.856 0.863 0.868 0.873 0.877 0.881 0.884 0.886 0.887 0.888 0.888 0.887 0.887 0.885 0.883 0.880 0.875 0.868 0.860 0.852 0.849 0.849 0.856 0.885 0.966 1.053 1.053 0.000 
0.000 0.175 0.175 0.219 0.214 0.226 0.242 0.261 0.279 0.294 0.307 0.318 0.327 0.336 0.344 0.352 0.360 0.367 0.374 0.382 0.389 0.396 0.403 0.411 0.418 0.426 0.435 0.444 0.454 0.464 0.476 0.488 0.502 0.517 0.532 0.550 0.568 0.588 0.609 0.632 0.657 0.684 0.712 0.742 0.774 0.808 0.844 0.878 0.910 0.940 0.969 0.995 1.019 1.042 1.063 1.082 1.099 1.115 1.130 1.142 1.154 1.164 1.173 1.180 1.187 1.192 1.197 1.200 1.203 1.206 1.207 1.208 1.209 1.209 1.210 1.210 1.210 1.209 1.209 1.208 1.207 1.206 1.204 1.201 1.197 1.193 1.187 1.181 1.173 1.164 1.154 1.142 1.128 1.113 1.096 1.077 1.056 1.034 1.009 0.982 0.953 0.924 0.897 0.873 0.851 0.831 0.813 0.797 0.783 0.771 0.761 0.752 0.745 0.740 0.735 0.732 0.729 0.728 0.727 0.726 0.726 0.726 0.726 0.726 0.727 0.729 0.731 0.734 0.738 0.743 0.749 0.756 0.765 0.774 0.785 0.796 0.807 0.817 0.826 0.835 0.842 0.850 0.856 0.862 0.867 0.872 0.876 0.879 0.882 0.883 0.884 0.885 0.884 0.883 0.882 0.879 0.875 0.869 0.862 0.854 0.847 0.842 0.841 0.855 0.914 1.050 1.050 0.000 
0.000 0.027 0.027 0.143 0.236 0.269 0.286 0.299 0.310 0.319 0.327 0.334 0.341 0.347 0.353 0.359 0.365 0.371 0.377 0.383 0.389 0.395 0.402 0.408 0.415 0.423 0.431 0.439 0.449 0.459 0.470 0.482 0.495 0.509 0.524 0.541 0.559 0.579 0.600 0.622 0.647 0.673 0.700 0.730 0.761 0.794 0.829 0.863 0.895 0.925 0.953 0.979 1.003 1.026 1.047 1.066 1.083 1.099 1.113 1.126 1.137 1.147 1.156 1.164 1.170 1.176 1.180 1.184 1.187 1.189 1.191 1.192 1.193 1.194 1.194 1.194 1.194 1.194 1.193 1.193 1.192 1.190 1.188 1.186 1.182 1.178 1.173 1.167 1.159 1.151 1.141 1.129 1.116 1.102 1.086 1.068 1.048 1.026 1.002 0.976 0.947 0.919 0.892 0.867 0.845 0.824 0.806 0.790 0.775 0.763 0.752 0.744 0.736 0.730 0.725 0.722 0.719 0.717 0.716 0.715 0.715 0.715 0.715 0.715 0.716 0.717 0.719 0.721 0.725 0.729 0.734 0.741 0.749 0.757 0.767 0.778 0.789 0.800 0.809 0.819 0.827 0.836 0.843 0.850 0.857 0.863 0.868 0.872 0.876 0.879 0.881 0.882 0.883 0.882 0.882 0.880 0.876 0.871 0.864 0.855 0.844 0.829 0.806 0.771 0.731 0.805 0.805 0.000 
0.000 0.312 0.312 0.190 0.292 0.330 0.343 0.347 0.349 0.351 0.353 0.355 0.358 0.361 0.364 0.368 0.372 0.376 0.381 0.385 0.390 0.395 0.400 0.406 0.412 0.419 0.426 0.434 0.443 0.452 0.463 0.474 0.487 0.501 0.516 0.532 0.550 0.569 0.589 0.611 0.635 0.660 0.688 0.717 0.747 0.780 0.814 0.847 0.879 0.909 0.936 0.962 0.986 1.009 1.029 1.048 1.066 1.081 1.095 1.108 1.120 1.130 1.139 1.146 1.153 1.158 1.163 1.167 1.170 1.172 1.174 1.175 1.176 1.177 1.177 1.177 1.177 1.177 1.177 1.176 1.175 1.174 1.172 1.170 1.166 1.162 1.158 1.152 1.145 1.136 1.127 1.116 1.104 1.090 1.074 1.057 1.038 1.017 0.994 0.968 0.941 0.913 0.886 0.861 0.838 0.817 0.798 0.782 0.767 0.754 0.743 0.734 0.726 0.719 0.714 0.710 0.707 0.705 0.704 0.703 0.702 0.702 0.702 0.702 0.703 0.704 0.705 0.707 0.710 0.714 0.719 0.725 0.732 0.740 0.749 0.759 0.770 0.781 0.791 0.801 0.811 0.820 0.829 0.837 0.845 0.852 0.859 0.865 0.870 0.875 0.878 0.880 0.882 0.882 0.882 0.881 0.878 0.874 0.867 0.858 0.845 0.824 0.789 0.718 0.549 0.275 0.275 0.000 
0.000 0.692 0.692 0.493 0.439 0.426 0.415 0.405 0.395 0.387 0.382 0.379 0.377 0.376 0.377 0.378 0.380 0.382 0.385 0.388 0.391 0.394 0.398 0.403 0.409 0.415 0.421 0.429 0.437 0.446 0.456 0.467 0.479 0.492 0.507 0.522 0.539 0.558 0.578 0.600 0.623 0.648 0.674 0.702 0.732 0.764 0.798 0.831 0.862 0.891 0.919 0.944 0.968 0.990 1.011 1.030 1.047 1.063 1.077 1.090 1.101 1.111 1.120 1.128 1.134 1.140 1.145 1.148 1.152 1.154 1.156 1.157 1.158 1.159 1.159 1.159 1.159 1.159 1.159 1.158 1.157 1.156 1.155 1.152 1.149 1.145 1.141 1.135 1.129 1.121 1.112 1.101 1.090 1.076 1.061 1.045 1.026 1.006 0.984 0.960 0.934 0.905 0.878 0.853 0.830 0.809 0.789 0.772 0.757 0.744 0.733 0.723 0.714 0.708 0.702 0.698 0.694 0.692 0.690 0.689 0.688 0.688 0.688 0.688 0.688 0.689 0.690 0.692 0.694 0.698 0.702 0.707 0.713 0.721 0.729 0.739 0.749 0.760 0.771 0.782 0.793 0.803 0.813 0.823 0.832 0.841 0.849 0.857 0.864 0.870 0.875 0.879 0.881 0.882 0.883 0.882 0.881 0.877 0.872 0.863 0.848 0.826 0.790 0.719 0.559 0.253 0.253 0.000 
0.000 0.746 0.746 0.682 0.578 0.519 0.481 0.454 0.434 0.419 0.408 0.400 0.394 0.390 0.388 0.387 0.387 0.387 0.388 0.389 0.391 0.394 0.397 0.400 0.405 0.410 0.416 0.423 0.430 0.439 0.448 0.459 0.470 0.483 0.497 0.512 0.528 0.546 0.566 0.587 0.609 0.634 0.660 0.687 0.716 0.748 0.780 0.813 0.844 0.873 0.900 0.925 0.949 0.971 0.991 1.010 1.027 1.043 1.057 1.070 1.081 1.091 1.100 1.108 1.114 1.120 1.125 1.129 1.132 1.134 1.136 1.138 1.139 1.139 1.140 1.140 1.140 1.140 1.139 1.139 1.138 1.137 1.136 1.134 1.131 1.127 1.123 1.118 1.111 1.104 1.095 1.085 1.074 1.061 1.047 1.031 1.014 0.994 0.973 0.950 0.924 0.897 0.870 0.844 0.821 0.799 0.780 0.762 0.746 0.733 0.721 0.711 0.702 0.695 0.689 0.684 0.680 0.677 0.675 0.674 0.673 0.673 0.673 0.673 0.673 0.673 0.674 0.675 0.677 0.680 0.684 0.689 0.694 0.701 0.709 0.718 0.727 0.738 0.750 0.762 0.773 0.785 0.796 0.807 0.818 0.828 0.838 0.847 0.856 0.864 0.871 0.877 0.881 0.883 0.885 0.885 0.885 0.883 0.878 0.870 0.857 0.838 0.809 0.775 0.746 0.778 0.778 0.000 
0.000 0.737 0.737 0.720 0.643 0.574 0.526 0.491 0.465 0.445 0.429 0.418 0.409 0.402 0.397 0.394 0.392 0.391 0.390 0.390 0.391 0.392 0.395 0.397 0.401 0.405 0.411 0.417 0.423 0.431 0.440 0.450 0.461 0.473 0.486 0.501 0.517 0.534 0.553 0.573 0.595 0.619 0.644 0.671 0.699 0.730 0.762 0.794 0.824 0.853 0.880 0.905 0.928 0.950 0.970 0.989 1.006 1.021 1.035 1.048 1.060 1.070 1.079 1.086 1.093 1.099 1.104 1.108 1.111 1.114 1.115 1.117 1.118 1.119 1.119 1.119 1.119 1.119 1.119 1.119 1.118 1.117 1.116 1.114 1.111 1.108 1.104 1.099 1.093 1.086 1.077 1.068 1.057 1.045 1.032 1.016 0.999 0.981 0.960 0.938 0.914 0.887 0.860 0.834 0.810 0.788 0.768 0.750 0.734 0.720 0.708 0.697 0.688 0.680 0.674 0.669 0.665 0.662 0.659 0.658 0.657 0.656 0.656 0.656 0.656 0.656 0.657 0.658 0.659 0.662 0.665 0.669 0.674 0.680 0.687 0.695 0.705 0.715 0.727 0.739 0.752 0.764 0.777 0.789 0.802 0.814 0.825 0.837 0.847 0.857 0.867 0.874 0.881 0.885 0.889 0.890 0.891 0.891 0.888 0.883 0.874 0.864 0.858 0.872 0.926 1.037 1.037 0.000 
0.000 0.714 0.714 0.714 0.666 0.604 0.555 0.518 0.488 0.465 0.447 0.433 0.421 0.412 0.405 0.400 0.396 0.393 0.391 0.391 0.391 0.391 0.392 0.394 0.397 0.400 0.405 0.410 0.416 0.423 0.431 0.440 0.451 0.462 0.475 0.489 0.504 0.521 0.539 0.559 0.580 0.603 0.627 0.653 0.681 0.711 0.742 0.773 0.803 0.832 0.858 0.883 0.906 0.928 0.948 0.966 0.983 0.999 1.013 1.025 1.037 1.047 1.056 1.064 1.070 1.076 1.081 1.085 1.088 1.091 1.093 1.095 1.096 1.096 1.097 1.097 1.097 1.097 1.097 1.097 1.096 1.095 1.094 1.092 1.090 1.087 1.083 1.078 1.072 1.066 1.058 1.049 1.039 1.027 1.014 1.000 0.984 0.966 0.946 0.925 0.901 0.876 0.849 0.823 0.799 0.776 0.756 0.738 0.721 0.706 0.693 0.682 0.673 0.664 0.658 0.652 0.648 0.644 0.642 0.640 0.639 0.638 0.637 0.637 0.637 0.637 0.638 0.638 0.640 0.642 0.644 0.648 0.652 0.658 0.665 0.672 0.681 0.692 0.703 0.715 0.729 0.742 0.756 0.770 0.784 0.797 0.811 0.824 0.837 0.849 0.861 0.872 0.881 0.889 0.894 0.898 0.901 0.903 0.903 0.902 0.900 0.903 0.914 0.939 0.989 1.035 1.035 0.000 
0.000 0.688 0.688 0.695 0.667 0.619 0.573 0.536 0.506 0.482 0.462 0.445 0.432 0.421 0.411 0.404 0.398 0.394 0.392 0.390 0.390 0.390 0.390 0.391 0.393 0.395 0.399 0.403 0.408 0.415 0.422 0.430 0.440 0.451 0.462 0.476 0.490 0.506 0.524 0.543 0.563 0.585 0.609 0.635 0.661 0.690 0.720 0.751 0.781 0.809 0.835 0.860 0.883 0.904 0.924 0.942 0.959 0.974 0.988 1.001 1.012 1.022 1.031 1.039 1.046 1.052 1.057 1.061 1.064 1.067 1.069 1.071 1.072 1.073 1.073 1.073 1.073 1.073 1.073 1.073 1.073 1.072 1.071 1.069 1.067 1.064 1.060 1.056 1.050 1.044 1.037 1.028 1.019 1.008 0.995 0.981 0.966 0.949 0.930 0.910 0.887 0.863 0.836 0.810 0.785 0.763 0.742 0.723 0.706 0.691 0.678 0.666 0.656 0.647 0.640 0.634 0.629 0.625 0.623 0.620 0.619 0.618 0.617 0.617 0.617 0.617 0.617 0.618 0.619 0.620 0.623 0.626 0.630 0.635 0.641 0.648 0.657 0.667 0.678 0.690 0.704 0.718 0.733 0.748 0.764 0.779 0.795 0.810 0.825 0.840 0.854 0.868 0.881 0.892 0.902 0.909 0.914 0.919 0.924 0.928 0.934 0.945 0.961 0.985 1.016 1.035 1.035 0.000 
0.000 0.662 0.662 0.672 0.656 0.623 0.583 0.549 0.520 0.496 0.474 0.456 0.441 0.427 0.416 0.407 0.400 0.395 0.392 0.390 0.388 0.387 0.387 0.387 0.388 0.390 0.392 0.396 0.400 0.406 0.412 0.420 0.428 0.438 0.450 0.462 0.476 0.491 0.508 0.526 0.546 0.567 0.590 0.614 0.640 0.668 0.697 0.728 0.757 0.785 0.810 0.835 0.858 0.879 0.898 0.917 0.933 0.948 0.962 0.975 0.986 0.996 1.005 1.013 1.020 1.026 1.031 1.035 1.039 1.041 1.044 1.045 1.046 1.047 1.048 1.048 1.048 1.048 1.048 1.048 1.047 1.047 1.045 1.044 1.042 1.039 1.036 1.032 1.027 1.021 1.014 1.006 0.997 0.986 0.974 0.961 0.947 0.930 0.912 0.892 0.871 0.848 0.822 0.796 0.771 0.748 0.727 0.708 0.690 0.675 0.661 0.648 0.638 0.629 0.621 0.615 0.609 0.605 0.602 0.600 0.598 0.597 0.596 0.596 0.595 0.595 0.595 0.596 0.597 0.598 0.600 0.602 0.606 0.610 0.616 0.623 0.631 0.641 0.652 0.664 0.678 0.693 0.708 0.725 0.742 0.759 0.776 0.794 0.811 0.828 0.845 0.862 0.878 0.895 0.910 0.922 0.932 0.941 0.950 0.960 0.971 0.985 1.002 1.021 1.035 1.038 1.038 0.000 
0.000 0.636 0.636 0.647 0.637 0.616 0.586 0.557 0.531 0.508 0.486 0.466 0.449 0.433 0.420 0.410 0.402 0.395 0.391 0.388 0.386 0.384 0.384 0.383 0.383 0.384 0.386 0.388 0.391 0.396 0.402 0.408 0.416 0.425 0.436 0.447 0.461 0.475 0.491 0.508 0.527 0.547 0.569 0.593 0.618 0.645 0.673 0.702 0.731 0.758 0.784 0.808 0.831 0.852 0.871 0.889 0.906 0.921 0.934 0.947 0.958 0.968 0.977 0.985 0.992 0.998 1.003 1.007 1.011 1.014 1.016 1.018 1.019 1.020 1.020 1.020 1.021 1.021 1.021 1.020 1.020 1.019 1.019 1.017 1.015 1.013 1.010 1.006 1.001 0.996 0.989 0.982 0.973 0.963 0.952 0.939 0.925 0.909 0.892 0.873 0.853 0.830 0.806 0.780 0.755 0.731 0.710 0.690 0.672 0.656 0.642 0.629 0.618 0.609 0.601 0.594 0.588 0.583 0.580 0.577 0.575 0.574 0.573 0.572 0.572 0.572 0.572 0.572 0.573 0.574 0.575 0.578 0.581 0.585 0.590 0.597 0.605 0.614 0.625 0.637 0.650 0.665 0.682 0.699 0.717 0.736 0.755 0.775 0.794 0.814 0.834 0.854 0.874 0.894 0.915 0.936 0.953 0.967 0.981 0.995 1.010 1.025 1.040 1.052 1.058 1.059 1.059 0.000 
0.000 0.611 0.611 0.622 0.614 0.602 0.583 0.562 0.541 0.519 0.497 0.475 0.455 0.438 0.423 0.411 0.402 0.395 0.390 0.386 0.383 0.380 0.379 0.378 0.378 0.378 0.379 0.380 0.382 0.386 0.391 0.396 0.403 0.412 0.421 0.432 0.444 0.458 0.473 0.489 0.507 0.526 0.547 0.570 0.594 0.620 0.647 0.675 0.704 0.730 0.756 0.779 0.802 0.822 0.842 0.859 0.876 0.891 0.905 0.917 0.928 0.938 0.947 0.955 0.962 0.968 0.973 0.978 0.981 0.984 0.986 0.988 0.989 0.990 0.991 0.991 0.991 0.991 0.991 0.991 0.991 0.990 0.989 0.988 0.987 0.984 0.981 0.978 0.973 0.968 0.962 0.955 0.947 0.937 0.927 0.915 0.901 0.887 0.870 0.852 0.832 0.811 0.788 0.762 0.737 0.713 0.691 0.671 0.653 0.637 0.622 0.609 0.597 0.587 0.578 0.571 0.565 0.560 0.556 0.553 0.551 0.549 0.548 0.547 0.547 0.547 0.547 0.547 0.547 0.548 0.550 0.552 0.554 0.558 0.563 0.569 0.577 0.586 0.596 0.608 0.622 0.637 0.654 0.672 0.691 0.712 0.732 0.754 0.776 0.798 0.821 0.844 0.867 0.892 0.917 0.945 0.972 0.996 1.015 1.032 1.048 1.063 1.075 1.084 1.091 1.097 1.097 0.000 
0.000 0.585 0.585 0.596 0.592 0.586 0.577 0.565 0.548 0.529 0.507 0.483 0.460 0.441 0.425 0.412 0.402 0.394 0.387 0.382 0.378 0.375 0.373 0.372 0.371 0.371 0.371 0.372 0.373 0.376 0.379 0.384 0.390 0.397 0.406 0.416 0.427 0.439 0.453 0.469 0.486 0.504 0.524 0.545 0.568 0.593 0.619 0.646 0.674 0.700 0.725 0.749 0.771 0.791 0.810 0.828 0.844 0.859 0.873 0.885 0.896 0.906 0.915 0.923 0.930 0.936 0.941 0.945 0.949 0.952 0.954 0.956 0.958 0.959 0.959 0.959 0.960 0.960 0.960 0.960 0.959 0.959 0.958 0.957 0.956 0.953 0.951 0.947 0.943 0.939 0.933 0.926 0.918 0.910 0.899 0.888 0.875 0.861 0.846 0.829 0.810 0.789 0.767 0.743 0.717 0.693 0.671 0.651 0.632 0.615 0.600 0.586 0.574 0.564 0.555 0.547 0.540 0.535 0.531 0.527 0.525 0.523 0.522 0.521 0.520 0.520 0.520 0.520 0.521 0.521 0.522 0.524 0.527 0.530 0.535 0.541 0.548 0.556 0.567 0.579 0.592 0.608 0.625 0.643 0.663 0.685 0.707 0.731 0.755 0.780 0.805 0.832 0.859 0.887 0.916 0.949 0.985 1.020 1.047 1.069 1.086 1.100 1.110 1.118 1.125 1.129 1.129 0.000 
0.000 0.559 0.559 0.572 0.576 0.577 0.574 0.567 0.555 0.537 0.515 0.489 0.464 0.443 0.426 0.412 0.401 0.391 0.384 0.378 0.373 0.369 0.366 0.364 0.363 0.362 0.362 0.362 0.363 0.364 0.367 0.371 0.376 0.382 0.389 0.398 0.408 0.420 0.433 0.447 0.463 0.480 0.499 0.519 0.541 0.564 0.589 0.615 0.642 0.668 0.693 0.716 0.737 0.758 0.776 0.794 0.810 0.825 0.838 0.850 0.862 0.872 0.880 0.888 0.895 0.901 0.907 0.911 0.915 0.918 0.920 0.922 0.923 0.924 0.925 0.925 0.926 0.926 0.926 0.926 0.925 0.925 0.924 0.923 0.922 0.920 0.918 0.915 0.911 0.906 0.901 0.895 0.888 0.879 0.870 0.859 0.847 0.834 0.819 0.802 0.784 0.765 0.743 0.720 0.696 0.671 0.649 0.628 0.609 0.592 0.576 0.562 0.550 0.539 0.529 0.521 0.514 0.508 0.504 0.500 0.497 0.495 0.494 0.493 0.492 0.492 0.492 0.492 0.492 0.493 0.494 0.495 0.497 0.501 0.505 0.511 0.518 0.526 0.536 0.548 0.561 0.577 0.594 0.613 0.634 0.656 0.680 0.705 0.732 0.759 0.787 0.817 0.847 0.880 0.913 0.950 0.991 1.036 1.074 1.102 1.122 1.137 1.147 1.153 1.156 1.157 1.157 0.000 
0.000 0.533 0.533 0.551 0.569 0.575 0.574 0.570 0.560 0.544 0.521 0.493 0.466 0.444 0.426 0.411 0.398 0.388 0.379 0.372 0.366 0.362 0.358 0.356 0.354 0.353 0.352 0.352 0.352 0.353 0.354 0.357 0.361 0.366 0.372 0.380 0.389 0.399 0.411 0.424 0.439 0.455 0.473 0.492 0.512 0.534 0.557 0.582 0.608 0.633 0.658 0.680 0.702 0.722 0.740 0.757 0.773 0.788 0.801 0.814 0.825 0.834 0.843 0.851 0.858 0.864 0.869 0.874 0.878 0.881 0.883 0.885 0.887 0.888 0.888 0.889 0.889 0.889 0.889 0.889 0.889 0.889 0.888 0.887 0.886 0.884 0.882 0.879 0.876 0.872 0.867 0.861 0.854 0.846 0.837 0.827 0.816 0.803 0.789 0.774 0.757 0.738 0.718 0.695 0.672 0.647 0.625 0.604 0.584 0.567 0.551 0.536 0.523 0.512 0.502 0.493 0.486 0.480 0.475 0.471 0.468 0.465 0.464 0.463 0.462 0.462 0.462 0.462 0.462 0.462 0.463 0.465 0.467 0.470 0.474 0.479 0.486 0.494 0.504 0.516 0.529 0.545 0.562 0.581 0.603 0.626 0.651 0.678 0.706 0.736 0.767 0.799 0.833 0.869 0.907 0.948 0.992 1.043 1.094 1.133 1.159 1.175 1.185 1.189 1.190 1.187 1.187 0.000 
0.000 0.550 0.550 0.549 0.570 0.577 0.578 0.575 0.566 0.549 0.525 0.495 0.467 0.444 0.425 0.408 0.395 0.383 0.373 0.365 0.358 0.353 0.349 0.346 0.343 0.342 0.341 0.340 0.340 0.340 0.341 0.342 0.345 0.349 0.354 0.361 0.369 0.378 0.388 0.400 0.414 0.428 0.444 0.462 0.481 0.501 0.523 0.546 0.571 0.596 0.620 0.642 0.663 0.683 0.701 0.718 0.734 0.749 0.762 0.774 0.785 0.795 0.803 0.811 0.818 0.824 0.829 0.834 0.838 0.841 0.843 0.845 0.847 0.848 0.849 0.849 0.850 0.850 0.850 0.850 0.850 0.849 0.849 0.848 0.847 0.845 0.843 0.841 0.838 0.834 0.829 0.824 0.818 0.810 0.802 0.792 0.782 0.770 0.757 0.742 0.726 0.708 0.689 0.668 0.645 0.621 0.598 0.577 0.557 0.539 0.523 0.508 0.495 0.483 0.473 0.464 0.456 0.450 0.444 0.440 0.437 0.434 0.432 0.431 0.430 0.430 0.430 0.430 0.430 0.430 0.431 0.432 0.434 0.437 0.441 0.446 0.453 0.461 0.471 0.482 0.496 0.511 0.529 0.548 0.570 0.594 0.620 0.648 0.678 0.710 0.743 0.779 0.816 0.855 0.897 0.942 0.991 1.044 1.104 1.157 1.194 1.216 1.227 1.230 1.229 1.219 1.219 0.000 
0.000 0.570 0.570 0.566 0.582 0.589 0.589 0.585 0.573 0.554 0.527 0.495 0.467 0.443 0.422 0.405 0.390 0.377 0.366 0.357 0.349 0.343 0.338 0.334 0.331 0.329 0.327 0.326 0.326 0.326 0.326 0.327 0.328 0.331 0.335 0.340 0.347 0.355 0.364 0.375 0.387 0.400 0.415 0.431 0.448 0.467 0.487 0.509 0.532 0.556 0.580 0.602 0.622 0.642 0.660 0.677 0.692 0.706 0.719 0.731 0.742 0.752 0.761 0.768 0.775 0.781 0.786 0.791 0.795 0.798 0.800 0.802 0.804 0.805 0.806 0.807 0.807 0.807 0.807 0.807 0.807 0.807 0.807 0.806 0.805 0.804 0.802 0.800 0.797 0.793 0.789 0.784 0.778 0.771 0.763 0.755 0.745 0.733 0.721 0.707 0.692 0.675 0.657 0.637 0.616 0.593 0.570 0.548 0.528 0.510 0.494 0.479 0.465 0.453 0.442 0.433 0.425 0.418 0.412 0.408 0.404 0.401 0.399 0.398 0.397 0.396 0.396 0.396 0.396 0.397 0.397 0.399 0.401 0.403 0.407 0.412 0.418 0.426 0.436 0.447 0.461 0.476 0.494 0.514 0.536 0.560 0.587 0.616 0.647 0.681 0.717 0.755 0.795 0.838 0.884 0.933 0.985 1.042 1.106 1.172 1.225 1.258 1.275 1.281 1.280 1.278 1.278 0.000 
0.000 0.664 0.664 0.612 0.618 0.618 0.613 0.601 0.583 0.558 0.527 0.494 0.465 0.440 0.418 0.399 0.383 0.369 0.357 0.347 0.338 0.331 0.325 0.321 0.317 0.314 0.312 0.311 0.310 0.310 0.310 0.310 0.311 0.312 0.315 0.319 0.324 0.331 0.339 0.348 0.358 0.370 0.383 0.397 0.413 0.430 0.449 0.469 0.491 0.514 0.537 0.558 0.579 0.598 0.615 0.632 0.647 0.661 0.674 0.686 0.696 0.706 0.714 0.722 0.729 0.735 0.740 0.745 0.748 0.752 0.754 0.756 0.758 0.759 0.760 0.761 0.761 0.761 0.761 0.761 0.761 0.761 0.761 0.760 0.760 0.758 0.757 0.755 0.752 0.749 0.745 0.740 0.735 0.729 0.722 0.713 0.704 0.694 0.682 0.669 0.655 0.639 0.622 0.603 0.583 0.561 0.538 0.517 0.497 0.479 0.462 0.447 0.433 0.420 0.409 0.400 0.391 0.384 0.378 0.373 0.369 0.366 0.364 0.362 0.362 0.361 0.361 0.361 0.361 0.361 0.362 0.363 0.365 0.368 0.371 0.376 0.382 0.390 0.400 0.411 0.424 0.440 0.458 0.478 0.500 0.525 0.552 0.582 0.614 0.649 0.687 0.727 0.770 0.816 0.865 0.918 0.975 1.036 1.102 1.175 1.245 1.300 1.333 1.348 1.353 1.353 1.353 0.000 
0.000 0.760 0.760 0.703 0.685 0.669 0.650 0.625 0.595 0.561 0.526 0.492 0.462 0.435 0.412 0.392 0.374 0.359 0.346 0.335 0.325 0.318 0.311 0.306 0.302 0.298 0.296 0.294 0.293 0.292 0.291 0.291 0.291 0.292 0.294 0.297 0.301 0.306 0.312 0.320 0.329 0.339 0.350 0.362 0.376 0.391 0.408 0.427 0.447 0.468 0.490 0.512 0.532 0.550 0.568 0.584 0.599 0.613 0.625 0.637 0.647 0.656 0.665 0.673 0.679 0.685 0.690 0.695 0.699 0.702 0.704 0.707 0.708 0.710 0.711 0.711 0.712 0.712 0.712 0.712 0.712 0.712 0.712 0.711 0.710 0.709 0.708 0.706 0.704 0.701 0.698 0.693 0.689 0.683 0.676 0.669 0.660 0.651 0.640 0.628 0.615 0.600 0.584 0.566 0.547 0.527 0.505 0.483 0.463 0.445 0.428 0.413 0.399 0.386 0.375 0.365 0.356 0.348 0.342 0.337 0.333 0.329 0.327 0.325 0.324 0.324 0.323 0.323 0.323 0.324 0.324 0.326 0.327 0.330 0.334 0.339 0.345 0.353 0.362 0.373 0.387 0.402 0.420 0.440 0.462 0.487 0.515 0.546 0.579 0.615 0.654 0.696 0.742 0.790 0.842 0.898 0.959 1.023 1.094 1.170 1.252 1.330 1.391 1.430 1.450 1.452 1.452 0.000 
0.000 0.878 0.878 0.810 0.782 0.743 0.698 0.651 0.606 0.563 0.523 0.488 0.457 0.429 0.404 0.382 0.364 0.347 0.333 0.321 0.311 0.302 0.295 0.289 0.284 0.280 0.277 0.275 0.273 0.272 0.271 0.271 0.271 0.271 0.272 0.273 0.276 0.279 0.284 0.290 0.297 0.305 0.314 0.325 0.337 0.350 0.365 0.382 0.400 0.420 0.441 0.462 0.482 0.500 0.517 0.533 0.547 0.561 0.573 0.584 0.594 0.603 0.612 0.619 0.626 0.632 0.637 0.641 0.645 0.648 0.651 0.653 0.655 0.656 0.657 0.658 0.658 0.659 0.659 0.659 0.659 0.659 0.658 0.658 0.658 0.657 0.656 0.654 0.652 0.649 0.646 0.643 0.638 0.633 0.627 0.620 0.613 0.604 0.594 0.583 0.571 0.557 0.542 0.526 0.508 0.489 0.468 0.447 0.427 0.409 0.392 0.376 0.362 0.349 0.338 0.328 0.319 0.311 0.305 0.299 0.295 0.292 0.290 0.288 0.287 0.287 0.286 0.286 0.286 0.287 0.287 0.288 0.290 0.293 0.296 0.301 0.306 0.314 0.323 0.334 0.347 0.363 0.381 0.401 0.423 0.448 0.476 0.507 0.541 0.578 0.618 0.662 0.709 0.759 0.814 0.873 0.936 1.005 1.079 1.160 1.248 1.343 1.432 1.501 1.544 1.566 1.566 0.000 
0.000 0.993 0.993 0.927 0.872 0.808 0.736 0.670 0.613 0.563 0.520 0.482 0.449 0.419 0.393 0.370 0.351 0.333 0.318 0.305 0.294 0.285 0.277 0.270 0.265 0.261 0.257 0.254 0.252 0.250 0.249 0.248 0.248 0.248 0.248 0.248 0.250 0.252 0.255 0.259 0.264 0.270 0.277 0.286 0.296 0.308 0.321 0.335 0.351 0.369 0.388 0.409 0.428 0.446 0.462 0.478 0.492 0.505 0.517 0.528 0.538 0.547 0.555 0.562 0.568 0.574 0.579 0.584 0.587 0.590 0.593 0.595 0.597 0.598 0.600 0.600 0.601 0.601 0.601 0.601 0.601 0.601 0.601 0.601 0.601 0.600 0.599 0.598 0.596 0.594 0.591 0.588 0.584 0.579 0.574 0.568 0.561 0.553 0.544 0.534 0.523 0.510 0.497 0.482 0.465 0.447 0.428 0.408 0.388 0.370 0.353 0.338 0.324 0.311 0.299 0.289 0.281 0.273 0.268 0.263 0.259 0.256 0.254 0.253 0.252 0.252 0.251 0.251 0.251 0.252 0.252 0.253 0.255 0.257 0.260 0.264 0.270 0.277 0.285 0.295 0.308 0.322 0.340 0.360 0.382 0.407 0.435 0.466 0.500 0.537 0.578 0.623 0.671 0.723 0.780 0.841 0.907 0.979 1.058 1.143 1.238 1.342 1.452 1.545 1.610 1.636 1.636 0.000 
0.000 1.031 1.031 0.996 0.934 0.852 0.760 0.681 0.615 0.561 0.514 0.474 0.438 0.407 0.380 0.356 0.335 0.317 0.301 0.287 0.276 0.266 0.257 0.250 0.244 0.239 0.234 0.231 0.228 0.226 0.225 0.224 0.223 0.222 0.222 0.222 0.222 0.223 0.225 0.227 0.230 0.235 0.241 0.248 0.257 0.267 0.278 0.291 0.305 0.320 0.337 0.355 0.372 0.389 0.405 0.419 0.433 0.445 0.457 0.467 0.477 0.486 0.494 0.501 0.507 0.512 0.517 0.522 0.525 0.528 0.531 0.533 0.535 0.536 0.538 0.538 0.539 0.539 0.539 0.540 0.540 0.540 0.540 0.539 0.539 0.538 0.538 0.537 0.535 0.533 0.531 0.528 0.525 0.521 0.516 0.511 0.505 0.498 0.490 0.481 0.471 0.460 0.447 0.434 0.419 0.402 0.385 0.365 0.346 0.328 0.312 0.297 0.283 0.271 0.261 0.252 0.244 0.238 0.233 0.229 0.225 0.223 0.221 0.220 0.219 0.219 0.218 0.218 0.218 0.219 0.219 0.220 0.221 0.223 0.226 0.230 0.235 0.241 0.249 0.258 0.269 0.282 0.298 0.317 0.339 0.364 0.392 0.422 0.456 0.494 0.535 0.579 0.628 0.682 0.739 0.803 0.871 0.946 1.028 1.119 1.220 1.334 1.457 1.565 1.645 1.685 1.685 0.000 
0.000 1.067 1.067 1.036 0.971 0.878 0.773 0.685 0.614 0.556 0.505 0.462 0.425 0.392 0.363 0.338 0.317 0.298 0.281 0.267 0.254 0.244 0.235 0.227 0.220 0.215 0.210 0.206 0.203 0.200 0.198 0.197 0.196 0.195 0.194 0.194 0.194 0.194 0.194 0.196 0.199 0.202 0.207 0.213 0.221 0.229 0.239 0.249 0.261 0.275 0.289 0.304 0.320 0.334 0.348 0.361 0.373 0.384 0.394 0.404 0.413 0.421 0.428 0.435 0.441 0.446 0.451 0.455 0.459 0.462 0.464 0.466 0.468 0.470 0.471 0.472 0.472 0.473 0.473 0.473 0.473 0.473 0.473 0.473 0.473 0.472 0.472 0.471 0.470 0.468 0.467 0.464 0.461 0.458 0.454 0.449 0.444 0.438 0.431 0.423 0.414 0.405 0.394 0.382 0.368 0.353 0.337 0.319 0.301 0.284 0.269 0.256 0.244 0.233 0.224 0.217 0.210 0.205 0.200 0.196 0.193 0.191 0.190 0.189 0.188 0.188 0.187 0.187 0.188 0.188 0.188 0.189 0.190 0.192 0.195 0.198 0.202 0.208 0.214 0.223 0.233 0.244 0.259 0.276 0.295 0.319 0.346 0.376 0.409 0.446 0.487 0.531 0.580 0.634 0.693 0.757 0.827 0.904 0.990 1.085 1.192 1.315 1.451 1.568 1.655 1.700 1.700 0.000 
0.000 1.070 1.070 1.052 0.987 0.888 0.776 0.684 0.609 0.546 0.492 0.447 0.407 0.373 0.343 0.318 0.295 0.276 0.259 0.244 0.231 0.220 0.210 0.202 0.194 0.188 0.183 0.179 0.175 0.172 0.170 0.168 0.167 0.166 0.165 0.165 0.165 0.165 0.166 0.167 0.169 0.172 0.176 0.181 0.187 0.194 0.202 0.211 0.221 0.232 0.245 0.258 0.271 0.283 0.295 0.306 0.316 0.326 0.335 0.343 0.350 0.357 0.364 0.369 0.374 0.379 0.383 0.387 0.390 0.393 0.395 0.397 0.399 0.400 0.401 0.402 0.402 0.403 0.403 0.403 0.403 0.403 0.403 0.403 0.403 0.403 0.402 0.402 0.401 0.400 0.398 0.396 0.394 0.391 0.388 0.384 0.380 0.374 0.368 0.362 0.354 0.346 0.336 0.326 0.314 0.301 0.287 0.272 0.256 0.242 0.229 0.217 0.207 0.198 0.190 0.184 0.178 0.173 0.170 0.166 0.164 0.162 0.161 0.160 0.159 0.159 0.159 0.159 0.159 0.159 0.159 0.160 0.161 0.163 0.165 0.168 0.172 0.176 0.182 0.189 0.198 0.208 0.221 0.236 0.253 0.274 0.298 0.327 0.359 0.395 0.435 0.479 0.527 0.580 0.639 0.703 0.774 0.853 0.940 1.039 1.151 1.281 1.429 1.561 1.654 1.700 1.700 0.000 
0.000 1.072 1.072 1.055 0.992 0.890 0.773 0.676 0.597 0.530 0.474 0.426 0.385 0.350 0.320 0.293 0.270 0.250 0.233 0.218 0.204 0.193 0.183 0.174 0.166 0.160 0.154 0.150 0.147 0.144 0.142 0.140 0.139 0.139 0.138 0.138 0.138 0.138 0.139 0.140 0.141 0.144 0.147 0.151 0.156 0.161 0.168 0.176 0.184 0.194 0.204 0.215 0.226 0.236 0.246 0.255 0.264 0.272 0.280 0.286 0.293 0.299 0.304 0.309 0.313 0.317 0.320 0.323 0.326 0.328 0.330 0.332 0.333 0.334 0.335 0.336 0.336 0.336 0.337 0.337 0.337 0.337 0.337 0.337 0.337 0.336 0.336 0.336 0.335 0.334 0.333 0.331 0.329 0.327 0.324 0.321 0.317 0.313 0.308 0.302 0.296 0.289 0.281 0.272 0.262 0.252 0.240 0.227 0.214 0.202 0.191 0.181 0.173 0.165 0.159 0.153 0.149 0.145 0.141 0.139 0.137 0.135 0.134 0.133 0.133 0.132 0.132 0.132 0.132 0.133 0.133 0.133 0.134 0.136 0.138 0.140 0.143 0.147 0.152 0.158 0.166 0.175 0.185 0.198 0.213 0.231 0.252 0.277 0.306 0.340 0.378 0.420 0.467 0.519 0.577 0.640 0.711 0.789 0.878 0.978 1.092 1.226 1.382 1.536 1.646 1.700 1.700 0.000 
0.000 1.075 1.075 1.057 0.990 0.882 0.760 0.658 0.575 0.506 0.448 0.399 0.358 0.322 0.291 0.265 0.242 0.222 0.204 0.189 0.175 0.163 0.153 0.144 0.137 0.132 0.127 0.123 0.120 0.118 0.116 0.115 0.114 0.114 0.113 0.113 0.113 0.113 0.114 0.115 0.116 0.118 0.120 0.123 0.127 0.132 0.137 0.144 0.151 0.158 0.166 0.175 0.185 0.193 0.202 0.209 0.216 0.223 0.229 0.235 0.240 0.245 0.249 0.253 0.256 0.260 0.262 0.265 0.267 0.269 0.271 0.272 0.273 0.274 0.275 0.275 0.276 0.276 0.276 0.276 0.276 0.276 0.276 0.276 0.276 0.276 0.276 0.275 0.274 0.274 0.273 0.271 0.270 0.268 0.266 0.263 0.260 0.256 0.252 0.248 0.243 0.237 0.230 0.223 0.215 0.206 0.196 0.186 0.175 0.165 0.157 0.149 0.142 0.136 0.130 0.126 0.122 0.118 0.116 0.114 0.112 0.111 0.110 0.109 0.109 0.108 0.108 0.108 0.108 0.108 0.109 0.109 0.110 0.111 0.113 0.115 0.117 0.121 0.125 0.130 0.136 0.144 0.152 0.163 0.176 0.190 0.208 0.229 0.253 0.283 0.317 0.357 0.401 0.451 0.506 0.568 0.637 0.713 0.800 0.899 1.012 1.144 1.301 1.476 1.624 1.700 1.700 0.000 
0.000 1.078 1.078 1.057 0.978 0.855 0.729 0.626 0.542 0.472 0.414 0.365 0.323 0.288 0.258 0.231 0.209 0.189 0.172 0.156 0.143 0.132 0.124 0.116 0.110 0.106 0.102 0.099 0.096 0.094 0.093 0.092 0.091 0.091 0.091 0.091 0.091 0.091 0.091 0.092 0.093 0.094 0.096 0.099 0.102 0.105 0.110 0.115 0.120 0.126 0.133 0.140 0.148 0.155 0.161 0.167 0.173 0.178 0.183 0.188 0.192 0.196 0.199 0.202 0.205 0.208 0.210 0.212 0.214 0.215 0.217 0.218 0.219 0.219 0.220 0.220 0.221 0.221 0.221 0.221 0.221 0.221 0.221 0.221 0.221 0.221 0.221 0.220 0.220 0.219 0.218 0.217 0.216 0.214 0.213 0.211 0.208 0.205 0.202 0.198 0.194 0.189 0.184 0.178 0.172 0.165 0.157 0.149 0.140 0.132 0.125 0.119 0.113 0.108 0.104 0.100 0.097 0.095 0.092 0.091 0.089 0.088 0.088 0.087 0.087 0.087 0.087 0.087 0.087 0.087 0.087 0.087 0.088 0.089 0.090 0.092 0.094 0.097 0.100 0.104 0.109 0.115 0.122 0.131 0.141 0.153 0.168 0.185 0.205 0.228 0.257 0.290 0.329 0.375 0.427 0.485 0.550 0.623 0.705 0.798 0.905 1.028 1.175 1.356 1.564 1.700 1.700 0.000 
0.000 1.080 1.080 1.050 0.940 0.797 0.673 0.574 0.492 0.425 0.369 0.321 0.281 0.247 0.218 0.193 0.171 0.152 0.136 0.123 0.112 0.104 0.097 0.091 0.086 0.082 0.079 0.077 0.075 0.073 0.072 0.072 0.071 0.071 0.071 0.071 0.071 0.071 0.071 0.071 0.072 0.073 0.075 0.077 0.079 0.082 0.085 0.089 0.093 0.098 0.103 0.109 0.115 0.120 0.125 0.130 0.134 0.138 0.142 0.146 0.149 0.152 0.155 0.157 0.159 0.161 0.163 0.165 0.166 0.167 0.168 0.169 0.170 0.170 0.171 0.171 0.171 0.172 0.172 0.172 0.172 0.172 0.172 0.172 0.172 0.172 0.171 0.171 0.171 0.170 0.170 0.169 0.168 0.167 0.165 0.164 0.162 0.159 0.157 0.154 0.151 0.147 0.143 0.139 0.134 0.128 0.122 0.115 0.109 0.103 0.097 0.092 0.088 0.084 0.081 0.078 0.076 0.073 0.072 0.070 0.069 0.069 0.068 0.068 0.067 0.067 0.067 0.067 0.067 0.067 0.067 0.068 0.068 0.069 0.070 0.071 0.073 0.075 0.078 0.081 0.085 0.090 0.095 0.102 0.110 0.120 0.131 0.144 0.160 0.179 0.201 0.227 0.258 0.295 0.339 0.390 0.449 0.516 0.590 0.674 0.766 0.870 0.992 1.149 1.378 1.700 1.700 0.000 
0.000 1.024 1.024 1.008 0.842 0.697 0.587 0.498 0.425 0.363 0.311 0.268 0.231 0.199 0.172 0.149 0.131 0.115 0.103 0.093 0.085 0.078 0.072 0.068 0.064 0.062 0.059 0.057 0.056 0.055 0.054 0.054 0.053 0.053 0.053 0.053 0.053 0.053 0.053 0.053 0.054 0.055 0.056 0.057 0.059 0.061 0.064 0.066 0.070 0.073 0.077 0.081 0.086 0.090 0.094 0.097 0.100 0.104 0.106 0.109 0.112 0.114 0.116 0.118 0.119 0.121 0.122 0.123 0.124 0.125 0.126 0.127 0.127 0.128 0.128 0.128 0.128 0.128 0.128 0.129 0.129 0.129 0.129 0.129 0.128 0.128 0.128 0.128 0.128 0.127 0.127 0.126 0.126 0.125 0.124 0.122 0.121 0.119 0.117 0.115 0.113 0.110 0.107 0.104 0.100 0.096 0.091 0.086 0.081 0.077 0.073 0.069 0.066 0.063 0.060 0.058 0.056 0.055 0.054 0.053 0.052 0.051 0.051 0.050 0.050 0.050 0.050 0.050 0.050 0.050 0.050 0.051 0.051 0.052 0.052 0.053 0.055 0.056 0.058 0.061 0.064 0.067 0.071 0.076 0.083 0.090 0.098 0.108 0.120 0.134 0.151 0.171 0.195 0.223 0.256 0.295 0.341 0.395 0.457 0.525 0.594 0.663 0.733 0.812 0.919 1.059 1.059 0.000 
0.000 0.477 0.477 0.759 0.638 0.537 0.461 0.395 0.336 0.284 0.240 0.202 0.171 0.145 0.124 0.107 0.094 0.083 0.074 0.066 0.060 0.056 0.052 0.049 0.046 0.044 0.042 0.041 0.040 0.039 0.038 0.038 0.038 0.038 0.038 0.038 0.038 0.038 0.038 0.038 0.038 0.039 0.040 0.041 0.042 0.043 0.045 0.047 0.049 0.052 0.055 0.058 0.061 0.064 0.067 0.069 0.071 0.074 0.076 0.078 0.079 0.081 0.082 0.084 0.085 0.086 0.087 0.088 0.088 0.089 0.090 0.090 0.090 0.091 0.091 0.091 0.091 0.091 0.091 0.091 0.091 0.091 0.091 0.091 0.091 0.091 0.091 0.091 0.091 0.091 0.090 0.090 0.089 0.089 0.088 0.087 0.086 0.085 0.084 0.082 0.080 0.078 0.076 0.074 0.071 0.068 0.065 0.061 0.058 0.055 0.052 0.049 0.047 0.045 0.043 0.041 0.040 0.039 0.038 0.037 0.037 0.036 0.036 0.036 0.036 0.036 0.036 0.036 0.036 0.036 0.036 0.036 0.036 0.037 0.037 0.038 0.039 0.040 0.041 0.043 0.045 0.048 0.051 0.054 0.059 0.064 0.070 0.077 0.086 0.096 0.108 0.122 0.139 0.159 0.183 0.211 0.245 0.284 0.329 0.375 0.415 0.445 0.461 0.456 0.383 0.199 0.199 0.000 
0.000 0.000 0.000 0.245 0.330 0.323 0.300 0.268 0.230 0.193 0.161 0.135 0.114 0.097 0.083 0.071 0.062 0.055 0.049 0.044 0.040 0.037 0.034 0.032 0.030 0.029 0.028 0.027 0.026 0.026 0.025 0.025 0.025 0.025 0.025 0.025 0.025 0.025 0.025 0.025 0.025 0.026 0.026 0.027 0.028 0.029 0.030 0.031 0.033 0.034 0.036 0.038 0.040 0.042 0.044 0.046 0.047 0.049 0.050 0.051 0.053 0.054 0.055 0.055 0.056 0.057 0.058 0.058 0.059 0.059 0.059 0.060 0.060 0.060 0.060 0.060 0.060 0.060 0.060 0.061 0.061 0.061 0.061 0.061 0.060 0.060 0.060 0.060 0.060 0.060 0.060 0.059 0.059 0.059 0.058 0.058 0.057 0.056 0.055 0.054 0.053 0.052 0.050 0.049 0.047 0.045 0.043 0.041 0.038 0.036 0.034 0.033 0.031 0.030 0.028 0.027 0.027 0.026 0.025 0.025 0.024 0.024 0.024 0.024 0.024 0.024 0.024 0.024 0.024 0.024 0.024 0.024 0.024 0.024 0.025 0.025 0.026 0.026 0.027 0.029 0.030 0.032 0.034 0.036 0.039 0.042 0.046 0.051 0.057 0.064 0.072 0.081 0.092 0.106 0.122 0.141 0.163 0.190 0.221 0.248 0.267 0.275 0.272 0.243 0.143 0.000 0.000 0.000 
0.000 0.000 0.000 0.052 0.145 0.168 0.169 0.158 0.139 0.116 0.097 0.081 0.068 0.058 0.049 0.042 0.037 0.033 0.029 0.026 0.024 0.022 0.020 0.019 0.018 0.017 0.017 0.016 0.016 0.015 0.015 0.015 0.015 0.015 0.015 0.015 0.015 0.015 0.015 0.015 0.015 0.015 0.016 0.016 0.016 0.017 0.018 0.018 0.019 0.020 0.021 0.023 0.024 0.025 0.026 0.027 0.028 0.029 0.030 0.030 0.031 0.032 0.032 0.033 0.033 0.034 0.034 0.034 0.035 0.035 0.035 0.035 0.036 0.036 0.036 0.036 0.036 0.036 0.036 0.036 0.036 0.036 0.036 0.036 0.036 0.036 0.036 0.036 0.036 0.036 0.035 0.035 0.035 0.035 0.035 0.034 0.034 0.033 0.033 0.032 0.032 0.031 0.030 0.029 0.028 0.027 0.026 0.024 0.023 0.021 0.020 0.019 0.018 0.018 0.017 0.016 0.016 0.015 0.015 0.015 0.014 0.014 0.014 0.014 0.014 0.014 0.014 0.014 0.014 0.014 0.014 0.014 0.014 0.014 0.015 0.015 0.015 0.016 0.016 0.017 0.018 0.019 0.020 0.021 0.023 0.025 0.028 0.030 0.034 0.038 0.043 0.048 0.055 0.063 0.072 0.084 0.098 0.114 0.133 0.147 0.154 0.155 0.149 0.124 0.061 0.000 0.000 0.000 
0.000 0.000 0.000 0.016 0.059 0.076 0.079 0.077 0.069 0.058 0.048 0.040 0.033 0.028 0.024 0.021 0.018 0.016 0.014 0.013 0.012 0.011 0.010 0.009 0.009 0.008 0.008 0.008 0.008 0.008 0.007 0.007 0.007 0.007 0.007 0.007 0.007 0.007 0.007 0.007 0.007 0.007 0.008 0.008 0.008 0.008 0.009 0.009 0.009 0.010 0.011 0.011 0.012 0.012 0.013 0.013 0.014 0.014 0.015 0.015 0.015 0.016 0.016 0.016 0.016 0.017 0.017 0.017 0.017 0.017 0.017 0.017 0.017 0.017 0.018 0.018 0.018 0.018 0.018 0.018 0.018 0.018 0.018 0.018 0.018 0.018 0.018 0.018 0.018 0.017 0.017 0.017 0.017 0.017 0.017 0.017 0.017 0.016 0.016 0.016 0.015 0.015 0.015 0.014 0.014 0.013 0.013 0.012 0.011 0.011 0.010 0.009 0.009 0.009 0.008 0.008 0.008 0.008 0.007 0.007 0.007 0.007 0.007 0.007 0.007 0.007 0.007 0.007 0.007 0.007 0.007 0.007 0.007 0.007 0.007 0.007 0.007 0.008 0.008 0.008 0.009 0.009 0.010 0.010 0.011 0.012 0.014 0.015 0.017 0.019 0.021 0.024 0.027 0.031 0.036 0.041 0.048 0.057 0.066 0.072 0.074 0.074 0.070 0.056 0.025 0.000 0.000 0.000 
0.000 0.000 0.000 0.004 0.018 0.024 0.025 0.024 0.022 0.019 0.015 0.013 0.011 0.009 0.008 0.007 0.006 0.005 0.005 0.004 0.004 0.003 0.003 0.003 0.003 0.003 0.003 0.003 0.002 0.002 0.002 0.002 0.002 0.002 0.002 0.002 0.002 0.002 0.002 0.002 0.002 0.002 0.002 0.003 0.003 0.003 0.003 0.003 0.003 0.003 0.003 0.004 0.004 0.004 0.004 0.004 0.004 0.005 0.005 0.005 0.005 0.005 0.005 0.005 0.005 0.005 0.005 0.005 0.005 0.006 0.006 0.006 0.006 0.006 0.006 0.006 0.006 0.006 0.006 0.006 0.006 0.006 0.006 0.006 0.006 0.006 0.006 0.006 0.006 0.006 0.006 0.006 0.006 0.005 0.005 0.005 0.005 0.005 0.005 0.005 0.005 0.005 0.005 0.005 0.004 0.004 0.004 0.004 0.004 0.003 0.003 0.003 0.003 0.003 0.003 0.003 0.002 0.002 0.002 0.002 0.002 0.002 0.002 0.002 0.002 0.002 0.002 0.002 0.002 0.002 0.002 0.002 0.002 0.002 0.002 0.002 0.002 0.002 0.003 0.003 0.003 0.003 0.003 0.003 0.004 0.004 0.004 0.005 0.005 0.006 0.007 0.008 0.009 0.010 0.011 0.013 0.015 0.018 0.021 0.023 0.024 0.023 0.022 0.017 0.007 0.000 0.000 0.000 
0.000 0.000 0.000 0.000 0.000 0.000 0.000 0.000 0.000 0.000 0.000 0.000 0.000 0.000 0.000 0.000 0.000 0.000 0.000 0.000 0.000 0.000 0.000 0.000 0.000 0.000 0.000 0.000 0.000 0.000 0.000 0.000 0.000 0.000 0.000 0.000 0.000 0.000 0.000 0.000 0.000 0.000 0.000 0.000 0.000 0.000 0.000 0.000 0.000 0.000 0.000 0.000 0.000 0.000 0.000 0.000 0.000 0.000 0.000 0.000 0.000 0.000 0.000 0.000 0.000 0.000 0.000 0.000 0.000 0.000 0.000 0.000 0.000 0.000 0.000 0.000 0.000 0.000 0.000 0.000 0.000 0.000 0.000 0.000 0.000 0.000 0.000 0.000 0.000 0.000 0.000 0.000 0.000 0.000 0.000 0.000 0.000 0.000 0.000 0.000 0.000 0.000 0.000 0.000 0.000 0.000 0.000 0.000 0.000 0.000 0.000 0.000 0.000 0.000 0.000 0.000 0.000 0.000 0.000 0.000 0.000 0.000 0.000 0.000 0.000 0.000 0.000 0.000 0.000 0.000 0.000 0.000 0.000 0.000 0.000 0.000 0.000 0.000 0.000 0.000 0.000 0.000 0.000 0.000 0.000 0.000 0.000 0.000 0.000 0.000 0.000 0.000 0.000 0.000 0.000 0.000 0.000 0.000 0.000 0.000 0.000 0.000 0.000 0.000 0.000 0.000 0.000 0.000 
0.000 0.089 0.089 0.077 0.065 0.049 0.049 0.029 0.010 0.010 0.001 0.003 0.005 0.005 0.005 0.005 0.005 0.005 0.004 0.002 0.002 0.001 0.000 0.001 0.001 0.001 0.001 0.001 0.001 0.001 0.001 0.001 0.001 0.001 0.001 0.001 0.001 0.001 0.001 0.001 0.000 0.000 0.000 0.001 0.004 0.008 0.008 0.021 0.046 0.046 0.070 0.087 0.098 0.098 0.108 0.116 0.122 0.122 0.127 0.122 0.122 0.106 0.089 0.081 0.081 0.081 0.080 0.079 0.079 0.078 0.077 0.077 0.076 0.077 0.077 0.077 0.077 0.076 0.074 0.074 0.073 0.071 0.071 0.069 0.069 0.073 0.073 0.076 0.062 0.031 0.031 0.001 0.000 0.000 0.007 0.022 0.025 0.025 0.018 0.011 0.017 0.017 0.035 0.053 0.053 0.059 0.055 0.051 0.051 0.046 0.039 0.033 0.033 0.025 0.015 0.015 0.006 0.001 0.002 0.002 0.002 0.002 0.002 0.002 0.001 0.001 0.001 0.001 0.001 0.001 0.001 0.001 0.000 0.000 0.001 0.003 0.004 0.004 0.007 0.012 0.016 0.016 0.018 0.017 0.017 0.016 0.015 0.014 0.014 0.013 0.011 0.009 0.009 0.007 0.005 0.005 0.003 0.002 0.000 0.000 0.000 0.000 0.000 0.000 0.007 0.014 0.014 0.000 
0.000 0.000 0.000 0.000 0.000 0.000 0.000 0.000 0.000 0.000 0.000 0.000 0.000 0.000 0.000 0.000 0.000 0.000 0.000 0.000 0.000 0.000 0.000 0.000 0.000 0.000 0.000 0.000 0.000 0.000 0.000 0.000 0.000 0.000 0.000 0.000 0.000 0.000 0.000 0.000 0.000 0.000 0.000 0.000 0.000 0.000 0.000 0.000 0.000 0.000 0.000 0.000 0.000 0.000 0.000 0.000 0.000 0.000 0.000 0.000 0.000 0.000 0.000 0.000 0.000 0.000 0.000 0.000 0.000 0.000 0.000 0.000 0.000 0.000 0.000 0.000 0.000 0.000 0.000 0.000 0.000 0.000 0.000 0.000 0.000 0.000 0.000 0.000 0.000 0.000 0.000 0.000 0.000 0.000 0.000 0.000 0.000 0.000 0.000 0.000 0.000 0.000 0.000 0.000 0.000 0.000 0.000 0.000 0.000 0.000 0.000 0.000 0.000 0.000 0.000 0.000 0.000 0.000 0.000 0.000 0.000 0.000 0.000 0.000 0.000 0.000 0.000 0.000 0.000 0.000 0.000 0.000 0.000 0.000 0.000 0.000 0.000 0.000 0.000 0.000 0.000 0.000 0.000 0.000 0.000 0.000 0.000 0.000 0.000 0.000 0.000 0.000 0.000 0.000 0.000 0.000 0.000 0.000 0.000 0.000 0.000 0.000 0.000 0.000 0.000 0.000 0.000 0.000 
