ncols 168
nrows 121
xllcenter 640304.69
yllcenter 1081277.12
cellsize 46.59
NODATA_value -9999.000
0.000 0.000 0.000 0.000 0.000 0.000 0.000 0.000 0.000 0.000 0.000 0.000 0.000 0.000 0.000 0.000 0.000 0.000 0.000 0.000 0.000 0.000 0.000 0.000 0.000 0.000 0.000 0.000 0.000 0.000 0.000 0.000 0.000 0.000 0.000 0.000 0.000 0.000 0.000 0.000 0.000 0.000 0.000 0.000 0.000 0.000 0.000 0.000 0.000 0.000 0.000 0.000 0.000 0.000 0.000 0.000 0.000 0.000 0.000 0.000 0.000 0.000 0.000 0.000 0.000 0.000 0.000 0.000 0.000 0.000 0.000 0.000 0.000 0.000 0.000 0.000 0.000 0.000 0.000 0.000 0.000 0.000 0.000 0.000 0.000 0.000 0.000 0.000 0.000 0.000 0.000 0.000 0.000 0.000 0.000 0.000 0.000 0.000 0.000 0.000 0.000 0.000 0.000 0.000 0.000 0.000 0.000 0.000 0.000 0.000 0.000 0.000 0.000 0.000 0.000 0.000 0.000 0.000 0.000 0.000 0.000 0.000 0.000 0.000 0.000 0.000 0.000 0.000 0.000 0.000 0.000 0.000 0.000 0.000 0.000 0.000 0.000 0.000 0.000 0.000 0.000 0.000 0.000 0.000 0.000 0.000 0.000 0.000 0.000 0.000 0.000 0.000 0.000 0.000 0.000 0.000 0.000 0.000 0.000 0.000 0.000 0.000 0.000 0.000 0.000 0.000 0.000 0.000 
0.000 0.397 0.397 0.397 0.296 0.018 0.018 0.000 0.000 0.000 0.024 0.303 0.397 0.397 0.397 0.397 0.397 0.397 0.397 0.397 0.397 0.397 0.397 0.397 0.397 0.397 0.397 0.397 0.397 0.397 0.397 0.397 0.397 0.397 0.481 0.481 0.614 0.784 0.955 0.955 1.032 1.061 1.061 1.061 1.061 1.054 1.054 1.036 1.033 1.033 1.012 0.958 0.784 0.784 0.609 0.498 0.519 0.519 0.678 0.853 0.853 0.986 0.311 0.501 0.501 1.060 1.047 0.944 0.944 0.815 0.686 0.686 0.644 0.691 0.821 0.821 0.950 0.580 0.251 0.251 0.931 1.064 1.064 1.064 1.064 1.064 1.064 1.068 1.081 1.131 1.131 1.181 1.199 1.199 1.127 0.921 0.684 0.684 0.439 0.472 0.334 0.334 0.188 0.856 0.856 0.930 0.757 0.571 0.571 0.460 0.485 0.671 0.671 0.857 1.018 1.018 1.156 1.258 0.760 0.760 0.516 1.272 1.263 1.263 1.162 1.067 1.067 1.067 1.067 1.067 1.067 1.067 1.067 1.067 1.068 1.068 1.068 1.068 1.068 1.068 1.068 1.068 1.068 1.068 1.068 1.068 1.068 1.069 1.069 1.069 1.069 1.069 1.069 1.013 0.445 0.445 0.644 1.038 0.914 0.914 0.730 0.531 0.328 0.328 0.101 0.000 0.000 0.000 
0.000 0.234 0.234 0.233 0.174 0.011 0.011 0.000 0.000 0.000 0.013 0.164 0.220 0.220 0.225 0.224 0.223 0.223 0.222 0.221 0.221 0.220 0.219 0.218 0.218 0.217 0.216 0.212 0.212 0.202 0.200 0.200 0.203 0.211 0.339 0.339 0.521 0.744 0.968 0.968 1.056 1.080 1.080 1.080 1.080 0.900 0.900 0.500 0.497 0.497 0.687 0.918 0.691 0.691 0.464 0.330 0.397 0.397 0.608 0.835 0.835 1.038 0.730 0.820 0.820 1.075 1.045 0.909 0.909 0.741 0.573 0.573 0.543 0.618 0.786 0.786 0.954 0.845 0.718 0.718 1.023 1.082 1.082 1.083 1.083 1.083 1.083 1.091 1.112 1.176 1.176 1.240 1.257 1.257 1.136 0.866 0.544 0.544 0.191 0.199 0.308 0.308 0.525 0.939 0.939 0.896 0.663 0.424 0.424 0.312 0.363 0.602 0.602 0.841 1.044 1.044 1.214 1.345 1.240 1.240 1.186 1.415 1.324 1.324 1.199 1.086 1.086 1.086 1.086 1.086 1.086 1.086 1.086 1.086 1.086 1.086 1.087 1.087 1.087 1.087 1.087 1.087 1.087 1.087 1.087 1.087 1.087 1.087 1.087 1.087 1.088 1.088 1.088 1.069 0.877 0.877 0.945 1.045 0.869 0.869 0.633 0.377 0.112 0.112 0.033 0.000 0.000 0.000 
0.000 0.046 0.046 0.140 0.146 0.075 0.021 0.011 0.007 0.007 0.017 0.083 0.178 0.207 0.218 0.222 0.223 0.223 0.223 0.222 0.222 0.221 0.221 0.220 0.219 0.219 0.218 0.216 0.215 0.211 0.206 0.206 0.208 0.218 0.276 0.344 0.430 0.630 0.853 0.946 0.999 1.052 1.063 1.063 1.057 0.983 0.873 0.690 0.543 0.534 0.597 0.773 0.770 0.691 0.585 0.422 0.398 0.422 0.503 0.721 0.827 0.904 0.884 0.823 0.851 0.950 1.023 0.969 0.903 0.828 0.663 0.598 0.583 0.596 0.700 0.786 0.861 0.890 0.814 0.794 0.890 1.034 1.069 1.077 1.080 1.081 1.082 1.086 1.100 1.138 1.167 1.196 1.228 1.231 1.182 1.007 0.707 0.545 0.377 0.249 0.283 0.333 0.434 0.731 0.879 0.874 0.776 0.550 0.452 0.399 0.375 0.481 0.596 0.711 0.932 1.035 1.125 1.262 1.272 1.241 1.232 1.297 1.342 1.314 1.263 1.146 1.103 1.094 1.091 1.089 1.088 1.087 1.087 1.087 1.087 1.087 1.087 1.087 1.087 1.088 1.088 1.088 1.088 1.088 1.088 1.088 1.088 1.088 1.087 1.087 1.086 1.085 1.082 1.068 0.988 0.920 0.925 0.976 0.945 0.865 0.761 0.529 0.278 0.182 0.158 0.171 0.171 0.000 
0.000 0.014 0.014 0.047 0.072 0.064 0.043 0.033 0.031 0.035 0.055 0.103 0.164 0.197 0.213 0.221 0.224 0.225 0.226 0.226 0.226 0.226 0.225 0.225 0.225 0.225 0.225 0.225 0.225 0.224 0.225 0.228 0.238 0.262 0.306 0.380 0.485 0.643 0.800 0.896 0.956 0.989 1.002 1.002 0.987 0.944 0.855 0.729 0.658 0.644 0.665 0.715 0.725 0.693 0.609 0.538 0.512 0.520 0.579 0.701 0.810 0.856 0.865 0.868 0.885 0.929 0.947 0.940 0.898 0.821 0.731 0.681 0.668 0.676 0.717 0.791 0.845 0.862 0.864 0.874 0.921 0.997 1.038 1.058 1.068 1.075 1.079 1.086 1.097 1.116 1.137 1.150 1.153 1.138 1.086 0.960 0.756 0.578 0.462 0.412 0.401 0.434 0.527 0.672 0.745 0.753 0.714 0.610 0.529 0.498 0.500 0.527 0.606 0.723 0.871 1.003 1.110 1.183 1.218 1.229 1.235 1.258 1.276 1.269 1.228 1.162 1.122 1.105 1.097 1.093 1.091 1.090 1.090 1.089 1.089 1.089 1.089 1.089 1.090 1.090 1.090 1.090 1.090 1.090 1.089 1.089 1.089 1.088 1.087 1.086 1.083 1.078 1.068 1.048 1.004 0.965 0.949 0.939 0.919 0.862 0.761 0.606 0.480 0.432 0.441 0.493 0.493 0.000 
0.000 0.001 0.001 0.017 0.046 0.059 0.061 0.061 0.064 0.074 0.094 0.127 0.168 0.197 0.213 0.222 0.227 0.229 0.231 0.232 0.233 0.233 0.234 0.234 0.235 0.236 0.237 0.239 0.241 0.246 0.252 0.264 0.284 0.316 0.364 0.435 0.536 0.664 0.779 0.859 0.908 0.935 0.944 0.944 0.935 0.907 0.850 0.773 0.728 0.711 0.710 0.718 0.717 0.698 0.655 0.624 0.617 0.623 0.653 0.722 0.800 0.843 0.866 0.883 0.901 0.918 0.922 0.917 0.891 0.837 0.784 0.758 0.750 0.751 0.764 0.802 0.841 0.865 0.885 0.908 0.945 0.993 1.025 1.044 1.056 1.065 1.072 1.079 1.085 1.092 1.096 1.095 1.085 1.059 1.007 0.912 0.768 0.637 0.562 0.530 0.524 0.537 0.583 0.654 0.687 0.692 0.677 0.632 0.591 0.578 0.578 0.593 0.638 0.721 0.836 0.960 1.054 1.116 1.160 1.190 1.206 1.213 1.213 1.209 1.191 1.155 1.125 1.108 1.099 1.095 1.094 1.093 1.092 1.092 1.092 1.092 1.092 1.093 1.093 1.093 1.093 1.093 1.093 1.092 1.092 1.092 1.091 1.089 1.088 1.085 1.080 1.073 1.061 1.043 1.014 0.983 0.958 0.935 0.907 0.861 0.785 0.707 0.666 0.656 0.670 0.707 0.707 0.000 
0.000 0.000 0.000 0.009 0.039 0.064 0.080 0.091 0.102 0.114 0.131 0.154 0.181 0.202 0.216 0.226 0.232 0.236 0.238 0.240 0.242 0.243 0.245 0.247 0.249 0.251 0.254 0.258 0.265 0.274 0.287 0.307 0.335 0.373 0.422 0.488 0.575 0.680 0.771 0.836 0.878 0.901 0.910 0.911 0.907 0.892 0.858 0.809 0.775 0.755 0.743 0.734 0.727 0.716 0.700 0.692 0.691 0.698 0.717 0.755 0.805 0.844 0.871 0.892 0.908 0.916 0.917 0.913 0.895 0.862 0.831 0.815 0.809 0.809 0.813 0.826 0.849 0.874 0.901 0.930 0.963 0.997 1.022 1.037 1.048 1.055 1.062 1.066 1.067 1.067 1.064 1.056 1.040 1.010 0.960 0.882 0.774 0.682 0.627 0.602 0.596 0.599 0.619 0.651 0.667 0.670 0.665 0.645 0.626 0.621 0.623 0.636 0.667 0.723 0.807 0.906 0.987 1.049 1.099 1.134 1.154 1.160 1.162 1.160 1.154 1.140 1.121 1.107 1.100 1.096 1.094 1.094 1.094 1.095 1.096 1.096 1.096 1.096 1.097 1.097 1.097 1.096 1.096 1.096 1.095 1.094 1.093 1.091 1.089 1.085 1.079 1.071 1.059 1.042 1.019 0.992 0.964 0.937 0.907 0.871 0.831 0.805 0.796 0.800 0.818 0.833 0.833 0.000 
0.000 0.000 0.000 0.009 0.042 0.077 0.104 0.124 0.140 0.154 0.168 0.183 0.199 0.214 0.225 0.234 0.240 0.245 0.249 0.252 0.254 0.257 0.260 0.262 0.266 0.270 0.275 0.283 0.293 0.307 0.326 0.351 0.381 0.420 0.468 0.529 0.605 0.694 0.767 0.822 0.859 0.882 0.893 0.896 0.895 0.887 0.868 0.838 0.811 0.792 0.776 0.763 0.754 0.750 0.748 0.750 0.755 0.762 0.775 0.794 0.823 0.855 0.882 0.902 0.913 0.918 0.918 0.915 0.905 0.888 0.871 0.862 0.859 0.858 0.859 0.862 0.872 0.892 0.918 0.948 0.978 1.004 1.023 1.036 1.044 1.049 1.052 1.053 1.052 1.049 1.042 1.029 1.009 0.977 0.930 0.864 0.780 0.713 0.669 0.646 0.637 0.637 0.642 0.655 0.663 0.664 0.661 0.653 0.647 0.646 0.649 0.659 0.683 0.724 0.784 0.861 0.932 0.989 1.035 1.069 1.091 1.106 1.115 1.119 1.121 1.119 1.112 1.103 1.098 1.095 1.094 1.094 1.095 1.097 1.099 1.100 1.101 1.101 1.101 1.101 1.101 1.101 1.101 1.100 1.100 1.098 1.096 1.094 1.090 1.086 1.079 1.071 1.059 1.043 1.022 0.997 0.969 0.942 0.917 0.896 0.883 0.879 0.881 0.895 0.923 0.934 0.934 0.000 
0.000 0.034 0.034 0.022 0.056 0.101 0.135 0.160 0.179 0.193 0.205 0.215 0.224 0.232 0.240 0.247 0.253 0.258 0.262 0.266 0.270 0.273 0.277 0.281 0.286 0.293 0.301 0.311 0.325 0.342 0.364 0.389 0.420 0.458 0.504 0.561 0.629 0.704 0.767 0.815 0.849 0.871 0.884 0.890 0.891 0.888 0.878 0.862 0.843 0.826 0.812 0.802 0.797 0.796 0.800 0.807 0.814 0.821 0.829 0.839 0.853 0.875 0.898 0.913 0.922 0.925 0.925 0.924 0.921 0.915 0.909 0.905 0.904 0.904 0.904 0.905 0.908 0.919 0.939 0.966 0.991 1.011 1.026 1.036 1.042 1.045 1.045 1.045 1.042 1.036 1.026 1.010 0.987 0.955 0.911 0.853 0.786 0.733 0.697 0.675 0.664 0.659 0.658 0.661 0.663 0.663 0.662 0.660 0.658 0.659 0.663 0.672 0.691 0.722 0.767 0.825 0.886 0.937 0.978 1.011 1.036 1.056 1.071 1.082 1.090 1.095 1.097 1.095 1.093 1.093 1.093 1.094 1.096 1.099 1.102 1.105 1.106 1.107 1.107 1.107 1.107 1.107 1.106 1.106 1.105 1.103 1.101 1.097 1.093 1.087 1.080 1.071 1.059 1.043 1.024 1.000 0.975 0.953 0.938 0.931 0.928 0.929 0.935 0.954 0.990 1.015 1.015 0.000 
0.000 0.071 0.071 0.060 0.094 0.141 0.177 0.203 0.222 0.234 0.242 0.248 0.252 0.257 0.261 0.266 0.271 0.275 0.279 0.283 0.288 0.292 0.297 0.303 0.310 0.319 0.329 0.342 0.357 0.375 0.397 0.423 0.454 0.490 0.534 0.586 0.648 0.713 0.768 0.811 0.843 0.866 0.880 0.888 0.892 0.892 0.890 0.884 0.874 0.862 0.854 0.849 0.848 0.851 0.856 0.864 0.871 0.876 0.881 0.886 0.892 0.904 0.919 0.930 0.935 0.938 0.940 0.942 0.944 0.945 0.945 0.946 0.946 0.947 0.948 0.949 0.950 0.955 0.966 0.985 1.005 1.020 1.031 1.038 1.042 1.043 1.043 1.040 1.035 1.027 1.014 0.996 0.972 0.940 0.899 0.846 0.791 0.747 0.715 0.694 0.681 0.673 0.669 0.667 0.666 0.665 0.665 0.664 0.665 0.666 0.670 0.679 0.694 0.719 0.753 0.797 0.847 0.891 0.929 0.960 0.987 1.010 1.030 1.046 1.060 1.070 1.078 1.083 1.086 1.088 1.090 1.093 1.096 1.100 1.104 1.108 1.110 1.112 1.113 1.113 1.113 1.113 1.113 1.112 1.110 1.108 1.106 1.102 1.097 1.090 1.082 1.072 1.060 1.044 1.025 1.004 0.984 0.971 0.964 0.961 0.960 0.962 0.970 0.987 1.019 1.047 1.047 0.000 
0.000 0.210 0.210 0.137 0.165 0.202 0.233 0.255 0.270 0.278 0.283 0.285 0.286 0.287 0.288 0.290 0.293 0.296 0.300 0.304 0.309 0.314 0.320 0.327 0.336 0.346 0.357 0.370 0.386 0.405 0.427 0.453 0.483 0.518 0.559 0.607 0.664 0.721 0.770 0.810 0.841 0.864 0.879 0.889 0.896 0.901 0.905 0.906 0.904 0.901 0.899 0.900 0.902 0.906 0.912 0.919 0.925 0.929 0.931 0.933 0.935 0.939 0.946 0.952 0.956 0.959 0.963 0.967 0.972 0.978 0.982 0.985 0.987 0.989 0.990 0.991 0.992 0.994 0.999 1.008 1.021 1.031 1.038 1.042 1.043 1.043 1.042 1.038 1.031 1.020 1.006 0.986 0.961 0.929 0.890 0.842 0.794 0.756 0.727 0.706 0.692 0.682 0.676 0.672 0.669 0.668 0.668 0.668 0.668 0.670 0.674 0.681 0.694 0.714 0.741 0.775 0.814 0.852 0.886 0.916 0.943 0.968 0.991 1.011 1.029 1.045 1.057 1.067 1.075 1.081 1.086 1.090 1.095 1.100 1.105 1.110 1.114 1.116 1.118 1.118 1.119 1.119 1.119 1.118 1.117 1.115 1.112 1.107 1.102 1.095 1.086 1.075 1.062 1.047 1.028 1.009 0.996 0.987 0.983 0.981 0.982 0.984 0.991 1.005 1.029 1.044 1.044 0.000 
0.000 0.354 0.354 0.278 0.274 0.289 0.306 0.316 0.322 0.324 0.324 0.322 0.321 0.320 0.319 0.319 0.320 0.322 0.324 0.328 0.333 0.338 0.345 0.352 0.361 0.371 0.382 0.396 0.413 0.432 0.454 0.479 0.509 0.542 0.581 0.626 0.677 0.728 0.773 0.810 0.840 0.863 0.880 0.893 0.905 0.914 0.923 0.929 0.934 0.939 0.942 0.947 0.952 0.957 0.964 0.970 0.974 0.978 0.979 0.980 0.980 0.980 0.981 0.983 0.985 0.989 0.993 0.998 1.005 1.013 1.020 1.024 1.027 1.028 1.029 1.030 1.031 1.032 1.033 1.035 1.040 1.045 1.047 1.048 1.047 1.045 1.042 1.037 1.028 1.016 1.000 0.979 0.954 0.922 0.884 0.839 0.797 0.762 0.735 0.714 0.699 0.688 0.680 0.675 0.672 0.670 0.669 0.669 0.670 0.671 0.675 0.682 0.693 0.709 0.730 0.756 0.787 0.819 0.849 0.877 0.903 0.929 0.953 0.976 0.998 1.018 1.035 1.049 1.061 1.071 1.079 1.087 1.093 1.100 1.106 1.111 1.116 1.119 1.121 1.123 1.123 1.124 1.124 1.123 1.122 1.121 1.118 1.114 1.108 1.100 1.091 1.080 1.066 1.050 1.032 1.016 1.006 0.999 0.996 0.995 0.995 0.997 1.003 1.014 1.031 1.042 1.042 0.000 
0.000 0.479 0.479 0.414 0.402 0.388 0.381 0.375 0.369 0.364 0.359 0.355 0.352 0.350 0.349 0.348 0.348 0.349 0.351 0.353 0.357 0.362 0.367 0.375 0.383 0.393 0.406 0.420 0.437 0.456 0.478 0.503 0.532 0.564 0.600 0.641 0.688 0.735 0.776 0.811 0.840 0.864 0.884 0.901 0.917 0.931 0.944 0.956 0.966 0.975 0.983 0.990 0.997 1.004 1.010 1.016 1.020 1.023 1.025 1.025 1.025 1.023 1.022 1.021 1.022 1.025 1.029 1.035 1.043 1.052 1.058 1.062 1.064 1.066 1.066 1.067 1.067 1.067 1.066 1.064 1.063 1.062 1.060 1.057 1.054 1.049 1.044 1.037 1.027 1.013 0.996 0.974 0.948 0.916 0.879 0.837 0.798 0.766 0.740 0.720 0.704 0.692 0.683 0.677 0.673 0.671 0.670 0.670 0.670 0.672 0.675 0.681 0.691 0.703 0.720 0.740 0.764 0.790 0.817 0.842 0.868 0.892 0.917 0.942 0.967 0.991 1.012 1.030 1.046 1.060 1.071 1.081 1.090 1.098 1.105 1.112 1.117 1.121 1.124 1.126 1.127 1.128 1.128 1.128 1.127 1.126 1.123 1.120 1.114 1.107 1.098 1.086 1.072 1.055 1.038 1.024 1.014 1.007 1.004 1.003 1.003 1.004 1.009 1.018 1.031 1.039 1.039 0.000 
0.000 0.603 0.603 0.537 0.496 0.462 0.438 0.421 0.407 0.397 0.389 0.383 0.378 0.375 0.374 0.373 0.373 0.373 0.374 0.376 0.379 0.383 0.388 0.395 0.404 0.414 0.427 0.442 0.459 0.478 0.500 0.525 0.553 0.583 0.618 0.656 0.698 0.741 0.780 0.813 0.842 0.868 0.891 0.912 0.932 0.951 0.968 0.984 0.998 1.010 1.020 1.029 1.037 1.045 1.052 1.058 1.062 1.065 1.067 1.068 1.069 1.068 1.067 1.066 1.066 1.067 1.071 1.077 1.085 1.092 1.096 1.099 1.100 1.101 1.101 1.101 1.101 1.099 1.097 1.093 1.088 1.082 1.076 1.070 1.063 1.056 1.048 1.038 1.026 1.012 0.993 0.971 0.944 0.912 0.876 0.836 0.800 0.769 0.743 0.723 0.707 0.694 0.685 0.678 0.674 0.671 0.670 0.670 0.671 0.672 0.675 0.680 0.687 0.697 0.710 0.726 0.744 0.766 0.788 0.811 0.835 0.859 0.884 0.909 0.936 0.963 0.988 1.010 1.030 1.047 1.062 1.075 1.086 1.096 1.104 1.112 1.118 1.123 1.127 1.129 1.131 1.131 1.132 1.131 1.131 1.130 1.128 1.125 1.120 1.114 1.105 1.094 1.080 1.064 1.046 1.032 1.021 1.013 1.009 1.007 1.006 1.007 1.011 1.018 1.030 1.036 1.036 0.000 
0.000 0.640 0.640 0.609 0.560 0.512 0.479 0.454 0.436 0.423 0.413 0.405 0.400 0.397 0.395 0.394 0.393 0.393 0.394 0.395 0.397 0.401 0.406 0.413 0.422 0.433 0.447 0.462 0.479 0.499 0.520 0.545 0.572 0.601 0.634 0.669 0.708 0.748 0.784 0.817 0.847 0.875 0.902 0.927 0.951 0.974 0.995 1.013 1.029 1.042 1.054 1.065 1.074 1.083 1.090 1.096 1.101 1.104 1.107 1.108 1.109 1.110 1.110 1.110 1.111 1.112 1.115 1.119 1.124 1.129 1.132 1.133 1.134 1.135 1.134 1.134 1.132 1.130 1.126 1.121 1.115 1.106 1.096 1.086 1.076 1.065 1.053 1.041 1.027 1.011 0.992 0.968 0.941 0.910 0.873 0.835 0.800 0.770 0.745 0.725 0.708 0.695 0.686 0.679 0.674 0.671 0.670 0.670 0.670 0.671 0.673 0.677 0.683 0.690 0.700 0.712 0.727 0.744 0.763 0.784 0.805 0.828 0.852 0.878 0.905 0.934 0.963 0.989 1.013 1.034 1.052 1.068 1.081 1.093 1.103 1.111 1.118 1.123 1.128 1.131 1.133 1.134 1.134 1.134 1.134 1.133 1.132 1.129 1.125 1.120 1.112 1.102 1.089 1.074 1.056 1.040 1.026 1.017 1.011 1.008 1.007 1.008 1.011 1.018 1.028 1.034 1.034 0.000 
0.000 0.675 0.675 0.647 0.595 0.542 0.504 0.477 0.457 0.442 0.431 0.423 0.417 0.414 0.412 0.411 0.410 0.410 0.411 0.412 0.414 0.418 0.423 0.430 0.440 0.451 0.465 0.480 0.498 0.517 0.539 0.563 0.589 0.617 0.648 0.682 0.718 0.755 0.790 0.823 0.855 0.887 0.917 0.946 0.973 0.998 1.020 1.040 1.057 1.072 1.086 1.098 1.108 1.117 1.125 1.131 1.136 1.140 1.143 1.145 1.146 1.148 1.148 1.149 1.150 1.152 1.154 1.157 1.161 1.163 1.165 1.166 1.166 1.166 1.165 1.164 1.162 1.158 1.154 1.147 1.140 1.130 1.118 1.105 1.091 1.076 1.062 1.046 1.030 1.012 0.991 0.967 0.939 0.907 0.871 0.834 0.800 0.771 0.747 0.726 0.709 0.696 0.686 0.679 0.674 0.671 0.669 0.669 0.669 0.669 0.671 0.673 0.677 0.683 0.690 0.700 0.711 0.725 0.741 0.759 0.779 0.800 0.824 0.849 0.876 0.906 0.937 0.968 0.995 1.019 1.041 1.059 1.075 1.089 1.100 1.110 1.117 1.124 1.128 1.132 1.134 1.136 1.137 1.137 1.137 1.136 1.135 1.133 1.129 1.124 1.117 1.108 1.097 1.082 1.066 1.048 1.032 1.020 1.012 1.008 1.007 1.007 1.010 1.016 1.025 1.031 1.031 0.000 
0.000 0.650 0.650 0.652 0.607 0.557 0.519 0.490 0.470 0.455 0.444 0.436 0.431 0.427 0.425 0.425 0.424 0.424 0.424 0.426 0.428 0.432 0.438 0.446 0.456 0.467 0.481 0.497 0.514 0.534 0.555 0.579 0.605 0.632 0.662 0.694 0.728 0.763 0.797 0.832 0.867 0.901 0.934 0.966 0.995 1.021 1.044 1.065 1.083 1.100 1.114 1.127 1.138 1.148 1.156 1.163 1.168 1.173 1.176 1.179 1.181 1.182 1.183 1.185 1.186 1.187 1.189 1.191 1.193 1.195 1.195 1.196 1.196 1.195 1.194 1.192 1.189 1.185 1.179 1.172 1.163 1.152 1.140 1.125 1.108 1.091 1.072 1.054 1.034 1.014 0.991 0.966 0.938 0.906 0.870 0.833 0.801 0.772 0.748 0.727 0.710 0.696 0.686 0.678 0.673 0.670 0.668 0.667 0.666 0.666 0.667 0.668 0.671 0.675 0.680 0.687 0.696 0.707 0.721 0.736 0.754 0.775 0.797 0.822 0.849 0.879 0.912 0.945 0.977 1.004 1.029 1.050 1.069 1.084 1.097 1.108 1.117 1.123 1.129 1.133 1.135 1.137 1.138 1.138 1.138 1.138 1.137 1.135 1.132 1.128 1.121 1.113 1.102 1.089 1.074 1.055 1.037 1.022 1.012 1.006 1.004 1.004 1.006 1.011 1.021 1.029 1.029 0.000 
0.000 0.624 0.624 0.632 0.607 0.563 0.525 0.498 0.478 0.463 0.453 0.446 0.441 0.438 0.436 0.435 0.435 0.435 0.436 0.437 0.440 0.445 0.452 0.460 0.470 0.482 0.496 0.512 0.530 0.549 0.570 0.594 0.619 0.646 0.675 0.706 0.738 0.772 0.807 0.843 0.881 0.918 0.953 0.985 1.015 1.042 1.066 1.088 1.107 1.125 1.140 1.154 1.166 1.176 1.185 1.192 1.198 1.203 1.206 1.209 1.212 1.214 1.215 1.216 1.218 1.219 1.220 1.222 1.223 1.223 1.224 1.224 1.223 1.222 1.221 1.218 1.214 1.209 1.202 1.194 1.185 1.173 1.160 1.144 1.126 1.107 1.086 1.064 1.041 1.017 0.993 0.966 0.937 0.905 0.869 0.833 0.801 0.773 0.748 0.727 0.710 0.696 0.685 0.677 0.671 0.667 0.665 0.663 0.662 0.662 0.662 0.663 0.664 0.666 0.670 0.675 0.682 0.691 0.702 0.716 0.732 0.751 0.773 0.797 0.824 0.854 0.887 0.923 0.958 0.989 1.016 1.040 1.061 1.079 1.093 1.105 1.115 1.123 1.129 1.133 1.136 1.138 1.139 1.139 1.139 1.139 1.138 1.137 1.134 1.130 1.124 1.116 1.106 1.094 1.079 1.062 1.042 1.024 1.010 1.001 0.997 0.996 0.997 1.003 1.016 1.026 1.026 0.000 
0.000 0.598 0.598 0.608 0.594 0.563 0.527 0.500 0.481 0.468 0.459 0.452 0.448 0.446 0.444 0.444 0.444 0.444 0.445 0.447 0.451 0.457 0.464 0.473 0.483 0.496 0.510 0.525 0.543 0.562 0.584 0.607 0.631 0.658 0.687 0.717 0.750 0.783 0.819 0.856 0.895 0.933 0.969 1.002 1.033 1.060 1.086 1.108 1.129 1.147 1.164 1.178 1.190 1.201 1.210 1.218 1.224 1.230 1.234 1.237 1.240 1.242 1.244 1.245 1.246 1.247 1.248 1.249 1.249 1.250 1.250 1.249 1.249 1.247 1.245 1.241 1.237 1.231 1.224 1.215 1.205 1.193 1.178 1.162 1.144 1.123 1.100 1.075 1.050 1.023 0.996 0.968 0.937 0.904 0.868 0.833 0.801 0.773 0.749 0.727 0.710 0.696 0.684 0.675 0.669 0.664 0.660 0.658 0.657 0.656 0.655 0.655 0.656 0.657 0.659 0.663 0.668 0.676 0.685 0.698 0.713 0.730 0.751 0.775 0.801 0.831 0.864 0.900 0.938 0.972 1.003 1.030 1.053 1.072 1.089 1.102 1.113 1.122 1.128 1.133 1.136 1.138 1.139 1.140 1.140 1.140 1.139 1.138 1.136 1.132 1.126 1.119 1.109 1.097 1.083 1.066 1.047 1.027 1.008 0.993 0.983 0.979 0.979 0.986 1.008 1.023 1.023 0.000 
0.000 0.572 0.572 0.583 0.575 0.556 0.527 0.500 0.482 0.470 0.462 0.456 0.453 0.451 0.450 0.450 0.450 0.451 0.453 0.456 0.461 0.467 0.475 0.484 0.495 0.507 0.522 0.538 0.555 0.574 0.595 0.618 0.643 0.669 0.698 0.728 0.760 0.794 0.830 0.868 0.908 0.947 0.983 1.017 1.048 1.077 1.103 1.127 1.148 1.168 1.185 1.200 1.213 1.224 1.234 1.242 1.249 1.254 1.259 1.262 1.265 1.267 1.269 1.270 1.272 1.272 1.273 1.273 1.274 1.274 1.273 1.273 1.272 1.270 1.267 1.263 1.258 1.252 1.244 1.235 1.223 1.210 1.196 1.179 1.159 1.138 1.114 1.088 1.061 1.031 1.001 0.970 0.938 0.904 0.868 0.833 0.802 0.774 0.749 0.728 0.710 0.695 0.682 0.673 0.665 0.659 0.655 0.652 0.649 0.648 0.647 0.647 0.647 0.647 0.649 0.651 0.655 0.661 0.670 0.681 0.695 0.711 0.731 0.754 0.780 0.809 0.842 0.878 0.918 0.956 0.989 1.018 1.044 1.065 1.084 1.099 1.111 1.120 1.127 1.132 1.136 1.138 1.140 1.140 1.140 1.140 1.140 1.139 1.136 1.133 1.127 1.120 1.111 1.099 1.085 1.069 1.050 1.029 1.007 0.985 0.965 0.952 0.947 0.953 0.990 1.042 1.042 0.000 
0.000 0.546 0.546 0.558 0.553 0.541 0.522 0.499 0.482 0.470 0.463 0.458 0.456 0.455 0.455 0.455 0.455 0.457 0.460 0.464 0.469 0.476 0.484 0.494 0.505 0.518 0.532 0.548 0.565 0.585 0.605 0.628 0.652 0.679 0.707 0.737 0.769 0.804 0.840 0.878 0.919 0.958 0.996 1.030 1.062 1.092 1.119 1.144 1.166 1.186 1.203 1.219 1.233 1.244 1.255 1.263 1.270 1.276 1.281 1.285 1.288 1.290 1.292 1.293 1.294 1.295 1.295 1.295 1.295 1.295 1.295 1.294 1.293 1.290 1.287 1.283 1.277 1.271 1.262 1.252 1.241 1.227 1.212 1.194 1.174 1.152 1.128 1.101 1.072 1.041 1.008 0.975 0.940 0.904 0.868 0.834 0.803 0.774 0.749 0.727 0.709 0.693 0.679 0.669 0.660 0.653 0.648 0.644 0.641 0.639 0.638 0.637 0.637 0.637 0.638 0.639 0.643 0.648 0.656 0.666 0.679 0.694 0.713 0.735 0.760 0.789 0.821 0.858 0.898 0.938 0.974 1.006 1.034 1.058 1.078 1.094 1.108 1.118 1.126 1.132 1.136 1.138 1.140 1.140 1.141 1.140 1.140 1.139 1.137 1.133 1.128 1.121 1.112 1.100 1.086 1.070 1.051 1.030 1.006 0.981 0.954 0.925 0.898 0.880 0.916 1.069 1.069 0.000 
0.000 0.520 0.520 0.533 0.530 0.523 0.511 0.495 0.480 0.469 0.463 0.459 0.457 0.457 0.457 0.458 0.459 0.462 0.465 0.470 0.476 0.484 0.493 0.503 0.514 0.527 0.541 0.557 0.574 0.593 0.614 0.636 0.661 0.687 0.715 0.745 0.777 0.812 0.848 0.887 0.928 0.968 1.006 1.042 1.075 1.105 1.133 1.158 1.181 1.202 1.220 1.236 1.250 1.263 1.273 1.282 1.290 1.296 1.301 1.305 1.308 1.311 1.312 1.314 1.315 1.315 1.315 1.315 1.315 1.315 1.314 1.313 1.312 1.309 1.306 1.301 1.295 1.288 1.279 1.269 1.257 1.243 1.227 1.208 1.188 1.166 1.141 1.113 1.083 1.051 1.017 0.981 0.944 0.906 0.870 0.835 0.804 0.775 0.749 0.727 0.707 0.690 0.675 0.663 0.653 0.645 0.639 0.634 0.631 0.629 0.627 0.627 0.626 0.626 0.627 0.628 0.631 0.636 0.643 0.652 0.664 0.679 0.697 0.718 0.742 0.770 0.802 0.838 0.878 0.920 0.960 0.994 1.024 1.050 1.071 1.089 1.104 1.115 1.124 1.131 1.135 1.138 1.140 1.140 1.140 1.140 1.140 1.139 1.137 1.133 1.128 1.121 1.112 1.101 1.087 1.070 1.051 1.030 1.006 0.980 0.950 0.914 0.865 0.787 0.686 0.679 0.679 0.000 
0.000 0.495 0.495 0.507 0.505 0.502 0.496 0.486 0.475 0.467 0.462 0.459 0.458 0.458 0.458 0.460 0.462 0.466 0.470 0.476 0.483 0.491 0.500 0.510 0.522 0.535 0.549 0.565 0.582 0.601 0.621 0.643 0.668 0.694 0.722 0.752 0.784 0.818 0.855 0.894 0.935 0.976 1.015 1.052 1.085 1.116 1.145 1.171 1.195 1.216 1.235 1.252 1.266 1.279 1.290 1.299 1.307 1.314 1.319 1.323 1.326 1.329 1.331 1.332 1.333 1.333 1.333 1.333 1.333 1.333 1.332 1.331 1.329 1.326 1.322 1.317 1.311 1.304 1.295 1.284 1.271 1.257 1.241 1.222 1.201 1.178 1.153 1.125 1.094 1.061 1.026 0.988 0.948 0.909 0.872 0.838 0.806 0.776 0.750 0.726 0.705 0.686 0.670 0.657 0.646 0.637 0.630 0.625 0.621 0.619 0.617 0.617 0.616 0.616 0.617 0.618 0.621 0.625 0.631 0.640 0.651 0.665 0.682 0.702 0.726 0.753 0.784 0.820 0.859 0.902 0.944 0.981 1.013 1.041 1.064 1.084 1.100 1.112 1.122 1.129 1.134 1.137 1.139 1.140 1.140 1.140 1.140 1.139 1.137 1.133 1.128 1.121 1.112 1.101 1.087 1.070 1.051 1.030 1.006 0.980 0.950 0.913 0.860 0.767 0.560 0.134 0.134 0.000 
0.000 0.469 0.469 0.481 0.481 0.480 0.477 0.473 0.467 0.462 0.459 0.458 0.457 0.458 0.459 0.462 0.465 0.469 0.475 0.481 0.488 0.497 0.506 0.517 0.528 0.541 0.555 0.571 0.588 0.607 0.627 0.649 0.673 0.699 0.727 0.758 0.790 0.824 0.861 0.900 0.941 0.983 1.023 1.060 1.095 1.126 1.156 1.182 1.207 1.228 1.248 1.265 1.280 1.293 1.305 1.314 1.322 1.329 1.335 1.339 1.342 1.345 1.347 1.348 1.349 1.349 1.349 1.349 1.349 1.349 1.348 1.346 1.344 1.341 1.337 1.332 1.326 1.318 1.309 1.298 1.285 1.270 1.254 1.235 1.214 1.190 1.164 1.136 1.105 1.071 1.035 0.996 0.955 0.914 0.876 0.841 0.808 0.778 0.750 0.725 0.703 0.683 0.666 0.652 0.640 0.630 0.622 0.617 0.613 0.610 0.608 0.607 0.607 0.607 0.608 0.609 0.611 0.615 0.621 0.628 0.639 0.652 0.668 0.688 0.711 0.737 0.768 0.803 0.842 0.885 0.929 0.968 1.002 1.032 1.057 1.078 1.095 1.109 1.119 1.127 1.133 1.136 1.138 1.140 1.140 1.140 1.140 1.139 1.137 1.133 1.128 1.121 1.112 1.101 1.087 1.070 1.051 1.029 1.006 0.980 0.952 0.918 0.871 0.794 0.648 0.435 0.435 0.000 
0.000 0.443 0.443 0.456 0.456 0.456 0.456 0.456 0.455 0.454 0.454 0.455 0.456 0.457 0.460 0.463 0.467 0.472 0.478 0.485 0.493 0.502 0.511 0.522 0.533 0.546 0.561 0.576 0.593 0.612 0.632 0.654 0.678 0.704 0.732 0.762 0.794 0.829 0.866 0.905 0.946 0.989 1.029 1.067 1.102 1.135 1.165 1.192 1.217 1.239 1.259 1.277 1.292 1.306 1.318 1.328 1.336 1.343 1.349 1.353 1.357 1.359 1.361 1.362 1.363 1.363 1.363 1.363 1.363 1.363 1.362 1.360 1.358 1.355 1.351 1.346 1.339 1.331 1.322 1.311 1.298 1.283 1.266 1.247 1.225 1.201 1.175 1.147 1.115 1.081 1.045 1.005 0.962 0.920 0.881 0.845 0.811 0.780 0.751 0.725 0.702 0.681 0.663 0.648 0.635 0.624 0.616 0.610 0.605 0.602 0.600 0.599 0.599 0.599 0.599 0.600 0.603 0.606 0.611 0.618 0.628 0.641 0.656 0.675 0.697 0.723 0.753 0.787 0.825 0.868 0.913 0.954 0.991 1.022 1.049 1.071 1.090 1.105 1.116 1.125 1.131 1.135 1.137 1.139 1.139 1.139 1.139 1.138 1.136 1.133 1.128 1.121 1.112 1.100 1.086 1.069 1.049 1.028 1.005 0.983 0.961 0.938 0.914 0.897 0.912 1.014 1.014 0.000 
0.000 0.417 0.417 0.430 0.431 0.432 0.434 0.436 0.439 0.443 0.446 0.449 0.453 0.456 0.460 0.464 0.469 0.475 0.481 0.489 0.497 0.506 0.515 0.526 0.538 0.550 0.565 0.580 0.597 0.616 0.636 0.658 0.682 0.708 0.736 0.766 0.798 0.833 0.870 0.909 0.950 0.994 1.035 1.073 1.109 1.142 1.172 1.200 1.226 1.248 1.269 1.287 1.303 1.317 1.329 1.339 1.348 1.355 1.361 1.366 1.369 1.372 1.374 1.375 1.376 1.376 1.376 1.376 1.376 1.375 1.375 1.373 1.371 1.368 1.364 1.358 1.352 1.344 1.334 1.323 1.309 1.294 1.277 1.258 1.236 1.212 1.186 1.157 1.126 1.091 1.054 1.014 0.971 0.927 0.887 0.849 0.814 0.782 0.753 0.726 0.702 0.680 0.661 0.644 0.631 0.619 0.611 0.604 0.599 0.595 0.593 0.592 0.592 0.592 0.592 0.593 0.595 0.598 0.603 0.610 0.619 0.631 0.645 0.663 0.685 0.710 0.739 0.773 0.810 0.853 0.898 0.941 0.979 1.012 1.040 1.064 1.084 1.100 1.112 1.122 1.128 1.133 1.136 1.137 1.138 1.138 1.138 1.137 1.135 1.132 1.127 1.120 1.111 1.099 1.084 1.067 1.046 1.024 1.004 0.988 0.976 0.968 0.967 0.982 1.040 1.132 1.132 0.000 
0.000 0.391 0.391 0.405 0.407 0.410 0.413 0.418 0.424 0.430 0.437 0.443 0.448 0.454 0.459 0.465 0.471 0.477 0.484 0.492 0.500 0.509 0.518 0.529 0.541 0.554 0.568 0.583 0.600 0.618 0.639 0.661 0.685 0.711 0.739 0.769 0.801 0.836 0.872 0.912 0.954 0.997 1.039 1.078 1.114 1.148 1.179 1.207 1.233 1.256 1.277 1.296 1.312 1.327 1.339 1.350 1.359 1.366 1.372 1.377 1.380 1.383 1.385 1.386 1.387 1.387 1.387 1.387 1.387 1.387 1.386 1.384 1.382 1.379 1.375 1.369 1.363 1.355 1.345 1.334 1.320 1.305 1.288 1.268 1.247 1.223 1.196 1.167 1.136 1.101 1.064 1.024 0.980 0.936 0.894 0.855 0.819 0.785 0.755 0.727 0.702 0.679 0.659 0.642 0.628 0.616 0.606 0.599 0.593 0.590 0.587 0.586 0.586 0.586 0.586 0.587 0.588 0.591 0.595 0.602 0.610 0.622 0.636 0.653 0.674 0.698 0.727 0.760 0.797 0.838 0.884 0.928 0.967 1.002 1.032 1.057 1.078 1.095 1.108 1.118 1.125 1.130 1.134 1.135 1.136 1.136 1.136 1.135 1.134 1.130 1.126 1.119 1.109 1.097 1.082 1.063 1.041 1.019 1.002 0.991 0.986 0.986 0.992 1.016 1.068 1.116 1.116 0.000 
0.000 0.365 0.365 0.379 0.383 0.388 0.394 0.402 0.412 0.421 0.430 0.438 0.445 0.452 0.458 0.465 0.471 0.478 0.486 0.494 0.502 0.511 0.521 0.531 0.543 0.556 0.570 0.585 0.602 0.621 0.641 0.663 0.687 0.713 0.741 0.771 0.803 0.838 0.875 0.914 0.956 1.000 1.042 1.082 1.118 1.153 1.184 1.213 1.239 1.263 1.284 1.303 1.320 1.335 1.348 1.359 1.368 1.375 1.381 1.386 1.390 1.393 1.395 1.396 1.397 1.397 1.397 1.397 1.397 1.397 1.396 1.394 1.392 1.389 1.385 1.380 1.373 1.365 1.355 1.344 1.330 1.315 1.298 1.278 1.257 1.233 1.206 1.177 1.145 1.111 1.074 1.033 0.990 0.945 0.901 0.861 0.823 0.789 0.757 0.728 0.702 0.679 0.658 0.640 0.625 0.613 0.603 0.595 0.589 0.585 0.582 0.581 0.580 0.580 0.580 0.581 0.582 0.585 0.589 0.595 0.603 0.614 0.627 0.644 0.664 0.688 0.716 0.748 0.785 0.826 0.871 0.916 0.956 0.992 1.022 1.049 1.071 1.089 1.103 1.114 1.122 1.127 1.131 1.133 1.134 1.134 1.134 1.133 1.131 1.128 1.123 1.116 1.107 1.094 1.078 1.057 1.034 1.013 0.999 0.991 0.988 0.990 1.000 1.026 1.073 1.107 1.107 0.000 
0.000 0.339 0.339 0.354 0.361 0.368 0.378 0.390 0.403 0.415 0.425 0.434 0.442 0.450 0.457 0.465 0.472 0.479 0.487 0.495 0.504 0.513 0.522 0.533 0.545 0.557 0.571 0.587 0.604 0.622 0.642 0.664 0.688 0.714 0.742 0.772 0.805 0.839 0.876 0.916 0.958 1.002 1.044 1.084 1.122 1.157 1.188 1.218 1.245 1.269 1.290 1.310 1.327 1.342 1.355 1.366 1.376 1.383 1.390 1.395 1.399 1.402 1.404 1.405 1.406 1.406 1.406 1.406 1.406 1.406 1.405 1.403 1.401 1.398 1.394 1.389 1.382 1.374 1.364 1.353 1.340 1.325 1.307 1.288 1.266 1.242 1.216 1.187 1.155 1.121 1.083 1.043 1.000 0.954 0.909 0.867 0.828 0.792 0.760 0.730 0.703 0.679 0.658 0.640 0.624 0.611 0.600 0.592 0.586 0.581 0.578 0.577 0.576 0.576 0.576 0.576 0.578 0.580 0.584 0.589 0.597 0.607 0.620 0.636 0.656 0.679 0.706 0.738 0.773 0.814 0.859 0.905 0.946 0.982 1.014 1.041 1.064 1.083 1.098 1.109 1.118 1.124 1.127 1.130 1.131 1.131 1.131 1.130 1.128 1.125 1.120 1.113 1.103 1.090 1.072 1.051 1.026 1.007 0.994 0.988 0.987 0.989 1.000 1.026 1.071 1.099 1.099 0.000 
0.000 0.314 0.314 0.329 0.339 0.350 0.364 0.381 0.397 0.411 0.422 0.432 0.441 0.449 0.457 0.465 0.472 0.480 0.488 0.496 0.505 0.514 0.523 0.534 0.545 0.558 0.572 0.588 0.604 0.623 0.643 0.665 0.689 0.715 0.743 0.773 0.806 0.840 0.877 0.917 0.959 1.003 1.046 1.087 1.124 1.160 1.192 1.222 1.249 1.273 1.295 1.315 1.333 1.348 1.361 1.373 1.382 1.390 1.397 1.402 1.406 1.409 1.411 1.413 1.414 1.414 1.414 1.414 1.414 1.414 1.413 1.411 1.409 1.406 1.402 1.397 1.390 1.382 1.373 1.361 1.348 1.333 1.316 1.297 1.275 1.251 1.225 1.196 1.165 1.130 1.093 1.053 1.010 0.964 0.918 0.874 0.834 0.797 0.763 0.732 0.705 0.680 0.658 0.639 0.623 0.609 0.598 0.589 0.583 0.578 0.575 0.573 0.572 0.572 0.572 0.572 0.574 0.576 0.579 0.584 0.592 0.601 0.614 0.629 0.648 0.671 0.698 0.728 0.764 0.803 0.848 0.894 0.936 0.973 1.006 1.033 1.057 1.076 1.092 1.104 1.113 1.119 1.123 1.126 1.127 1.127 1.127 1.126 1.125 1.122 1.116 1.109 1.098 1.084 1.066 1.044 1.019 0.999 0.987 0.981 0.980 0.982 0.993 1.019 1.065 1.095 1.095 0.000 
0.000 0.288 0.288 0.305 0.318 0.334 0.355 0.376 0.394 0.409 0.421 0.431 0.441 0.449 0.457 0.465 0.473 0.481 0.488 0.497 0.505 0.514 0.524 0.534 0.546 0.559 0.573 0.588 0.605 0.623 0.644 0.666 0.690 0.716 0.744 0.774 0.806 0.841 0.878 0.917 0.959 1.004 1.047 1.088 1.126 1.162 1.195 1.225 1.252 1.277 1.299 1.320 1.337 1.353 1.367 1.378 1.388 1.396 1.403 1.408 1.413 1.416 1.418 1.420 1.420 1.421 1.421 1.421 1.421 1.421 1.420 1.418 1.416 1.413 1.409 1.404 1.398 1.390 1.381 1.369 1.356 1.342 1.325 1.305 1.284 1.260 1.234 1.205 1.174 1.140 1.103 1.063 1.020 0.974 0.926 0.882 0.840 0.801 0.766 0.735 0.706 0.681 0.659 0.639 0.623 0.609 0.597 0.588 0.581 0.576 0.573 0.570 0.569 0.569 0.569 0.569 0.570 0.572 0.575 0.580 0.587 0.596 0.608 0.624 0.642 0.664 0.690 0.720 0.755 0.794 0.838 0.885 0.927 0.965 0.998 1.027 1.051 1.070 1.086 1.098 1.108 1.114 1.119 1.121 1.122 1.123 1.122 1.122 1.120 1.117 1.112 1.104 1.093 1.078 1.060 1.037 1.012 0.990 0.975 0.965 0.961 0.961 0.970 0.996 1.050 1.092 1.092 0.000 
0.000 0.262 0.262 0.280 0.298 0.321 0.350 0.374 0.393 0.408 0.421 0.431 0.441 0.449 0.457 0.465 0.473 0.481 0.489 0.497 0.505 0.514 0.524 0.535 0.546 0.559 0.573 0.588 0.605 0.624 0.644 0.666 0.690 0.716 0.744 0.774 0.806 0.841 0.878 0.918 0.960 1.004 1.048 1.089 1.128 1.163 1.196 1.227 1.255 1.280 1.303 1.323 1.341 1.357 1.371 1.383 1.393 1.401 1.408 1.414 1.418 1.422 1.424 1.425 1.426 1.427 1.427 1.427 1.427 1.427 1.426 1.425 1.423 1.420 1.416 1.411 1.405 1.397 1.388 1.377 1.364 1.349 1.333 1.314 1.292 1.269 1.243 1.214 1.183 1.149 1.112 1.073 1.030 0.984 0.936 0.889 0.846 0.807 0.770 0.738 0.708 0.682 0.659 0.640 0.623 0.608 0.596 0.587 0.580 0.574 0.571 0.568 0.567 0.567 0.567 0.567 0.568 0.569 0.572 0.577 0.584 0.593 0.604 0.619 0.637 0.658 0.684 0.713 0.747 0.786 0.830 0.876 0.920 0.958 0.992 1.020 1.045 1.065 1.081 1.093 1.103 1.109 1.114 1.116 1.117 1.118 1.118 1.117 1.115 1.112 1.106 1.098 1.087 1.072 1.053 1.031 1.005 0.979 0.957 0.939 0.926 0.920 0.923 0.945 1.010 1.090 1.090 0.000 
0.000 0.236 0.236 0.256 0.280 0.314 0.348 0.374 0.393 0.408 0.421 0.431 0.441 0.449 0.457 0.465 0.473 0.481 0.489 0.497 0.505 0.514 0.524 0.535 0.546 0.559 0.573 0.588 0.605 0.624 0.644 0.666 0.690 0.716 0.744 0.774 0.806 0.841 0.878 0.918 0.960 1.004 1.048 1.090 1.128 1.164 1.198 1.228 1.257 1.282 1.305 1.326 1.344 1.360 1.374 1.387 1.397 1.406 1.413 1.418 1.423 1.426 1.429 1.431 1.432 1.432 1.432 1.432 1.432 1.432 1.431 1.430 1.428 1.425 1.422 1.417 1.411 1.403 1.394 1.384 1.371 1.357 1.340 1.321 1.301 1.277 1.251 1.223 1.192 1.158 1.122 1.082 1.040 0.994 0.945 0.898 0.853 0.812 0.775 0.741 0.711 0.684 0.661 0.640 0.623 0.608 0.596 0.586 0.579 0.573 0.569 0.567 0.566 0.565 0.565 0.565 0.566 0.567 0.570 0.574 0.581 0.589 0.600 0.615 0.632 0.653 0.678 0.707 0.741 0.779 0.822 0.869 0.913 0.952 0.986 1.015 1.040 1.060 1.076 1.089 1.099 1.105 1.110 1.112 1.113 1.114 1.113 1.113 1.111 1.107 1.101 1.093 1.081 1.066 1.046 1.023 0.996 0.966 0.935 0.904 0.875 0.850 0.834 0.837 0.895 1.087 1.087 0.000 
0.000 0.210 0.210 0.232 0.266 0.312 0.348 0.375 0.394 0.410 0.422 0.432 0.442 0.450 0.458 0.466 0.473 0.481 0.489 0.497 0.505 0.514 0.524 0.535 0.546 0.559 0.573 0.588 0.605 0.624 0.644 0.666 0.690 0.716 0.744 0.774 0.806 0.841 0.878 0.918 0.960 1.004 1.049 1.090 1.129 1.165 1.199 1.230 1.258 1.284 1.307 1.328 1.346 1.363 1.377 1.390 1.400 1.409 1.416 1.422 1.427 1.431 1.433 1.435 1.436 1.437 1.437 1.437 1.437 1.437 1.436 1.435 1.433 1.430 1.427 1.422 1.416 1.409 1.400 1.390 1.378 1.363 1.347 1.329 1.308 1.285 1.260 1.232 1.201 1.168 1.131 1.092 1.050 1.004 0.955 0.906 0.861 0.818 0.780 0.745 0.714 0.686 0.662 0.641 0.623 0.608 0.596 0.586 0.578 0.572 0.568 0.566 0.564 0.564 0.564 0.564 0.564 0.566 0.568 0.573 0.579 0.587 0.598 0.611 0.628 0.649 0.674 0.702 0.735 0.773 0.815 0.862 0.906 0.946 0.980 1.010 1.035 1.056 1.072 1.085 1.095 1.102 1.106 1.109 1.110 1.110 1.110 1.109 1.107 1.104 1.098 1.089 1.077 1.061 1.040 1.016 0.986 0.952 0.913 0.870 0.823 0.769 0.709 0.645 0.586 0.612 0.612 0.000 
0.000 0.184 0.184 0.210 0.262 0.315 0.352 0.379 0.398 0.413 0.425 0.435 0.443 0.451 0.459 0.466 0.474 0.481 0.489 0.496 0.505 0.514 0.524 0.534 0.546 0.559 0.573 0.588 0.605 0.623 0.644 0.666 0.690 0.716 0.744 0.774 0.806 0.841 0.878 0.918 0.960 1.004 1.049 1.090 1.129 1.165 1.199 1.230 1.259 1.285 1.308 1.329 1.348 1.365 1.379 1.392 1.403 1.412 1.419 1.426 1.430 1.434 1.437 1.439 1.440 1.441 1.441 1.441 1.441 1.441 1.440 1.439 1.437 1.435 1.432 1.427 1.421 1.414 1.406 1.396 1.384 1.370 1.354 1.336 1.316 1.293 1.268 1.240 1.210 1.177 1.141 1.102 1.060 1.014 0.966 0.916 0.869 0.825 0.786 0.750 0.717 0.689 0.664 0.642 0.624 0.609 0.596 0.586 0.578 0.572 0.568 0.565 0.564 0.563 0.563 0.563 0.564 0.565 0.567 0.571 0.577 0.585 0.595 0.609 0.626 0.646 0.670 0.698 0.731 0.768 0.810 0.856 0.901 0.941 0.976 1.006 1.031 1.052 1.069 1.082 1.092 1.099 1.103 1.106 1.107 1.108 1.107 1.107 1.105 1.101 1.095 1.086 1.074 1.057 1.036 1.010 0.978 0.940 0.895 0.844 0.785 0.714 0.625 0.498 0.288 0.063 0.063 0.000 
0.000 0.193 0.193 0.206 0.271 0.326 0.363 0.388 0.406 0.420 0.430 0.439 0.447 0.454 0.460 0.467 0.474 0.481 0.488 0.496 0.504 0.513 0.523 0.533 0.545 0.558 0.572 0.587 0.604 0.623 0.643 0.665 0.689 0.715 0.743 0.773 0.806 0.841 0.878 0.917 0.960 1.004 1.049 1.090 1.129 1.166 1.199 1.231 1.259 1.285 1.309 1.330 1.349 1.366 1.381 1.394 1.405 1.414 1.422 1.428 1.433 1.437 1.440 1.442 1.443 1.444 1.444 1.444 1.444 1.444 1.444 1.443 1.441 1.439 1.436 1.431 1.426 1.419 1.411 1.401 1.389 1.376 1.360 1.343 1.323 1.301 1.276 1.249 1.219 1.186 1.150 1.112 1.070 1.025 0.976 0.925 0.877 0.832 0.792 0.755 0.721 0.692 0.666 0.644 0.625 0.609 0.596 0.586 0.578 0.572 0.568 0.565 0.563 0.563 0.562 0.563 0.563 0.564 0.567 0.570 0.576 0.584 0.594 0.607 0.623 0.643 0.667 0.695 0.727 0.763 0.805 0.851 0.896 0.937 0.972 1.002 1.028 1.049 1.066 1.080 1.090 1.097 1.101 1.104 1.105 1.106 1.105 1.105 1.103 1.099 1.093 1.084 1.071 1.054 1.033 1.005 0.972 0.931 0.883 0.826 0.759 0.681 0.586 0.455 0.221 0.000 0.000 0.000 
0.000 0.306 0.306 0.251 0.302 0.354 0.386 0.406 0.421 0.431 0.439 0.446 0.451 0.457 0.463 0.468 0.474 0.480 0.487 0.495 0.503 0.512 0.522 0.532 0.544 0.557 0.571 0.587 0.603 0.622 0.642 0.664 0.688 0.714 0.742 0.773 0.805 0.840 0.877 0.917 0.959 1.004 1.048 1.090 1.129 1.166 1.199 1.231 1.259 1.286 1.310 1.331 1.350 1.367 1.382 1.395 1.406 1.416 1.424 1.430 1.435 1.439 1.442 1.444 1.446 1.447 1.447 1.447 1.447 1.447 1.447 1.446 1.444 1.442 1.439 1.435 1.430 1.423 1.415 1.406 1.394 1.381 1.366 1.349 1.330 1.308 1.284 1.257 1.227 1.195 1.160 1.121 1.080 1.035 0.987 0.935 0.886 0.840 0.798 0.760 0.726 0.696 0.669 0.646 0.627 0.610 0.597 0.586 0.578 0.572 0.568 0.565 0.563 0.562 0.562 0.562 0.563 0.564 0.566 0.570 0.575 0.583 0.593 0.606 0.622 0.641 0.664 0.692 0.724 0.760 0.801 0.847 0.892 0.933 0.969 0.999 1.025 1.047 1.064 1.078 1.088 1.095 1.100 1.102 1.104 1.104 1.104 1.103 1.101 1.098 1.092 1.083 1.070 1.053 1.031 1.003 0.969 0.926 0.875 0.814 0.741 0.660 0.575 0.468 0.283 0.000 0.000 0.000 
0.000 0.436 0.436 0.368 0.378 0.406 0.425 0.436 0.443 0.448 0.451 0.455 0.458 0.461 0.465 0.469 0.473 0.479 0.486 0.493 0.501 0.510 0.520 0.531 0.542 0.555 0.570 0.585 0.602 0.621 0.641 0.663 0.687 0.713 0.741 0.771 0.804 0.839 0.876 0.916 0.958 1.003 1.048 1.090 1.129 1.165 1.199 1.231 1.260 1.286 1.310 1.331 1.351 1.368 1.383 1.396 1.408 1.417 1.425 1.432 1.437 1.441 1.444 1.447 1.448 1.449 1.450 1.450 1.450 1.450 1.449 1.448 1.447 1.445 1.442 1.438 1.433 1.427 1.419 1.410 1.399 1.387 1.372 1.355 1.336 1.315 1.291 1.265 1.236 1.204 1.169 1.131 1.090 1.045 0.998 0.946 0.896 0.849 0.805 0.766 0.731 0.700 0.673 0.649 0.629 0.612 0.598 0.587 0.579 0.572 0.568 0.565 0.563 0.562 0.562 0.562 0.563 0.564 0.566 0.569 0.575 0.582 0.592 0.605 0.620 0.640 0.663 0.690 0.721 0.757 0.798 0.843 0.889 0.930 0.966 0.997 1.023 1.045 1.062 1.076 1.087 1.094 1.099 1.102 1.103 1.103 1.103 1.102 1.101 1.097 1.091 1.082 1.069 1.052 1.030 1.002 0.967 0.924 0.872 0.808 0.730 0.645 0.580 0.541 0.528 0.492 0.492 0.000 
0.000 0.611 0.611 0.515 0.503 0.492 0.482 0.474 0.467 0.464 0.462 0.462 0.462 0.464 0.466 0.469 0.473 0.478 0.484 0.491 0.499 0.508 0.517 0.528 0.540 0.553 0.567 0.583 0.600 0.619 0.639 0.661 0.685 0.711 0.739 0.769 0.802 0.837 0.875 0.915 0.957 1.002 1.047 1.089 1.129 1.165 1.199 1.231 1.260 1.286 1.310 1.332 1.351 1.368 1.384 1.397 1.408 1.418 1.426 1.433 1.439 1.443 1.446 1.448 1.450 1.451 1.452 1.452 1.452 1.452 1.451 1.451 1.449 1.448 1.445 1.441 1.436 1.430 1.423 1.414 1.404 1.391 1.377 1.361 1.342 1.322 1.298 1.273 1.244 1.213 1.178 1.141 1.100 1.056 1.009 0.957 0.906 0.858 0.813 0.773 0.737 0.705 0.677 0.652 0.631 0.614 0.600 0.588 0.579 0.573 0.568 0.565 0.563 0.562 0.562 0.562 0.563 0.564 0.566 0.569 0.575 0.582 0.592 0.604 0.620 0.639 0.661 0.688 0.719 0.755 0.795 0.841 0.886 0.928 0.964 0.995 1.021 1.043 1.061 1.075 1.086 1.093 1.098 1.101 1.102 1.103 1.103 1.102 1.100 1.097 1.091 1.082 1.069 1.052 1.030 1.002 0.967 0.924 0.871 0.807 0.727 0.641 0.581 0.568 0.637 1.033 1.033 0.000 
0.000 0.785 0.785 0.687 0.636 0.573 0.529 0.501 0.483 0.473 0.468 0.466 0.465 0.465 0.466 0.468 0.472 0.476 0.482 0.488 0.496 0.505 0.514 0.525 0.537 0.550 0.564 0.580 0.597 0.616 0.636 0.658 0.682 0.708 0.736 0.767 0.800 0.835 0.872 0.913 0.955 1.001 1.046 1.088 1.128 1.165 1.199 1.230 1.259 1.286 1.310 1.332 1.351 1.368 1.384 1.397 1.409 1.419 1.427 1.434 1.440 1.444 1.447 1.450 1.451 1.453 1.453 1.453 1.453 1.453 1.453 1.452 1.451 1.450 1.447 1.444 1.439 1.433 1.426 1.418 1.408 1.396 1.382 1.366 1.348 1.328 1.305 1.280 1.252 1.222 1.188 1.151 1.111 1.067 1.020 0.969 0.917 0.867 0.822 0.781 0.743 0.710 0.681 0.656 0.634 0.616 0.601 0.590 0.580 0.573 0.569 0.565 0.564 0.563 0.562 0.562 0.563 0.564 0.566 0.569 0.575 0.582 0.591 0.604 0.619 0.638 0.661 0.687 0.718 0.753 0.793 0.838 0.884 0.926 0.962 0.993 1.020 1.042 1.060 1.074 1.085 1.093 1.098 1.101 1.102 1.103 1.102 1.102 1.100 1.096 1.091 1.082 1.069 1.052 1.030 1.002 0.967 0.924 0.872 0.808 0.730 0.645 0.577 0.533 0.510 0.568 0.568 0.000 
0.000 0.955 0.955 0.846 0.718 0.615 0.551 0.513 0.491 0.478 0.471 0.467 0.466 0.466 0.466 0.468 0.470 0.474 0.479 0.485 0.493 0.501 0.511 0.522 0.533 0.546 0.561 0.576 0.593 0.612 0.632 0.654 0.678 0.705 0.733 0.763 0.796 0.832 0.869 0.910 0.953 0.999 1.044 1.087 1.127 1.164 1.198 1.230 1.259 1.286 1.310 1.332 1.351 1.368 1.384 1.397 1.409 1.419 1.428 1.435 1.440 1.445 1.448 1.451 1.453 1.454 1.454 1.455 1.455 1.455 1.455 1.454 1.453 1.451 1.449 1.446 1.442 1.436 1.429 1.421 1.411 1.400 1.387 1.371 1.354 1.334 1.312 1.288 1.260 1.230 1.197 1.161 1.121 1.078 1.032 0.981 0.928 0.878 0.831 0.789 0.751 0.717 0.686 0.660 0.638 0.619 0.604 0.591 0.582 0.575 0.569 0.566 0.564 0.563 0.563 0.563 0.563 0.564 0.566 0.570 0.575 0.582 0.591 0.604 0.619 0.638 0.660 0.687 0.717 0.752 0.792 0.837 0.883 0.924 0.961 0.992 1.019 1.041 1.060 1.074 1.085 1.092 1.098 1.101 1.102 1.102 1.102 1.102 1.100 1.096 1.091 1.082 1.069 1.052 1.031 1.003 0.968 0.926 0.875 0.813 0.740 0.658 0.571 0.461 0.269 0.026 0.026 0.000 
0.000 1.004 1.004 0.925 0.744 0.626 0.557 0.516 0.492 0.478 0.471 0.467 0.466 0.466 0.466 0.467 0.469 0.472 0.477 0.482 0.489 0.497 0.507 0.517 0.529 0.542 0.556 0.572 0.589 0.607 0.628 0.650 0.674 0.700 0.728 0.759 0.792 0.828 0.866 0.906 0.950 0.996 1.042 1.085 1.125 1.163 1.197 1.229 1.259 1.285 1.310 1.331 1.351 1.368 1.384 1.397 1.409 1.419 1.428 1.435 1.441 1.445 1.449 1.452 1.454 1.455 1.455 1.456 1.456 1.456 1.456 1.455 1.454 1.453 1.451 1.448 1.444 1.438 1.432 1.424 1.415 1.404 1.391 1.376 1.359 1.340 1.319 1.295 1.268 1.239 1.206 1.171 1.132 1.089 1.043 0.994 0.940 0.889 0.841 0.798 0.758 0.723 0.692 0.665 0.642 0.623 0.607 0.594 0.584 0.576 0.571 0.567 0.565 0.564 0.563 0.563 0.564 0.565 0.567 0.570 0.575 0.582 0.592 0.604 0.619 0.638 0.660 0.686 0.717 0.751 0.791 0.835 0.881 0.923 0.960 0.991 1.018 1.041 1.059 1.074 1.085 1.092 1.098 1.101 1.102 1.103 1.102 1.102 1.100 1.097 1.091 1.082 1.070 1.053 1.032 1.005 0.971 0.930 0.882 0.824 0.756 0.677 0.582 0.450 0.218 0.000 0.000 0.000 
0.000 0.785 0.785 0.875 0.737 0.621 0.554 0.514 0.491 0.478 0.470 0.467 0.465 0.465 0.465 0.466 0.467 0.470 0.474 0.479 0.486 0.493 0.502 0.512 0.524 0.536 0.550 0.566 0.583 0.602 0.622 0.644 0.668 0.695 0.723 0.754 0.787 0.823 0.861 0.902 0.946 0.992 1.039 1.082 1.123 1.161 1.196 1.228 1.258 1.285 1.309 1.331 1.351 1.368 1.384 1.397 1.409 1.419 1.428 1.435 1.441 1.446 1.449 1.452 1.454 1.455 1.456 1.457 1.457 1.457 1.457 1.456 1.455 1.454 1.452 1.449 1.445 1.440 1.434 1.427 1.418 1.407 1.395 1.380 1.364 1.345 1.325 1.301 1.275 1.247 1.215 1.180 1.142 1.101 1.056 1.006 0.954 0.901 0.852 0.807 0.767 0.731 0.699 0.671 0.647 0.627 0.610 0.597 0.586 0.578 0.572 0.569 0.566 0.565 0.564 0.564 0.565 0.565 0.567 0.571 0.575 0.582 0.592 0.604 0.619 0.638 0.660 0.686 0.716 0.751 0.790 0.834 0.880 0.922 0.959 0.991 1.018 1.041 1.059 1.074 1.085 1.092 1.098 1.101 1.102 1.103 1.103 1.102 1.101 1.097 1.092 1.083 1.071 1.055 1.035 1.009 0.977 0.938 0.893 0.840 0.779 0.708 0.619 0.495 0.291 0.000 0.000 0.000 
0.000 0.571 0.571 0.682 0.658 0.590 0.536 0.504 0.484 0.473 0.467 0.464 0.463 0.463 0.463 0.464 0.465 0.468 0.471 0.476 0.482 0.489 0.497 0.507 0.518 0.530 0.544 0.559 0.576 0.595 0.615 0.637 0.662 0.688 0.716 0.747 0.781 0.817 0.855 0.897 0.941 0.988 1.035 1.079 1.120 1.159 1.194 1.227 1.256 1.284 1.308 1.330 1.350 1.368 1.384 1.397 1.409 1.419 1.428 1.435 1.441 1.446 1.450 1.453 1.455 1.456 1.457 1.457 1.457 1.457 1.457 1.457 1.456 1.455 1.453 1.450 1.447 1.442 1.436 1.429 1.420 1.410 1.398 1.384 1.368 1.350 1.330 1.308 1.282 1.254 1.224 1.190 1.153 1.112 1.068 1.020 0.967 0.914 0.864 0.818 0.776 0.739 0.706 0.678 0.653 0.632 0.615 0.600 0.589 0.581 0.575 0.570 0.568 0.566 0.566 0.566 0.566 0.567 0.569 0.572 0.576 0.583 0.592 0.604 0.619 0.638 0.660 0.686 0.716 0.751 0.790 0.834 0.880 0.922 0.958 0.990 1.018 1.040 1.059 1.074 1.085 1.093 1.098 1.101 1.103 1.103 1.103 1.103 1.101 1.098 1.093 1.085 1.074 1.059 1.039 1.015 0.985 0.949 0.908 0.863 0.813 0.759 0.702 0.644 0.582 0.520 0.520 0.000 
0.000 0.366 0.366 0.473 0.502 0.508 0.492 0.478 0.469 0.463 0.461 0.459 0.459 0.460 0.460 0.461 0.463 0.465 0.468 0.472 0.478 0.484 0.492 0.501 0.511 0.523 0.537 0.552 0.569 0.587 0.607 0.629 0.654 0.680 0.709 0.740 0.773 0.810 0.849 0.890 0.935 0.983 1.030 1.075 1.117 1.156 1.192 1.225 1.255 1.282 1.307 1.330 1.350 1.368 1.383 1.397 1.409 1.419 1.428 1.435 1.441 1.446 1.450 1.453 1.455 1.456 1.457 1.457 1.458 1.458 1.458 1.457 1.457 1.456 1.454 1.451 1.448 1.443 1.438 1.431 1.423 1.413 1.401 1.388 1.373 1.355 1.336 1.314 1.289 1.262 1.232 1.199 1.163 1.123 1.080 1.033 0.981 0.927 0.876 0.829 0.786 0.748 0.714 0.685 0.659 0.638 0.619 0.605 0.593 0.584 0.578 0.573 0.570 0.569 0.568 0.568 0.568 0.569 0.570 0.573 0.578 0.584 0.593 0.605 0.620 0.638 0.660 0.686 0.716 0.751 0.790 0.833 0.879 0.921 0.958 0.990 1.017 1.040 1.059 1.074 1.085 1.093 1.098 1.102 1.104 1.104 1.104 1.104 1.103 1.100 1.095 1.088 1.077 1.063 1.045 1.023 0.995 0.963 0.928 0.892 0.860 0.835 0.821 0.826 0.879 1.054 1.054 0.000 
0.000 0.213 0.213 0.304 0.371 0.409 0.429 0.439 0.445 0.448 0.450 0.451 0.453 0.454 0.456 0.458 0.460 0.462 0.465 0.469 0.473 0.479 0.486 0.494 0.504 0.516 0.529 0.543 0.560 0.578 0.598 0.620 0.645 0.671 0.700 0.731 0.765 0.801 0.841 0.883 0.928 0.976 1.025 1.070 1.113 1.152 1.189 1.222 1.253 1.280 1.306 1.328 1.349 1.367 1.383 1.397 1.409 1.419 1.428 1.435 1.441 1.446 1.450 1.453 1.455 1.456 1.457 1.458 1.458 1.458 1.458 1.458 1.457 1.456 1.454 1.452 1.449 1.445 1.439 1.433 1.425 1.415 1.404 1.391 1.376 1.359 1.340 1.319 1.295 1.269 1.240 1.208 1.172 1.134 1.092 1.046 0.996 0.942 0.889 0.841 0.797 0.758 0.723 0.693 0.666 0.644 0.625 0.610 0.597 0.588 0.581 0.576 0.573 0.571 0.571 0.570 0.570 0.571 0.573 0.575 0.580 0.586 0.595 0.606 0.621 0.639 0.661 0.686 0.716 0.751 0.790 0.833 0.879 0.921 0.958 0.990 1.017 1.040 1.059 1.074 1.085 1.094 1.099 1.103 1.105 1.106 1.106 1.106 1.104 1.102 1.098 1.091 1.082 1.069 1.053 1.032 1.008 0.979 0.951 0.930 0.915 0.908 0.910 0.926 0.982 1.054 1.054 0.000 
0.000 0.154 0.154 0.207 0.284 0.347 0.387 0.411 0.426 0.435 0.440 0.444 0.447 0.449 0.452 0.454 0.456 0.459 0.462 0.465 0.469 0.474 0.480 0.488 0.497 0.508 0.520 0.534 0.550 0.568 0.588 0.610 0.634 0.661 0.689 0.721 0.755 0.792 0.832 0.874 0.920 0.969 1.018 1.065 1.108 1.148 1.185 1.219 1.250 1.278 1.304 1.327 1.348 1.366 1.382 1.396 1.408 1.419 1.428 1.435 1.441 1.446 1.450 1.453 1.455 1.456 1.457 1.458 1.458 1.458 1.458 1.458 1.457 1.456 1.455 1.453 1.449 1.445 1.440 1.434 1.426 1.417 1.407 1.394 1.380 1.363 1.345 1.324 1.301 1.275 1.247 1.216 1.182 1.144 1.103 1.058 1.010 0.957 0.903 0.854 0.809 0.769 0.733 0.701 0.674 0.651 0.631 0.615 0.603 0.593 0.585 0.580 0.577 0.575 0.574 0.574 0.574 0.574 0.575 0.578 0.582 0.588 0.597 0.608 0.622 0.640 0.661 0.687 0.717 0.751 0.790 0.833 0.879 0.921 0.958 0.990 1.017 1.040 1.059 1.074 1.086 1.095 1.101 1.105 1.107 1.108 1.108 1.108 1.107 1.105 1.102 1.096 1.088 1.077 1.062 1.044 1.022 0.997 0.978 0.966 0.959 0.958 0.962 0.978 1.016 1.051 1.051 0.000 
0.000 0.096 0.096 0.147 0.234 0.317 0.367 0.398 0.416 0.428 0.435 0.440 0.443 0.446 0.448 0.451 0.453 0.456 0.458 0.461 0.465 0.469 0.475 0.482 0.490 0.500 0.511 0.524 0.540 0.557 0.577 0.599 0.623 0.649 0.678 0.709 0.744 0.781 0.821 0.864 0.911 0.961 1.011 1.058 1.102 1.143 1.181 1.215 1.247 1.275 1.302 1.325 1.346 1.364 1.381 1.395 1.408 1.418 1.427 1.435 1.441 1.446 1.450 1.453 1.455 1.456 1.457 1.458 1.458 1.458 1.458 1.458 1.457 1.456 1.455 1.453 1.450 1.446 1.441 1.435 1.428 1.419 1.409 1.397 1.383 1.367 1.349 1.329 1.306 1.282 1.254 1.224 1.190 1.154 1.114 1.070 1.023 0.972 0.918 0.867 0.821 0.780 0.743 0.711 0.683 0.659 0.638 0.622 0.608 0.598 0.590 0.585 0.581 0.579 0.578 0.577 0.577 0.578 0.579 0.581 0.585 0.591 0.599 0.610 0.624 0.642 0.663 0.688 0.717 0.751 0.790 0.833 0.879 0.921 0.958 0.990 1.018 1.041 1.060 1.075 1.087 1.096 1.103 1.107 1.109 1.111 1.111 1.111 1.110 1.109 1.106 1.102 1.095 1.086 1.073 1.057 1.037 1.017 1.003 0.994 0.991 0.991 0.994 1.006 1.030 1.048 1.048 0.000 
0.000 0.036 0.036 0.100 0.222 0.309 0.361 0.393 0.413 0.426 0.433 0.438 0.442 0.444 0.446 0.448 0.451 0.453 0.455 0.458 0.461 0.465 0.470 0.476 0.483 0.492 0.503 0.515 0.529 0.546 0.565 0.586 0.610 0.636 0.665 0.697 0.731 0.769 0.809 0.853 0.900 0.951 1.002 1.051 1.096 1.137 1.176 1.211 1.243 1.272 1.299 1.323 1.344 1.363 1.379 1.394 1.407 1.417 1.427 1.434 1.441 1.446 1.450 1.453 1.455 1.456 1.457 1.458 1.458 1.458 1.458 1.458 1.457 1.457 1.455 1.453 1.450 1.447 1.442 1.436 1.429 1.420 1.410 1.399 1.385 1.370 1.353 1.333 1.311 1.287 1.260 1.231 1.198 1.163 1.124 1.082 1.036 0.986 0.932 0.881 0.834 0.792 0.754 0.721 0.692 0.667 0.646 0.629 0.615 0.604 0.596 0.590 0.586 0.584 0.582 0.582 0.582 0.582 0.583 0.586 0.589 0.595 0.603 0.613 0.627 0.644 0.665 0.690 0.719 0.752 0.790 0.833 0.879 0.921 0.958 0.990 1.018 1.041 1.061 1.076 1.089 1.098 1.105 1.110 1.112 1.114 1.115 1.115 1.115 1.114 1.112 1.109 1.103 1.096 1.085 1.071 1.054 1.036 1.023 1.015 1.012 1.012 1.014 1.021 1.035 1.046 1.046 0.000 
0.000 0.134 0.134 0.117 0.238 0.313 0.361 0.393 0.413 0.425 0.433 0.438 0.441 0.443 0.445 0.447 0.448 0.450 0.452 0.455 0.457 0.461 0.465 0.470 0.477 0.485 0.495 0.506 0.520 0.535 0.553 0.573 0.596 0.622 0.651 0.682 0.717 0.755 0.796 0.841 0.889 0.940 0.993 1.042 1.088 1.131 1.170 1.206 1.239 1.268 1.295 1.320 1.341 1.361 1.378 1.393 1.405 1.416 1.426 1.434 1.440 1.445 1.449 1.452 1.455 1.456 1.457 1.458 1.458 1.458 1.458 1.458 1.457 1.457 1.455 1.453 1.451 1.447 1.442 1.437 1.430 1.422 1.412 1.401 1.388 1.373 1.356 1.337 1.316 1.292 1.266 1.238 1.206 1.171 1.134 1.092 1.048 0.999 0.947 0.895 0.847 0.804 0.765 0.731 0.702 0.676 0.655 0.637 0.622 0.611 0.602 0.596 0.592 0.589 0.588 0.588 0.587 0.588 0.589 0.591 0.594 0.599 0.607 0.617 0.631 0.647 0.667 0.692 0.720 0.753 0.791 0.834 0.879 0.921 0.958 0.991 1.018 1.042 1.062 1.078 1.090 1.100 1.108 1.113 1.116 1.118 1.119 1.119 1.119 1.119 1.117 1.115 1.110 1.104 1.095 1.083 1.068 1.052 1.040 1.031 1.027 1.026 1.026 1.030 1.037 1.043 1.043 0.000 
0.000 0.471 0.471 0.300 0.310 0.336 0.368 0.396 0.415 0.427 0.434 0.438 0.441 0.443 0.444 0.445 0.447 0.448 0.450 0.452 0.454 0.457 0.461 0.465 0.471 0.479 0.488 0.498 0.511 0.525 0.542 0.562 0.584 0.609 0.637 0.668 0.702 0.740 0.782 0.827 0.876 0.928 0.982 1.033 1.080 1.123 1.163 1.200 1.234 1.264 1.292 1.316 1.338 1.358 1.375 1.391 1.404 1.415 1.425 1.433 1.439 1.445 1.449 1.452 1.454 1.456 1.457 1.458 1.458 1.458 1.458 1.458 1.457 1.457 1.455 1.453 1.451 1.447 1.443 1.437 1.431 1.423 1.413 1.402 1.390 1.375 1.359 1.341 1.320 1.297 1.272 1.244 1.213 1.179 1.142 1.102 1.059 1.012 0.961 0.909 0.861 0.817 0.778 0.743 0.712 0.686 0.664 0.646 0.631 0.619 0.610 0.603 0.599 0.596 0.594 0.594 0.594 0.594 0.595 0.596 0.600 0.605 0.612 0.622 0.635 0.651 0.671 0.695 0.723 0.755 0.792 0.834 0.880 0.922 0.959 0.991 1.019 1.043 1.063 1.080 1.093 1.103 1.111 1.116 1.120 1.122 1.123 1.124 1.124 1.123 1.122 1.120 1.116 1.110 1.103 1.093 1.080 1.066 1.053 1.044 1.038 1.035 1.034 1.035 1.038 1.041 1.041 0.000 
0.000 0.524 0.524 0.444 0.372 0.369 0.385 0.407 0.422 0.431 0.437 0.440 0.442 0.443 0.444 0.445 0.445 0.446 0.447 0.449 0.451 0.453 0.456 0.461 0.466 0.473 0.481 0.491 0.502 0.516 0.533 0.551 0.573 0.597 0.624 0.655 0.689 0.727 0.768 0.813 0.862 0.916 0.971 1.023 1.071 1.116 1.156 1.194 1.228 1.259 1.287 1.313 1.335 1.355 1.373 1.388 1.402 1.414 1.423 1.432 1.438 1.444 1.448 1.452 1.454 1.456 1.457 1.457 1.458 1.458 1.458 1.458 1.457 1.456 1.455 1.453 1.451 1.447 1.443 1.438 1.431 1.423 1.414 1.404 1.391 1.377 1.362 1.344 1.324 1.301 1.277 1.249 1.219 1.187 1.151 1.112 1.069 1.023 0.973 0.922 0.874 0.830 0.790 0.755 0.724 0.697 0.674 0.655 0.640 0.627 0.618 0.611 0.606 0.603 0.602 0.601 0.601 0.601 0.602 0.603 0.606 0.611 0.618 0.627 0.640 0.656 0.675 0.698 0.726 0.758 0.794 0.835 0.880 0.922 0.960 0.992 1.021 1.045 1.065 1.082 1.095 1.106 1.114 1.120 1.123 1.126 1.127 1.127 1.127 1.127 1.126 1.124 1.121 1.116 1.109 1.100 1.089 1.076 1.064 1.054 1.047 1.042 1.038 1.037 1.037 1.038 1.038 0.000 
0.000 0.187 0.187 0.360 0.385 0.402 0.414 0.427 0.436 0.441 0.443 0.444 0.444 0.444 0.444 0.444 0.444 0.445 0.445 0.446 0.448 0.450 0.452 0.456 0.461 0.467 0.474 0.484 0.495 0.508 0.523 0.541 0.562 0.586 0.613 0.643 0.677 0.714 0.756 0.801 0.850 0.903 0.959 1.012 1.061 1.107 1.149 1.187 1.222 1.254 1.282 1.308 1.331 1.352 1.370 1.386 1.400 1.412 1.422 1.430 1.437 1.443 1.447 1.451 1.453 1.455 1.456 1.457 1.457 1.458 1.458 1.457 1.457 1.456 1.455 1.453 1.451 1.447 1.443 1.438 1.431 1.424 1.415 1.405 1.393 1.379 1.364 1.346 1.327 1.305 1.281 1.255 1.225 1.193 1.158 1.120 1.079 1.034 0.985 0.934 0.886 0.843 0.803 0.767 0.735 0.708 0.685 0.665 0.649 0.637 0.627 0.620 0.615 0.612 0.610 0.609 0.609 0.609 0.609 0.611 0.614 0.618 0.625 0.634 0.646 0.661 0.680 0.703 0.730 0.761 0.797 0.837 0.882 0.924 0.961 0.994 1.022 1.047 1.067 1.084 1.098 1.109 1.117 1.122 1.126 1.128 1.129 1.130 1.130 1.130 1.129 1.127 1.124 1.119 1.113 1.105 1.095 1.084 1.073 1.063 1.054 1.048 1.042 1.038 1.036 1.035 1.035 0.000 
0.000 0.200 0.200 0.268 0.401 0.441 0.454 0.458 0.459 0.456 0.453 0.450 0.448 0.446 0.444 0.444 0.443 0.443 0.443 0.444 0.445 0.446 0.449 0.452 0.456 0.462 0.468 0.477 0.488 0.500 0.515 0.532 0.552 0.576 0.602 0.632 0.666 0.703 0.745 0.790 0.839 0.891 0.947 1.001 1.051 1.098 1.141 1.180 1.216 1.248 1.277 1.304 1.327 1.348 1.367 1.383 1.397 1.409 1.420 1.428 1.436 1.442 1.446 1.450 1.453 1.454 1.456 1.457 1.457 1.457 1.457 1.457 1.457 1.456 1.455 1.453 1.450 1.447 1.443 1.438 1.432 1.424 1.416 1.406 1.394 1.381 1.366 1.349 1.330 1.309 1.285 1.259 1.231 1.200 1.165 1.128 1.088 1.044 0.996 0.946 0.898 0.855 0.815 0.779 0.748 0.720 0.696 0.676 0.660 0.647 0.637 0.630 0.624 0.621 0.619 0.618 0.618 0.618 0.618 0.620 0.622 0.626 0.633 0.641 0.653 0.668 0.686 0.708 0.734 0.765 0.800 0.840 0.884 0.926 0.963 0.996 1.025 1.049 1.070 1.087 1.100 1.111 1.119 1.124 1.128 1.130 1.131 1.132 1.132 1.132 1.131 1.129 1.126 1.122 1.116 1.108 1.098 1.088 1.079 1.069 1.061 1.053 1.046 1.039 1.035 1.033 1.033 0.000 
0.000 0.650 0.650 0.420 0.482 0.506 0.508 0.502 0.490 0.478 0.467 0.459 0.453 0.448 0.445 0.443 0.442 0.441 0.441 0.442 0.442 0.443 0.445 0.448 0.452 0.457 0.463 0.471 0.481 0.493 0.507 0.524 0.544 0.567 0.593 0.623 0.656 0.694 0.735 0.780 0.828 0.881 0.937 0.991 1.042 1.089 1.132 1.172 1.209 1.242 1.272 1.299 1.323 1.344 1.363 1.380 1.394 1.407 1.417 1.426 1.434 1.440 1.445 1.449 1.452 1.454 1.455 1.456 1.456 1.456 1.456 1.456 1.456 1.455 1.454 1.453 1.450 1.447 1.443 1.438 1.432 1.424 1.416 1.406 1.395 1.382 1.367 1.351 1.332 1.312 1.289 1.263 1.236 1.205 1.172 1.135 1.096 1.053 1.006 0.957 0.909 0.866 0.826 0.791 0.759 0.732 0.708 0.688 0.672 0.658 0.648 0.640 0.635 0.631 0.629 0.628 0.628 0.628 0.628 0.629 0.632 0.636 0.642 0.650 0.661 0.675 0.693 0.715 0.740 0.770 0.804 0.843 0.886 0.928 0.966 0.999 1.027 1.052 1.072 1.089 1.102 1.113 1.120 1.126 1.130 1.132 1.133 1.133 1.133 1.133 1.132 1.131 1.128 1.123 1.117 1.109 1.100 1.091 1.082 1.074 1.066 1.059 1.050 1.041 1.034 1.030 1.030 0.000 
0.000 0.925 0.925 0.761 0.661 0.609 0.574 0.543 0.517 0.496 0.479 0.467 0.457 0.450 0.446 0.442 0.441 0.440 0.439 0.439 0.440 0.440 0.442 0.444 0.447 0.452 0.458 0.465 0.475 0.486 0.500 0.517 0.536 0.559 0.585 0.615 0.648 0.685 0.726 0.771 0.819 0.871 0.927 0.981 1.032 1.080 1.124 1.165 1.202 1.235 1.266 1.293 1.318 1.340 1.359 1.376 1.391 1.404 1.415 1.424 1.432 1.438 1.443 1.447 1.450 1.452 1.454 1.455 1.455 1.455 1.455 1.455 1.455 1.455 1.454 1.452 1.450 1.447 1.443 1.438 1.432 1.425 1.416 1.407 1.395 1.383 1.368 1.352 1.334 1.314 1.292 1.267 1.240 1.210 1.178 1.142 1.103 1.061 1.016 0.967 0.920 0.876 0.837 0.802 0.771 0.743 0.720 0.700 0.683 0.670 0.659 0.652 0.646 0.642 0.640 0.639 0.638 0.638 0.639 0.640 0.642 0.646 0.651 0.659 0.670 0.684 0.701 0.722 0.747 0.776 0.809 0.847 0.890 0.932 0.969 1.002 1.030 1.054 1.075 1.091 1.104 1.114 1.122 1.127 1.131 1.133 1.134 1.134 1.134 1.134 1.133 1.132 1.129 1.124 1.118 1.110 1.100 1.091 1.084 1.077 1.071 1.064 1.056 1.046 1.035 1.028 1.028 0.000 
0.000 0.999 0.999 0.924 0.784 0.684 0.618 0.570 0.534 0.507 0.486 0.471 0.460 0.451 0.446 0.442 0.439 0.438 0.437 0.437 0.437 0.437 0.438 0.440 0.443 0.447 0.453 0.460 0.469 0.480 0.494 0.510 0.530 0.552 0.578 0.608 0.641 0.678 0.719 0.763 0.811 0.862 0.917 0.972 1.024 1.072 1.116 1.157 1.194 1.229 1.260 1.288 1.313 1.335 1.355 1.372 1.387 1.401 1.412 1.421 1.429 1.436 1.441 1.445 1.449 1.451 1.452 1.453 1.454 1.454 1.454 1.454 1.454 1.454 1.453 1.451 1.449 1.446 1.442 1.438 1.432 1.425 1.416 1.407 1.396 1.384 1.370 1.354 1.336 1.316 1.295 1.270 1.244 1.215 1.183 1.148 1.110 1.069 1.025 0.977 0.930 0.886 0.847 0.812 0.781 0.754 0.730 0.710 0.694 0.681 0.670 0.662 0.657 0.653 0.651 0.650 0.649 0.649 0.650 0.651 0.653 0.656 0.662 0.670 0.680 0.693 0.710 0.730 0.754 0.783 0.815 0.853 0.894 0.936 0.973 1.005 1.033 1.057 1.076 1.092 1.105 1.115 1.123 1.128 1.132 1.134 1.135 1.135 1.135 1.135 1.134 1.132 1.129 1.124 1.118 1.110 1.100 1.091 1.084 1.079 1.074 1.070 1.064 1.055 1.044 1.030 1.030 0.000 
0.000 0.994 0.994 0.960 0.831 0.717 0.639 0.584 0.543 0.513 0.490 0.473 0.461 0.451 0.445 0.440 0.437 0.436 0.435 0.434 0.434 0.434 0.435 0.437 0.439 0.443 0.448 0.455 0.464 0.475 0.488 0.504 0.524 0.547 0.573 0.602 0.635 0.672 0.712 0.756 0.803 0.854 0.909 0.964 1.015 1.064 1.108 1.149 1.187 1.222 1.253 1.282 1.307 1.330 1.350 1.368 1.384 1.397 1.409 1.418 1.427 1.433 1.439 1.443 1.447 1.449 1.451 1.452 1.453 1.453 1.453 1.453 1.453 1.452 1.452 1.450 1.448 1.445 1.442 1.437 1.431 1.424 1.416 1.407 1.396 1.384 1.370 1.355 1.338 1.318 1.297 1.273 1.247 1.219 1.188 1.154 1.117 1.076 1.033 0.986 0.939 0.896 0.857 0.822 0.791 0.763 0.740 0.720 0.704 0.691 0.680 0.672 0.667 0.663 0.661 0.659 0.659 0.659 0.659 0.660 0.662 0.666 0.671 0.679 0.689 0.702 0.718 0.738 0.762 0.790 0.822 0.858 0.899 0.940 0.976 1.008 1.035 1.058 1.078 1.094 1.106 1.116 1.123 1.129 1.132 1.134 1.135 1.135 1.135 1.135 1.134 1.132 1.129 1.124 1.118 1.110 1.100 1.091 1.084 1.079 1.076 1.074 1.072 1.069 1.065 1.064 1.064 0.000 
0.000 0.908 0.908 0.935 0.838 0.725 0.645 0.588 0.546 0.515 0.491 0.474 0.461 0.451 0.444 0.439 0.435 0.433 0.432 0.431 0.431 0.431 0.432 0.433 0.435 0.439 0.444 0.450 0.459 0.470 0.483 0.500 0.519 0.542 0.568 0.597 0.630 0.666 0.706 0.749 0.796 0.847 0.901 0.956 1.008 1.056 1.101 1.142 1.180 1.215 1.247 1.276 1.302 1.325 1.345 1.363 1.379 1.393 1.405 1.415 1.424 1.431 1.436 1.441 1.444 1.447 1.449 1.450 1.451 1.451 1.451 1.451 1.451 1.451 1.450 1.449 1.447 1.444 1.441 1.436 1.431 1.424 1.416 1.407 1.396 1.384 1.371 1.356 1.339 1.320 1.299 1.276 1.251 1.223 1.192 1.159 1.123 1.083 1.040 0.994 0.947 0.905 0.866 0.831 0.800 0.773 0.749 0.729 0.713 0.700 0.689 0.681 0.676 0.672 0.669 0.668 0.668 0.668 0.668 0.669 0.671 0.674 0.680 0.687 0.697 0.710 0.726 0.745 0.768 0.796 0.827 0.863 0.903 0.943 0.979 1.010 1.037 1.060 1.079 1.094 1.107 1.117 1.124 1.129 1.132 1.134 1.135 1.135 1.135 1.135 1.134 1.132 1.129 1.124 1.118 1.109 1.099 1.089 1.082 1.078 1.076 1.076 1.078 1.085 1.093 1.098 1.098 0.000 
0.000 0.809 0.809 0.853 0.809 0.722 0.645 0.589 0.547 0.515 0.492 0.474 0.460 0.450 0.442 0.437 0.433 0.430 0.429 0.428 0.428 0.428 0.428 0.429 0.431 0.435 0.439 0.446 0.454 0.466 0.479 0.496 0.516 0.538 0.564 0.593 0.626 0.661 0.701 0.743 0.790 0.839 0.893 0.948 1.000 1.049 1.094 1.135 1.174 1.209 1.241 1.270 1.296 1.319 1.340 1.359 1.375 1.389 1.401 1.412 1.420 1.428 1.433 1.438 1.442 1.445 1.447 1.448 1.449 1.449 1.449 1.449 1.449 1.449 1.448 1.447 1.445 1.443 1.440 1.435 1.430 1.424 1.416 1.407 1.396 1.385 1.371 1.356 1.340 1.321 1.301 1.278 1.253 1.226 1.196 1.163 1.128 1.089 1.047 1.002 0.956 0.913 0.874 0.839 0.808 0.781 0.757 0.738 0.721 0.708 0.697 0.689 0.684 0.680 0.677 0.676 0.676 0.676 0.676 0.677 0.679 0.682 0.687 0.694 0.704 0.716 0.732 0.751 0.774 0.801 0.832 0.867 0.906 0.946 0.981 1.012 1.038 1.061 1.080 1.095 1.107 1.117 1.124 1.129 1.132 1.134 1.135 1.135 1.135 1.135 1.134 1.132 1.129 1.124 1.117 1.108 1.097 1.087 1.080 1.076 1.075 1.075 1.079 1.092 1.114 1.123 1.123 0.000 
0.000 0.698 0.698 0.752 0.737 0.695 0.637 0.585 0.545 0.514 0.491 0.472 0.458 0.448 0.439 0.434 0.429 0.427 0.425 0.425 0.424 0.424 0.425 0.426 0.428 0.431 0.435 0.442 0.451 0.462 0.476 0.493 0.513 0.535 0.561 0.590 0.622 0.657 0.696 0.738 0.784 0.833 0.886 0.941 0.993 1.041 1.087 1.128 1.167 1.202 1.234 1.264 1.290 1.314 1.335 1.354 1.370 1.385 1.397 1.408 1.417 1.424 1.430 1.435 1.439 1.442 1.444 1.445 1.446 1.447 1.447 1.447 1.447 1.447 1.446 1.445 1.444 1.441 1.438 1.434 1.429 1.423 1.415 1.407 1.396 1.385 1.372 1.357 1.340 1.322 1.302 1.280 1.256 1.229 1.200 1.168 1.133 1.095 1.054 1.009 0.963 0.921 0.882 0.847 0.816 0.789 0.765 0.745 0.729 0.715 0.705 0.696 0.691 0.687 0.684 0.683 0.682 0.682 0.683 0.684 0.685 0.688 0.693 0.700 0.710 0.722 0.737 0.756 0.778 0.805 0.835 0.870 0.909 0.948 0.982 1.013 1.039 1.061 1.080 1.095 1.107 1.117 1.124 1.129 1.132 1.134 1.135 1.135 1.135 1.135 1.134 1.132 1.128 1.123 1.116 1.107 1.095 1.083 1.075 1.071 1.070 1.071 1.076 1.092 1.123 1.146 1.146 0.000 
0.000 0.594 0.594 0.644 0.643 0.636 0.612 0.575 0.539 0.510 0.487 0.469 0.455 0.444 0.436 0.430 0.425 0.423 0.421 0.421 0.420 0.420 0.421 0.422 0.424 0.427 0.432 0.439 0.448 0.460 0.474 0.491 0.510 0.533 0.558 0.587 0.618 0.653 0.691 0.733 0.778 0.827 0.879 0.934 0.986 1.035 1.080 1.122 1.160 1.196 1.228 1.258 1.284 1.308 1.330 1.349 1.365 1.380 1.393 1.404 1.413 1.420 1.427 1.432 1.436 1.439 1.441 1.443 1.444 1.444 1.444 1.444 1.444 1.444 1.444 1.443 1.441 1.439 1.436 1.433 1.428 1.422 1.415 1.406 1.396 1.385 1.372 1.357 1.341 1.323 1.303 1.282 1.258 1.231 1.203 1.171 1.137 1.100 1.060 1.016 0.970 0.928 0.889 0.854 0.823 0.796 0.772 0.752 0.735 0.722 0.711 0.703 0.697 0.693 0.690 0.689 0.688 0.688 0.688 0.689 0.691 0.694 0.699 0.706 0.715 0.727 0.742 0.760 0.782 0.808 0.838 0.872 0.911 0.949 0.984 1.014 1.040 1.062 1.080 1.095 1.107 1.117 1.124 1.129 1.132 1.134 1.135 1.135 1.135 1.135 1.133 1.131 1.127 1.122 1.114 1.104 1.092 1.079 1.068 1.062 1.059 1.059 1.065 1.083 1.122 1.154 1.154 0.000 
0.000 0.494 0.494 0.545 0.561 0.567 0.566 0.552 0.528 0.502 0.481 0.463 0.449 0.439 0.430 0.425 0.421 0.418 0.417 0.416 0.416 0.416 0.416 0.418 0.420 0.423 0.429 0.436 0.446 0.458 0.472 0.489 0.508 0.531 0.556 0.584 0.615 0.649 0.687 0.728 0.773 0.821 0.872 0.927 0.979 1.028 1.073 1.115 1.154 1.189 1.222 1.252 1.278 1.303 1.324 1.343 1.360 1.375 1.388 1.399 1.409 1.416 1.423 1.428 1.432 1.436 1.438 1.440 1.441 1.441 1.441 1.442 1.442 1.441 1.441 1.440 1.439 1.437 1.434 1.431 1.426 1.420 1.413 1.405 1.395 1.384 1.372 1.357 1.341 1.324 1.304 1.283 1.259 1.234 1.206 1.175 1.141 1.105 1.065 1.022 0.977 0.935 0.896 0.861 0.830 0.802 0.778 0.758 0.741 0.727 0.717 0.708 0.702 0.698 0.695 0.694 0.693 0.693 0.693 0.694 0.696 0.699 0.703 0.710 0.719 0.731 0.745 0.763 0.785 0.811 0.840 0.874 0.912 0.950 0.984 1.014 1.040 1.062 1.080 1.095 1.107 1.117 1.124 1.128 1.132 1.133 1.134 1.134 1.134 1.134 1.133 1.130 1.126 1.120 1.112 1.101 1.088 1.073 1.059 1.047 1.038 1.035 1.038 1.056 1.104 1.158 1.158 0.000 
0.000 0.436 0.436 0.473 0.500 0.512 0.516 0.515 0.507 0.489 0.471 0.454 0.441 0.431 0.424 0.418 0.415 0.413 0.411 0.411 0.411 0.411 0.412 0.413 0.416 0.420 0.426 0.434 0.444 0.456 0.471 0.488 0.507 0.529 0.554 0.582 0.612 0.646 0.683 0.724 0.768 0.815 0.866 0.920 0.972 1.021 1.067 1.109 1.148 1.183 1.216 1.246 1.273 1.297 1.319 1.338 1.355 1.370 1.383 1.394 1.404 1.412 1.419 1.424 1.428 1.432 1.434 1.436 1.437 1.438 1.438 1.438 1.438 1.438 1.438 1.437 1.436 1.434 1.432 1.428 1.424 1.418 1.412 1.404 1.395 1.384 1.371 1.357 1.341 1.324 1.305 1.284 1.261 1.236 1.208 1.178 1.145 1.109 1.070 1.028 0.983 0.941 0.902 0.867 0.835 0.808 0.784 0.764 0.746 0.732 0.721 0.713 0.707 0.702 0.700 0.698 0.697 0.697 0.697 0.698 0.700 0.702 0.707 0.713 0.722 0.734 0.748 0.766 0.787 0.812 0.842 0.875 0.913 0.951 0.985 1.014 1.040 1.062 1.080 1.095 1.107 1.116 1.123 1.128 1.131 1.133 1.133 1.134 1.133 1.133 1.131 1.128 1.124 1.118 1.109 1.097 1.083 1.066 1.047 1.027 1.008 0.991 0.983 0.993 1.042 1.142 1.142 0.000 
0.000 0.410 0.410 0.432 0.455 0.467 0.473 0.475 0.475 0.468 0.456 0.442 0.431 0.422 0.415 0.411 0.408 0.406 0.405 0.405 0.405 0.406 0.407 0.409 0.412 0.417 0.424 0.432 0.443 0.455 0.470 0.487 0.506 0.528 0.552 0.579 0.610 0.643 0.680 0.719 0.763 0.810 0.860 0.913 0.966 1.015 1.060 1.102 1.141 1.177 1.210 1.239 1.267 1.291 1.313 1.332 1.350 1.365 1.378 1.390 1.399 1.408 1.414 1.420 1.424 1.428 1.430 1.432 1.433 1.434 1.435 1.435 1.435 1.435 1.434 1.434 1.433 1.431 1.429 1.425 1.421 1.416 1.410 1.402 1.393 1.383 1.371 1.357 1.341 1.324 1.306 1.285 1.262 1.237 1.210 1.180 1.148 1.113 1.075 1.034 0.989 0.947 0.908 0.872 0.841 0.813 0.789 0.768 0.751 0.737 0.726 0.717 0.710 0.706 0.703 0.701 0.701 0.701 0.701 0.701 0.703 0.705 0.710 0.716 0.725 0.736 0.750 0.768 0.789 0.814 0.843 0.876 0.913 0.951 0.985 1.014 1.040 1.062 1.080 1.095 1.107 1.116 1.122 1.127 1.130 1.131 1.132 1.132 1.132 1.131 1.129 1.126 1.121 1.114 1.104 1.092 1.076 1.056 1.033 1.005 0.973 0.937 0.899 0.868 0.876 1.006 1.006 0.000 
0.000 0.384 0.384 0.403 0.418 0.428 0.434 0.437 0.439 0.439 0.435 0.426 0.417 0.410 0.405 0.401 0.399 0.398 0.398 0.398 0.399 0.400 0.402 0.405 0.409 0.415 0.422 0.431 0.442 0.455 0.469 0.486 0.505 0.526 0.551 0.577 0.607 0.640 0.676 0.715 0.758 0.804 0.854 0.907 0.959 1.008 1.054 1.096 1.135 1.171 1.203 1.233 1.261 1.285 1.307 1.327 1.344 1.359 1.373 1.384 1.394 1.403 1.410 1.415 1.420 1.423 1.426 1.428 1.429 1.430 1.431 1.431 1.431 1.431 1.430 1.430 1.429 1.427 1.425 1.422 1.418 1.413 1.407 1.400 1.392 1.381 1.370 1.356 1.341 1.324 1.306 1.285 1.263 1.239 1.212 1.183 1.151 1.117 1.079 1.039 0.995 0.952 0.913 0.878 0.846 0.818 0.793 0.773 0.755 0.741 0.729 0.720 0.713 0.709 0.706 0.704 0.703 0.703 0.703 0.704 0.705 0.708 0.712 0.718 0.726 0.737 0.751 0.769 0.790 0.814 0.843 0.876 0.913 0.951 0.985 1.014 1.040 1.062 1.080 1.094 1.106 1.115 1.121 1.126 1.128 1.130 1.130 1.130 1.130 1.129 1.127 1.124 1.118 1.110 1.099 1.085 1.067 1.044 1.016 0.983 0.944 0.900 0.845 0.762 0.601 0.435 0.435 0.000 
0.000 0.358 0.358 0.375 0.386 0.393 0.399 0.402 0.405 0.407 0.407 0.405 0.400 0.395 0.392 0.390 0.390 0.389 0.390 0.390 0.392 0.394 0.397 0.401 0.407 0.413 0.421 0.431 0.442 0.454 0.469 0.485 0.504 0.525 0.549 0.575 0.605 0.637 0.673 0.711 0.753 0.799 0.848 0.901 0.953 1.002 1.047 1.090 1.129 1.164 1.197 1.227 1.254 1.279 1.301 1.321 1.338 1.354 1.367 1.379 1.389 1.397 1.405 1.410 1.415 1.419 1.421 1.423 1.425 1.426 1.426 1.426 1.426 1.426 1.426 1.426 1.425 1.423 1.421 1.419 1.415 1.410 1.405 1.398 1.389 1.380 1.368 1.355 1.341 1.324 1.306 1.286 1.264 1.240 1.213 1.185 1.154 1.120 1.083 1.043 1.000 0.957 0.918 0.882 0.850 0.822 0.797 0.776 0.758 0.744 0.732 0.723 0.716 0.711 0.708 0.706 0.705 0.705 0.705 0.706 0.707 0.709 0.713 0.719 0.728 0.738 0.752 0.769 0.790 0.815 0.843 0.876 0.913 0.951 0.985 1.014 1.040 1.061 1.079 1.094 1.105 1.113 1.120 1.124 1.126 1.128 1.128 1.128 1.128 1.127 1.124 1.120 1.114 1.105 1.093 1.077 1.056 1.031 0.999 0.963 0.922 0.878 0.827 0.744 0.548 0.132 0.132 0.000 
0.000 0.332 0.332 0.348 0.355 0.362 0.366 0.370 0.373 0.376 0.378 0.379 0.378 0.378 0.377 0.377 0.378 0.379 0.381 0.383 0.386 0.389 0.393 0.399 0.405 0.412 0.420 0.430 0.441 0.454 0.468 0.485 0.503 0.524 0.548 0.574 0.602 0.634 0.669 0.707 0.749 0.794 0.842 0.894 0.946 0.995 1.041 1.083 1.122 1.158 1.191 1.221 1.248 1.273 1.295 1.315 1.333 1.348 1.362 1.373 1.383 1.392 1.399 1.405 1.410 1.414 1.416 1.419 1.420 1.421 1.421 1.422 1.422 1.422 1.422 1.421 1.420 1.419 1.417 1.415 1.411 1.407 1.401 1.395 1.387 1.377 1.367 1.354 1.340 1.324 1.306 1.286 1.264 1.240 1.215 1.187 1.156 1.123 1.087 1.047 1.005 0.962 0.923 0.887 0.854 0.826 0.801 0.779 0.761 0.746 0.734 0.725 0.718 0.713 0.709 0.707 0.707 0.706 0.706 0.707 0.708 0.710 0.714 0.720 0.728 0.739 0.753 0.770 0.790 0.815 0.843 0.876 0.913 0.951 0.984 1.014 1.039 1.060 1.078 1.092 1.103 1.112 1.118 1.121 1.124 1.125 1.125 1.125 1.125 1.123 1.121 1.116 1.109 1.099 1.086 1.069 1.047 1.020 0.986 0.946 0.904 0.865 0.828 0.784 0.722 0.686 0.686 0.000 
0.000 0.307 0.307 0.321 0.327 0.332 0.336 0.340 0.344 0.347 0.350 0.354 0.356 0.359 0.361 0.363 0.366 0.369 0.372 0.376 0.380 0.385 0.390 0.396 0.403 0.411 0.420 0.430 0.441 0.454 0.468 0.484 0.503 0.523 0.546 0.572 0.600 0.632 0.666 0.704 0.745 0.789 0.837 0.888 0.940 0.989 1.034 1.077 1.116 1.152 1.185 1.215 1.242 1.267 1.289 1.309 1.326 1.342 1.356 1.367 1.378 1.386 1.393 1.399 1.404 1.408 1.411 1.413 1.415 1.416 1.416 1.417 1.417 1.417 1.417 1.416 1.416 1.414 1.413 1.410 1.407 1.403 1.398 1.391 1.384 1.375 1.364 1.352 1.338 1.323 1.305 1.286 1.264 1.241 1.216 1.188 1.158 1.125 1.090 1.051 1.010 0.967 0.927 0.891 0.858 0.829 0.804 0.782 0.764 0.748 0.736 0.726 0.719 0.714 0.710 0.708 0.707 0.707 0.707 0.708 0.709 0.711 0.715 0.721 0.729 0.739 0.753 0.770 0.790 0.815 0.843 0.876 0.913 0.951 0.984 1.013 1.038 1.059 1.076 1.090 1.101 1.109 1.115 1.118 1.121 1.121 1.122 1.122 1.121 1.119 1.116 1.111 1.104 1.093 1.080 1.062 1.039 1.011 0.977 0.935 0.891 0.857 0.839 0.842 0.906 1.094 1.094 0.000 
0.000 0.281 0.281 0.295 0.299 0.304 0.308 0.313 0.317 0.322 0.327 0.332 0.337 0.342 0.347 0.351 0.356 0.361 0.365 0.370 0.376 0.382 0.388 0.394 0.402 0.410 0.419 0.429 0.441 0.453 0.468 0.484 0.502 0.522 0.545 0.570 0.598 0.629 0.663 0.700 0.740 0.784 0.831 0.882 0.934 0.982 1.028 1.070 1.109 1.145 1.178 1.208 1.236 1.260 1.283 1.302 1.320 1.336 1.349 1.361 1.371 1.380 1.387 1.394 1.398 1.402 1.405 1.408 1.409 1.410 1.411 1.411 1.411 1.411 1.411 1.411 1.410 1.409 1.408 1.405 1.402 1.398 1.394 1.387 1.380 1.372 1.362 1.350 1.337 1.322 1.305 1.285 1.264 1.241 1.216 1.189 1.159 1.127 1.092 1.055 1.014 0.971 0.931 0.894 0.861 0.832 0.806 0.784 0.765 0.750 0.737 0.727 0.720 0.715 0.711 0.709 0.708 0.708 0.708 0.708 0.709 0.711 0.715 0.721 0.729 0.739 0.753 0.770 0.790 0.815 0.843 0.876 0.913 0.950 0.983 1.012 1.036 1.057 1.074 1.088 1.098 1.106 1.111 1.115 1.117 1.118 1.118 1.118 1.117 1.115 1.112 1.106 1.098 1.087 1.073 1.054 1.031 1.004 0.970 0.929 0.885 0.852 0.839 0.846 0.919 1.092 1.092 0.000 
0.000 0.255 0.255 0.269 0.273 0.277 0.282 0.287 0.293 0.299 0.306 0.315 0.322 0.329 0.335 0.341 0.347 0.353 0.359 0.366 0.372 0.379 0.386 0.393 0.401 0.409 0.419 0.429 0.440 0.453 0.467 0.483 0.501 0.521 0.543 0.568 0.596 0.626 0.659 0.696 0.736 0.779 0.825 0.875 0.927 0.976 1.022 1.064 1.103 1.139 1.172 1.202 1.229 1.254 1.276 1.296 1.314 1.329 1.343 1.355 1.365 1.374 1.381 1.387 1.392 1.396 1.399 1.402 1.403 1.404 1.405 1.405 1.406 1.406 1.405 1.405 1.405 1.404 1.402 1.400 1.397 1.394 1.389 1.383 1.376 1.368 1.358 1.347 1.334 1.320 1.303 1.285 1.264 1.242 1.217 1.190 1.161 1.129 1.095 1.058 1.017 0.975 0.934 0.897 0.864 0.835 0.809 0.786 0.767 0.751 0.738 0.728 0.721 0.715 0.711 0.709 0.708 0.708 0.708 0.708 0.709 0.712 0.715 0.721 0.729 0.739 0.753 0.770 0.790 0.814 0.843 0.875 0.912 0.949 0.981 1.010 1.034 1.054 1.071 1.084 1.095 1.102 1.107 1.110 1.112 1.113 1.113 1.113 1.112 1.110 1.106 1.100 1.092 1.081 1.066 1.047 1.024 0.997 0.964 0.926 0.884 0.848 0.819 0.800 0.807 0.934 0.934 0.000 
0.000 0.229 0.229 0.243 0.247 0.252 0.258 0.264 0.271 0.280 0.290 0.300 0.310 0.318 0.326 0.333 0.340 0.348 0.355 0.362 0.369 0.376 0.384 0.392 0.400 0.409 0.418 0.429 0.440 0.453 0.467 0.483 0.500 0.520 0.542 0.566 0.593 0.623 0.656 0.692 0.731 0.774 0.820 0.869 0.921 0.969 1.015 1.057 1.096 1.132 1.165 1.195 1.223 1.247 1.269 1.289 1.307 1.322 1.336 1.348 1.358 1.367 1.374 1.381 1.386 1.390 1.393 1.395 1.397 1.398 1.399 1.399 1.399 1.399 1.399 1.399 1.399 1.398 1.396 1.394 1.392 1.388 1.384 1.378 1.372 1.364 1.355 1.344 1.332 1.317 1.302 1.284 1.264 1.241 1.217 1.191 1.162 1.131 1.097 1.060 1.021 0.978 0.938 0.900 0.867 0.837 0.810 0.788 0.768 0.752 0.739 0.729 0.721 0.715 0.712 0.709 0.708 0.708 0.708 0.708 0.709 0.712 0.715 0.721 0.729 0.739 0.753 0.769 0.790 0.814 0.842 0.874 0.910 0.947 0.979 1.007 1.031 1.051 1.067 1.080 1.090 1.098 1.102 1.105 1.107 1.108 1.108 1.107 1.106 1.104 1.100 1.094 1.086 1.074 1.059 1.040 1.017 0.990 0.959 0.923 0.885 0.845 0.800 0.731 0.571 0.383 0.383 0.000 
0.000 0.203 0.203 0.218 0.223 0.228 0.235 0.243 0.252 0.264 0.277 0.289 0.300 0.310 0.319 0.327 0.335 0.343 0.351 0.359 0.366 0.374 0.382 0.391 0.399 0.408 0.418 0.428 0.440 0.453 0.467 0.482 0.500 0.519 0.541 0.565 0.591 0.621 0.653 0.688 0.727 0.769 0.814 0.863 0.914 0.963 1.008 1.051 1.090 1.126 1.158 1.188 1.216 1.240 1.262 1.282 1.300 1.315 1.329 1.341 1.351 1.360 1.367 1.374 1.379 1.383 1.386 1.389 1.390 1.391 1.392 1.393 1.393 1.393 1.393 1.393 1.392 1.391 1.390 1.388 1.386 1.382 1.378 1.373 1.367 1.359 1.350 1.340 1.328 1.315 1.299 1.282 1.262 1.241 1.217 1.191 1.163 1.132 1.099 1.063 1.024 0.982 0.941 0.903 0.869 0.839 0.812 0.789 0.769 0.753 0.739 0.729 0.721 0.715 0.712 0.709 0.708 0.708 0.708 0.708 0.709 0.711 0.715 0.721 0.728 0.739 0.752 0.769 0.789 0.812 0.840 0.872 0.908 0.944 0.976 1.003 1.027 1.047 1.063 1.076 1.085 1.092 1.097 1.100 1.101 1.102 1.102 1.101 1.100 1.098 1.094 1.088 1.079 1.067 1.052 1.033 1.010 0.983 0.953 0.920 0.885 0.847 0.801 0.723 0.540 0.166 0.166 0.000 
0.000 0.178 0.178 0.192 0.198 0.205 0.213 0.224 0.237 0.252 0.268 0.281 0.293 0.304 0.314 0.323 0.331 0.340 0.348 0.356 0.364 0.373 0.381 0.390 0.399 0.408 0.418 0.428 0.440 0.452 0.466 0.482 0.499 0.518 0.539 0.563 0.589 0.618 0.650 0.684 0.722 0.764 0.808 0.857 0.907 0.956 1.002 1.044 1.083 1.119 1.151 1.181 1.208 1.233 1.255 1.275 1.292 1.308 1.322 1.334 1.344 1.353 1.360 1.366 1.372 1.376 1.379 1.381 1.383 1.384 1.385 1.386 1.386 1.386 1.386 1.386 1.385 1.385 1.383 1.382 1.379 1.376 1.372 1.367 1.361 1.354 1.346 1.336 1.324 1.311 1.296 1.280 1.261 1.240 1.217 1.191 1.163 1.133 1.100 1.065 1.026 0.985 0.943 0.905 0.871 0.840 0.813 0.790 0.770 0.753 0.740 0.729 0.721 0.715 0.711 0.709 0.708 0.708 0.708 0.708 0.709 0.711 0.715 0.720 0.728 0.738 0.751 0.767 0.787 0.810 0.838 0.869 0.905 0.940 0.972 0.999 1.022 1.042 1.057 1.070 1.079 1.086 1.091 1.093 1.095 1.095 1.095 1.095 1.094 1.091 1.087 1.081 1.072 1.060 1.045 1.026 1.003 0.976 0.945 0.915 0.885 0.855 0.821 0.779 0.726 0.712 0.712 0.000 
0.000 0.152 0.152 0.167 0.174 0.183 0.194 0.208 0.225 0.244 0.261 0.275 0.288 0.300 0.310 0.319 0.329 0.337 0.346 0.354 0.363 0.372 0.380 0.389 0.398 0.407 0.417 0.428 0.439 0.452 0.466 0.481 0.498 0.517 0.537 0.561 0.586 0.615 0.646 0.680 0.718 0.759 0.803 0.850 0.901 0.949 0.995 1.037 1.076 1.111 1.144 1.174 1.201 1.225 1.247 1.267 1.285 1.300 1.314 1.326 1.336 1.345 1.352 1.359 1.364 1.368 1.371 1.374 1.376 1.377 1.378 1.378 1.379 1.379 1.379 1.378 1.378 1.377 1.376 1.375 1.373 1.370 1.366 1.361 1.356 1.349 1.341 1.331 1.320 1.308 1.293 1.277 1.259 1.238 1.216 1.191 1.163 1.133 1.101 1.066 1.028 0.987 0.946 0.907 0.873 0.842 0.814 0.790 0.770 0.753 0.740 0.729 0.721 0.715 0.711 0.709 0.708 0.707 0.707 0.707 0.708 0.710 0.714 0.719 0.727 0.737 0.749 0.765 0.785 0.808 0.834 0.865 0.900 0.935 0.966 0.993 1.016 1.035 1.051 1.063 1.072 1.079 1.083 1.086 1.087 1.088 1.088 1.088 1.086 1.084 1.080 1.074 1.065 1.053 1.038 1.019 0.995 0.967 0.936 0.909 0.888 0.873 0.865 0.874 0.933 1.079 1.079 0.000 
0.000 0.126 0.126 0.142 0.151 0.162 0.177 0.196 0.218 0.239 0.256 0.272 0.285 0.297 0.308 0.318 0.327 0.336 0.345 0.353 0.362 0.371 0.379 0.388 0.397 0.407 0.417 0.427 0.439 0.451 0.465 0.480 0.497 0.515 0.536 0.559 0.584 0.612 0.643 0.676 0.713 0.753 0.797 0.844 0.894 0.942 0.987 1.029 1.068 1.104 1.136 1.166 1.193 1.217 1.239 1.259 1.276 1.292 1.306 1.318 1.328 1.337 1.344 1.351 1.356 1.360 1.363 1.366 1.368 1.369 1.370 1.371 1.371 1.371 1.371 1.371 1.371 1.370 1.369 1.367 1.365 1.363 1.359 1.355 1.349 1.343 1.335 1.326 1.315 1.303 1.289 1.274 1.256 1.236 1.214 1.190 1.163 1.134 1.102 1.068 1.030 0.990 0.948 0.909 0.874 0.843 0.815 0.791 0.770 0.753 0.740 0.729 0.720 0.715 0.710 0.708 0.707 0.706 0.706 0.706 0.707 0.709 0.713 0.718 0.725 0.735 0.747 0.763 0.781 0.804 0.830 0.861 0.895 0.929 0.960 0.987 1.009 1.028 1.043 1.055 1.065 1.071 1.075 1.078 1.079 1.080 1.080 1.080 1.078 1.076 1.072 1.066 1.057 1.045 1.030 1.012 0.989 0.961 0.930 0.905 0.889 0.882 0.885 0.909 0.986 1.076 1.076 0.000 
0.000 0.100 0.100 0.117 0.128 0.143 0.163 0.189 0.214 0.235 0.254 0.270 0.283 0.296 0.306 0.316 0.326 0.335 0.344 0.352 0.361 0.370 0.379 0.388 0.397 0.406 0.416 0.427 0.438 0.450 0.464 0.479 0.495 0.514 0.534 0.557 0.581 0.609 0.639 0.672 0.709 0.748 0.791 0.837 0.886 0.935 0.980 1.022 1.060 1.096 1.128 1.158 1.185 1.209 1.231 1.250 1.268 1.283 1.297 1.309 1.319 1.328 1.336 1.342 1.347 1.352 1.355 1.358 1.360 1.361 1.362 1.362 1.363 1.363 1.363 1.363 1.362 1.362 1.361 1.360 1.358 1.355 1.352 1.348 1.342 1.336 1.329 1.320 1.310 1.298 1.285 1.270 1.253 1.234 1.213 1.189 1.163 1.134 1.103 1.069 1.032 0.992 0.950 0.911 0.876 0.844 0.816 0.791 0.770 0.753 0.739 0.728 0.720 0.714 0.709 0.707 0.705 0.705 0.705 0.705 0.706 0.708 0.711 0.716 0.722 0.732 0.744 0.759 0.777 0.799 0.825 0.854 0.888 0.922 0.952 0.978 1.001 1.020 1.035 1.047 1.056 1.062 1.067 1.069 1.071 1.071 1.071 1.071 1.070 1.067 1.063 1.057 1.049 1.038 1.023 1.005 0.983 0.956 0.927 0.903 0.888 0.882 0.886 0.910 0.987 1.073 1.073 0.000 
0.000 0.075 0.075 0.092 0.106 0.127 0.155 0.185 0.212 0.234 0.253 0.269 0.283 0.295 0.306 0.316 0.326 0.335 0.343 0.352 0.361 0.369 0.378 0.387 0.396 0.406 0.415 0.426 0.437 0.450 0.463 0.478 0.494 0.512 0.532 0.554 0.579 0.606 0.635 0.668 0.704 0.743 0.785 0.830 0.879 0.927 0.972 1.014 1.052 1.087 1.120 1.149 1.176 1.200 1.222 1.241 1.259 1.274 1.288 1.300 1.310 1.319 1.327 1.333 1.338 1.343 1.346 1.349 1.351 1.352 1.353 1.354 1.354 1.354 1.354 1.354 1.354 1.354 1.353 1.351 1.350 1.347 1.344 1.340 1.335 1.329 1.322 1.314 1.304 1.293 1.280 1.266 1.249 1.231 1.210 1.187 1.162 1.134 1.103 1.069 1.033 0.994 0.952 0.913 0.877 0.845 0.816 0.791 0.770 0.753 0.739 0.727 0.719 0.712 0.708 0.705 0.704 0.703 0.703 0.703 0.704 0.705 0.708 0.713 0.719 0.728 0.740 0.754 0.772 0.793 0.818 0.847 0.880 0.913 0.943 0.969 0.991 1.010 1.025 1.037 1.046 1.053 1.057 1.060 1.061 1.062 1.062 1.061 1.060 1.058 1.054 1.049 1.040 1.030 1.016 0.998 0.978 0.953 0.925 0.902 0.884 0.873 0.870 0.883 0.942 1.071 1.071 0.000 
0.000 0.049 0.049 0.067 0.087 0.116 0.152 0.184 0.211 0.234 0.253 0.269 0.283 0.295 0.306 0.316 0.325 0.334 0.343 0.352 0.360 0.369 0.378 0.387 0.396 0.405 0.415 0.425 0.436 0.448 0.462 0.476 0.492 0.510 0.530 0.552 0.576 0.602 0.631 0.664 0.699 0.737 0.779 0.823 0.871 0.919 0.964 1.005 1.043 1.078 1.111 1.140 1.167 1.191 1.212 1.232 1.249 1.265 1.278 1.290 1.301 1.309 1.317 1.324 1.329 1.333 1.337 1.340 1.342 1.343 1.344 1.345 1.345 1.345 1.345 1.345 1.345 1.345 1.344 1.343 1.341 1.339 1.336 1.332 1.327 1.322 1.315 1.307 1.298 1.287 1.275 1.261 1.245 1.227 1.207 1.185 1.160 1.133 1.103 1.070 1.034 0.995 0.954 0.914 0.878 0.845 0.816 0.791 0.770 0.752 0.738 0.726 0.717 0.710 0.706 0.703 0.701 0.700 0.700 0.700 0.701 0.702 0.705 0.709 0.715 0.724 0.735 0.749 0.766 0.786 0.810 0.838 0.870 0.902 0.932 0.958 0.980 0.998 1.014 1.026 1.035 1.042 1.047 1.049 1.051 1.052 1.052 1.051 1.050 1.048 1.045 1.039 1.031 1.021 1.008 0.992 0.972 0.950 0.925 0.900 0.877 0.854 0.828 0.798 0.774 0.869 0.869 0.000 
0.000 0.028 0.028 0.045 0.071 0.111 0.152 0.184 0.211 0.234 0.253 0.269 0.283 0.295 0.306 0.316 0.326 0.335 0.343 0.352 0.360 0.369 0.377 0.386 0.395 0.404 0.414 0.424 0.435 0.447 0.460 0.475 0.490 0.508 0.527 0.549 0.572 0.598 0.627 0.659 0.693 0.731 0.772 0.816 0.863 0.911 0.955 0.996 1.034 1.069 1.101 1.130 1.157 1.181 1.202 1.222 1.239 1.255 1.268 1.280 1.290 1.299 1.307 1.314 1.319 1.324 1.327 1.330 1.332 1.334 1.335 1.335 1.336 1.336 1.336 1.336 1.336 1.336 1.335 1.334 1.332 1.330 1.327 1.324 1.319 1.314 1.308 1.300 1.291 1.281 1.269 1.256 1.240 1.223 1.204 1.182 1.158 1.132 1.102 1.070 1.035 0.996 0.955 0.915 0.878 0.846 0.817 0.791 0.770 0.751 0.736 0.724 0.715 0.708 0.703 0.699 0.698 0.697 0.696 0.696 0.697 0.698 0.701 0.704 0.710 0.718 0.729 0.742 0.758 0.778 0.801 0.828 0.858 0.890 0.919 0.945 0.967 0.986 1.001 1.014 1.023 1.030 1.035 1.038 1.040 1.041 1.041 1.041 1.040 1.038 1.034 1.029 1.022 1.012 1.000 0.985 0.967 0.946 0.923 0.899 0.873 0.844 0.804 0.732 0.563 0.328 0.328 0.000 
0.000 0.010 0.010 0.028 0.065 0.112 0.153 0.186 0.213 0.235 0.254 0.270 0.284 0.296 0.307 0.317 0.326 0.335 0.343 0.352 0.360 0.369 0.377 0.385 0.394 0.403 0.413 0.423 0.434 0.445 0.458 0.472 0.488 0.505 0.524 0.545 0.569 0.594 0.623 0.654 0.688 0.725 0.765 0.808 0.855 0.902 0.946 0.987 1.024 1.059 1.091 1.120 1.146 1.170 1.192 1.211 1.228 1.244 1.257 1.269 1.280 1.289 1.297 1.303 1.309 1.313 1.317 1.320 1.322 1.324 1.325 1.326 1.326 1.326 1.326 1.326 1.326 1.326 1.325 1.324 1.323 1.321 1.318 1.315 1.311 1.306 1.300 1.292 1.284 1.274 1.263 1.250 1.235 1.219 1.200 1.179 1.156 1.130 1.101 1.070 1.035 0.997 0.956 0.916 0.879 0.846 0.816 0.791 0.769 0.750 0.734 0.722 0.712 0.704 0.699 0.695 0.693 0.692 0.692 0.692 0.692 0.693 0.695 0.699 0.704 0.712 0.721 0.734 0.749 0.768 0.790 0.815 0.844 0.876 0.905 0.931 0.953 0.972 0.987 1.000 1.010 1.017 1.023 1.026 1.028 1.029 1.029 1.029 1.028 1.026 1.023 1.019 1.012 1.003 0.991 0.977 0.961 0.942 0.920 0.897 0.871 0.843 0.802 0.728 0.553 0.210 0.210 0.000 
0.000 0.030 0.030 0.029 0.067 0.117 0.157 0.190 0.216 0.238 0.256 0.272 0.286 0.297 0.308 0.318 0.327 0.335 0.344 0.352 0.360 0.369 0.377 0.385 0.393 0.402 0.411 0.421 0.432 0.443 0.456 0.470 0.485 0.502 0.521 0.542 0.565 0.590 0.618 0.648 0.681 0.718 0.757 0.800 0.846 0.892 0.936 0.976 1.014 1.048 1.080 1.109 1.135 1.159 1.180 1.200 1.217 1.232 1.246 1.258 1.268 1.278 1.285 1.292 1.298 1.302 1.306 1.309 1.312 1.313 1.315 1.315 1.316 1.316 1.316 1.316 1.316 1.316 1.315 1.314 1.313 1.311 1.309 1.306 1.302 1.297 1.291 1.284 1.276 1.267 1.256 1.244 1.229 1.213 1.195 1.175 1.153 1.128 1.100 1.069 1.035 0.998 0.957 0.917 0.880 0.846 0.816 0.790 0.767 0.748 0.732 0.719 0.708 0.700 0.694 0.691 0.688 0.687 0.686 0.686 0.686 0.687 0.689 0.692 0.697 0.704 0.713 0.725 0.739 0.757 0.777 0.802 0.829 0.859 0.888 0.914 0.936 0.956 0.972 0.985 0.995 1.003 1.009 1.013 1.016 1.017 1.017 1.017 1.016 1.014 1.012 1.007 1.001 0.993 0.982 0.969 0.954 0.936 0.916 0.894 0.871 0.848 0.820 0.783 0.739 0.746 0.746 0.000 
0.000 0.062 0.062 0.052 0.085 0.129 0.166 0.197 0.223 0.244 0.261 0.276 0.289 0.300 0.310 0.320 0.328 0.337 0.345 0.353 0.361 0.369 0.376 0.384 0.393 0.401 0.410 0.419 0.430 0.441 0.453 0.467 0.482 0.499 0.517 0.538 0.560 0.585 0.612 0.642 0.675 0.710 0.749 0.791 0.836 0.882 0.925 0.965 1.003 1.037 1.068 1.097 1.123 1.147 1.168 1.187 1.205 1.220 1.234 1.246 1.257 1.266 1.274 1.280 1.286 1.291 1.295 1.298 1.301 1.302 1.304 1.305 1.305 1.305 1.306 1.306 1.306 1.305 1.305 1.304 1.303 1.301 1.299 1.296 1.292 1.288 1.282 1.276 1.268 1.259 1.249 1.237 1.223 1.208 1.190 1.171 1.149 1.125 1.098 1.067 1.034 0.998 0.958 0.917 0.880 0.846 0.815 0.789 0.765 0.745 0.728 0.715 0.704 0.695 0.689 0.685 0.682 0.680 0.680 0.679 0.679 0.680 0.682 0.684 0.689 0.695 0.703 0.714 0.727 0.744 0.763 0.786 0.812 0.841 0.870 0.896 0.918 0.938 0.955 0.968 0.980 0.988 0.995 0.999 1.002 1.004 1.004 1.004 1.003 1.002 1.000 0.996 0.990 0.983 0.974 0.962 0.948 0.931 0.911 0.891 0.874 0.863 0.858 0.869 0.926 1.058 1.058 0.000 
0.000 0.157 0.157 0.110 0.132 0.155 0.181 0.210 0.234 0.253 0.269 0.283 0.294 0.305 0.314 0.323 0.331 0.339 0.346 0.354 0.361 0.369 0.376 0.384 0.391 0.400 0.408 0.417 0.427 0.438 0.450 0.464 0.478 0.495 0.513 0.533 0.555 0.579 0.606 0.635 0.668 0.702 0.740 0.781 0.825 0.871 0.914 0.954 0.990 1.024 1.056 1.084 1.110 1.134 1.155 1.175 1.192 1.207 1.221 1.233 1.244 1.253 1.261 1.268 1.274 1.279 1.283 1.286 1.289 1.291 1.292 1.293 1.294 1.294 1.294 1.295 1.294 1.294 1.294 1.293 1.292 1.291 1.289 1.286 1.282 1.278 1.273 1.267 1.259 1.251 1.241 1.229 1.216 1.202 1.185 1.166 1.145 1.121 1.095 1.066 1.033 0.998 0.959 0.918 0.880 0.845 0.814 0.787 0.763 0.742 0.725 0.710 0.698 0.689 0.683 0.678 0.674 0.673 0.672 0.671 0.671 0.672 0.673 0.675 0.679 0.684 0.692 0.702 0.714 0.730 0.748 0.769 0.793 0.821 0.849 0.875 0.898 0.918 0.936 0.950 0.962 0.972 0.979 0.985 0.988 0.990 0.991 0.991 0.991 0.990 0.988 0.985 0.981 0.974 0.966 0.956 0.943 0.928 0.909 0.890 0.876 0.871 0.874 0.897 0.971 1.055 1.055 0.000 
0.000 0.270 0.270 0.207 0.187 0.189 0.205 0.229 0.250 0.267 0.280 0.292 0.302 0.311 0.320 0.327 0.335 0.342 0.348 0.355 0.362 0.369 0.376 0.383 0.390 0.398 0.406 0.415 0.425 0.435 0.447 0.460 0.474 0.490 0.508 0.528 0.549 0.573 0.599 0.628 0.660 0.694 0.731 0.771 0.814 0.859 0.902 0.941 0.978 1.011 1.042 1.071 1.097 1.120 1.142 1.161 1.178 1.194 1.207 1.220 1.231 1.240 1.248 1.255 1.261 1.266 1.271 1.274 1.277 1.279 1.281 1.282 1.282 1.283 1.283 1.283 1.283 1.283 1.283 1.282 1.281 1.280 1.278 1.275 1.272 1.268 1.263 1.257 1.250 1.242 1.233 1.222 1.209 1.195 1.179 1.161 1.140 1.117 1.092 1.063 1.032 0.997 0.959 0.918 0.880 0.844 0.813 0.784 0.759 0.738 0.720 0.705 0.692 0.682 0.675 0.670 0.666 0.664 0.662 0.662 0.662 0.662 0.663 0.665 0.668 0.673 0.680 0.689 0.700 0.714 0.731 0.750 0.773 0.799 0.826 0.853 0.876 0.897 0.915 0.930 0.943 0.954 0.962 0.969 0.974 0.977 0.979 0.980 0.980 0.979 0.978 0.976 0.972 0.967 0.960 0.951 0.940 0.926 0.909 0.890 0.877 0.872 0.874 0.897 0.969 1.053 1.053 0.000 
0.000 0.175 0.175 0.219 0.213 0.225 0.239 0.257 0.273 0.285 0.296 0.305 0.313 0.320 0.327 0.333 0.339 0.345 0.351 0.357 0.363 0.369 0.376 0.382 0.389 0.396 0.403 0.412 0.421 0.432 0.443 0.456 0.470 0.485 0.502 0.522 0.543 0.566 0.592 0.620 0.651 0.684 0.721 0.760 0.802 0.847 0.889 0.928 0.964 0.997 1.028 1.056 1.082 1.106 1.127 1.146 1.164 1.179 1.193 1.206 1.216 1.226 1.235 1.242 1.248 1.253 1.258 1.261 1.264 1.266 1.268 1.269 1.270 1.271 1.271 1.271 1.271 1.271 1.271 1.270 1.269 1.268 1.266 1.264 1.261 1.257 1.253 1.247 1.241 1.233 1.224 1.213 1.201 1.188 1.172 1.154 1.135 1.112 1.088 1.060 1.030 0.996 0.959 0.918 0.879 0.843 0.811 0.781 0.756 0.733 0.714 0.698 0.685 0.675 0.667 0.661 0.656 0.654 0.652 0.651 0.651 0.651 0.652 0.653 0.656 0.660 0.666 0.674 0.684 0.697 0.712 0.730 0.751 0.775 0.801 0.828 0.852 0.873 0.892 0.909 0.923 0.935 0.944 0.952 0.958 0.963 0.966 0.968 0.969 0.969 0.969 0.967 0.965 0.961 0.955 0.948 0.938 0.926 0.910 0.892 0.876 0.864 0.858 0.866 0.918 1.050 1.050 0.000 
0.000 0.027 0.027 0.143 0.236 0.267 0.283 0.294 0.303 0.310 0.316 0.322 0.327 0.332 0.336 0.341 0.346 0.350 0.355 0.360 0.365 0.370 0.375 0.381 0.387 0.393 0.401 0.409 0.417 0.427 0.438 0.451 0.464 0.479 0.496 0.515 0.536 0.559 0.584 0.611 0.641 0.674 0.710 0.748 0.789 0.833 0.874 0.913 0.949 0.982 1.013 1.041 1.067 1.090 1.111 1.131 1.148 1.164 1.178 1.190 1.202 1.211 1.220 1.227 1.234 1.239 1.244 1.248 1.251 1.253 1.255 1.256 1.257 1.258 1.258 1.258 1.258 1.258 1.258 1.258 1.257 1.256 1.255 1.252 1.250 1.246 1.242 1.237 1.230 1.223 1.214 1.204 1.193 1.180 1.165 1.148 1.129 1.107 1.083 1.056 1.027 0.994 0.958 0.918 0.878 0.841 0.808 0.778 0.751 0.728 0.708 0.691 0.677 0.666 0.657 0.650 0.646 0.642 0.640 0.639 0.639 0.639 0.639 0.640 0.642 0.646 0.651 0.658 0.667 0.678 0.692 0.709 0.728 0.750 0.775 0.801 0.825 0.848 0.868 0.885 0.900 0.914 0.925 0.934 0.942 0.948 0.953 0.957 0.959 0.960 0.960 0.960 0.958 0.955 0.951 0.946 0.938 0.927 0.912 0.895 0.875 0.851 0.821 0.780 0.734 0.805 0.805 0.000 
0.000 0.312 0.312 0.190 0.291 0.328 0.339 0.342 0.342 0.342 0.342 0.342 0.344 0.345 0.348 0.350 0.353 0.356 0.360 0.363 0.367 0.370 0.374 0.379 0.384 0.390 0.397 0.405 0.413 0.423 0.433 0.445 0.458 0.473 0.489 0.508 0.528 0.550 0.575 0.602 0.631 0.663 0.698 0.735 0.776 0.818 0.859 0.898 0.933 0.966 0.997 1.025 1.050 1.074 1.095 1.114 1.132 1.148 1.162 1.175 1.186 1.196 1.205 1.212 1.219 1.225 1.230 1.234 1.237 1.239 1.241 1.243 1.244 1.245 1.245 1.245 1.245 1.245 1.245 1.245 1.244 1.243 1.242 1.240 1.238 1.234 1.230 1.226 1.220 1.213 1.204 1.195 1.184 1.171 1.157 1.140 1.122 1.101 1.078 1.052 1.023 0.991 0.956 0.917 0.877 0.839 0.805 0.774 0.746 0.722 0.701 0.683 0.668 0.656 0.646 0.639 0.634 0.630 0.627 0.626 0.626 0.625 0.626 0.626 0.628 0.630 0.635 0.640 0.648 0.658 0.671 0.686 0.703 0.723 0.746 0.771 0.797 0.820 0.841 0.860 0.876 0.891 0.904 0.915 0.924 0.933 0.939 0.945 0.949 0.952 0.953 0.954 0.953 0.952 0.949 0.945 0.938 0.928 0.915 0.898 0.876 0.847 0.804 0.726 0.551 0.275 0.275 0.000 
0.000 0.692 0.692 0.493 0.438 0.423 0.411 0.399 0.387 0.378 0.371 0.366 0.363 0.361 0.360 0.360 0.361 0.362 0.364 0.366 0.368 0.370 0.374 0.377 0.382 0.387 0.393 0.400 0.408 0.417 0.427 0.439 0.451 0.466 0.482 0.499 0.519 0.541 0.565 0.591 0.620 0.651 0.685 0.721 0.761 0.803 0.843 0.881 0.916 0.949 0.979 1.007 1.033 1.056 1.077 1.097 1.114 1.130 1.145 1.158 1.169 1.180 1.189 1.197 1.203 1.209 1.214 1.219 1.222 1.225 1.227 1.229 1.230 1.231 1.231 1.232 1.232 1.232 1.232 1.231 1.231 1.230 1.229 1.227 1.225 1.222 1.218 1.214 1.208 1.202 1.194 1.185 1.174 1.162 1.148 1.132 1.114 1.094 1.072 1.046 1.018 0.987 0.953 0.916 0.875 0.836 0.801 0.769 0.740 0.715 0.693 0.674 0.658 0.645 0.635 0.627 0.621 0.616 0.613 0.612 0.611 0.610 0.610 0.611 0.612 0.614 0.617 0.622 0.629 0.637 0.648 0.662 0.678 0.696 0.717 0.740 0.765 0.790 0.812 0.832 0.850 0.867 0.881 0.894 0.906 0.916 0.925 0.932 0.939 0.943 0.947 0.949 0.949 0.949 0.947 0.945 0.939 0.931 0.919 0.903 0.880 0.850 0.805 0.728 0.561 0.253 0.253 0.000 
0.000 0.746 0.746 0.682 0.578 0.516 0.477 0.448 0.426 0.409 0.397 0.387 0.380 0.374 0.371 0.368 0.367 0.367 0.367 0.367 0.368 0.370 0.372 0.375 0.379 0.384 0.389 0.396 0.403 0.411 0.421 0.432 0.444 0.458 0.473 0.490 0.509 0.530 0.554 0.579 0.607 0.638 0.671 0.706 0.745 0.786 0.826 0.863 0.898 0.931 0.961 0.988 1.014 1.037 1.059 1.078 1.096 1.112 1.127 1.140 1.152 1.162 1.172 1.180 1.187 1.193 1.198 1.203 1.207 1.210 1.212 1.214 1.215 1.216 1.217 1.217 1.217 1.217 1.217 1.217 1.217 1.216 1.215 1.213 1.211 1.209 1.205 1.201 1.196 1.190 1.182 1.174 1.164 1.152 1.139 1.123 1.106 1.086 1.065 1.040 1.013 0.983 0.949 0.913 0.873 0.833 0.796 0.763 0.733 0.707 0.684 0.664 0.647 0.633 0.622 0.613 0.606 0.601 0.598 0.596 0.594 0.594 0.594 0.594 0.595 0.596 0.599 0.602 0.608 0.616 0.625 0.637 0.651 0.667 0.686 0.708 0.732 0.757 0.781 0.803 0.823 0.841 0.857 0.872 0.886 0.898 0.909 0.919 0.927 0.935 0.940 0.944 0.946 0.947 0.947 0.945 0.941 0.935 0.925 0.910 0.889 0.860 0.825 0.785 0.749 0.778 0.778 0.000 
0.000 0.737 0.737 0.720 0.643 0.572 0.522 0.485 0.457 0.435 0.418 0.404 0.394 0.386 0.380 0.375 0.372 0.370 0.369 0.368 0.368 0.369 0.371 0.373 0.376 0.380 0.385 0.390 0.397 0.405 0.414 0.424 0.436 0.449 0.464 0.480 0.499 0.519 0.542 0.567 0.594 0.623 0.656 0.690 0.728 0.767 0.807 0.844 0.879 0.911 0.941 0.969 0.994 1.018 1.039 1.059 1.077 1.093 1.108 1.121 1.133 1.144 1.153 1.162 1.169 1.176 1.181 1.186 1.190 1.193 1.196 1.198 1.199 1.201 1.201 1.202 1.202 1.202 1.202 1.202 1.202 1.201 1.200 1.199 1.197 1.195 1.192 1.188 1.183 1.177 1.170 1.162 1.152 1.141 1.128 1.113 1.097 1.078 1.057 1.033 1.006 0.977 0.945 0.909 0.870 0.829 0.791 0.757 0.726 0.698 0.674 0.653 0.636 0.621 0.609 0.599 0.591 0.585 0.581 0.579 0.577 0.576 0.576 0.576 0.576 0.577 0.579 0.582 0.587 0.593 0.601 0.611 0.623 0.638 0.655 0.675 0.697 0.722 0.747 0.771 0.793 0.813 0.832 0.849 0.865 0.879 0.893 0.905 0.916 0.925 0.933 0.940 0.944 0.947 0.948 0.947 0.945 0.941 0.933 0.921 0.903 0.885 0.874 0.883 0.928 1.037 1.037 0.000 
0.000 0.714 0.714 0.714 0.666 0.603 0.552 0.512 0.480 0.455 0.435 0.419 0.406 0.395 0.387 0.380 0.375 0.372 0.370 0.368 0.368 0.368 0.369 0.370 0.373 0.376 0.380 0.385 0.391 0.398 0.406 0.416 0.427 0.439 0.453 0.469 0.487 0.507 0.529 0.553 0.579 0.608 0.639 0.673 0.709 0.748 0.787 0.824 0.858 0.890 0.920 0.948 0.973 0.997 1.018 1.038 1.056 1.073 1.088 1.101 1.113 1.124 1.134 1.143 1.151 1.158 1.163 1.168 1.173 1.176 1.179 1.181 1.183 1.184 1.185 1.185 1.186 1.186 1.186 1.186 1.186 1.185 1.185 1.183 1.182 1.180 1.177 1.173 1.169 1.163 1.157 1.149 1.140 1.129 1.116 1.102 1.086 1.068 1.047 1.024 0.999 0.970 0.938 0.903 0.865 0.824 0.785 0.750 0.718 0.689 0.664 0.642 0.623 0.607 0.594 0.583 0.575 0.568 0.564 0.560 0.558 0.557 0.557 0.556 0.557 0.557 0.558 0.561 0.564 0.569 0.576 0.585 0.596 0.608 0.624 0.642 0.663 0.687 0.712 0.738 0.761 0.784 0.804 0.824 0.842 0.859 0.874 0.889 0.902 0.915 0.925 0.935 0.942 0.947 0.950 0.951 0.951 0.949 0.945 0.937 0.927 0.923 0.929 0.947 0.990 1.035 1.035 0.000 
0.000 0.688 0.688 0.695 0.667 0.618 0.570 0.531 0.499 0.472 0.450 0.432 0.416 0.404 0.393 0.384 0.378 0.373 0.370 0.368 0.367 0.367 0.367 0.368 0.369 0.371 0.374 0.378 0.384 0.390 0.398 0.407 0.417 0.429 0.442 0.458 0.475 0.494 0.515 0.538 0.563 0.591 0.622 0.654 0.689 0.727 0.766 0.802 0.837 0.868 0.898 0.925 0.951 0.974 0.996 1.016 1.034 1.051 1.066 1.080 1.092 1.104 1.114 1.123 1.131 1.138 1.144 1.149 1.154 1.158 1.161 1.163 1.165 1.166 1.167 1.168 1.168 1.169 1.169 1.169 1.169 1.168 1.168 1.167 1.165 1.163 1.161 1.157 1.153 1.148 1.142 1.135 1.126 1.116 1.104 1.090 1.074 1.057 1.037 1.014 0.989 0.961 0.931 0.896 0.859 0.818 0.778 0.742 0.708 0.679 0.652 0.629 0.609 0.593 0.579 0.567 0.558 0.551 0.545 0.541 0.539 0.537 0.536 0.536 0.536 0.536 0.537 0.539 0.541 0.545 0.551 0.558 0.568 0.580 0.594 0.611 0.630 0.652 0.677 0.703 0.728 0.753 0.775 0.797 0.817 0.836 0.854 0.872 0.888 0.903 0.916 0.929 0.940 0.948 0.955 0.958 0.961 0.962 0.961 0.959 0.959 0.963 0.973 0.990 1.017 1.035 1.035 0.000 
0.000 0.662 0.662 0.672 0.656 0.622 0.580 0.544 0.513 0.486 0.463 0.443 0.425 0.410 0.398 0.388 0.380 0.374 0.370 0.367 0.366 0.365 0.364 0.364 0.365 0.366 0.369 0.372 0.376 0.382 0.388 0.397 0.406 0.417 0.430 0.445 0.461 0.479 0.499 0.522 0.546 0.573 0.603 0.634 0.668 0.705 0.743 0.779 0.813 0.845 0.874 0.902 0.927 0.951 0.973 0.993 1.011 1.028 1.043 1.057 1.070 1.082 1.092 1.102 1.110 1.117 1.124 1.129 1.134 1.138 1.141 1.144 1.146 1.148 1.149 1.149 1.150 1.150 1.150 1.150 1.150 1.150 1.150 1.149 1.148 1.146 1.144 1.140 1.137 1.132 1.126 1.119 1.111 1.101 1.089 1.076 1.061 1.044 1.025 1.003 0.979 0.951 0.921 0.888 0.851 0.811 0.770 0.733 0.698 0.667 0.640 0.616 0.595 0.577 0.562 0.550 0.540 0.532 0.526 0.521 0.518 0.516 0.515 0.514 0.514 0.514 0.515 0.516 0.518 0.521 0.526 0.532 0.540 0.551 0.564 0.580 0.598 0.619 0.642 0.667 0.694 0.720 0.744 0.768 0.791 0.812 0.833 0.852 0.871 0.889 0.906 0.922 0.937 0.950 0.961 0.969 0.975 0.979 0.983 0.987 0.993 1.001 1.011 1.025 1.036 1.038 1.038 0.000 
0.000 0.636 0.636 0.647 0.637 0.615 0.584 0.553 0.525 0.499 0.475 0.453 0.433 0.416 0.401 0.390 0.380 0.374 0.369 0.365 0.363 0.362 0.361 0.360 0.360 0.361 0.362 0.365 0.368 0.373 0.379 0.386 0.395 0.405 0.417 0.431 0.446 0.464 0.483 0.504 0.528 0.554 0.582 0.613 0.646 0.681 0.719 0.755 0.788 0.820 0.849 0.877 0.902 0.926 0.948 0.968 0.986 1.003 1.019 1.033 1.047 1.058 1.069 1.079 1.087 1.095 1.102 1.108 1.113 1.117 1.120 1.123 1.125 1.127 1.129 1.129 1.130 1.130 1.130 1.130 1.130 1.130 1.130 1.129 1.128 1.127 1.125 1.122 1.118 1.114 1.108 1.102 1.094 1.085 1.074 1.061 1.046 1.030 1.011 0.990 0.966 0.940 0.910 0.878 0.842 0.803 0.761 0.722 0.687 0.655 0.627 0.602 0.580 0.561 0.545 0.532 0.521 0.512 0.505 0.500 0.497 0.494 0.493 0.492 0.492 0.492 0.492 0.492 0.494 0.496 0.500 0.506 0.513 0.523 0.535 0.550 0.567 0.586 0.608 0.632 0.658 0.685 0.712 0.737 0.762 0.786 0.809 0.831 0.853 0.873 0.893 0.913 0.932 0.950 0.967 0.982 0.993 1.002 1.010 1.019 1.028 1.038 1.047 1.056 1.059 1.059 1.059 0.000 
0.000 0.611 0.611 0.622 0.614 0.600 0.581 0.558 0.535 0.511 0.486 0.462 0.440 0.420 0.404 0.391 0.381 0.373 0.367 0.363 0.360 0.357 0.356 0.355 0.355 0.355 0.356 0.357 0.360 0.363 0.368 0.375 0.382 0.392 0.403 0.416 0.430 0.447 0.465 0.486 0.509 0.534 0.561 0.590 0.622 0.656 0.693 0.729 0.762 0.793 0.823 0.850 0.876 0.899 0.921 0.941 0.960 0.977 0.993 1.008 1.021 1.033 1.044 1.054 1.063 1.071 1.078 1.084 1.089 1.094 1.098 1.101 1.103 1.105 1.107 1.108 1.108 1.109 1.109 1.109 1.109 1.109 1.109 1.108 1.107 1.106 1.104 1.102 1.098 1.094 1.089 1.083 1.075 1.066 1.056 1.044 1.030 1.014 0.996 0.975 0.952 0.926 0.897 0.866 0.831 0.792 0.751 0.711 0.675 0.642 0.613 0.587 0.564 0.544 0.527 0.513 0.501 0.492 0.484 0.479 0.475 0.472 0.470 0.469 0.468 0.468 0.468 0.469 0.470 0.472 0.475 0.480 0.486 0.495 0.506 0.520 0.536 0.554 0.575 0.598 0.623 0.650 0.678 0.705 0.732 0.758 0.783 0.808 0.832 0.855 0.879 0.902 0.924 0.947 0.970 0.993 1.014 1.030 1.042 1.054 1.064 1.074 1.082 1.087 1.092 1.097 1.097 0.000 
0.000 0.585 0.585 0.596 0.591 0.584 0.575 0.561 0.543 0.521 0.496 0.470 0.445 0.423 0.406 0.391 0.380 0.372 0.365 0.359 0.355 0.352 0.350 0.349 0.348 0.348 0.348 0.349 0.350 0.353 0.357 0.362 0.369 0.378 0.388 0.400 0.413 0.429 0.446 0.466 0.488 0.512 0.538 0.566 0.597 0.630 0.665 0.701 0.734 0.765 0.795 0.822 0.847 0.871 0.893 0.913 0.932 0.950 0.966 0.981 0.994 1.007 1.018 1.028 1.037 1.045 1.053 1.059 1.064 1.069 1.073 1.076 1.079 1.081 1.083 1.084 1.085 1.085 1.085 1.086 1.086 1.085 1.085 1.085 1.084 1.083 1.081 1.079 1.076 1.072 1.067 1.062 1.054 1.046 1.036 1.024 1.011 0.995 0.978 0.958 0.935 0.910 0.882 0.851 0.817 0.780 0.739 0.698 0.661 0.627 0.597 0.570 0.547 0.526 0.508 0.494 0.481 0.471 0.463 0.457 0.452 0.449 0.447 0.445 0.445 0.444 0.444 0.445 0.445 0.447 0.449 0.454 0.460 0.468 0.478 0.490 0.505 0.522 0.542 0.564 0.588 0.614 0.642 0.671 0.699 0.727 0.755 0.782 0.809 0.836 0.862 0.888 0.915 0.942 0.969 0.998 1.028 1.055 1.075 1.089 1.101 1.110 1.116 1.121 1.126 1.129 1.129 0.000 
0.000 0.559 0.559 0.572 0.574 0.575 0.572 0.563 0.549 0.529 0.505 0.476 0.448 0.425 0.406 0.391 0.379 0.369 0.361 0.354 0.349 0.346 0.343 0.341 0.340 0.340 0.339 0.340 0.341 0.342 0.345 0.350 0.355 0.363 0.372 0.383 0.395 0.410 0.426 0.445 0.465 0.488 0.513 0.540 0.570 0.602 0.636 0.671 0.704 0.735 0.765 0.792 0.817 0.841 0.863 0.884 0.903 0.920 0.936 0.951 0.965 0.978 0.989 1.000 1.009 1.017 1.025 1.032 1.037 1.042 1.046 1.050 1.053 1.055 1.057 1.058 1.059 1.059 1.060 1.060 1.060 1.060 1.060 1.059 1.059 1.058 1.056 1.054 1.051 1.048 1.043 1.038 1.031 1.023 1.014 1.002 0.989 0.975 0.958 0.938 0.917 0.892 0.865 0.835 0.802 0.765 0.725 0.684 0.646 0.612 0.581 0.553 0.529 0.507 0.489 0.473 0.460 0.449 0.441 0.434 0.429 0.425 0.423 0.421 0.420 0.420 0.420 0.420 0.420 0.422 0.424 0.428 0.433 0.440 0.449 0.461 0.474 0.490 0.509 0.530 0.553 0.578 0.606 0.635 0.665 0.695 0.725 0.754 0.784 0.813 0.843 0.873 0.903 0.934 0.965 0.998 1.035 1.072 1.103 1.123 1.137 1.146 1.152 1.156 1.158 1.157 1.157 0.000 
0.000 0.533 0.533 0.551 0.568 0.572 0.572 0.566 0.555 0.536 0.511 0.480 0.450 0.426 0.406 0.390 0.376 0.365 0.356 0.348 0.342 0.338 0.334 0.332 0.331 0.330 0.329 0.329 0.330 0.331 0.333 0.336 0.341 0.347 0.355 0.365 0.376 0.389 0.405 0.422 0.442 0.463 0.487 0.513 0.542 0.572 0.605 0.640 0.673 0.704 0.733 0.760 0.785 0.809 0.831 0.852 0.871 0.888 0.905 0.920 0.934 0.947 0.958 0.969 0.979 0.987 0.995 1.002 1.008 1.013 1.017 1.021 1.024 1.026 1.028 1.029 1.030 1.031 1.031 1.032 1.032 1.032 1.032 1.031 1.031 1.030 1.029 1.027 1.024 1.021 1.017 1.011 1.005 0.997 0.988 0.978 0.965 0.951 0.935 0.916 0.895 0.871 0.845 0.816 0.783 0.748 0.709 0.668 0.630 0.595 0.563 0.535 0.510 0.488 0.469 0.453 0.439 0.427 0.418 0.411 0.405 0.401 0.398 0.397 0.396 0.395 0.395 0.395 0.395 0.396 0.398 0.401 0.406 0.412 0.421 0.431 0.444 0.459 0.476 0.496 0.518 0.542 0.569 0.598 0.629 0.660 0.692 0.724 0.756 0.789 0.821 0.854 0.888 0.923 0.959 0.996 1.036 1.081 1.123 1.154 1.173 1.184 1.190 1.192 1.191 1.187 1.187 0.000 
0.000 0.550 0.550 0.549 0.568 0.575 0.575 0.572 0.561 0.542 0.515 0.481 0.451 0.426 0.405 0.387 0.372 0.360 0.349 0.341 0.334 0.329 0.325 0.322 0.320 0.318 0.318 0.317 0.317 0.318 0.319 0.321 0.325 0.330 0.337 0.345 0.356 0.368 0.382 0.398 0.417 0.437 0.460 0.484 0.512 0.541 0.573 0.606 0.639 0.670 0.699 0.726 0.751 0.775 0.797 0.818 0.837 0.854 0.871 0.886 0.900 0.913 0.925 0.936 0.945 0.954 0.962 0.969 0.975 0.980 0.985 0.989 0.992 0.994 0.996 0.998 0.999 1.000 1.000 1.000 1.000 1.000 1.000 1.000 1.000 0.999 0.998 0.996 0.994 0.991 0.987 0.982 0.976 0.969 0.960 0.950 0.938 0.924 0.909 0.891 0.870 0.848 0.822 0.794 0.763 0.728 0.691 0.650 0.612 0.576 0.544 0.515 0.490 0.467 0.448 0.431 0.417 0.405 0.395 0.387 0.381 0.377 0.374 0.372 0.371 0.370 0.370 0.370 0.370 0.371 0.373 0.375 0.379 0.385 0.392 0.402 0.413 0.427 0.443 0.462 0.483 0.506 0.532 0.561 0.591 0.624 0.657 0.691 0.726 0.761 0.797 0.833 0.870 0.909 0.949 0.990 1.034 1.082 1.134 1.179 1.209 1.225 1.232 1.233 1.230 1.219 1.219 0.000 
0.000 0.570 0.570 0.566 0.581 0.587 0.587 0.581 0.568 0.546 0.516 0.481 0.451 0.424 0.402 0.383 0.367 0.353 0.341 0.332 0.324 0.318 0.313 0.310 0.307 0.305 0.304 0.304 0.304 0.304 0.304 0.306 0.308 0.312 0.318 0.325 0.334 0.345 0.358 0.373 0.390 0.409 0.430 0.454 0.480 0.508 0.538 0.571 0.603 0.634 0.663 0.690 0.715 0.739 0.761 0.781 0.800 0.818 0.834 0.850 0.864 0.877 0.889 0.899 0.909 0.918 0.926 0.933 0.939 0.945 0.950 0.953 0.957 0.959 0.961 0.963 0.964 0.965 0.965 0.966 0.966 0.966 0.966 0.966 0.965 0.965 0.964 0.962 0.960 0.957 0.953 0.949 0.943 0.936 0.928 0.919 0.907 0.894 0.879 0.862 0.843 0.821 0.796 0.769 0.739 0.706 0.669 0.630 0.591 0.556 0.524 0.495 0.469 0.446 0.426 0.409 0.394 0.382 0.372 0.364 0.357 0.352 0.349 0.347 0.345 0.345 0.344 0.344 0.345 0.345 0.346 0.349 0.352 0.357 0.364 0.372 0.382 0.395 0.410 0.428 0.448 0.470 0.495 0.523 0.553 0.586 0.620 0.656 0.693 0.730 0.769 0.808 0.849 0.891 0.935 0.980 1.029 1.080 1.136 1.194 1.240 1.268 1.280 1.284 1.282 1.278 1.278 0.000 
0.000 0.664 0.664 0.612 0.617 0.616 0.610 0.597 0.577 0.550 0.516 0.480 0.449 0.421 0.398 0.377 0.359 0.344 0.332 0.321 0.312 0.305 0.300 0.296 0.293 0.291 0.289 0.289 0.288 0.288 0.288 0.289 0.291 0.294 0.298 0.304 0.312 0.321 0.333 0.346 0.362 0.380 0.400 0.422 0.446 0.473 0.502 0.533 0.565 0.596 0.624 0.651 0.676 0.700 0.721 0.742 0.761 0.778 0.795 0.810 0.824 0.837 0.849 0.860 0.870 0.879 0.887 0.894 0.900 0.906 0.910 0.914 0.918 0.921 0.923 0.924 0.926 0.926 0.927 0.927 0.927 0.927 0.927 0.927 0.927 0.926 0.925 0.924 0.922 0.919 0.916 0.912 0.907 0.900 0.892 0.883 0.873 0.860 0.846 0.830 0.811 0.790 0.767 0.741 0.712 0.680 0.645 0.607 0.569 0.534 0.502 0.473 0.447 0.424 0.403 0.386 0.371 0.358 0.348 0.339 0.333 0.328 0.324 0.321 0.320 0.319 0.318 0.318 0.319 0.319 0.320 0.322 0.325 0.329 0.335 0.342 0.352 0.363 0.377 0.394 0.412 0.434 0.458 0.485 0.515 0.547 0.582 0.618 0.657 0.697 0.738 0.780 0.823 0.869 0.916 0.966 1.018 1.073 1.133 1.197 1.261 1.310 1.338 1.351 1.354 1.353 1.353 0.000 
0.000 0.760 0.760 0.703 0.684 0.668 0.647 0.621 0.589 0.553 0.514 0.478 0.445 0.416 0.391 0.369 0.350 0.334 0.320 0.309 0.299 0.291 0.285 0.280 0.277 0.274 0.272 0.271 0.271 0.271 0.271 0.271 0.272 0.274 0.277 0.282 0.288 0.296 0.306 0.318 0.332 0.349 0.367 0.388 0.411 0.436 0.464 0.493 0.525 0.555 0.583 0.610 0.635 0.658 0.679 0.699 0.718 0.736 0.752 0.767 0.781 0.794 0.806 0.817 0.826 0.835 0.843 0.851 0.857 0.862 0.867 0.871 0.875 0.878 0.880 0.881 0.883 0.884 0.884 0.885 0.885 0.885 0.885 0.885 0.884 0.884 0.883 0.882 0.880 0.878 0.874 0.870 0.866 0.860 0.852 0.844 0.834 0.822 0.808 0.793 0.775 0.756 0.733 0.709 0.681 0.651 0.618 0.582 0.544 0.510 0.478 0.449 0.423 0.400 0.380 0.362 0.347 0.334 0.323 0.315 0.308 0.302 0.298 0.295 0.294 0.293 0.292 0.292 0.292 0.292 0.293 0.295 0.297 0.301 0.306 0.312 0.321 0.331 0.344 0.359 0.377 0.397 0.421 0.447 0.475 0.507 0.542 0.579 0.618 0.659 0.702 0.747 0.794 0.842 0.892 0.946 1.002 1.061 1.125 1.193 1.267 1.340 1.397 1.433 1.450 1.452 1.452 0.000 
0.000 0.878 0.878 0.810 0.782 0.741 0.695 0.647 0.599 0.553 0.511 0.473 0.439 0.409 0.382 0.359 0.339 0.322 0.307 0.294 0.284 0.275 0.269 0.263 0.259 0.256 0.254 0.252 0.252 0.251 0.251 0.251 0.252 0.253 0.255 0.259 0.264 0.270 0.279 0.289 0.301 0.316 0.333 0.352 0.373 0.397 0.423 0.451 0.482 0.512 0.540 0.566 0.590 0.613 0.634 0.654 0.672 0.690 0.706 0.720 0.734 0.747 0.759 0.769 0.779 0.788 0.796 0.803 0.809 0.815 0.820 0.824 0.827 0.830 0.832 0.834 0.835 0.836 0.837 0.837 0.837 0.837 0.837 0.837 0.837 0.837 0.836 0.835 0.833 0.831 0.828 0.824 0.820 0.814 0.807 0.799 0.790 0.779 0.766 0.752 0.735 0.717 0.696 0.673 0.647 0.619 0.587 0.553 0.517 0.483 0.452 0.423 0.398 0.375 0.355 0.337 0.322 0.309 0.298 0.289 0.282 0.276 0.272 0.269 0.267 0.266 0.265 0.265 0.265 0.265 0.266 0.267 0.269 0.272 0.276 0.282 0.289 0.298 0.310 0.324 0.341 0.360 0.382 0.407 0.435 0.466 0.500 0.537 0.577 0.619 0.663 0.710 0.759 0.810 0.863 0.920 0.979 1.043 1.111 1.184 1.264 1.352 1.437 1.503 1.545 1.566 1.566 0.000 
0.000 0.993 0.993 0.927 0.871 0.807 0.734 0.665 0.605 0.553 0.507 0.467 0.431 0.399 0.371 0.347 0.325 0.307 0.291 0.278 0.267 0.258 0.250 0.244 0.239 0.236 0.233 0.231 0.230 0.230 0.229 0.229 0.230 0.230 0.231 0.234 0.238 0.243 0.249 0.258 0.268 0.281 0.296 0.314 0.334 0.356 0.380 0.407 0.436 0.465 0.493 0.518 0.542 0.565 0.585 0.605 0.623 0.640 0.655 0.670 0.683 0.695 0.707 0.717 0.727 0.736 0.743 0.750 0.757 0.762 0.767 0.771 0.774 0.777 0.779 0.781 0.782 0.783 0.784 0.784 0.784 0.785 0.785 0.784 0.784 0.784 0.783 0.782 0.781 0.779 0.776 0.773 0.769 0.763 0.757 0.750 0.741 0.731 0.719 0.706 0.691 0.673 0.654 0.632 0.608 0.582 0.553 0.521 0.487 0.453 0.423 0.395 0.371 0.348 0.328 0.311 0.296 0.283 0.272 0.263 0.256 0.250 0.245 0.242 0.240 0.238 0.237 0.237 0.237 0.237 0.237 0.238 0.240 0.242 0.246 0.251 0.257 0.266 0.276 0.289 0.304 0.322 0.343 0.367 0.394 0.424 0.457 0.494 0.533 0.575 0.621 0.668 0.719 0.772 0.828 0.887 0.950 1.017 1.090 1.169 1.255 1.352 1.457 1.548 1.611 1.636 1.636 0.000 
0.000 1.031 1.031 0.996 0.934 0.851 0.758 0.676 0.608 0.550 0.501 0.458 0.420 0.387 0.357 0.332 0.310 0.290 0.274 0.260 0.248 0.238 0.230 0.223 0.218 0.214 0.211 0.209 0.207 0.206 0.206 0.206 0.206 0.206 0.206 0.208 0.210 0.214 0.219 0.226 0.234 0.245 0.259 0.274 0.292 0.312 0.335 0.360 0.387 0.416 0.443 0.468 0.491 0.513 0.533 0.552 0.569 0.585 0.600 0.614 0.627 0.639 0.650 0.660 0.670 0.678 0.686 0.692 0.699 0.704 0.708 0.712 0.716 0.718 0.721 0.722 0.724 0.725 0.725 0.726 0.726 0.726 0.726 0.726 0.726 0.725 0.725 0.724 0.723 0.721 0.718 0.715 0.712 0.707 0.701 0.695 0.687 0.677 0.667 0.654 0.641 0.625 0.607 0.587 0.565 0.541 0.514 0.485 0.453 0.421 0.392 0.365 0.341 0.320 0.301 0.284 0.269 0.256 0.245 0.236 0.229 0.223 0.218 0.214 0.212 0.210 0.209 0.209 0.208 0.208 0.209 0.209 0.211 0.213 0.216 0.220 0.226 0.233 0.243 0.254 0.268 0.284 0.304 0.326 0.352 0.381 0.413 0.448 0.487 0.529 0.574 0.622 0.674 0.728 0.786 0.848 0.913 0.984 1.061 1.145 1.239 1.344 1.462 1.567 1.645 1.685 1.685 0.000 
0.000 1.067 1.067 1.035 0.971 0.877 0.770 0.680 0.606 0.545 0.492 0.446 0.406 0.371 0.341 0.314 0.291 0.271 0.254 0.239 0.227 0.216 0.207 0.200 0.194 0.190 0.186 0.184 0.182 0.181 0.180 0.180 0.180 0.179 0.180 0.180 0.182 0.185 0.189 0.194 0.202 0.211 0.223 0.236 0.252 0.269 0.289 0.311 0.336 0.363 0.389 0.413 0.436 0.457 0.476 0.494 0.511 0.526 0.541 0.554 0.566 0.578 0.588 0.598 0.607 0.615 0.622 0.629 0.634 0.640 0.644 0.648 0.651 0.654 0.656 0.658 0.659 0.660 0.660 0.661 0.661 0.661 0.661 0.661 0.661 0.661 0.660 0.659 0.658 0.657 0.654 0.652 0.648 0.644 0.639 0.633 0.626 0.618 0.608 0.597 0.585 0.570 0.555 0.537 0.517 0.495 0.471 0.444 0.415 0.386 0.358 0.333 0.310 0.289 0.271 0.255 0.240 0.228 0.217 0.208 0.201 0.194 0.190 0.186 0.184 0.182 0.181 0.181 0.181 0.181 0.181 0.182 0.183 0.184 0.187 0.191 0.196 0.202 0.211 0.221 0.233 0.247 0.265 0.285 0.309 0.336 0.366 0.400 0.438 0.478 0.523 0.571 0.623 0.678 0.737 0.800 0.868 0.942 1.022 1.112 1.212 1.326 1.456 1.571 1.656 1.700 1.700 0.000 
0.000 1.070 1.070 1.052 0.987 0.888 0.774 0.679 0.601 0.535 0.478 0.430 0.388 0.352 0.321 0.294 0.270 0.249 0.232 0.216 0.203 0.192 0.183 0.175 0.169 0.164 0.160 0.157 0.155 0.154 0.153 0.153 0.153 0.153 0.153 0.153 0.155 0.157 0.161 0.165 0.172 0.180 0.189 0.201 0.214 0.229 0.246 0.265 0.286 0.308 0.332 0.355 0.377 0.396 0.415 0.432 0.448 0.462 0.476 0.488 0.500 0.511 0.521 0.530 0.538 0.546 0.552 0.559 0.564 0.569 0.573 0.577 0.580 0.582 0.584 0.586 0.587 0.588 0.589 0.589 0.589 0.589 0.589 0.589 0.589 0.589 0.589 0.588 0.587 0.585 0.584 0.581 0.578 0.575 0.570 0.565 0.559 0.552 0.543 0.534 0.523 0.510 0.496 0.481 0.463 0.444 0.422 0.399 0.373 0.346 0.321 0.297 0.276 0.257 0.239 0.224 0.210 0.198 0.188 0.179 0.172 0.167 0.163 0.159 0.157 0.156 0.155 0.155 0.155 0.155 0.155 0.155 0.156 0.158 0.160 0.163 0.167 0.173 0.180 0.189 0.199 0.212 0.227 0.245 0.265 0.290 0.318 0.350 0.385 0.425 0.468 0.515 0.566 0.621 0.680 0.744 0.814 0.889 0.973 1.066 1.171 1.294 1.435 1.564 1.655 1.700 1.700 0.000 
0.000 1.072 1.072 1.055 0.992 0.890 0.771 0.671 0.588 0.519 0.460 0.410 0.367 0.329 0.297 0.270 0.246 0.225 0.207 0.191 0.178 0.166 0.156 0.148 0.142 0.137 0.134 0.131 0.130 0.128 0.128 0.128 0.127 0.127 0.128 0.128 0.129 0.131 0.134 0.138 0.144 0.150 0.158 0.168 0.179 0.191 0.206 0.222 0.239 0.258 0.278 0.298 0.316 0.333 0.350 0.365 0.379 0.393 0.405 0.417 0.428 0.437 0.447 0.455 0.463 0.470 0.476 0.481 0.486 0.491 0.495 0.498 0.501 0.503 0.505 0.507 0.508 0.509 0.509 0.510 0.510 0.510 0.510 0.510 0.510 0.510 0.509 0.509 0.508 0.507 0.505 0.503 0.501 0.498 0.494 0.490 0.485 0.479 0.471 0.463 0.454 0.444 0.432 0.418 0.404 0.387 0.369 0.349 0.327 0.303 0.280 0.258 0.239 0.221 0.205 0.191 0.178 0.167 0.158 0.151 0.145 0.140 0.137 0.134 0.132 0.131 0.130 0.130 0.130 0.130 0.130 0.130 0.131 0.132 0.134 0.137 0.141 0.145 0.151 0.159 0.168 0.178 0.191 0.206 0.224 0.245 0.269 0.297 0.330 0.367 0.408 0.453 0.503 0.556 0.615 0.679 0.748 0.824 0.909 1.004 1.113 1.240 1.389 1.538 1.647 1.700 1.700 0.000 
0.000 1.075 1.075 1.057 0.990 0.882 0.757 0.653 0.567 0.495 0.435 0.383 0.340 0.302 0.270 0.242 0.218 0.197 0.179 0.163 0.150 0.138 0.129 0.122 0.117 0.113 0.110 0.108 0.106 0.105 0.105 0.104 0.104 0.104 0.105 0.105 0.106 0.108 0.110 0.113 0.118 0.123 0.130 0.137 0.146 0.157 0.169 0.182 0.196 0.212 0.228 0.244 0.260 0.274 0.287 0.300 0.312 0.323 0.333 0.343 0.352 0.361 0.368 0.375 0.382 0.388 0.394 0.398 0.403 0.407 0.410 0.413 0.415 0.418 0.419 0.421 0.422 0.423 0.423 0.423 0.424 0.424 0.424 0.424 0.424 0.424 0.423 0.423 0.422 0.421 0.420 0.418 0.416 0.414 0.411 0.407 0.403 0.398 0.393 0.386 0.379 0.370 0.361 0.350 0.338 0.324 0.310 0.293 0.275 0.255 0.235 0.216 0.199 0.183 0.169 0.157 0.147 0.138 0.131 0.125 0.120 0.116 0.113 0.110 0.109 0.108 0.107 0.107 0.107 0.107 0.107 0.107 0.108 0.109 0.110 0.113 0.116 0.120 0.124 0.131 0.138 0.147 0.158 0.170 0.185 0.203 0.223 0.247 0.274 0.306 0.344 0.386 0.433 0.484 0.541 0.602 0.671 0.746 0.830 0.924 1.033 1.158 1.308 1.479 1.625 1.700 1.700 0.000 
0.000 1.078 1.078 1.057 0.978 0.854 0.726 0.620 0.533 0.461 0.401 0.350 0.306 0.269 0.238 0.210 0.187 0.166 0.148 0.133 0.121 0.112 0.104 0.098 0.094 0.090 0.088 0.086 0.085 0.084 0.084 0.084 0.084 0.084 0.084 0.084 0.085 0.086 0.088 0.091 0.094 0.098 0.104 0.110 0.117 0.126 0.135 0.145 0.157 0.169 0.183 0.196 0.208 0.220 0.231 0.241 0.250 0.259 0.268 0.275 0.283 0.289 0.296 0.301 0.307 0.311 0.316 0.320 0.323 0.326 0.329 0.331 0.333 0.335 0.336 0.337 0.338 0.339 0.339 0.340 0.340 0.340 0.340 0.340 0.340 0.340 0.340 0.339 0.339 0.338 0.337 0.336 0.334 0.332 0.330 0.327 0.323 0.320 0.315 0.310 0.304 0.297 0.289 0.281 0.271 0.261 0.249 0.236 0.221 0.206 0.189 0.174 0.160 0.147 0.136 0.127 0.118 0.111 0.105 0.100 0.096 0.093 0.091 0.089 0.087 0.087 0.086 0.086 0.086 0.086 0.086 0.086 0.087 0.087 0.089 0.090 0.093 0.096 0.100 0.105 0.111 0.118 0.127 0.137 0.149 0.163 0.180 0.199 0.222 0.248 0.279 0.314 0.356 0.404 0.456 0.515 0.580 0.652 0.732 0.822 0.925 1.043 1.184 1.360 1.564 1.700 1.700 0.000 
0.000 1.080 1.080 1.050 0.940 0.796 0.670 0.568 0.485 0.415 0.357 0.308 0.266 0.230 0.200 0.174 0.151 0.132 0.117 0.105 0.095 0.087 0.081 0.077 0.073 0.070 0.068 0.067 0.066 0.065 0.065 0.065 0.065 0.065 0.065 0.065 0.066 0.067 0.069 0.071 0.073 0.077 0.081 0.085 0.091 0.098 0.105 0.113 0.122 0.132 0.142 0.152 0.162 0.171 0.180 0.187 0.195 0.202 0.208 0.214 0.220 0.225 0.230 0.235 0.239 0.242 0.246 0.249 0.252 0.254 0.256 0.258 0.259 0.261 0.262 0.263 0.263 0.264 0.264 0.264 0.264 0.265 0.265 0.265 0.265 0.264 0.264 0.264 0.264 0.263 0.262 0.261 0.260 0.258 0.257 0.254 0.252 0.249 0.245 0.241 0.237 0.231 0.225 0.219 0.211 0.203 0.194 0.184 0.173 0.160 0.147 0.135 0.125 0.115 0.106 0.099 0.092 0.087 0.082 0.078 0.075 0.073 0.071 0.069 0.068 0.068 0.067 0.067 0.067 0.067 0.067 0.067 0.067 0.068 0.069 0.070 0.072 0.075 0.078 0.082 0.086 0.092 0.099 0.107 0.117 0.128 0.141 0.156 0.174 0.194 0.218 0.247 0.280 0.318 0.363 0.416 0.475 0.541 0.614 0.695 0.785 0.885 1.002 1.154 1.378 1.700 1.700 0.000 
0.000 1.024 1.024 1.008 0.842 0.695 0.583 0.493 0.417 0.354 0.301 0.255 0.217 0.185 0.157 0.134 0.115 0.100 0.088 0.079 0.072 0.066 0.061 0.058 0.055 0.053 0.051 0.050 0.049 0.049 0.049 0.049 0.049 0.049 0.049 0.049 0.049 0.050 0.051 0.053 0.055 0.057 0.060 0.064 0.068 0.073 0.078 0.085 0.091 0.099 0.106 0.114 0.121 0.128 0.135 0.140 0.146 0.151 0.156 0.161 0.165 0.169 0.172 0.176 0.179 0.182 0.184 0.186 0.189 0.190 0.192 0.193 0.194 0.195 0.196 0.197 0.197 0.198 0.198 0.198 0.198 0.198 0.198 0.198 0.198 0.198 0.198 0.198 0.197 0.197 0.196 0.196 0.195 0.194 0.192 0.191 0.189 0.186 0.184 0.181 0.177 0.173 0.169 0.164 0.158 0.152 0.145 0.138 0.129 0.120 0.111 0.102 0.094 0.086 0.080 0.074 0.069 0.065 0.062 0.059 0.056 0.054 0.053 0.052 0.051 0.051 0.050 0.050 0.050 0.050 0.050 0.050 0.051 0.051 0.052 0.053 0.054 0.056 0.058 0.061 0.065 0.069 0.074 0.080 0.088 0.096 0.106 0.117 0.131 0.146 0.164 0.186 0.211 0.240 0.274 0.314 0.361 0.415 0.476 0.543 0.610 0.676 0.742 0.817 0.921 1.059 1.059 0.000 
0.000 0.477 0.477 0.759 0.637 0.535 0.458 0.390 0.330 0.276 0.231 0.192 0.160 0.134 0.113 0.096 0.083 0.072 0.063 0.057 0.051 0.047 0.044 0.041 0.039 0.037 0.036 0.036 0.035 0.035 0.035 0.035 0.035 0.035 0.035 0.035 0.035 0.036 0.036 0.038 0.039 0.041 0.043 0.045 0.048 0.052 0.056 0.060 0.065 0.070 0.076 0.081 0.086 0.091 0.096 0.100 0.104 0.108 0.111 0.114 0.117 0.120 0.123 0.125 0.127 0.129 0.131 0.133 0.134 0.136 0.137 0.138 0.138 0.139 0.140 0.140 0.140 0.141 0.141 0.141 0.141 0.141 0.141 0.141 0.141 0.141 0.141 0.141 0.141 0.140 0.140 0.139 0.139 0.138 0.137 0.136 0.134 0.133 0.131 0.129 0.126 0.123 0.120 0.117 0.113 0.108 0.104 0.098 0.092 0.086 0.079 0.072 0.067 0.061 0.057 0.053 0.049 0.046 0.044 0.042 0.040 0.039 0.038 0.037 0.036 0.036 0.036 0.036 0.036 0.036 0.036 0.036 0.036 0.036 0.037 0.038 0.039 0.040 0.042 0.044 0.046 0.049 0.053 0.057 0.062 0.068 0.075 0.084 0.093 0.104 0.117 0.133 0.151 0.172 0.196 0.225 0.259 0.299 0.343 0.388 0.425 0.453 0.468 0.461 0.384 0.199 0.199 0.000 
0.000 0.000 0.000 0.245 0.330 0.321 0.298 0.265 0.226 0.188 0.155 0.129 0.107 0.089 0.075 0.064 0.055 0.048 0.042 0.038 0.034 0.031 0.029 0.027 0.026 0.025 0.024 0.024 0.023 0.023 0.023 0.023 0.023 0.023 0.023 0.023 0.023 0.024 0.024 0.025 0.026 0.027 0.028 0.030 0.032 0.034 0.037 0.040 0.043 0.046 0.050 0.054 0.057 0.060 0.063 0.066 0.069 0.071 0.074 0.076 0.078 0.080 0.081 0.083 0.084 0.086 0.087 0.088 0.089 0.090 0.091 0.091 0.092 0.092 0.092 0.093 0.093 0.093 0.093 0.093 0.093 0.093 0.093 0.093 0.093 0.093 0.093 0.093 0.093 0.093 0.093 0.092 0.092 0.091 0.091 0.090 0.089 0.088 0.087 0.085 0.084 0.082 0.080 0.077 0.075 0.072 0.069 0.065 0.061 0.057 0.052 0.048 0.044 0.041 0.038 0.035 0.033 0.031 0.029 0.028 0.027 0.026 0.025 0.024 0.024 0.024 0.024 0.024 0.024 0.024 0.024 0.024 0.024 0.024 0.024 0.025 0.026 0.026 0.028 0.029 0.031 0.033 0.035 0.038 0.041 0.045 0.050 0.055 0.062 0.069 0.078 0.088 0.100 0.114 0.131 0.150 0.173 0.200 0.231 0.256 0.274 0.281 0.277 0.246 0.144 0.000 0.000 0.000 
0.000 0.000 0.000 0.052 0.144 0.167 0.167 0.157 0.137 0.113 0.093 0.077 0.064 0.053 0.045 0.038 0.033 0.028 0.025 0.022 0.020 0.018 0.017 0.016 0.015 0.015 0.014 0.014 0.014 0.014 0.014 0.014 0.014 0.014 0.014 0.014 0.014 0.014 0.014 0.015 0.015 0.016 0.017 0.018 0.019 0.020 0.022 0.024 0.025 0.028 0.030 0.032 0.034 0.036 0.038 0.039 0.041 0.042 0.044 0.045 0.046 0.047 0.048 0.049 0.050 0.051 0.052 0.052 0.053 0.053 0.054 0.054 0.054 0.055 0.055 0.055 0.055 0.055 0.055 0.055 0.055 0.055 0.055 0.055 0.055 0.055 0.055 0.055 0.055 0.055 0.055 0.055 0.055 0.054 0.054 0.053 0.053 0.052 0.051 0.051 0.050 0.049 0.047 0.046 0.044 0.043 0.041 0.039 0.036 0.034 0.031 0.028 0.026 0.024 0.022 0.021 0.019 0.018 0.017 0.016 0.016 0.015 0.015 0.015 0.014 0.014 0.014 0.014 0.014 0.014 0.014 0.014 0.014 0.014 0.014 0.015 0.015 0.016 0.016 0.017 0.018 0.019 0.021 0.023 0.025 0.027 0.030 0.033 0.037 0.041 0.046 0.052 0.059 0.068 0.078 0.089 0.103 0.120 0.138 0.151 0.158 0.158 0.152 0.126 0.061 0.000 0.000 0.000 
0.000 0.000 0.000 0.016 0.059 0.075 0.078 0.076 0.068 0.056 0.046 0.038 0.031 0.026 0.022 0.019 0.016 0.014 0.012 0.011 0.010 0.009 0.008 0.008 0.008 0.007 0.007 0.007 0.007 0.007 0.007 0.007 0.007 0.007 0.007 0.007 0.007 0.007 0.007 0.007 0.007 0.008 0.008 0.009 0.009 0.010 0.011 0.012 0.012 0.014 0.015 0.016 0.017 0.018 0.018 0.019 0.020 0.021 0.021 0.022 0.023 0.023 0.024 0.024 0.025 0.025 0.025 0.026 0.026 0.026 0.026 0.027 0.027 0.027 0.027 0.027 0.027 0.027 0.027 0.027 0.027 0.027 0.027 0.027 0.027 0.027 0.027 0.027 0.027 0.027 0.027 0.027 0.027 0.027 0.026 0.026 0.026 0.026 0.025 0.025 0.024 0.024 0.023 0.023 0.022 0.021 0.020 0.019 0.018 0.017 0.015 0.014 0.013 0.012 0.011 0.010 0.010 0.009 0.008 0.008 0.008 0.007 0.007 0.007 0.007 0.007 0.007 0.007 0.007 0.007 0.007 0.007 0.007 0.007 0.007 0.007 0.007 0.008 0.008 0.008 0.009 0.009 0.010 0.011 0.012 0.013 0.015 0.016 0.018 0.020 0.023 0.026 0.029 0.033 0.038 0.044 0.051 0.060 0.068 0.074 0.076 0.075 0.071 0.057 0.025 0.000 0.000 0.000 
0.000 0.000 0.000 0.004 0.017 0.023 0.025 0.024 0.022 0.018 0.015 0.012 0.010 0.008 0.007 0.006 0.005 0.004 0.004 0.004 0.003 0.003 0.003 0.003 0.002 0.002 0.002 0.002 0.002 0.002 0.002 0.002 0.002 0.002 0.002 0.002 0.002 0.002 0.002 0.002 0.002 0.003 0.003 0.003 0.003 0.003 0.003 0.004 0.004 0.004 0.005 0.005 0.005 0.006 0.006 0.006 0.006 0.007 0.007 0.007 0.007 0.007 0.008 0.008 0.008 0.008 0.008 0.008 0.008 0.008 0.008 0.009 0.009 0.009 0.009 0.009 0.009 0.009 0.009 0.009 0.009 0.009 0.009 0.009 0.009 0.009 0.009 0.009 0.009 0.009 0.009 0.009 0.009 0.009 0.008 0.008 0.008 0.008 0.008 0.008 0.008 0.008 0.007 0.007 0.007 0.007 0.006 0.006 0.006 0.005 0.005 0.004 0.004 0.004 0.004 0.003 0.003 0.003 0.003 0.003 0.002 0.002 0.002 0.002 0.002 0.002 0.002 0.002 0.002 0.002 0.002 0.002 0.002 0.002 0.002 0.002 0.002 0.002 0.003 0.003 0.003 0.003 0.003 0.004 0.004 0.004 0.005 0.005 0.006 0.006 0.007 0.008 0.009 0.011 0.012 0.014 0.016 0.019 0.022 0.024 0.024 0.024 0.022 0.018 0.007 0.000 0.000 0.000 
0.000 0.000 0.000 0.000 0.000 0.000 0.000 0.000 0.000 0.000 0.000 0.000 0.000 0.000 0.000 0.000 0.000 0.000 0.000 0.000 0.000 0.000 0.000 0.000 0.000 0.000 0.000 0.000 0.000 0.000 0.000 0.000 0.000 0.000 0.000 0.000 0.000 0.000 0.000 0.000 0.000 0.000 0.000 0.000 0.000 0.000 0.000 0.000 0.000 0.000 0.000 0.000 0.000 0.000 0.000 0.000 0.000 0.000 0.000 0.000 0.000 0.000 0.000 0.000 0.000 0.000 0.000 0.000 0.000 0.000 0.000 0.000 0.000 0.000 0.000 0.000 0.000 0.000 0.000 0.000 0.000 0.000 0.000 0.000 0.000 0.000 0.000 0.000 0.000 0.000 0.000 0.000 0.000 0.000 0.000 0.000 0.000 0.000 0.000 0.000 0.000 0.000 0.000 0.000 0.000 0.000 0.000 0.000 0.000 0.000 0.000 0.000 0.000 0.000 0.000 0.000 0.000 0.000 0.000 0.000 0.000 0.000 0.000 0.000 0.000 0.000 0.000 0.000 0.000 0.000 0.000 0.000 0.000 0.000 0.000 0.000 0.000 0.000 0.000 0.000 0.000 0.000 0.000 0.000 0.000 0.000 0.000 0.000 0.000 0.000 0.000 0.000 0.000 0.000 0.000 0.000 0.000 0.000 0.000 0.000 0.000 0.000 0.000 0.000 0.000 0.000 0.000 0.000 
0.000 0.089 0.089 0.077 0.065 0.049 0.049 0.029 0.010 0.010 0.001 0.003 0.005 0.005 0.005 0.005 0.005 0.005 0.004 0.002 0.002 0.001 0.000 0.001 0.001 0.001 0.001 0.001 0.001 0.001 0.001 0.001 0.001 0.001 0.001 0.001 0.001 0.001 0.001 0.001 0.000 0.000 0.000 0.001 0.004 0.008 0.008 0.021 0.046 0.046 0.070 0.087 0.098 0.098 0.108 0.116 0.122 0.122 0.127 0.122 0.122 0.106 0.089 0.081 0.081 0.081 0.080 0.079 0.079 0.078 0.077 0.077 0.076 0.077 0.077 0.077 0.077 0.076 0.074 0.074 0.073 0.071 0.071 0.069 0.069 0.073 0.073 0.076 0.062 0.031 0.031 0.001 0.000 0.000 0.007 0.022 0.025 0.025 0.018 0.011 0.017 0.017 0.035 0.053 0.053 0.059 0.055 0.051 0.051 0.046 0.039 0.033 0.033 0.025 0.015 0.015 0.006 0.001 0.002 0.002 0.002 0.002 0.002 0.002 0.001 0.001 0.001 0.001 0.001 0.001 0.001 0.001 0.000 0.000 0.001 0.003 0.004 0.004 0.007 0.012 0.016 0.016 0.018 0.017 0.017 0.016 0.015 0.014 0.014 0.013 0.011 0.009 0.009 0.007 0.005 0.005 0.003 0.002 0.000 0.000 0.000 0.000 0.000 0.000 0.007 0.014 0.014 0.000 
0.000 0.000 0.000 0.000 0.000 0.000 0.000 0.000 0.000 0.000 0.000 0.000 0.000 0.000 0.000 0.000 0.000 0.000 0.000 0.000 0.000 0.000 0.000 0.000 0.000 0.000 0.000 0.000 0.000 0.000 0.000 0.000 0.000 0.000 0.000 0.000 0.000 0.000 0.000 0.000 0.000 0.000 0.000 0.000 0.000 0.000 0.000 0.000 0.000 0.000 0.000 0.000 0.000 0.000 0.000 0.000 0.000 0.000 0.000 0.000 0.000 0.000 0.000 0.000 0.000 0.000 0.000 0.000 0.000 0.000 0.000 0.000 0.000 0.000 0.000 0.000 0.000 0.000 0.000 0.000 0.000 0.000 0.000 0.000 0.000 0.000 0.000 0.000 0.000 0.000 0.000 0.000 0.000 0.000 0.000 0.000 0.000 0.000 0.000 0.000 0.000 0.000 0.000 0.000 0.000 0.000 0.000 0.000 0.000 0.000 0.000 0.000 0.000 0.000 0.000 0.000 0.000 0.000 0.000 0.000 0.000 0.000 0.000 0.000 0.000 0.000 0.000 0.000 0.000 0.000 0.000 0.000 0.000 0.000 0.000 0.000 0.000 0.000 0.000 0.000 0.000 0.000 0.000 0.000 0.000 0.000 0.000 0.000 0.000 0.000 0.000 0.000 0.000 0.000 0.000 0.000 0.000 0.000 0.000 0.000 0.000 0.000 0.000 0.000 0.000 0.000 0.000 0.000 
