ncols 168
nrows 121
xllcenter 640304.69
yllcenter 1081277.12
cellsize 46.59
NODATA_value -9999.000
0.000 0.000 0.000 0.000 0.000 0.000 0.000 0.000 0.000 0.000 0.000 0.000 0.000 0.000 0.000 0.000 0.000 0.000 0.000 0.000 0.000 0.000 0.000 0.000 0.000 0.000 0.000 0.000 0.000 0.000 0.000 0.000 0.000 0.000 0.000 0.000 0.000 0.000 0.000 0.000 0.000 0.000 0.000 0.000 0.000 0.000 0.000 0.000 0.000 0.000 0.000 0.000 0.000 0.000 0.000 0.000 0.000 0.000 0.000 0.000 0.000 0.000 0.000 0.000 0.000 0.000 0.000 0.000 0.000 0.000 0.000 0.000 0.000 0.000 0.000 0.000 0.000 0.000 0.000 0.000 0.000 0.000 0.000 0.000 0.000 0.000 0.000 0.000 0.000 0.000 0.000 0.000 0.000 0.000 0.000 0.000 0.000 0.000 0.000 0.000 0.000 0.000 0.000 0.000 0.000 0.000 0.000 0.000 0.000 0.000 0.000 0.000 0.000 0.000 0.000 0.000 0.000 0.000 0.000 0.000 0.000 0.000 0.000 0.000 0.000 0.000 0.000 0.000 0.000 0.000 0.000 0.000 0.000 0.000 0.000 0.000 0.000 0.000 0.000 0.000 0.000 0.000 0.000 0.000 0.000 0.000 0.000 0.000 0.000 0.000 0.000 0.000 0.000 0.000 0.000 0.000 0.000 0.000 0.000 0.000 0.000 0.000 0.000 0.000 0.000 0.000 0.000 0.000 
0.000 0.397 0.397 0.397 0.296 0.018 0.018 0.000 0.000 0.000 0.024 0.303 0.397 0.397 0.397 0.397 0.397 0.397 0.397 0.397 0.397 0.397 0.397 0.397 0.397 0.397 0.397 0.397 0.397 0.397 0.397 0.397 0.397 0.397 0.481 0.481 0.614 0.784 0.955 0.955 1.032 1.061 1.061 1.061 1.061 1.054 1.054 1.036 1.033 1.033 1.012 0.958 0.784 0.784 0.609 0.498 0.519 0.519 0.678 0.853 0.853 0.986 0.311 0.501 0.501 1.060 1.047 0.944 0.944 0.815 0.686 0.686 0.644 0.691 0.821 0.821 0.950 0.580 0.251 0.251 0.931 1.064 1.064 1.064 1.064 1.064 1.064 1.068 1.081 1.131 1.131 1.181 1.199 1.199 1.127 0.921 0.684 0.684 0.439 0.472 0.334 0.334 0.188 0.856 0.856 0.930 0.757 0.571 0.571 0.460 0.485 0.671 0.671 0.857 1.018 1.018 1.156 1.258 0.760 0.760 0.516 1.272 1.263 1.263 1.162 1.067 1.067 1.067 1.067 1.067 1.067 1.067 1.067 1.067 1.068 1.068 1.068 1.068 1.068 1.068 1.068 1.068 1.068 1.068 1.068 1.068 1.068 1.069 1.069 1.069 1.069 1.069 1.069 1.013 0.445 0.445 0.644 1.038 0.914 0.914 0.730 0.531 0.328 0.328 0.101 0.000 0.000 0.000 
0.000 0.234 0.234 0.233 0.174 0.011 0.011 0.000 0.000 0.000 0.013 0.164 0.220 0.220 0.225 0.224 0.223 0.223 0.222 0.221 0.221 0.220 0.219 0.218 0.218 0.217 0.216 0.212 0.212 0.202 0.200 0.200 0.203 0.211 0.339 0.339 0.521 0.744 0.968 0.968 1.056 1.080 1.080 1.080 1.080 0.900 0.900 0.500 0.497 0.497 0.687 0.918 0.691 0.691 0.464 0.330 0.397 0.397 0.608 0.835 0.835 1.038 0.730 0.820 0.820 1.075 1.045 0.909 0.909 0.741 0.573 0.573 0.543 0.618 0.786 0.786 0.954 0.845 0.718 0.718 1.023 1.082 1.082 1.083 1.083 1.083 1.083 1.091 1.112 1.176 1.176 1.240 1.257 1.257 1.136 0.866 0.544 0.544 0.191 0.199 0.308 0.308 0.525 0.939 0.939 0.896 0.663 0.424 0.424 0.312 0.363 0.602 0.602 0.841 1.044 1.044 1.214 1.345 1.240 1.240 1.186 1.415 1.324 1.324 1.199 1.086 1.086 1.086 1.086 1.086 1.086 1.086 1.086 1.086 1.086 1.086 1.087 1.087 1.087 1.087 1.087 1.087 1.087 1.087 1.087 1.087 1.087 1.087 1.087 1.087 1.088 1.088 1.088 1.069 0.877 0.877 0.945 1.045 0.869 0.869 0.633 0.377 0.112 0.112 0.033 0.000 0.000 0.000 
0.000 0.046 0.046 0.140 0.146 0.075 0.021 0.011 0.007 0.007 0.017 0.083 0.178 0.207 0.218 0.222 0.223 0.223 0.223 0.222 0.222 0.221 0.221 0.220 0.219 0.219 0.218 0.216 0.215 0.211 0.206 0.206 0.208 0.218 0.276 0.344 0.430 0.630 0.852 0.946 0.999 1.052 1.063 1.063 1.057 0.982 0.872 0.690 0.543 0.534 0.597 0.772 0.769 0.690 0.584 0.422 0.398 0.422 0.502 0.721 0.826 0.903 0.884 0.822 0.849 0.949 1.023 0.968 0.902 0.827 0.663 0.598 0.583 0.596 0.700 0.786 0.861 0.889 0.813 0.793 0.890 1.033 1.069 1.077 1.079 1.081 1.082 1.086 1.100 1.138 1.167 1.195 1.228 1.231 1.182 1.007 0.708 0.545 0.377 0.249 0.283 0.334 0.435 0.732 0.880 0.874 0.777 0.550 0.452 0.399 0.376 0.481 0.596 0.712 0.933 1.036 1.125 1.262 1.272 1.241 1.232 1.297 1.342 1.314 1.263 1.146 1.103 1.094 1.090 1.088 1.087 1.087 1.086 1.086 1.086 1.086 1.086 1.086 1.087 1.087 1.087 1.087 1.087 1.087 1.087 1.087 1.087 1.087 1.087 1.086 1.086 1.085 1.082 1.068 0.987 0.919 0.924 0.975 0.945 0.865 0.761 0.529 0.278 0.182 0.158 0.171 0.171 0.000 
0.000 0.014 0.014 0.047 0.072 0.064 0.043 0.033 0.031 0.035 0.055 0.103 0.163 0.197 0.213 0.221 0.224 0.225 0.226 0.226 0.226 0.226 0.226 0.225 0.225 0.225 0.225 0.225 0.225 0.225 0.225 0.229 0.238 0.262 0.307 0.380 0.486 0.643 0.799 0.895 0.955 0.987 1.000 1.000 0.985 0.942 0.853 0.727 0.656 0.642 0.664 0.712 0.722 0.691 0.608 0.536 0.511 0.519 0.577 0.698 0.806 0.852 0.861 0.864 0.881 0.924 0.943 0.936 0.894 0.818 0.729 0.680 0.668 0.676 0.716 0.790 0.842 0.860 0.862 0.872 0.919 0.995 1.036 1.056 1.067 1.073 1.078 1.084 1.096 1.115 1.136 1.149 1.152 1.138 1.085 0.961 0.757 0.579 0.463 0.413 0.402 0.435 0.529 0.675 0.748 0.756 0.717 0.613 0.531 0.500 0.501 0.529 0.608 0.726 0.875 1.006 1.112 1.185 1.220 1.230 1.236 1.259 1.276 1.270 1.229 1.163 1.122 1.104 1.096 1.091 1.089 1.087 1.087 1.086 1.086 1.086 1.086 1.086 1.086 1.086 1.087 1.087 1.087 1.086 1.086 1.086 1.086 1.085 1.084 1.083 1.080 1.075 1.065 1.044 1.000 0.961 0.947 0.938 0.918 0.862 0.761 0.606 0.480 0.432 0.441 0.493 0.493 0.000 
0.000 0.001 0.001 0.017 0.046 0.059 0.061 0.061 0.064 0.074 0.094 0.127 0.168 0.197 0.213 0.222 0.227 0.229 0.231 0.232 0.233 0.233 0.234 0.234 0.235 0.236 0.237 0.239 0.242 0.246 0.253 0.265 0.285 0.317 0.365 0.436 0.537 0.664 0.778 0.856 0.905 0.930 0.939 0.939 0.930 0.902 0.844 0.768 0.723 0.706 0.705 0.713 0.712 0.693 0.649 0.618 0.611 0.617 0.648 0.717 0.794 0.836 0.859 0.875 0.893 0.910 0.914 0.909 0.885 0.833 0.779 0.753 0.745 0.746 0.760 0.797 0.837 0.861 0.880 0.904 0.940 0.987 1.020 1.039 1.052 1.061 1.069 1.076 1.082 1.089 1.094 1.092 1.083 1.058 1.006 0.912 0.769 0.639 0.564 0.533 0.528 0.540 0.588 0.660 0.693 0.698 0.684 0.638 0.597 0.583 0.583 0.598 0.643 0.726 0.843 0.966 1.059 1.121 1.164 1.193 1.209 1.215 1.215 1.210 1.192 1.157 1.125 1.107 1.097 1.092 1.089 1.087 1.087 1.086 1.086 1.086 1.086 1.086 1.086 1.086 1.086 1.086 1.086 1.086 1.085 1.085 1.084 1.082 1.080 1.077 1.072 1.064 1.053 1.035 1.006 0.977 0.954 0.932 0.905 0.860 0.785 0.707 0.666 0.655 0.670 0.707 0.707 0.000 
0.000 0.000 0.000 0.009 0.039 0.064 0.080 0.091 0.102 0.114 0.131 0.154 0.181 0.202 0.216 0.226 0.232 0.236 0.238 0.240 0.242 0.244 0.245 0.247 0.249 0.251 0.255 0.259 0.266 0.275 0.289 0.309 0.337 0.375 0.424 0.490 0.577 0.681 0.769 0.832 0.873 0.895 0.903 0.904 0.899 0.883 0.849 0.801 0.766 0.746 0.735 0.726 0.719 0.707 0.690 0.680 0.679 0.686 0.706 0.745 0.797 0.836 0.862 0.882 0.897 0.905 0.906 0.902 0.886 0.853 0.821 0.805 0.799 0.799 0.804 0.818 0.842 0.867 0.894 0.922 0.956 0.990 1.014 1.030 1.041 1.049 1.055 1.060 1.062 1.062 1.060 1.052 1.037 1.008 0.959 0.882 0.776 0.686 0.632 0.607 0.601 0.605 0.625 0.659 0.676 0.679 0.673 0.653 0.635 0.630 0.632 0.645 0.677 0.734 0.818 0.917 0.997 1.058 1.106 1.141 1.159 1.165 1.166 1.164 1.157 1.142 1.122 1.107 1.097 1.092 1.089 1.087 1.087 1.086 1.086 1.086 1.086 1.086 1.086 1.086 1.086 1.086 1.085 1.085 1.084 1.083 1.082 1.080 1.076 1.072 1.066 1.058 1.046 1.030 1.009 0.983 0.958 0.933 0.905 0.870 0.830 0.804 0.795 0.799 0.818 0.833 0.833 0.000 
0.000 0.000 0.000 0.009 0.042 0.077 0.104 0.123 0.139 0.154 0.168 0.183 0.199 0.213 0.225 0.234 0.240 0.245 0.249 0.252 0.254 0.257 0.260 0.263 0.266 0.271 0.276 0.284 0.294 0.309 0.328 0.353 0.384 0.422 0.470 0.531 0.608 0.694 0.766 0.818 0.853 0.874 0.883 0.886 0.884 0.876 0.857 0.826 0.799 0.778 0.762 0.750 0.740 0.735 0.732 0.732 0.736 0.743 0.756 0.778 0.810 0.843 0.869 0.889 0.900 0.905 0.906 0.903 0.893 0.874 0.856 0.847 0.844 0.843 0.844 0.849 0.860 0.881 0.907 0.937 0.968 0.993 1.012 1.025 1.034 1.039 1.043 1.044 1.044 1.042 1.035 1.024 1.005 0.974 0.929 0.865 0.783 0.717 0.675 0.653 0.645 0.645 0.651 0.664 0.673 0.675 0.673 0.665 0.659 0.658 0.662 0.673 0.698 0.739 0.799 0.876 0.946 1.003 1.048 1.081 1.102 1.115 1.122 1.126 1.126 1.122 1.114 1.104 1.096 1.091 1.088 1.087 1.086 1.086 1.085 1.085 1.085 1.085 1.085 1.085 1.085 1.085 1.085 1.084 1.083 1.082 1.080 1.077 1.074 1.069 1.062 1.054 1.042 1.028 1.009 0.986 0.962 0.937 0.914 0.894 0.881 0.876 0.879 0.893 0.923 0.934 0.934 0.000 
0.000 0.034 0.034 0.022 0.056 0.101 0.135 0.160 0.179 0.193 0.204 0.214 0.223 0.232 0.240 0.247 0.253 0.258 0.262 0.266 0.270 0.273 0.277 0.282 0.287 0.294 0.302 0.313 0.327 0.344 0.366 0.392 0.423 0.461 0.507 0.564 0.632 0.705 0.765 0.810 0.842 0.862 0.873 0.878 0.878 0.875 0.864 0.847 0.826 0.808 0.793 0.782 0.775 0.774 0.777 0.782 0.788 0.795 0.804 0.816 0.834 0.858 0.881 0.896 0.905 0.908 0.909 0.908 0.904 0.896 0.888 0.884 0.882 0.882 0.883 0.885 0.890 0.903 0.924 0.951 0.978 0.998 1.014 1.024 1.030 1.033 1.034 1.034 1.032 1.027 1.018 1.004 0.982 0.952 0.910 0.854 0.789 0.738 0.704 0.684 0.673 0.670 0.669 0.672 0.675 0.676 0.675 0.674 0.673 0.675 0.679 0.690 0.710 0.741 0.785 0.843 0.904 0.955 0.996 1.028 1.052 1.070 1.083 1.092 1.097 1.100 1.100 1.096 1.092 1.088 1.086 1.085 1.085 1.085 1.085 1.085 1.085 1.085 1.085 1.085 1.085 1.084 1.084 1.083 1.082 1.081 1.079 1.076 1.072 1.067 1.060 1.051 1.040 1.026 1.009 0.988 0.966 0.947 0.933 0.926 0.924 0.925 0.932 0.951 0.989 1.015 1.015 0.000 
0.000 0.071 0.071 0.060 0.094 0.141 0.177 0.203 0.221 0.234 0.242 0.248 0.252 0.256 0.261 0.266 0.270 0.275 0.279 0.283 0.288 0.293 0.298 0.304 0.311 0.320 0.330 0.343 0.359 0.377 0.399 0.425 0.456 0.493 0.537 0.589 0.651 0.714 0.766 0.807 0.836 0.856 0.869 0.876 0.878 0.877 0.873 0.865 0.852 0.839 0.828 0.822 0.819 0.821 0.825 0.831 0.838 0.844 0.850 0.857 0.866 0.880 0.896 0.907 0.914 0.917 0.919 0.920 0.920 0.920 0.919 0.918 0.919 0.920 0.921 0.923 0.926 0.932 0.946 0.967 0.988 1.005 1.016 1.024 1.028 1.029 1.029 1.028 1.024 1.016 1.005 0.989 0.966 0.936 0.897 0.847 0.794 0.753 0.724 0.704 0.693 0.686 0.683 0.681 0.680 0.680 0.680 0.681 0.683 0.685 0.690 0.700 0.716 0.740 0.774 0.818 0.868 0.913 0.951 0.982 1.008 1.029 1.046 1.060 1.070 1.077 1.082 1.084 1.084 1.083 1.083 1.083 1.083 1.083 1.083 1.084 1.084 1.084 1.084 1.084 1.084 1.084 1.083 1.083 1.082 1.080 1.078 1.075 1.071 1.065 1.059 1.050 1.039 1.025 1.008 0.990 0.973 0.962 0.956 0.953 0.953 0.956 0.965 0.984 1.019 1.047 1.047 0.000 
0.000 0.210 0.210 0.137 0.165 0.202 0.233 0.255 0.269 0.278 0.283 0.284 0.285 0.286 0.287 0.290 0.292 0.296 0.300 0.304 0.309 0.314 0.321 0.328 0.337 0.346 0.358 0.371 0.387 0.406 0.428 0.454 0.485 0.520 0.562 0.611 0.667 0.722 0.768 0.805 0.833 0.854 0.867 0.876 0.880 0.883 0.884 0.883 0.878 0.871 0.867 0.866 0.867 0.870 0.875 0.881 0.886 0.890 0.894 0.897 0.901 0.908 0.917 0.924 0.928 0.932 0.935 0.938 0.942 0.946 0.949 0.952 0.953 0.955 0.957 0.959 0.962 0.965 0.972 0.985 1.000 1.012 1.021 1.026 1.028 1.028 1.027 1.024 1.018 1.009 0.996 0.978 0.955 0.925 0.888 0.842 0.798 0.763 0.737 0.718 0.706 0.697 0.692 0.689 0.687 0.687 0.687 0.688 0.689 0.692 0.697 0.705 0.718 0.738 0.765 0.798 0.838 0.877 0.912 0.941 0.968 0.991 1.011 1.028 1.043 1.054 1.063 1.069 1.073 1.076 1.077 1.079 1.080 1.081 1.082 1.082 1.083 1.083 1.083 1.083 1.083 1.083 1.083 1.082 1.081 1.079 1.077 1.074 1.070 1.065 1.058 1.049 1.038 1.024 1.008 0.993 0.982 0.975 0.972 0.971 0.972 0.975 0.984 1.001 1.028 1.044 1.044 0.000 
0.000 0.354 0.354 0.278 0.274 0.289 0.305 0.316 0.322 0.324 0.323 0.322 0.320 0.319 0.319 0.319 0.319 0.321 0.324 0.328 0.333 0.338 0.345 0.352 0.361 0.371 0.382 0.396 0.413 0.432 0.454 0.480 0.510 0.544 0.583 0.629 0.680 0.729 0.771 0.805 0.832 0.853 0.867 0.878 0.886 0.892 0.898 0.902 0.904 0.905 0.906 0.909 0.912 0.917 0.922 0.927 0.931 0.935 0.937 0.938 0.939 0.941 0.943 0.947 0.950 0.954 0.957 0.962 0.968 0.975 0.981 0.985 0.988 0.990 0.992 0.993 0.995 0.998 1.001 1.006 1.015 1.022 1.027 1.029 1.029 1.029 1.027 1.022 1.015 1.004 0.989 0.970 0.947 0.917 0.881 0.840 0.801 0.770 0.746 0.728 0.715 0.706 0.699 0.695 0.693 0.693 0.692 0.693 0.694 0.696 0.700 0.707 0.718 0.734 0.756 0.782 0.814 0.847 0.877 0.906 0.931 0.955 0.978 0.998 1.016 1.031 1.043 1.053 1.060 1.066 1.070 1.073 1.076 1.078 1.079 1.080 1.081 1.082 1.082 1.082 1.082 1.082 1.082 1.081 1.080 1.079 1.076 1.073 1.069 1.064 1.057 1.049 1.038 1.024 1.009 0.997 0.989 0.985 0.983 0.982 0.983 0.987 0.995 1.010 1.030 1.042 1.042 0.000 
0.000 0.479 0.479 0.414 0.402 0.388 0.381 0.375 0.369 0.364 0.359 0.354 0.351 0.349 0.348 0.348 0.348 0.348 0.350 0.353 0.356 0.361 0.367 0.374 0.383 0.393 0.405 0.419 0.436 0.456 0.478 0.503 0.532 0.565 0.602 0.644 0.691 0.735 0.774 0.806 0.832 0.853 0.869 0.883 0.895 0.906 0.915 0.923 0.931 0.937 0.943 0.948 0.954 0.959 0.965 0.970 0.973 0.976 0.978 0.978 0.978 0.977 0.976 0.977 0.979 0.982 0.986 0.991 0.999 1.007 1.013 1.018 1.021 1.023 1.025 1.026 1.027 1.028 1.029 1.030 1.032 1.035 1.035 1.035 1.033 1.031 1.027 1.021 1.013 1.000 0.985 0.965 0.940 0.911 0.876 0.838 0.803 0.775 0.752 0.734 0.721 0.711 0.704 0.700 0.697 0.696 0.696 0.696 0.697 0.698 0.702 0.708 0.717 0.731 0.748 0.769 0.793 0.821 0.848 0.874 0.898 0.922 0.945 0.968 0.988 1.006 1.022 1.035 1.046 1.054 1.061 1.066 1.070 1.074 1.076 1.078 1.079 1.080 1.081 1.081 1.081 1.081 1.081 1.080 1.079 1.078 1.076 1.073 1.069 1.064 1.057 1.049 1.038 1.025 1.011 1.001 0.994 0.990 0.989 0.988 0.989 0.993 1.000 1.013 1.030 1.039 1.039 0.000 
0.000 0.603 0.603 0.537 0.496 0.462 0.438 0.420 0.407 0.396 0.388 0.382 0.377 0.375 0.373 0.372 0.372 0.372 0.373 0.375 0.378 0.382 0.387 0.394 0.403 0.413 0.426 0.440 0.457 0.477 0.499 0.524 0.552 0.583 0.618 0.657 0.700 0.741 0.777 0.808 0.834 0.855 0.874 0.891 0.907 0.922 0.935 0.948 0.959 0.969 0.977 0.985 0.991 0.998 1.004 1.009 1.012 1.015 1.017 1.017 1.017 1.016 1.014 1.013 1.014 1.016 1.019 1.025 1.033 1.041 1.047 1.051 1.054 1.055 1.056 1.057 1.057 1.057 1.057 1.055 1.053 1.050 1.047 1.044 1.040 1.035 1.029 1.021 1.011 0.998 0.981 0.961 0.936 0.907 0.873 0.836 0.805 0.778 0.756 0.739 0.726 0.715 0.708 0.703 0.700 0.698 0.698 0.698 0.698 0.699 0.702 0.708 0.716 0.726 0.740 0.757 0.777 0.799 0.822 0.845 0.869 0.892 0.915 0.938 0.961 0.982 1.000 1.016 1.030 1.041 1.051 1.058 1.064 1.069 1.072 1.075 1.077 1.079 1.079 1.080 1.080 1.080 1.080 1.080 1.079 1.077 1.075 1.073 1.069 1.064 1.057 1.049 1.038 1.026 1.013 1.003 0.997 0.993 0.991 0.991 0.992 0.995 1.002 1.014 1.029 1.036 1.036 0.000 
0.000 0.640 0.640 0.609 0.560 0.512 0.478 0.454 0.436 0.422 0.412 0.404 0.399 0.396 0.394 0.393 0.392 0.392 0.393 0.394 0.396 0.400 0.405 0.412 0.421 0.432 0.445 0.460 0.477 0.496 0.518 0.543 0.570 0.600 0.633 0.670 0.709 0.747 0.781 0.811 0.837 0.861 0.883 0.903 0.923 0.941 0.958 0.974 0.987 0.999 1.009 1.018 1.026 1.033 1.040 1.045 1.049 1.052 1.053 1.054 1.055 1.055 1.054 1.054 1.054 1.055 1.058 1.063 1.070 1.076 1.080 1.083 1.085 1.086 1.086 1.087 1.086 1.085 1.083 1.080 1.075 1.069 1.062 1.056 1.048 1.041 1.032 1.023 1.011 0.997 0.979 0.958 0.933 0.903 0.870 0.836 0.806 0.780 0.759 0.742 0.729 0.718 0.710 0.705 0.701 0.699 0.698 0.698 0.699 0.700 0.702 0.707 0.713 0.722 0.733 0.746 0.762 0.780 0.800 0.821 0.842 0.864 0.886 0.909 0.933 0.956 0.978 0.997 1.013 1.027 1.039 1.049 1.057 1.063 1.068 1.072 1.075 1.077 1.078 1.079 1.079 1.079 1.079 1.079 1.078 1.077 1.075 1.072 1.069 1.064 1.058 1.050 1.040 1.028 1.015 1.006 0.999 0.994 0.992 0.992 0.992 0.995 1.002 1.013 1.027 1.034 1.034 0.000 
0.000 0.675 0.675 0.647 0.595 0.542 0.504 0.477 0.456 0.441 0.430 0.422 0.417 0.413 0.411 0.410 0.409 0.409 0.409 0.410 0.413 0.416 0.421 0.428 0.438 0.449 0.462 0.477 0.495 0.514 0.536 0.560 0.587 0.615 0.647 0.681 0.718 0.753 0.786 0.816 0.844 0.870 0.895 0.919 0.941 0.963 0.982 1.000 1.015 1.028 1.039 1.049 1.058 1.066 1.072 1.078 1.082 1.085 1.088 1.089 1.090 1.091 1.091 1.092 1.093 1.094 1.097 1.100 1.105 1.109 1.112 1.114 1.115 1.115 1.115 1.115 1.114 1.112 1.109 1.104 1.098 1.090 1.080 1.070 1.060 1.049 1.038 1.026 1.012 0.997 0.978 0.956 0.930 0.901 0.868 0.835 0.807 0.782 0.761 0.744 0.731 0.720 0.712 0.706 0.702 0.700 0.699 0.698 0.699 0.700 0.702 0.705 0.710 0.717 0.726 0.736 0.749 0.764 0.780 0.798 0.818 0.838 0.860 0.882 0.906 0.931 0.955 0.977 0.996 1.013 1.027 1.039 1.049 1.057 1.063 1.068 1.071 1.074 1.076 1.077 1.078 1.078 1.078 1.078 1.077 1.076 1.074 1.072 1.069 1.064 1.058 1.051 1.041 1.031 1.018 1.008 1.000 0.994 0.992 0.991 0.992 0.994 1.000 1.011 1.024 1.031 1.031 0.000 
0.000 0.650 0.650 0.652 0.607 0.557 0.519 0.490 0.470 0.455 0.444 0.436 0.430 0.427 0.424 0.423 0.423 0.423 0.423 0.424 0.427 0.430 0.436 0.444 0.453 0.465 0.478 0.494 0.511 0.531 0.552 0.576 0.601 0.629 0.659 0.692 0.726 0.760 0.793 0.823 0.853 0.882 0.910 0.937 0.962 0.985 1.006 1.024 1.040 1.054 1.067 1.078 1.087 1.096 1.103 1.108 1.113 1.117 1.120 1.122 1.123 1.125 1.126 1.127 1.128 1.129 1.131 1.134 1.137 1.140 1.141 1.142 1.143 1.143 1.143 1.142 1.140 1.137 1.133 1.127 1.120 1.111 1.100 1.087 1.074 1.060 1.046 1.031 1.015 0.997 0.977 0.955 0.928 0.899 0.866 0.835 0.807 0.783 0.763 0.746 0.732 0.721 0.713 0.706 0.702 0.700 0.699 0.698 0.698 0.699 0.700 0.703 0.707 0.712 0.718 0.727 0.737 0.749 0.763 0.779 0.796 0.815 0.836 0.857 0.881 0.906 0.932 0.956 0.978 0.998 1.014 1.028 1.040 1.050 1.057 1.063 1.068 1.071 1.074 1.075 1.076 1.076 1.077 1.076 1.076 1.075 1.074 1.072 1.068 1.064 1.059 1.052 1.043 1.033 1.022 1.010 1.001 0.994 0.990 0.989 0.989 0.990 0.995 1.006 1.020 1.029 1.029 0.000 
0.000 0.624 0.624 0.632 0.607 0.563 0.525 0.498 0.478 0.463 0.453 0.445 0.440 0.437 0.435 0.434 0.434 0.434 0.435 0.436 0.439 0.443 0.449 0.457 0.467 0.479 0.493 0.508 0.526 0.545 0.567 0.590 0.615 0.642 0.671 0.702 0.735 0.768 0.801 0.834 0.866 0.898 0.928 0.957 0.983 1.006 1.028 1.047 1.063 1.079 1.092 1.104 1.114 1.123 1.130 1.137 1.142 1.146 1.149 1.152 1.154 1.155 1.157 1.158 1.160 1.161 1.163 1.165 1.166 1.168 1.169 1.169 1.169 1.169 1.168 1.167 1.164 1.161 1.156 1.149 1.141 1.132 1.120 1.106 1.090 1.073 1.056 1.038 1.019 0.999 0.978 0.954 0.927 0.897 0.865 0.835 0.808 0.784 0.764 0.747 0.733 0.722 0.713 0.707 0.702 0.700 0.698 0.698 0.697 0.698 0.698 0.700 0.703 0.706 0.711 0.718 0.726 0.736 0.748 0.761 0.777 0.795 0.814 0.835 0.858 0.882 0.909 0.936 0.960 0.982 1.001 1.017 1.031 1.042 1.051 1.058 1.064 1.068 1.071 1.073 1.074 1.075 1.075 1.075 1.075 1.074 1.073 1.071 1.068 1.064 1.059 1.052 1.044 1.035 1.024 1.012 1.001 0.992 0.986 0.982 0.981 0.982 0.986 0.996 1.014 1.026 1.026 0.000 
0.000 0.598 0.598 0.608 0.594 0.563 0.527 0.500 0.481 0.468 0.459 0.452 0.448 0.445 0.444 0.443 0.443 0.443 0.444 0.446 0.449 0.455 0.461 0.470 0.480 0.492 0.506 0.522 0.539 0.558 0.579 0.602 0.627 0.654 0.682 0.712 0.744 0.777 0.811 0.846 0.881 0.914 0.945 0.974 1.001 1.025 1.047 1.067 1.085 1.101 1.115 1.127 1.138 1.148 1.156 1.162 1.168 1.173 1.176 1.179 1.182 1.184 1.185 1.187 1.188 1.189 1.191 1.192 1.193 1.194 1.194 1.194 1.194 1.193 1.192 1.190 1.187 1.183 1.177 1.170 1.161 1.151 1.138 1.124 1.107 1.088 1.068 1.047 1.026 1.003 0.979 0.954 0.927 0.896 0.865 0.835 0.809 0.785 0.765 0.748 0.734 0.722 0.713 0.707 0.702 0.699 0.697 0.696 0.696 0.695 0.696 0.697 0.698 0.701 0.704 0.709 0.716 0.724 0.734 0.746 0.760 0.776 0.795 0.815 0.837 0.861 0.887 0.915 0.942 0.966 0.987 1.005 1.021 1.034 1.044 1.053 1.060 1.065 1.068 1.071 1.072 1.073 1.074 1.074 1.074 1.073 1.072 1.070 1.068 1.064 1.059 1.053 1.045 1.036 1.025 1.014 1.001 0.990 0.980 0.972 0.967 0.966 0.969 0.980 1.006 1.023 1.023 0.000 
0.000 0.572 0.572 0.583 0.575 0.556 0.527 0.501 0.482 0.470 0.462 0.456 0.453 0.451 0.450 0.449 0.449 0.450 0.452 0.455 0.459 0.465 0.472 0.481 0.492 0.504 0.518 0.534 0.551 0.570 0.591 0.613 0.638 0.664 0.692 0.722 0.754 0.787 0.822 0.858 0.894 0.928 0.960 0.990 1.017 1.042 1.065 1.086 1.104 1.121 1.136 1.149 1.161 1.171 1.179 1.186 1.192 1.197 1.201 1.204 1.207 1.209 1.211 1.213 1.214 1.215 1.216 1.217 1.217 1.218 1.218 1.218 1.217 1.216 1.214 1.212 1.208 1.203 1.197 1.189 1.180 1.169 1.156 1.141 1.123 1.104 1.082 1.059 1.034 1.009 0.983 0.955 0.927 0.896 0.864 0.836 0.809 0.786 0.766 0.749 0.734 0.723 0.713 0.706 0.701 0.698 0.695 0.694 0.693 0.692 0.692 0.692 0.693 0.695 0.697 0.701 0.706 0.713 0.721 0.732 0.745 0.760 0.777 0.796 0.818 0.841 0.867 0.895 0.924 0.949 0.973 0.993 1.010 1.025 1.037 1.047 1.055 1.061 1.065 1.068 1.070 1.071 1.072 1.072 1.072 1.072 1.071 1.070 1.067 1.064 1.059 1.053 1.045 1.036 1.026 1.014 1.002 0.988 0.974 0.960 0.948 0.939 0.937 0.947 0.988 1.042 1.042 0.000 
0.000 0.546 0.546 0.558 0.553 0.541 0.522 0.499 0.482 0.470 0.463 0.458 0.456 0.455 0.454 0.454 0.455 0.456 0.459 0.462 0.468 0.474 0.482 0.491 0.502 0.515 0.529 0.544 0.562 0.580 0.601 0.623 0.647 0.673 0.701 0.731 0.762 0.796 0.831 0.868 0.905 0.940 0.973 1.003 1.032 1.058 1.081 1.103 1.122 1.140 1.155 1.169 1.181 1.191 1.200 1.208 1.214 1.220 1.224 1.227 1.230 1.233 1.235 1.236 1.237 1.238 1.239 1.239 1.240 1.240 1.240 1.239 1.238 1.237 1.235 1.232 1.228 1.222 1.216 1.207 1.198 1.186 1.172 1.157 1.139 1.118 1.096 1.071 1.044 1.016 0.988 0.958 0.927 0.896 0.865 0.836 0.810 0.787 0.767 0.750 0.735 0.723 0.713 0.705 0.700 0.695 0.692 0.690 0.689 0.688 0.688 0.688 0.688 0.689 0.690 0.693 0.697 0.702 0.710 0.720 0.732 0.745 0.762 0.780 0.801 0.824 0.849 0.877 0.906 0.934 0.959 0.981 1.000 1.016 1.030 1.041 1.050 1.057 1.062 1.065 1.068 1.069 1.070 1.070 1.070 1.070 1.070 1.068 1.066 1.063 1.059 1.053 1.045 1.036 1.026 1.014 1.001 0.987 0.971 0.954 0.934 0.911 0.889 0.874 0.913 1.069 1.069 0.000 
0.000 0.520 0.520 0.533 0.530 0.523 0.511 0.495 0.480 0.469 0.463 0.459 0.457 0.457 0.457 0.457 0.459 0.461 0.465 0.469 0.475 0.482 0.491 0.500 0.512 0.524 0.538 0.554 0.571 0.589 0.610 0.632 0.655 0.681 0.709 0.738 0.770 0.804 0.839 0.877 0.915 0.951 0.984 1.016 1.045 1.071 1.096 1.118 1.138 1.156 1.172 1.187 1.199 1.210 1.219 1.228 1.234 1.240 1.245 1.248 1.251 1.254 1.256 1.257 1.258 1.259 1.260 1.260 1.260 1.260 1.260 1.259 1.258 1.256 1.254 1.250 1.246 1.240 1.233 1.224 1.214 1.202 1.188 1.172 1.153 1.132 1.109 1.084 1.056 1.026 0.994 0.962 0.929 0.896 0.866 0.837 0.812 0.789 0.768 0.750 0.735 0.722 0.712 0.704 0.697 0.692 0.689 0.686 0.684 0.683 0.682 0.682 0.682 0.682 0.683 0.685 0.688 0.693 0.700 0.709 0.720 0.732 0.748 0.765 0.785 0.808 0.833 0.860 0.890 0.919 0.945 0.968 0.989 1.007 1.022 1.034 1.044 1.052 1.058 1.062 1.065 1.067 1.068 1.068 1.068 1.068 1.068 1.067 1.065 1.062 1.058 1.052 1.045 1.036 1.026 1.014 1.001 0.986 0.969 0.950 0.928 0.899 0.856 0.782 0.684 0.679 0.679 0.000 
0.000 0.495 0.495 0.507 0.506 0.502 0.496 0.486 0.475 0.467 0.462 0.459 0.458 0.458 0.458 0.460 0.462 0.465 0.470 0.475 0.482 0.489 0.498 0.508 0.520 0.532 0.546 0.562 0.579 0.597 0.617 0.639 0.662 0.688 0.715 0.745 0.777 0.810 0.846 0.884 0.923 0.959 0.994 1.026 1.056 1.083 1.108 1.131 1.152 1.171 1.188 1.203 1.216 1.227 1.237 1.245 1.252 1.258 1.263 1.267 1.271 1.273 1.275 1.276 1.277 1.278 1.278 1.279 1.279 1.278 1.278 1.277 1.276 1.274 1.271 1.268 1.263 1.257 1.249 1.240 1.230 1.217 1.202 1.186 1.167 1.145 1.122 1.096 1.067 1.035 1.002 0.967 0.932 0.898 0.868 0.839 0.813 0.790 0.769 0.751 0.735 0.722 0.711 0.702 0.694 0.689 0.684 0.681 0.678 0.677 0.676 0.676 0.676 0.676 0.676 0.678 0.681 0.685 0.691 0.699 0.709 0.721 0.735 0.752 0.771 0.793 0.818 0.845 0.875 0.905 0.932 0.957 0.979 0.998 1.014 1.028 1.039 1.047 1.054 1.059 1.062 1.064 1.066 1.066 1.066 1.066 1.066 1.065 1.063 1.061 1.057 1.052 1.045 1.036 1.026 1.014 1.000 0.985 0.968 0.949 0.927 0.897 0.850 0.761 0.559 0.134 0.134 0.000 
0.000 0.469 0.469 0.481 0.481 0.480 0.477 0.473 0.467 0.462 0.459 0.458 0.458 0.458 0.460 0.462 0.465 0.469 0.475 0.481 0.488 0.496 0.505 0.515 0.527 0.539 0.553 0.568 0.585 0.603 0.623 0.645 0.668 0.694 0.721 0.751 0.782 0.816 0.852 0.890 0.929 0.967 1.002 1.035 1.066 1.094 1.120 1.143 1.165 1.184 1.201 1.217 1.230 1.242 1.253 1.261 1.269 1.275 1.280 1.284 1.288 1.290 1.292 1.294 1.295 1.295 1.295 1.295 1.295 1.295 1.295 1.294 1.292 1.290 1.287 1.283 1.278 1.272 1.264 1.255 1.244 1.231 1.216 1.199 1.180 1.158 1.134 1.107 1.078 1.045 1.010 0.973 0.936 0.902 0.871 0.842 0.816 0.792 0.770 0.752 0.735 0.721 0.709 0.699 0.691 0.684 0.679 0.675 0.673 0.671 0.670 0.670 0.670 0.670 0.670 0.672 0.674 0.678 0.683 0.690 0.700 0.711 0.725 0.741 0.759 0.780 0.804 0.831 0.861 0.892 0.920 0.946 0.969 0.989 1.006 1.021 1.033 1.042 1.049 1.055 1.059 1.061 1.063 1.064 1.064 1.064 1.064 1.063 1.061 1.059 1.055 1.050 1.043 1.035 1.025 1.013 0.999 0.984 0.967 0.950 0.929 0.902 0.860 0.788 0.646 0.435 0.435 0.000 
0.000 0.443 0.443 0.456 0.456 0.456 0.457 0.456 0.455 0.454 0.454 0.455 0.456 0.458 0.460 0.464 0.468 0.473 0.479 0.485 0.493 0.501 0.511 0.521 0.532 0.545 0.559 0.574 0.591 0.609 0.628 0.650 0.673 0.698 0.726 0.755 0.787 0.820 0.856 0.894 0.934 0.973 1.009 1.043 1.074 1.103 1.130 1.154 1.176 1.196 1.214 1.230 1.244 1.256 1.267 1.276 1.284 1.290 1.295 1.300 1.303 1.306 1.308 1.309 1.310 1.311 1.311 1.311 1.311 1.311 1.310 1.309 1.308 1.305 1.302 1.298 1.293 1.286 1.278 1.269 1.257 1.244 1.229 1.212 1.192 1.170 1.145 1.118 1.088 1.055 1.019 0.981 0.942 0.907 0.875 0.845 0.818 0.794 0.772 0.753 0.735 0.720 0.707 0.696 0.687 0.680 0.675 0.670 0.667 0.666 0.665 0.664 0.664 0.664 0.665 0.666 0.668 0.671 0.676 0.683 0.691 0.702 0.715 0.730 0.748 0.769 0.792 0.819 0.848 0.879 0.909 0.936 0.959 0.980 0.998 1.014 1.026 1.037 1.045 1.051 1.055 1.058 1.060 1.061 1.061 1.061 1.061 1.060 1.059 1.057 1.053 1.048 1.042 1.033 1.023 1.011 0.997 0.982 0.967 0.952 0.937 0.920 0.903 0.889 0.909 1.014 1.014 0.000 
0.000 0.417 0.417 0.430 0.431 0.433 0.435 0.437 0.440 0.443 0.447 0.450 0.453 0.457 0.461 0.465 0.470 0.476 0.482 0.489 0.497 0.506 0.515 0.526 0.537 0.550 0.564 0.578 0.595 0.613 0.632 0.654 0.677 0.702 0.730 0.759 0.790 0.824 0.860 0.898 0.938 0.978 1.015 1.049 1.081 1.111 1.138 1.163 1.186 1.206 1.225 1.241 1.255 1.268 1.279 1.289 1.297 1.304 1.309 1.314 1.317 1.320 1.322 1.323 1.324 1.325 1.325 1.325 1.325 1.324 1.324 1.323 1.321 1.319 1.316 1.311 1.306 1.299 1.291 1.281 1.270 1.257 1.241 1.224 1.204 1.182 1.157 1.129 1.099 1.065 1.029 0.989 0.950 0.913 0.880 0.849 0.822 0.796 0.774 0.754 0.736 0.720 0.706 0.694 0.685 0.677 0.671 0.666 0.663 0.661 0.660 0.659 0.659 0.659 0.660 0.661 0.663 0.666 0.670 0.676 0.684 0.694 0.707 0.721 0.739 0.759 0.782 0.807 0.836 0.868 0.899 0.926 0.951 0.972 0.991 1.007 1.020 1.031 1.040 1.046 1.051 1.054 1.056 1.057 1.058 1.058 1.058 1.057 1.056 1.054 1.051 1.046 1.039 1.031 1.020 1.007 0.993 0.979 0.967 0.958 0.951 0.948 0.952 0.973 1.037 1.132 1.132 0.000 
0.000 0.391 0.391 0.405 0.407 0.410 0.414 0.419 0.425 0.432 0.438 0.444 0.450 0.455 0.460 0.466 0.472 0.478 0.485 0.493 0.501 0.510 0.519 0.530 0.541 0.554 0.567 0.582 0.598 0.616 0.636 0.657 0.680 0.705 0.733 0.762 0.793 0.827 0.863 0.901 0.942 0.982 1.019 1.054 1.087 1.117 1.145 1.171 1.194 1.215 1.234 1.251 1.266 1.279 1.290 1.300 1.309 1.316 1.321 1.326 1.330 1.332 1.334 1.336 1.337 1.337 1.337 1.337 1.337 1.337 1.336 1.335 1.334 1.331 1.328 1.324 1.318 1.311 1.303 1.293 1.282 1.268 1.253 1.235 1.215 1.193 1.168 1.140 1.109 1.076 1.039 0.999 0.958 0.920 0.886 0.854 0.825 0.799 0.776 0.755 0.736 0.720 0.705 0.693 0.683 0.675 0.668 0.663 0.660 0.657 0.656 0.655 0.655 0.655 0.655 0.656 0.658 0.661 0.665 0.670 0.678 0.687 0.699 0.713 0.730 0.750 0.772 0.797 0.826 0.857 0.889 0.917 0.943 0.965 0.984 1.001 1.014 1.025 1.034 1.041 1.047 1.050 1.052 1.054 1.054 1.054 1.054 1.054 1.053 1.050 1.047 1.042 1.036 1.027 1.016 1.002 0.988 0.975 0.966 0.961 0.960 0.963 0.975 1.006 1.066 1.116 1.116 0.000 
0.000 0.365 0.365 0.379 0.384 0.389 0.395 0.403 0.413 0.423 0.432 0.439 0.447 0.453 0.460 0.466 0.473 0.480 0.487 0.495 0.504 0.513 0.522 0.533 0.544 0.556 0.570 0.585 0.601 0.619 0.638 0.660 0.683 0.708 0.735 0.764 0.796 0.829 0.865 0.904 0.944 0.985 1.023 1.059 1.092 1.123 1.151 1.178 1.201 1.223 1.242 1.260 1.275 1.288 1.300 1.310 1.319 1.326 1.332 1.337 1.341 1.344 1.346 1.347 1.348 1.348 1.349 1.349 1.349 1.348 1.348 1.347 1.345 1.342 1.339 1.335 1.329 1.322 1.314 1.304 1.293 1.279 1.264 1.246 1.226 1.203 1.178 1.150 1.120 1.086 1.049 1.009 0.967 0.928 0.892 0.860 0.830 0.803 0.778 0.756 0.737 0.720 0.705 0.692 0.682 0.673 0.666 0.661 0.657 0.654 0.653 0.652 0.652 0.652 0.652 0.653 0.654 0.657 0.660 0.666 0.673 0.682 0.693 0.707 0.723 0.742 0.764 0.789 0.817 0.848 0.880 0.909 0.935 0.958 0.978 0.995 1.009 1.020 1.029 1.037 1.042 1.046 1.048 1.049 1.050 1.050 1.050 1.050 1.049 1.046 1.043 1.038 1.031 1.022 1.011 0.996 0.981 0.971 0.964 0.961 0.962 0.967 0.982 1.016 1.071 1.107 1.107 0.000 
0.000 0.339 0.339 0.354 0.361 0.369 0.379 0.391 0.405 0.417 0.427 0.436 0.445 0.452 0.460 0.467 0.474 0.482 0.489 0.497 0.506 0.515 0.525 0.535 0.546 0.558 0.572 0.587 0.603 0.621 0.640 0.661 0.685 0.710 0.737 0.766 0.797 0.831 0.867 0.905 0.946 0.987 1.026 1.062 1.096 1.128 1.157 1.183 1.208 1.230 1.249 1.267 1.283 1.297 1.309 1.319 1.328 1.336 1.342 1.347 1.351 1.354 1.356 1.357 1.358 1.359 1.359 1.359 1.359 1.358 1.358 1.357 1.355 1.353 1.349 1.345 1.339 1.333 1.324 1.314 1.303 1.289 1.274 1.256 1.236 1.213 1.188 1.161 1.130 1.096 1.059 1.019 0.977 0.937 0.899 0.865 0.834 0.806 0.781 0.758 0.738 0.721 0.705 0.692 0.681 0.672 0.664 0.659 0.655 0.652 0.650 0.649 0.649 0.649 0.649 0.650 0.651 0.653 0.656 0.661 0.668 0.677 0.687 0.701 0.716 0.735 0.756 0.781 0.809 0.840 0.872 0.902 0.929 0.952 0.972 0.990 1.004 1.016 1.025 1.032 1.037 1.041 1.043 1.045 1.045 1.046 1.045 1.045 1.044 1.042 1.038 1.033 1.026 1.016 1.004 0.988 0.974 0.965 0.960 0.959 0.960 0.966 0.982 1.017 1.069 1.099 1.099 0.000 
0.000 0.314 0.314 0.329 0.339 0.351 0.366 0.383 0.399 0.413 0.425 0.435 0.444 0.452 0.460 0.467 0.475 0.483 0.491 0.499 0.508 0.517 0.526 0.536 0.548 0.560 0.573 0.588 0.604 0.622 0.641 0.663 0.686 0.711 0.738 0.767 0.799 0.832 0.868 0.906 0.947 0.989 1.028 1.065 1.099 1.131 1.161 1.188 1.213 1.235 1.255 1.274 1.290 1.304 1.316 1.327 1.336 1.344 1.350 1.355 1.359 1.362 1.365 1.366 1.367 1.368 1.368 1.368 1.368 1.368 1.367 1.366 1.364 1.362 1.359 1.354 1.349 1.342 1.334 1.324 1.312 1.299 1.283 1.266 1.246 1.223 1.198 1.170 1.140 1.106 1.070 1.030 0.987 0.945 0.907 0.872 0.839 0.810 0.784 0.760 0.740 0.721 0.706 0.692 0.680 0.671 0.663 0.657 0.653 0.650 0.648 0.647 0.646 0.646 0.647 0.647 0.648 0.650 0.653 0.658 0.664 0.673 0.683 0.696 0.711 0.729 0.750 0.774 0.802 0.832 0.865 0.896 0.923 0.947 0.967 0.985 0.999 1.011 1.021 1.028 1.033 1.037 1.039 1.041 1.041 1.041 1.041 1.040 1.039 1.037 1.033 1.027 1.020 1.009 0.997 0.981 0.967 0.957 0.952 0.951 0.952 0.958 0.975 1.009 1.063 1.095 1.095 0.000 
0.000 0.288 0.288 0.305 0.318 0.335 0.356 0.378 0.396 0.411 0.424 0.434 0.443 0.452 0.460 0.468 0.476 0.484 0.492 0.500 0.509 0.518 0.527 0.537 0.548 0.561 0.574 0.589 0.605 0.623 0.642 0.664 0.687 0.712 0.739 0.768 0.799 0.833 0.869 0.907 0.948 0.990 1.029 1.067 1.102 1.134 1.164 1.192 1.217 1.240 1.260 1.279 1.296 1.310 1.323 1.334 1.343 1.351 1.358 1.363 1.367 1.370 1.373 1.374 1.375 1.376 1.376 1.376 1.376 1.376 1.375 1.374 1.373 1.370 1.367 1.363 1.357 1.351 1.342 1.333 1.321 1.308 1.292 1.275 1.255 1.233 1.208 1.180 1.150 1.116 1.080 1.040 0.998 0.955 0.915 0.878 0.845 0.814 0.787 0.763 0.741 0.722 0.706 0.692 0.680 0.670 0.662 0.656 0.652 0.648 0.646 0.645 0.645 0.645 0.645 0.645 0.646 0.648 0.651 0.655 0.661 0.669 0.679 0.691 0.706 0.724 0.745 0.768 0.795 0.826 0.858 0.890 0.917 0.942 0.963 0.981 0.995 1.008 1.017 1.024 1.030 1.033 1.036 1.037 1.037 1.037 1.037 1.036 1.035 1.032 1.028 1.021 1.013 1.002 0.989 0.973 0.958 0.946 0.939 0.934 0.934 0.938 0.952 0.986 1.047 1.092 1.092 0.000 
0.000 0.262 0.262 0.280 0.298 0.322 0.351 0.376 0.395 0.411 0.423 0.434 0.443 0.452 0.460 0.468 0.476 0.485 0.493 0.501 0.509 0.518 0.528 0.538 0.549 0.561 0.575 0.589 0.606 0.623 0.643 0.664 0.687 0.712 0.739 0.768 0.800 0.833 0.869 0.907 0.948 0.990 1.030 1.068 1.104 1.136 1.167 1.195 1.220 1.244 1.265 1.284 1.300 1.315 1.328 1.340 1.349 1.357 1.364 1.370 1.374 1.377 1.380 1.381 1.382 1.383 1.383 1.383 1.383 1.383 1.382 1.382 1.380 1.378 1.375 1.370 1.365 1.358 1.350 1.341 1.329 1.316 1.301 1.283 1.264 1.241 1.217 1.189 1.159 1.126 1.090 1.051 1.008 0.964 0.923 0.885 0.851 0.819 0.791 0.765 0.743 0.724 0.707 0.692 0.680 0.670 0.662 0.656 0.651 0.647 0.645 0.644 0.643 0.643 0.643 0.644 0.644 0.646 0.649 0.653 0.659 0.666 0.676 0.688 0.703 0.720 0.740 0.763 0.790 0.820 0.853 0.884 0.912 0.937 0.959 0.977 0.992 1.004 1.014 1.021 1.027 1.030 1.033 1.034 1.034 1.034 1.034 1.033 1.031 1.028 1.023 1.017 1.007 0.996 0.982 0.965 0.948 0.932 0.918 0.907 0.900 0.897 0.905 0.933 1.007 1.090 1.090 0.000 
0.000 0.236 0.236 0.256 0.280 0.315 0.349 0.376 0.395 0.411 0.424 0.434 0.444 0.453 0.461 0.469 0.477 0.485 0.493 0.501 0.510 0.518 0.528 0.538 0.549 0.561 0.575 0.590 0.606 0.624 0.643 0.664 0.688 0.713 0.740 0.769 0.800 0.834 0.869 0.908 0.948 0.990 1.031 1.069 1.105 1.138 1.169 1.197 1.223 1.247 1.268 1.287 1.304 1.320 1.333 1.344 1.354 1.363 1.370 1.375 1.380 1.383 1.386 1.388 1.389 1.389 1.390 1.390 1.390 1.389 1.389 1.388 1.387 1.384 1.381 1.377 1.372 1.366 1.358 1.348 1.337 1.324 1.309 1.291 1.272 1.250 1.226 1.198 1.168 1.136 1.100 1.061 1.018 0.974 0.931 0.892 0.857 0.824 0.795 0.769 0.745 0.725 0.708 0.693 0.681 0.670 0.662 0.655 0.650 0.647 0.644 0.643 0.642 0.642 0.642 0.642 0.643 0.645 0.647 0.651 0.657 0.664 0.673 0.685 0.699 0.716 0.736 0.759 0.785 0.815 0.848 0.880 0.908 0.933 0.955 0.974 0.989 1.001 1.011 1.019 1.024 1.028 1.030 1.031 1.032 1.032 1.031 1.030 1.028 1.025 1.020 1.013 1.003 0.990 0.975 0.957 0.936 0.914 0.892 0.870 0.848 0.829 0.818 0.827 0.891 1.087 1.087 0.000 
0.000 0.210 0.210 0.232 0.266 0.313 0.350 0.377 0.397 0.413 0.425 0.436 0.445 0.454 0.462 0.470 0.478 0.486 0.494 0.502 0.510 0.518 0.528 0.538 0.549 0.561 0.575 0.590 0.606 0.624 0.643 0.665 0.688 0.713 0.740 0.769 0.800 0.834 0.869 0.908 0.948 0.991 1.031 1.070 1.106 1.139 1.170 1.199 1.225 1.249 1.271 1.290 1.308 1.323 1.337 1.349 1.359 1.367 1.374 1.380 1.385 1.388 1.391 1.393 1.394 1.395 1.395 1.395 1.395 1.395 1.395 1.394 1.392 1.390 1.387 1.383 1.378 1.372 1.364 1.355 1.344 1.331 1.316 1.299 1.280 1.258 1.234 1.207 1.177 1.145 1.109 1.070 1.029 0.984 0.940 0.900 0.863 0.829 0.799 0.772 0.748 0.727 0.709 0.694 0.681 0.671 0.662 0.655 0.650 0.647 0.644 0.643 0.642 0.642 0.642 0.642 0.642 0.644 0.646 0.650 0.655 0.662 0.672 0.683 0.697 0.713 0.733 0.756 0.781 0.811 0.843 0.876 0.905 0.930 0.952 0.971 0.986 0.999 1.009 1.017 1.022 1.026 1.028 1.029 1.030 1.030 1.029 1.028 1.026 1.023 1.017 1.009 0.999 0.986 0.969 0.949 0.925 0.897 0.867 0.832 0.793 0.748 0.694 0.637 0.583 0.612 0.612 0.000 
0.000 0.184 0.184 0.210 0.262 0.316 0.354 0.381 0.401 0.416 0.429 0.439 0.448 0.456 0.464 0.471 0.479 0.486 0.494 0.501 0.510 0.518 0.528 0.538 0.549 0.561 0.575 0.590 0.606 0.624 0.643 0.665 0.688 0.713 0.740 0.769 0.800 0.834 0.869 0.908 0.948 0.990 1.031 1.070 1.106 1.140 1.171 1.200 1.227 1.251 1.273 1.293 1.310 1.326 1.340 1.352 1.362 1.371 1.378 1.385 1.389 1.393 1.396 1.398 1.399 1.400 1.400 1.400 1.400 1.400 1.400 1.399 1.398 1.396 1.393 1.389 1.384 1.378 1.370 1.361 1.350 1.338 1.323 1.306 1.287 1.266 1.242 1.216 1.186 1.154 1.119 1.080 1.039 0.994 0.949 0.907 0.869 0.835 0.804 0.776 0.751 0.730 0.711 0.695 0.682 0.671 0.662 0.655 0.650 0.646 0.644 0.642 0.641 0.641 0.641 0.641 0.642 0.643 0.646 0.649 0.654 0.661 0.670 0.681 0.695 0.711 0.730 0.753 0.778 0.807 0.839 0.872 0.901 0.927 0.949 0.968 0.984 0.997 1.007 1.015 1.021 1.024 1.027 1.028 1.028 1.028 1.028 1.027 1.025 1.021 1.015 1.007 0.996 0.982 0.964 0.942 0.916 0.885 0.848 0.805 0.754 0.692 0.610 0.491 0.287 0.063 0.063 0.000 
0.000 0.193 0.193 0.206 0.271 0.328 0.365 0.391 0.410 0.424 0.435 0.444 0.452 0.459 0.466 0.473 0.480 0.487 0.494 0.501 0.509 0.518 0.527 0.538 0.549 0.561 0.575 0.590 0.606 0.624 0.643 0.665 0.688 0.713 0.740 0.769 0.800 0.833 0.869 0.907 0.948 0.990 1.031 1.070 1.106 1.140 1.172 1.201 1.228 1.252 1.274 1.294 1.312 1.328 1.343 1.355 1.365 1.374 1.382 1.388 1.393 1.397 1.400 1.402 1.403 1.404 1.405 1.405 1.405 1.405 1.404 1.404 1.402 1.400 1.398 1.394 1.389 1.383 1.376 1.367 1.356 1.344 1.330 1.313 1.295 1.274 1.250 1.224 1.195 1.163 1.128 1.090 1.048 1.004 0.958 0.916 0.876 0.841 0.809 0.780 0.754 0.732 0.713 0.697 0.683 0.672 0.663 0.656 0.650 0.646 0.644 0.642 0.641 0.641 0.641 0.641 0.642 0.643 0.645 0.649 0.654 0.660 0.669 0.680 0.693 0.709 0.728 0.750 0.775 0.804 0.836 0.869 0.899 0.925 0.947 0.966 0.983 0.996 1.006 1.014 1.019 1.023 1.026 1.027 1.027 1.027 1.027 1.026 1.024 1.020 1.014 1.006 0.995 0.980 0.961 0.938 0.910 0.876 0.835 0.786 0.728 0.659 0.572 0.448 0.220 0.000 0.000 0.000 
0.000 0.306 0.306 0.251 0.302 0.355 0.388 0.410 0.425 0.436 0.444 0.451 0.458 0.464 0.469 0.475 0.481 0.487 0.493 0.501 0.509 0.517 0.527 0.537 0.549 0.561 0.575 0.589 0.606 0.624 0.643 0.664 0.687 0.712 0.739 0.768 0.800 0.833 0.869 0.907 0.948 0.990 1.031 1.070 1.106 1.140 1.172 1.201 1.228 1.253 1.275 1.296 1.314 1.330 1.344 1.357 1.368 1.377 1.385 1.391 1.396 1.400 1.403 1.405 1.407 1.408 1.408 1.409 1.409 1.408 1.408 1.407 1.406 1.404 1.402 1.398 1.394 1.388 1.381 1.372 1.362 1.350 1.336 1.320 1.301 1.281 1.258 1.232 1.203 1.172 1.137 1.099 1.058 1.014 0.968 0.924 0.884 0.847 0.814 0.784 0.758 0.735 0.715 0.698 0.684 0.673 0.663 0.656 0.650 0.647 0.644 0.642 0.641 0.641 0.641 0.641 0.642 0.643 0.645 0.648 0.653 0.660 0.668 0.679 0.692 0.708 0.727 0.748 0.773 0.802 0.833 0.866 0.896 0.923 0.945 0.965 0.981 0.994 1.005 1.013 1.019 1.022 1.025 1.026 1.026 1.026 1.026 1.025 1.023 1.019 1.013 1.005 0.994 0.979 0.960 0.936 0.907 0.871 0.827 0.774 0.711 0.639 0.561 0.460 0.281 0.000 0.000 0.000 
0.000 0.436 0.436 0.368 0.379 0.408 0.428 0.440 0.448 0.454 0.458 0.462 0.465 0.469 0.472 0.477 0.481 0.487 0.493 0.500 0.508 0.516 0.526 0.536 0.548 0.560 0.574 0.589 0.605 0.623 0.643 0.664 0.687 0.712 0.739 0.768 0.799 0.833 0.868 0.907 0.947 0.990 1.031 1.070 1.106 1.140 1.172 1.201 1.228 1.253 1.276 1.297 1.315 1.331 1.346 1.359 1.370 1.379 1.387 1.394 1.399 1.403 1.406 1.408 1.410 1.411 1.412 1.412 1.412 1.412 1.412 1.411 1.410 1.408 1.406 1.402 1.398 1.392 1.385 1.377 1.367 1.355 1.341 1.326 1.308 1.288 1.265 1.239 1.211 1.180 1.146 1.109 1.068 1.024 0.977 0.933 0.891 0.854 0.820 0.789 0.762 0.739 0.718 0.701 0.686 0.674 0.664 0.657 0.651 0.647 0.644 0.642 0.641 0.641 0.641 0.641 0.642 0.643 0.645 0.648 0.653 0.660 0.668 0.678 0.691 0.707 0.725 0.747 0.772 0.800 0.831 0.864 0.894 0.921 0.944 0.964 0.980 0.993 1.004 1.012 1.018 1.022 1.024 1.026 1.026 1.026 1.026 1.025 1.023 1.019 1.013 1.005 0.993 0.978 0.959 0.935 0.905 0.869 0.824 0.769 0.701 0.625 0.567 0.532 0.525 0.492 0.492 0.000 
0.000 0.611 0.611 0.515 0.504 0.494 0.486 0.479 0.474 0.471 0.470 0.470 0.471 0.472 0.475 0.478 0.481 0.486 0.492 0.499 0.506 0.515 0.525 0.535 0.547 0.559 0.573 0.588 0.605 0.622 0.642 0.663 0.686 0.711 0.738 0.767 0.798 0.832 0.868 0.906 0.946 0.989 1.030 1.069 1.106 1.140 1.172 1.201 1.229 1.254 1.276 1.297 1.316 1.332 1.347 1.360 1.371 1.381 1.389 1.395 1.401 1.405 1.409 1.411 1.413 1.414 1.414 1.415 1.415 1.415 1.414 1.414 1.413 1.411 1.409 1.406 1.401 1.396 1.389 1.381 1.372 1.360 1.347 1.331 1.314 1.294 1.272 1.247 1.219 1.188 1.155 1.118 1.078 1.034 0.987 0.942 0.900 0.861 0.826 0.795 0.767 0.743 0.721 0.703 0.688 0.676 0.665 0.658 0.652 0.647 0.644 0.642 0.641 0.641 0.641 0.641 0.642 0.643 0.645 0.648 0.653 0.659 0.668 0.678 0.691 0.706 0.724 0.746 0.770 0.798 0.829 0.862 0.893 0.919 0.943 0.963 0.979 0.993 1.004 1.012 1.018 1.022 1.024 1.026 1.026 1.026 1.026 1.025 1.022 1.019 1.013 1.005 0.993 0.978 0.959 0.935 0.905 0.868 0.823 0.767 0.698 0.621 0.569 0.559 0.633 1.033 1.033 0.000 
0.000 0.785 0.785 0.687 0.637 0.576 0.533 0.507 0.490 0.481 0.477 0.475 0.475 0.475 0.476 0.478 0.481 0.485 0.491 0.497 0.505 0.514 0.523 0.534 0.545 0.558 0.572 0.587 0.603 0.621 0.641 0.662 0.685 0.710 0.737 0.766 0.797 0.830 0.866 0.904 0.945 0.988 1.030 1.069 1.105 1.140 1.172 1.201 1.229 1.254 1.276 1.297 1.316 1.333 1.348 1.361 1.372 1.382 1.390 1.397 1.403 1.407 1.411 1.413 1.415 1.416 1.417 1.417 1.417 1.417 1.417 1.416 1.415 1.414 1.412 1.409 1.405 1.399 1.393 1.385 1.376 1.365 1.352 1.337 1.320 1.300 1.278 1.254 1.227 1.197 1.163 1.127 1.087 1.044 0.998 0.951 0.908 0.869 0.833 0.801 0.772 0.747 0.725 0.706 0.691 0.678 0.667 0.659 0.652 0.648 0.645 0.643 0.642 0.641 0.641 0.641 0.642 0.643 0.645 0.648 0.653 0.659 0.668 0.678 0.691 0.706 0.724 0.745 0.769 0.797 0.828 0.861 0.891 0.918 0.942 0.962 0.979 0.992 1.003 1.012 1.018 1.022 1.024 1.026 1.026 1.026 1.026 1.025 1.023 1.019 1.013 1.005 0.993 0.978 0.959 0.935 0.905 0.868 0.824 0.768 0.700 0.625 0.564 0.525 0.508 0.568 0.568 0.000 
0.000 0.955 0.955 0.846 0.719 0.618 0.556 0.520 0.498 0.486 0.480 0.477 0.476 0.476 0.477 0.478 0.481 0.485 0.490 0.496 0.503 0.512 0.521 0.532 0.544 0.556 0.570 0.585 0.602 0.620 0.639 0.660 0.683 0.708 0.735 0.764 0.795 0.829 0.864 0.903 0.943 0.986 1.028 1.068 1.105 1.139 1.171 1.201 1.228 1.254 1.277 1.297 1.316 1.333 1.348 1.361 1.373 1.383 1.391 1.398 1.404 1.409 1.412 1.415 1.417 1.418 1.419 1.419 1.419 1.419 1.419 1.418 1.418 1.416 1.414 1.411 1.407 1.402 1.396 1.389 1.380 1.369 1.356 1.342 1.325 1.306 1.285 1.261 1.234 1.204 1.172 1.136 1.097 1.055 1.009 0.961 0.917 0.877 0.840 0.807 0.778 0.752 0.729 0.710 0.694 0.680 0.669 0.660 0.654 0.649 0.646 0.644 0.642 0.642 0.642 0.642 0.642 0.643 0.645 0.649 0.653 0.659 0.668 0.678 0.690 0.706 0.724 0.744 0.768 0.796 0.826 0.860 0.890 0.917 0.941 0.961 0.978 0.992 1.003 1.011 1.018 1.022 1.024 1.026 1.026 1.026 1.026 1.025 1.023 1.019 1.013 1.005 0.994 0.979 0.960 0.936 0.907 0.871 0.827 0.773 0.710 0.637 0.557 0.454 0.268 0.026 0.026 0.000 
0.000 1.004 1.004 0.925 0.745 0.629 0.562 0.523 0.500 0.487 0.481 0.478 0.477 0.476 0.477 0.478 0.481 0.484 0.489 0.495 0.502 0.510 0.519 0.530 0.541 0.554 0.568 0.583 0.599 0.617 0.637 0.658 0.681 0.706 0.732 0.761 0.793 0.826 0.862 0.900 0.941 0.984 1.027 1.066 1.104 1.139 1.171 1.201 1.228 1.253 1.276 1.297 1.316 1.333 1.348 1.362 1.373 1.383 1.392 1.399 1.405 1.410 1.413 1.416 1.418 1.419 1.420 1.420 1.421 1.421 1.421 1.420 1.419 1.418 1.416 1.413 1.410 1.405 1.399 1.392 1.383 1.373 1.360 1.346 1.330 1.311 1.291 1.267 1.241 1.212 1.180 1.145 1.107 1.065 1.019 0.972 0.926 0.885 0.848 0.814 0.784 0.757 0.734 0.714 0.697 0.683 0.672 0.662 0.656 0.650 0.647 0.645 0.643 0.643 0.643 0.643 0.643 0.644 0.646 0.649 0.654 0.660 0.668 0.678 0.690 0.706 0.723 0.744 0.768 0.795 0.825 0.859 0.889 0.916 0.940 0.961 0.978 0.992 1.003 1.011 1.018 1.022 1.024 1.026 1.026 1.026 1.026 1.025 1.023 1.019 1.014 1.006 0.995 0.980 0.962 0.939 0.910 0.875 0.834 0.784 0.725 0.655 0.567 0.443 0.217 0.000 0.000 0.000 
0.000 0.785 0.785 0.875 0.738 0.624 0.559 0.521 0.499 0.487 0.480 0.477 0.476 0.476 0.477 0.478 0.480 0.484 0.488 0.494 0.500 0.508 0.517 0.527 0.539 0.551 0.565 0.580 0.597 0.614 0.634 0.655 0.678 0.703 0.729 0.758 0.790 0.823 0.859 0.897 0.938 0.982 1.024 1.065 1.102 1.137 1.170 1.200 1.228 1.253 1.276 1.297 1.316 1.333 1.348 1.362 1.374 1.384 1.392 1.400 1.406 1.410 1.414 1.417 1.419 1.420 1.421 1.422 1.422 1.422 1.422 1.422 1.421 1.420 1.418 1.415 1.412 1.407 1.402 1.395 1.386 1.376 1.364 1.350 1.335 1.317 1.296 1.273 1.248 1.219 1.188 1.154 1.116 1.075 1.030 0.982 0.936 0.894 0.856 0.821 0.790 0.763 0.739 0.718 0.701 0.686 0.674 0.665 0.658 0.652 0.648 0.646 0.645 0.644 0.644 0.644 0.644 0.645 0.647 0.650 0.654 0.660 0.668 0.678 0.691 0.706 0.723 0.744 0.768 0.794 0.825 0.858 0.889 0.916 0.940 0.960 0.978 0.992 1.003 1.012 1.018 1.022 1.025 1.026 1.027 1.027 1.027 1.026 1.024 1.020 1.015 1.007 0.997 0.983 0.965 0.943 0.916 0.884 0.846 0.801 0.749 0.685 0.604 0.488 0.289 0.000 0.000 0.000 
0.000 0.571 0.571 0.682 0.659 0.593 0.541 0.511 0.493 0.483 0.478 0.476 0.475 0.475 0.476 0.477 0.480 0.483 0.487 0.493 0.499 0.506 0.515 0.525 0.536 0.548 0.562 0.577 0.593 0.611 0.630 0.651 0.674 0.699 0.726 0.754 0.786 0.819 0.855 0.894 0.935 0.978 1.022 1.062 1.100 1.136 1.169 1.199 1.227 1.253 1.276 1.297 1.316 1.333 1.348 1.362 1.374 1.384 1.393 1.400 1.406 1.411 1.415 1.418 1.420 1.421 1.422 1.423 1.423 1.423 1.423 1.423 1.422 1.421 1.419 1.417 1.414 1.409 1.404 1.397 1.389 1.379 1.368 1.354 1.339 1.321 1.301 1.279 1.254 1.227 1.196 1.162 1.125 1.085 1.041 0.994 0.947 0.904 0.864 0.829 0.797 0.769 0.745 0.723 0.705 0.690 0.678 0.668 0.660 0.655 0.650 0.648 0.646 0.645 0.645 0.645 0.645 0.646 0.648 0.651 0.655 0.661 0.669 0.679 0.691 0.706 0.723 0.744 0.767 0.794 0.824 0.857 0.888 0.915 0.939 0.960 0.977 0.992 1.003 1.012 1.018 1.023 1.026 1.027 1.028 1.028 1.028 1.027 1.025 1.022 1.017 1.010 1.000 0.987 0.970 0.950 0.925 0.896 0.863 0.825 0.783 0.737 0.686 0.635 0.579 0.520 0.520 0.000 
0.000 0.366 0.366 0.473 0.503 0.512 0.498 0.486 0.478 0.474 0.472 0.472 0.472 0.473 0.475 0.477 0.479 0.483 0.487 0.492 0.498 0.505 0.513 0.522 0.533 0.545 0.558 0.573 0.589 0.607 0.626 0.647 0.669 0.694 0.721 0.750 0.781 0.815 0.851 0.889 0.931 0.975 1.018 1.060 1.098 1.134 1.167 1.198 1.226 1.252 1.275 1.297 1.316 1.333 1.348 1.362 1.374 1.384 1.393 1.400 1.406 1.411 1.415 1.418 1.420 1.422 1.423 1.424 1.424 1.424 1.424 1.424 1.423 1.422 1.420 1.418 1.415 1.411 1.406 1.399 1.391 1.382 1.371 1.358 1.343 1.326 1.306 1.285 1.260 1.233 1.203 1.171 1.134 1.095 1.052 1.005 0.958 0.914 0.874 0.837 0.805 0.776 0.751 0.729 0.710 0.695 0.682 0.671 0.663 0.657 0.653 0.650 0.648 0.647 0.647 0.647 0.647 0.648 0.650 0.652 0.656 0.662 0.670 0.679 0.691 0.706 0.723 0.744 0.767 0.794 0.824 0.856 0.887 0.915 0.939 0.960 0.977 0.992 1.003 1.012 1.019 1.024 1.027 1.028 1.029 1.029 1.029 1.028 1.027 1.024 1.020 1.013 1.004 0.992 0.978 0.959 0.937 0.912 0.885 0.858 0.833 0.814 0.805 0.815 0.875 1.054 1.054 0.000 
0.000 0.213 0.213 0.304 0.372 0.413 0.435 0.447 0.455 0.459 0.463 0.465 0.468 0.470 0.473 0.476 0.479 0.482 0.486 0.491 0.496 0.503 0.510 0.519 0.529 0.541 0.554 0.568 0.584 0.601 0.621 0.641 0.664 0.689 0.715 0.744 0.775 0.809 0.845 0.884 0.926 0.970 1.014 1.056 1.095 1.131 1.165 1.196 1.225 1.251 1.275 1.296 1.315 1.333 1.348 1.362 1.374 1.384 1.393 1.400 1.406 1.411 1.415 1.419 1.421 1.422 1.423 1.424 1.424 1.424 1.424 1.424 1.424 1.423 1.421 1.419 1.416 1.412 1.407 1.401 1.393 1.384 1.373 1.361 1.346 1.330 1.311 1.290 1.266 1.240 1.211 1.178 1.143 1.105 1.063 1.017 0.969 0.924 0.883 0.846 0.813 0.783 0.757 0.735 0.716 0.700 0.686 0.676 0.667 0.661 0.656 0.653 0.651 0.650 0.650 0.650 0.650 0.650 0.652 0.654 0.658 0.664 0.671 0.680 0.692 0.707 0.724 0.744 0.767 0.794 0.823 0.856 0.887 0.915 0.939 0.960 0.977 0.992 1.004 1.013 1.020 1.025 1.028 1.030 1.031 1.031 1.031 1.031 1.029 1.027 1.023 1.018 1.010 1.000 0.987 0.971 0.952 0.932 0.914 0.900 0.891 0.887 0.892 0.915 0.979 1.054 1.054 0.000 
0.000 0.154 0.154 0.208 0.285 0.351 0.393 0.420 0.437 0.448 0.455 0.460 0.464 0.468 0.471 0.474 0.478 0.481 0.485 0.490 0.495 0.501 0.508 0.516 0.526 0.537 0.549 0.563 0.579 0.596 0.615 0.635 0.658 0.682 0.709 0.738 0.769 0.803 0.839 0.878 0.920 0.964 1.009 1.052 1.091 1.128 1.162 1.194 1.223 1.249 1.273 1.295 1.315 1.332 1.348 1.362 1.373 1.384 1.393 1.400 1.406 1.412 1.416 1.419 1.421 1.423 1.424 1.424 1.425 1.425 1.425 1.425 1.424 1.423 1.422 1.420 1.417 1.413 1.408 1.402 1.395 1.386 1.376 1.364 1.350 1.333 1.315 1.295 1.272 1.246 1.217 1.186 1.152 1.114 1.073 1.028 0.980 0.935 0.893 0.855 0.821 0.791 0.765 0.742 0.722 0.705 0.691 0.680 0.671 0.665 0.660 0.656 0.654 0.653 0.653 0.653 0.653 0.653 0.655 0.657 0.661 0.666 0.673 0.682 0.694 0.708 0.725 0.745 0.768 0.794 0.823 0.856 0.887 0.914 0.939 0.960 0.978 0.992 1.004 1.014 1.021 1.026 1.030 1.032 1.033 1.034 1.034 1.034 1.033 1.031 1.028 1.023 1.017 1.008 0.997 0.984 0.969 0.955 0.945 0.938 0.936 0.937 0.945 0.968 1.014 1.051 1.051 0.000 
0.000 0.096 0.096 0.148 0.236 0.321 0.373 0.407 0.428 0.442 0.451 0.457 0.462 0.466 0.470 0.473 0.477 0.480 0.484 0.489 0.493 0.499 0.506 0.513 0.522 0.532 0.544 0.558 0.573 0.589 0.608 0.628 0.650 0.675 0.701 0.730 0.761 0.795 0.832 0.871 0.913 0.958 1.004 1.047 1.087 1.125 1.159 1.191 1.221 1.247 1.272 1.294 1.314 1.331 1.347 1.361 1.373 1.384 1.393 1.400 1.406 1.412 1.416 1.419 1.421 1.423 1.424 1.425 1.425 1.425 1.425 1.425 1.424 1.424 1.422 1.420 1.418 1.414 1.410 1.404 1.397 1.388 1.378 1.366 1.353 1.337 1.319 1.299 1.277 1.252 1.224 1.193 1.160 1.123 1.083 1.039 0.992 0.946 0.904 0.865 0.831 0.800 0.773 0.749 0.729 0.711 0.697 0.685 0.676 0.669 0.664 0.660 0.658 0.657 0.656 0.656 0.656 0.657 0.658 0.660 0.663 0.668 0.675 0.684 0.695 0.709 0.726 0.745 0.768 0.794 0.823 0.855 0.887 0.914 0.939 0.960 0.978 0.993 1.005 1.015 1.023 1.028 1.032 1.035 1.037 1.037 1.037 1.037 1.037 1.036 1.034 1.030 1.025 1.018 1.009 0.998 0.986 0.977 0.970 0.968 0.967 0.970 0.978 0.996 1.028 1.048 1.048 0.000 
0.000 0.036 0.036 0.100 0.224 0.313 0.368 0.402 0.425 0.440 0.450 0.456 0.461 0.465 0.469 0.472 0.476 0.480 0.483 0.487 0.492 0.497 0.503 0.510 0.518 0.528 0.539 0.552 0.566 0.582 0.600 0.620 0.642 0.666 0.693 0.722 0.753 0.787 0.824 0.863 0.906 0.951 0.997 1.041 1.082 1.120 1.156 1.188 1.218 1.245 1.270 1.292 1.312 1.330 1.346 1.360 1.373 1.383 1.392 1.400 1.406 1.412 1.416 1.419 1.421 1.423 1.424 1.425 1.425 1.425 1.425 1.425 1.425 1.424 1.423 1.421 1.418 1.415 1.410 1.405 1.398 1.390 1.380 1.368 1.355 1.340 1.323 1.303 1.281 1.257 1.230 1.200 1.167 1.131 1.092 1.050 1.004 0.957 0.914 0.875 0.840 0.809 0.781 0.757 0.736 0.718 0.703 0.691 0.682 0.674 0.669 0.665 0.662 0.661 0.660 0.660 0.660 0.661 0.662 0.664 0.667 0.672 0.678 0.687 0.698 0.711 0.727 0.746 0.769 0.794 0.823 0.855 0.886 0.914 0.939 0.960 0.978 0.994 1.006 1.017 1.025 1.031 1.035 1.038 1.040 1.041 1.042 1.042 1.042 1.041 1.039 1.037 1.033 1.028 1.020 1.011 1.001 0.995 0.991 0.990 0.990 0.992 0.998 1.012 1.033 1.046 1.046 0.000 
0.000 0.134 0.134 0.118 0.240 0.317 0.368 0.402 0.424 0.439 0.449 0.456 0.461 0.465 0.469 0.472 0.475 0.479 0.482 0.486 0.490 0.495 0.500 0.507 0.514 0.523 0.533 0.545 0.559 0.575 0.592 0.611 0.633 0.657 0.683 0.712 0.743 0.777 0.814 0.854 0.897 0.943 0.990 1.035 1.077 1.116 1.151 1.184 1.215 1.242 1.268 1.290 1.311 1.329 1.345 1.360 1.372 1.383 1.392 1.400 1.406 1.411 1.416 1.419 1.421 1.423 1.424 1.425 1.425 1.425 1.425 1.425 1.425 1.424 1.423 1.421 1.419 1.415 1.411 1.406 1.399 1.391 1.381 1.370 1.357 1.343 1.326 1.307 1.285 1.262 1.235 1.206 1.174 1.139 1.101 1.060 1.015 0.969 0.925 0.886 0.850 0.818 0.790 0.765 0.744 0.725 0.710 0.698 0.688 0.680 0.674 0.670 0.668 0.666 0.665 0.665 0.665 0.665 0.666 0.668 0.671 0.676 0.682 0.690 0.701 0.714 0.729 0.748 0.770 0.795 0.823 0.855 0.886 0.914 0.939 0.960 0.979 0.995 1.008 1.019 1.027 1.034 1.039 1.042 1.044 1.045 1.046 1.046 1.046 1.046 1.045 1.043 1.040 1.035 1.029 1.022 1.014 1.009 1.006 1.005 1.006 1.007 1.012 1.021 1.035 1.043 1.043 0.000 
0.000 0.471 0.471 0.300 0.313 0.340 0.374 0.405 0.427 0.441 0.450 0.457 0.462 0.466 0.469 0.472 0.475 0.478 0.481 0.484 0.488 0.492 0.497 0.503 0.510 0.518 0.528 0.539 0.552 0.566 0.583 0.602 0.623 0.647 0.673 0.701 0.733 0.767 0.804 0.844 0.888 0.934 0.982 1.028 1.071 1.110 1.147 1.180 1.211 1.239 1.265 1.288 1.309 1.327 1.344 1.358 1.371 1.382 1.391 1.399 1.406 1.411 1.415 1.419 1.421 1.423 1.424 1.425 1.425 1.425 1.425 1.425 1.425 1.424 1.423 1.421 1.419 1.416 1.411 1.406 1.400 1.392 1.383 1.372 1.359 1.345 1.329 1.310 1.289 1.266 1.241 1.212 1.181 1.147 1.110 1.069 1.026 0.980 0.937 0.897 0.860 0.828 0.799 0.774 0.752 0.733 0.718 0.705 0.695 0.687 0.681 0.676 0.673 0.672 0.671 0.670 0.670 0.671 0.672 0.673 0.676 0.680 0.686 0.694 0.704 0.717 0.732 0.750 0.772 0.796 0.824 0.855 0.886 0.914 0.939 0.961 0.980 0.996 1.010 1.021 1.029 1.036 1.041 1.045 1.047 1.049 1.049 1.050 1.050 1.049 1.049 1.047 1.045 1.042 1.037 1.031 1.025 1.021 1.018 1.017 1.017 1.018 1.021 1.026 1.035 1.041 1.041 0.000 
0.000 0.524 0.524 0.445 0.375 0.373 0.391 0.416 0.434 0.446 0.454 0.459 0.464 0.467 0.469 0.472 0.474 0.477 0.479 0.482 0.485 0.489 0.494 0.499 0.506 0.513 0.522 0.532 0.544 0.558 0.574 0.592 0.613 0.636 0.662 0.690 0.721 0.756 0.793 0.834 0.877 0.925 0.974 1.020 1.064 1.104 1.141 1.175 1.207 1.236 1.262 1.285 1.306 1.325 1.342 1.357 1.370 1.381 1.391 1.399 1.405 1.411 1.415 1.418 1.421 1.423 1.424 1.425 1.425 1.425 1.425 1.425 1.425 1.424 1.423 1.421 1.419 1.416 1.412 1.407 1.400 1.393 1.384 1.373 1.361 1.347 1.331 1.313 1.293 1.270 1.245 1.218 1.187 1.154 1.118 1.078 1.036 0.990 0.947 0.907 0.871 0.838 0.809 0.783 0.761 0.742 0.726 0.713 0.702 0.694 0.687 0.683 0.680 0.678 0.677 0.677 0.677 0.677 0.678 0.679 0.682 0.685 0.691 0.699 0.708 0.720 0.735 0.753 0.774 0.798 0.825 0.855 0.887 0.915 0.940 0.962 0.981 0.997 1.011 1.022 1.031 1.038 1.044 1.047 1.050 1.051 1.052 1.053 1.053 1.052 1.052 1.051 1.049 1.046 1.042 1.038 1.033 1.030 1.027 1.026 1.025 1.026 1.027 1.030 1.035 1.038 1.038 0.000 
0.000 0.187 0.187 0.361 0.388 0.406 0.421 0.436 0.448 0.456 0.461 0.464 0.467 0.469 0.471 0.472 0.474 0.476 0.478 0.480 0.483 0.486 0.490 0.495 0.501 0.508 0.516 0.526 0.537 0.551 0.566 0.584 0.603 0.626 0.651 0.679 0.710 0.744 0.782 0.823 0.867 0.914 0.964 1.012 1.056 1.097 1.135 1.170 1.202 1.232 1.258 1.282 1.304 1.323 1.340 1.355 1.368 1.380 1.390 1.398 1.405 1.410 1.415 1.418 1.421 1.423 1.424 1.425 1.425 1.425 1.425 1.425 1.425 1.424 1.423 1.421 1.419 1.416 1.412 1.407 1.401 1.393 1.385 1.374 1.363 1.349 1.333 1.316 1.296 1.274 1.250 1.223 1.193 1.160 1.125 1.087 1.045 1.000 0.957 0.918 0.881 0.849 0.819 0.793 0.771 0.751 0.735 0.721 0.710 0.702 0.695 0.690 0.687 0.685 0.684 0.684 0.683 0.684 0.684 0.686 0.688 0.692 0.697 0.704 0.713 0.725 0.739 0.756 0.776 0.800 0.826 0.856 0.887 0.915 0.941 0.963 0.982 0.999 1.012 1.024 1.033 1.040 1.045 1.049 1.052 1.054 1.054 1.055 1.055 1.055 1.054 1.054 1.052 1.050 1.047 1.043 1.039 1.037 1.035 1.033 1.032 1.031 1.031 1.032 1.034 1.035 1.035 0.000 
0.000 0.200 0.200 0.269 0.404 0.446 0.462 0.468 0.472 0.472 0.472 0.472 0.472 0.472 0.472 0.473 0.474 0.475 0.476 0.478 0.480 0.483 0.487 0.491 0.496 0.503 0.510 0.520 0.531 0.543 0.558 0.575 0.595 0.617 0.642 0.669 0.700 0.734 0.772 0.812 0.856 0.904 0.954 1.003 1.048 1.090 1.129 1.165 1.197 1.227 1.254 1.279 1.301 1.320 1.338 1.353 1.367 1.378 1.388 1.397 1.404 1.409 1.414 1.418 1.420 1.422 1.423 1.424 1.425 1.425 1.425 1.425 1.424 1.424 1.423 1.421 1.419 1.416 1.412 1.407 1.401 1.394 1.385 1.375 1.364 1.350 1.335 1.318 1.299 1.277 1.254 1.227 1.198 1.167 1.132 1.094 1.054 1.010 0.967 0.928 0.891 0.859 0.829 0.803 0.781 0.761 0.744 0.730 0.719 0.710 0.704 0.699 0.695 0.693 0.692 0.691 0.691 0.691 0.692 0.693 0.695 0.698 0.703 0.710 0.719 0.730 0.744 0.760 0.780 0.802 0.828 0.857 0.888 0.916 0.942 0.964 0.983 1.000 1.014 1.025 1.034 1.041 1.047 1.051 1.053 1.055 1.056 1.056 1.057 1.057 1.056 1.055 1.054 1.052 1.049 1.046 1.044 1.042 1.040 1.039 1.037 1.036 1.035 1.034 1.033 1.033 1.033 0.000 
0.000 0.650 0.650 0.420 0.484 0.512 0.517 0.512 0.504 0.495 0.488 0.482 0.479 0.476 0.475 0.474 0.474 0.474 0.475 0.476 0.478 0.480 0.483 0.487 0.492 0.498 0.505 0.514 0.524 0.537 0.551 0.568 0.587 0.609 0.633 0.661 0.691 0.725 0.763 0.803 0.847 0.894 0.945 0.994 1.040 1.083 1.122 1.158 1.192 1.222 1.250 1.275 1.297 1.317 1.335 1.351 1.364 1.376 1.387 1.395 1.402 1.408 1.413 1.417 1.420 1.422 1.423 1.424 1.424 1.424 1.424 1.424 1.424 1.424 1.423 1.421 1.419 1.416 1.412 1.407 1.401 1.394 1.386 1.376 1.365 1.352 1.337 1.320 1.301 1.280 1.257 1.231 1.203 1.172 1.138 1.102 1.062 1.019 0.976 0.937 0.901 0.868 0.839 0.813 0.790 0.771 0.754 0.740 0.729 0.720 0.713 0.707 0.704 0.701 0.700 0.700 0.699 0.699 0.700 0.701 0.703 0.706 0.710 0.717 0.725 0.736 0.749 0.765 0.783 0.805 0.830 0.858 0.889 0.917 0.943 0.965 0.984 1.001 1.015 1.026 1.035 1.042 1.048 1.052 1.054 1.056 1.057 1.058 1.058 1.058 1.057 1.057 1.055 1.054 1.051 1.048 1.046 1.045 1.044 1.043 1.042 1.041 1.039 1.037 1.033 1.030 1.030 0.000 
0.000 0.925 0.925 0.762 0.663 0.615 0.582 0.554 0.531 0.513 0.500 0.490 0.483 0.479 0.476 0.474 0.473 0.473 0.473 0.474 0.475 0.477 0.480 0.483 0.488 0.493 0.500 0.508 0.518 0.530 0.544 0.561 0.580 0.601 0.626 0.653 0.683 0.717 0.754 0.795 0.838 0.885 0.935 0.985 1.032 1.075 1.115 1.152 1.186 1.217 1.245 1.270 1.293 1.314 1.332 1.348 1.362 1.374 1.385 1.393 1.401 1.407 1.412 1.416 1.419 1.421 1.422 1.423 1.424 1.424 1.424 1.424 1.424 1.423 1.422 1.421 1.419 1.416 1.412 1.407 1.401 1.394 1.386 1.376 1.365 1.353 1.338 1.322 1.304 1.283 1.260 1.235 1.208 1.177 1.144 1.108 1.069 1.027 0.985 0.946 0.910 0.877 0.848 0.822 0.800 0.780 0.763 0.749 0.738 0.728 0.721 0.716 0.712 0.710 0.709 0.708 0.708 0.708 0.708 0.709 0.711 0.714 0.718 0.724 0.732 0.742 0.755 0.770 0.788 0.809 0.833 0.860 0.890 0.919 0.944 0.966 0.985 1.002 1.015 1.027 1.036 1.043 1.048 1.052 1.055 1.057 1.058 1.058 1.058 1.058 1.058 1.057 1.056 1.054 1.052 1.049 1.047 1.046 1.046 1.046 1.045 1.045 1.044 1.041 1.035 1.028 1.028 0.000 
0.000 0.999 0.999 0.924 0.785 0.689 0.626 0.581 0.549 0.525 0.507 0.495 0.486 0.480 0.476 0.474 0.473 0.472 0.472 0.472 0.473 0.474 0.476 0.479 0.483 0.489 0.495 0.503 0.513 0.525 0.538 0.554 0.573 0.594 0.619 0.646 0.676 0.710 0.747 0.787 0.830 0.876 0.926 0.976 1.023 1.067 1.108 1.145 1.180 1.211 1.240 1.265 1.289 1.310 1.328 1.345 1.359 1.372 1.382 1.391 1.399 1.405 1.411 1.415 1.418 1.420 1.421 1.422 1.423 1.423 1.423 1.423 1.423 1.423 1.422 1.420 1.418 1.415 1.412 1.407 1.401 1.394 1.386 1.377 1.366 1.353 1.339 1.323 1.305 1.285 1.263 1.239 1.212 1.182 1.150 1.114 1.076 1.035 0.993 0.954 0.918 0.886 0.857 0.831 0.808 0.788 0.772 0.757 0.746 0.737 0.730 0.724 0.720 0.718 0.716 0.716 0.716 0.716 0.716 0.717 0.718 0.721 0.725 0.731 0.739 0.748 0.760 0.775 0.792 0.813 0.836 0.863 0.892 0.920 0.945 0.967 0.986 1.002 1.016 1.027 1.036 1.043 1.049 1.053 1.055 1.057 1.058 1.059 1.059 1.059 1.059 1.058 1.057 1.055 1.052 1.049 1.048 1.047 1.047 1.047 1.048 1.049 1.049 1.048 1.042 1.030 1.030 0.000 
0.000 0.994 0.994 0.960 0.832 0.721 0.647 0.595 0.558 0.531 0.511 0.497 0.487 0.480 0.476 0.473 0.472 0.471 0.470 0.470 0.471 0.471 0.473 0.476 0.479 0.484 0.490 0.498 0.508 0.519 0.533 0.549 0.567 0.589 0.613 0.640 0.670 0.704 0.740 0.780 0.822 0.868 0.918 0.968 1.015 1.059 1.100 1.138 1.173 1.205 1.234 1.260 1.284 1.305 1.324 1.341 1.356 1.369 1.380 1.389 1.397 1.404 1.409 1.413 1.416 1.419 1.420 1.421 1.422 1.422 1.422 1.422 1.422 1.422 1.421 1.420 1.418 1.415 1.411 1.407 1.401 1.394 1.386 1.377 1.366 1.354 1.340 1.325 1.307 1.287 1.266 1.242 1.215 1.186 1.155 1.120 1.083 1.042 1.001 0.962 0.926 0.894 0.865 0.839 0.816 0.796 0.779 0.765 0.753 0.744 0.737 0.731 0.728 0.725 0.723 0.723 0.722 0.722 0.723 0.723 0.725 0.728 0.732 0.737 0.744 0.754 0.766 0.780 0.797 0.816 0.839 0.865 0.893 0.921 0.946 0.968 0.986 1.003 1.016 1.027 1.036 1.043 1.049 1.053 1.056 1.057 1.058 1.059 1.059 1.059 1.059 1.058 1.057 1.055 1.052 1.049 1.048 1.047 1.047 1.047 1.049 1.052 1.056 1.061 1.062 1.064 1.064 0.000 
0.000 0.908 0.908 0.935 0.839 0.729 0.653 0.599 0.561 0.533 0.513 0.498 0.487 0.480 0.475 0.472 0.470 0.469 0.468 0.468 0.468 0.469 0.470 0.472 0.475 0.480 0.486 0.494 0.503 0.514 0.528 0.544 0.562 0.584 0.608 0.635 0.665 0.698 0.734 0.773 0.815 0.861 0.909 0.960 1.007 1.052 1.093 1.131 1.167 1.199 1.228 1.255 1.279 1.301 1.320 1.337 1.352 1.365 1.377 1.386 1.395 1.401 1.407 1.411 1.415 1.417 1.419 1.420 1.421 1.421 1.421 1.421 1.421 1.421 1.420 1.419 1.417 1.414 1.411 1.406 1.401 1.394 1.386 1.377 1.367 1.354 1.341 1.325 1.308 1.289 1.268 1.244 1.218 1.190 1.159 1.125 1.089 1.049 1.008 0.969 0.934 0.901 0.872 0.846 0.823 0.803 0.786 0.772 0.760 0.751 0.743 0.738 0.734 0.731 0.730 0.729 0.729 0.729 0.729 0.729 0.731 0.733 0.737 0.742 0.749 0.759 0.770 0.784 0.800 0.819 0.841 0.867 0.895 0.922 0.947 0.968 0.987 1.003 1.016 1.027 1.036 1.043 1.049 1.053 1.056 1.057 1.058 1.059 1.059 1.059 1.059 1.058 1.057 1.055 1.052 1.049 1.047 1.047 1.047 1.047 1.049 1.053 1.061 1.076 1.091 1.098 1.098 0.000 
0.000 0.809 0.809 0.853 0.810 0.726 0.652 0.600 0.561 0.533 0.513 0.498 0.487 0.479 0.474 0.470 0.468 0.466 0.466 0.465 0.465 0.466 0.467 0.468 0.472 0.476 0.482 0.489 0.498 0.510 0.523 0.539 0.558 0.579 0.603 0.630 0.660 0.693 0.728 0.767 0.809 0.854 0.901 0.952 0.999 1.044 1.086 1.124 1.160 1.192 1.222 1.249 1.274 1.296 1.316 1.333 1.348 1.362 1.373 1.383 1.392 1.399 1.405 1.409 1.413 1.415 1.417 1.418 1.419 1.420 1.420 1.420 1.420 1.419 1.419 1.418 1.416 1.413 1.410 1.406 1.400 1.394 1.386 1.377 1.367 1.355 1.341 1.326 1.309 1.290 1.270 1.246 1.221 1.193 1.163 1.130 1.094 1.055 1.015 0.976 0.940 0.908 0.879 0.853 0.830 0.810 0.793 0.778 0.766 0.757 0.749 0.744 0.739 0.737 0.735 0.734 0.734 0.734 0.734 0.735 0.736 0.738 0.742 0.747 0.754 0.763 0.774 0.787 0.803 0.822 0.843 0.868 0.895 0.923 0.947 0.968 0.987 1.003 1.016 1.027 1.036 1.043 1.049 1.053 1.056 1.057 1.058 1.059 1.059 1.059 1.059 1.058 1.057 1.055 1.052 1.049 1.046 1.045 1.045 1.045 1.047 1.052 1.062 1.084 1.112 1.123 1.123 0.000 
0.000 0.698 0.698 0.753 0.739 0.699 0.644 0.596 0.559 0.532 0.511 0.496 0.485 0.477 0.471 0.467 0.465 0.463 0.462 0.462 0.462 0.462 0.463 0.465 0.468 0.472 0.478 0.485 0.494 0.506 0.520 0.536 0.554 0.576 0.600 0.626 0.656 0.688 0.723 0.761 0.803 0.847 0.894 0.944 0.992 1.036 1.078 1.117 1.153 1.186 1.216 1.243 1.268 1.291 1.311 1.328 1.344 1.358 1.370 1.380 1.389 1.396 1.402 1.407 1.410 1.413 1.415 1.417 1.417 1.418 1.418 1.418 1.418 1.418 1.417 1.416 1.414 1.412 1.409 1.405 1.400 1.393 1.386 1.377 1.367 1.355 1.342 1.327 1.310 1.292 1.271 1.248 1.224 1.196 1.167 1.134 1.099 1.061 1.021 0.982 0.947 0.914 0.885 0.859 0.836 0.816 0.799 0.784 0.772 0.762 0.754 0.749 0.744 0.741 0.740 0.739 0.738 0.738 0.739 0.739 0.740 0.743 0.746 0.751 0.757 0.766 0.777 0.790 0.805 0.824 0.845 0.869 0.896 0.923 0.947 0.969 0.987 1.003 1.016 1.027 1.036 1.043 1.049 1.053 1.055 1.057 1.058 1.059 1.059 1.059 1.058 1.058 1.056 1.054 1.051 1.047 1.044 1.042 1.041 1.041 1.043 1.048 1.059 1.083 1.122 1.146 1.146 0.000 
0.000 0.594 0.594 0.645 0.647 0.641 0.619 0.585 0.553 0.527 0.508 0.493 0.481 0.473 0.467 0.463 0.460 0.459 0.458 0.458 0.458 0.458 0.459 0.461 0.464 0.468 0.474 0.481 0.491 0.502 0.516 0.533 0.551 0.573 0.596 0.623 0.652 0.684 0.718 0.756 0.797 0.840 0.887 0.936 0.984 1.029 1.071 1.110 1.146 1.179 1.210 1.237 1.263 1.285 1.306 1.324 1.340 1.354 1.366 1.376 1.385 1.393 1.399 1.404 1.408 1.411 1.413 1.414 1.415 1.416 1.416 1.416 1.416 1.416 1.415 1.414 1.413 1.411 1.408 1.404 1.399 1.393 1.385 1.377 1.367 1.355 1.342 1.327 1.311 1.292 1.272 1.250 1.226 1.199 1.170 1.138 1.104 1.066 1.027 0.988 0.952 0.920 0.891 0.864 0.841 0.821 0.804 0.789 0.777 0.767 0.759 0.753 0.749 0.746 0.744 0.743 0.742 0.742 0.742 0.743 0.744 0.746 0.749 0.754 0.760 0.769 0.779 0.792 0.807 0.825 0.846 0.870 0.896 0.923 0.947 0.969 0.987 1.003 1.016 1.027 1.036 1.043 1.049 1.052 1.055 1.057 1.058 1.058 1.058 1.058 1.058 1.057 1.055 1.053 1.050 1.046 1.041 1.037 1.034 1.032 1.033 1.037 1.048 1.074 1.120 1.154 1.154 0.000 
0.000 0.494 0.494 0.546 0.565 0.573 0.574 0.563 0.541 0.519 0.501 0.486 0.475 0.467 0.462 0.458 0.455 0.454 0.453 0.453 0.453 0.454 0.455 0.457 0.460 0.464 0.470 0.478 0.488 0.500 0.514 0.530 0.549 0.570 0.593 0.620 0.648 0.680 0.714 0.751 0.791 0.834 0.880 0.929 0.977 1.022 1.064 1.103 1.139 1.172 1.203 1.231 1.257 1.280 1.300 1.319 1.335 1.349 1.362 1.372 1.381 1.389 1.396 1.401 1.405 1.408 1.410 1.412 1.413 1.413 1.414 1.414 1.414 1.413 1.413 1.412 1.411 1.409 1.406 1.402 1.397 1.392 1.384 1.376 1.366 1.355 1.342 1.327 1.311 1.293 1.273 1.251 1.227 1.201 1.173 1.141 1.108 1.071 1.032 0.993 0.958 0.925 0.896 0.869 0.846 0.826 0.808 0.793 0.781 0.771 0.763 0.757 0.752 0.749 0.747 0.746 0.745 0.745 0.745 0.746 0.747 0.749 0.752 0.757 0.763 0.771 0.781 0.794 0.809 0.826 0.847 0.870 0.896 0.923 0.947 0.969 0.987 1.003 1.016 1.027 1.036 1.043 1.048 1.052 1.055 1.056 1.057 1.057 1.057 1.057 1.057 1.056 1.054 1.051 1.047 1.042 1.036 1.030 1.023 1.018 1.014 1.014 1.022 1.046 1.101 1.158 1.158 0.000 
0.000 0.436 0.436 0.474 0.504 0.518 0.525 0.526 0.519 0.505 0.489 0.476 0.466 0.459 0.454 0.451 0.449 0.448 0.447 0.447 0.448 0.448 0.450 0.452 0.456 0.460 0.467 0.475 0.485 0.497 0.512 0.528 0.547 0.568 0.591 0.617 0.645 0.676 0.709 0.746 0.785 0.828 0.873 0.921 0.969 1.014 1.056 1.096 1.132 1.166 1.196 1.225 1.250 1.274 1.294 1.313 1.330 1.344 1.357 1.368 1.377 1.385 1.392 1.397 1.401 1.405 1.407 1.409 1.410 1.411 1.411 1.411 1.411 1.411 1.410 1.410 1.408 1.406 1.404 1.400 1.396 1.390 1.383 1.375 1.366 1.354 1.342 1.327 1.311 1.294 1.274 1.253 1.229 1.203 1.175 1.144 1.111 1.075 1.037 0.998 0.962 0.930 0.900 0.874 0.850 0.830 0.812 0.797 0.784 0.774 0.766 0.760 0.755 0.752 0.750 0.749 0.748 0.748 0.748 0.748 0.749 0.751 0.754 0.759 0.765 0.773 0.783 0.795 0.810 0.827 0.847 0.870 0.896 0.923 0.947 0.969 0.987 1.003 1.016 1.027 1.035 1.042 1.047 1.051 1.054 1.055 1.056 1.056 1.056 1.056 1.055 1.054 1.052 1.049 1.044 1.038 1.030 1.021 1.010 0.998 0.985 0.974 0.969 0.983 1.038 1.142 1.142 0.000 
0.000 0.410 0.410 0.433 0.458 0.472 0.481 0.486 0.487 0.483 0.473 0.462 0.454 0.448 0.444 0.442 0.440 0.440 0.440 0.440 0.441 0.442 0.444 0.447 0.451 0.457 0.464 0.473 0.483 0.496 0.510 0.526 0.545 0.565 0.588 0.614 0.642 0.672 0.705 0.741 0.780 0.822 0.866 0.914 0.962 1.007 1.049 1.088 1.125 1.159 1.190 1.218 1.244 1.267 1.289 1.307 1.324 1.339 1.352 1.363 1.373 1.381 1.388 1.393 1.398 1.401 1.404 1.405 1.407 1.407 1.408 1.408 1.408 1.408 1.407 1.407 1.406 1.404 1.401 1.398 1.394 1.388 1.382 1.374 1.365 1.354 1.341 1.327 1.311 1.294 1.275 1.253 1.230 1.205 1.177 1.147 1.114 1.079 1.041 1.002 0.967 0.934 0.904 0.878 0.854 0.833 0.815 0.800 0.787 0.777 0.769 0.762 0.757 0.754 0.752 0.751 0.750 0.750 0.750 0.750 0.751 0.753 0.756 0.760 0.766 0.774 0.784 0.796 0.810 0.827 0.848 0.870 0.896 0.923 0.947 0.968 0.987 1.002 1.015 1.026 1.035 1.041 1.046 1.050 1.052 1.054 1.054 1.055 1.054 1.054 1.053 1.052 1.049 1.045 1.039 1.032 1.021 1.009 0.992 0.973 0.949 0.920 0.887 0.860 0.873 1.006 1.006 0.000 
0.000 0.384 0.384 0.403 0.421 0.433 0.441 0.447 0.451 0.453 0.450 0.444 0.438 0.434 0.432 0.431 0.430 0.430 0.431 0.432 0.433 0.436 0.438 0.442 0.447 0.453 0.461 0.470 0.481 0.494 0.508 0.525 0.543 0.563 0.586 0.611 0.639 0.669 0.701 0.737 0.775 0.816 0.860 0.907 0.954 1.000 1.042 1.081 1.118 1.152 1.183 1.211 1.237 1.261 1.282 1.302 1.319 1.334 1.347 1.358 1.368 1.376 1.383 1.389 1.394 1.397 1.400 1.402 1.403 1.404 1.404 1.404 1.404 1.404 1.404 1.404 1.402 1.401 1.399 1.395 1.391 1.386 1.380 1.372 1.363 1.353 1.341 1.327 1.311 1.294 1.275 1.254 1.231 1.206 1.179 1.149 1.117 1.082 1.045 1.006 0.971 0.938 0.908 0.881 0.857 0.836 0.818 0.803 0.790 0.779 0.771 0.764 0.759 0.756 0.753 0.752 0.751 0.751 0.751 0.752 0.753 0.754 0.757 0.761 0.767 0.775 0.784 0.796 0.811 0.828 0.848 0.870 0.896 0.923 0.947 0.968 0.986 1.002 1.015 1.025 1.034 1.040 1.045 1.048 1.050 1.052 1.052 1.052 1.052 1.052 1.051 1.049 1.045 1.040 1.033 1.024 1.011 0.994 0.974 0.949 0.920 0.883 0.834 0.756 0.599 0.435 0.435 0.000 
0.000 0.358 0.358 0.375 0.388 0.397 0.405 0.411 0.416 0.419 0.421 0.421 0.419 0.417 0.417 0.417 0.418 0.419 0.421 0.423 0.425 0.428 0.432 0.437 0.443 0.450 0.459 0.469 0.480 0.493 0.507 0.523 0.541 0.562 0.584 0.608 0.636 0.665 0.697 0.732 0.770 0.810 0.854 0.900 0.947 0.992 1.034 1.074 1.111 1.144 1.176 1.204 1.231 1.255 1.276 1.295 1.313 1.328 1.341 1.353 1.363 1.371 1.378 1.384 1.389 1.393 1.396 1.398 1.399 1.400 1.400 1.401 1.401 1.401 1.400 1.400 1.399 1.397 1.395 1.392 1.388 1.384 1.378 1.370 1.362 1.351 1.340 1.326 1.311 1.294 1.275 1.254 1.232 1.207 1.180 1.151 1.119 1.085 1.048 1.010 0.974 0.941 0.911 0.884 0.860 0.839 0.821 0.805 0.792 0.781 0.772 0.765 0.760 0.757 0.755 0.753 0.753 0.752 0.752 0.753 0.753 0.755 0.758 0.762 0.768 0.775 0.785 0.796 0.811 0.828 0.848 0.870 0.896 0.923 0.946 0.967 0.985 1.001 1.013 1.024 1.032 1.038 1.043 1.046 1.048 1.049 1.050 1.050 1.050 1.049 1.047 1.045 1.041 1.035 1.026 1.015 1.000 0.981 0.957 0.930 0.898 0.861 0.816 0.739 0.546 0.132 0.132 0.000 
0.000 0.332 0.332 0.348 0.357 0.365 0.372 0.377 0.382 0.386 0.390 0.393 0.395 0.397 0.399 0.401 0.404 0.406 0.409 0.413 0.417 0.421 0.427 0.433 0.440 0.448 0.457 0.467 0.478 0.491 0.506 0.522 0.540 0.560 0.582 0.606 0.633 0.662 0.693 0.728 0.765 0.805 0.847 0.893 0.940 0.985 1.027 1.067 1.103 1.137 1.169 1.197 1.224 1.248 1.269 1.289 1.306 1.322 1.335 1.347 1.357 1.366 1.373 1.379 1.384 1.388 1.391 1.393 1.395 1.396 1.396 1.396 1.397 1.396 1.396 1.396 1.395 1.394 1.392 1.389 1.385 1.381 1.375 1.368 1.360 1.350 1.338 1.325 1.310 1.294 1.275 1.255 1.232 1.208 1.181 1.152 1.121 1.088 1.051 1.013 0.977 0.944 0.914 0.887 0.863 0.841 0.823 0.807 0.793 0.782 0.773 0.767 0.761 0.758 0.755 0.754 0.753 0.753 0.753 0.753 0.754 0.756 0.758 0.762 0.768 0.775 0.785 0.796 0.811 0.828 0.847 0.870 0.896 0.922 0.946 0.966 0.984 0.999 1.012 1.022 1.030 1.036 1.041 1.043 1.045 1.046 1.046 1.046 1.046 1.045 1.043 1.040 1.036 1.029 1.019 1.006 0.990 0.970 0.944 0.914 0.880 0.849 0.817 0.778 0.720 0.686 0.686 0.000 
0.000 0.307 0.307 0.321 0.328 0.334 0.341 0.346 0.351 0.356 0.361 0.366 0.371 0.375 0.380 0.385 0.389 0.394 0.399 0.404 0.409 0.415 0.422 0.429 0.437 0.445 0.455 0.465 0.477 0.490 0.504 0.520 0.538 0.558 0.580 0.603 0.630 0.658 0.689 0.723 0.760 0.799 0.841 0.886 0.933 0.978 1.020 1.059 1.096 1.130 1.161 1.190 1.217 1.241 1.263 1.282 1.300 1.315 1.329 1.341 1.351 1.360 1.368 1.374 1.379 1.383 1.386 1.388 1.390 1.391 1.392 1.392 1.392 1.392 1.392 1.391 1.391 1.389 1.388 1.385 1.382 1.377 1.372 1.365 1.357 1.348 1.336 1.324 1.309 1.293 1.275 1.255 1.232 1.208 1.182 1.154 1.123 1.090 1.054 1.016 0.980 0.947 0.916 0.889 0.864 0.843 0.824 0.808 0.794 0.783 0.774 0.767 0.762 0.758 0.756 0.754 0.754 0.753 0.753 0.754 0.754 0.756 0.759 0.762 0.768 0.775 0.785 0.796 0.811 0.828 0.847 0.870 0.895 0.921 0.945 0.965 0.983 0.998 1.010 1.020 1.028 1.033 1.038 1.040 1.042 1.043 1.043 1.043 1.042 1.041 1.039 1.035 1.030 1.022 1.012 0.998 0.982 0.960 0.934 0.902 0.868 0.842 0.829 0.835 0.904 1.094 1.094 0.000 
0.000 0.281 0.281 0.295 0.300 0.306 0.312 0.318 0.323 0.329 0.336 0.343 0.350 0.357 0.364 0.370 0.377 0.383 0.389 0.396 0.403 0.410 0.417 0.425 0.434 0.443 0.453 0.464 0.476 0.489 0.503 0.519 0.537 0.556 0.577 0.601 0.627 0.655 0.685 0.719 0.755 0.793 0.835 0.879 0.926 0.970 1.012 1.052 1.089 1.123 1.154 1.183 1.210 1.234 1.256 1.275 1.293 1.309 1.323 1.335 1.345 1.354 1.362 1.368 1.373 1.377 1.381 1.383 1.385 1.386 1.386 1.387 1.387 1.387 1.387 1.386 1.386 1.385 1.383 1.381 1.377 1.373 1.368 1.362 1.354 1.345 1.334 1.322 1.308 1.292 1.274 1.254 1.232 1.209 1.183 1.155 1.124 1.091 1.056 1.018 0.982 0.949 0.918 0.891 0.866 0.844 0.825 0.809 0.795 0.784 0.775 0.768 0.762 0.758 0.756 0.754 0.754 0.753 0.753 0.754 0.754 0.756 0.759 0.763 0.768 0.775 0.785 0.796 0.810 0.827 0.847 0.869 0.894 0.920 0.943 0.963 0.981 0.995 1.007 1.017 1.024 1.030 1.034 1.036 1.038 1.038 1.038 1.038 1.038 1.036 1.034 1.030 1.024 1.016 1.005 0.991 0.974 0.953 0.927 0.895 0.861 0.837 0.828 0.839 0.916 1.092 1.092 0.000 
0.000 0.255 0.255 0.269 0.274 0.279 0.285 0.291 0.298 0.305 0.314 0.324 0.333 0.342 0.350 0.358 0.366 0.374 0.382 0.389 0.397 0.405 0.414 0.422 0.431 0.441 0.451 0.462 0.474 0.487 0.502 0.518 0.535 0.554 0.575 0.598 0.624 0.651 0.682 0.714 0.750 0.788 0.829 0.872 0.918 0.963 1.005 1.044 1.081 1.115 1.147 1.176 1.202 1.226 1.248 1.268 1.286 1.302 1.316 1.328 1.339 1.348 1.355 1.362 1.367 1.371 1.375 1.377 1.379 1.380 1.381 1.381 1.382 1.382 1.381 1.381 1.381 1.380 1.378 1.376 1.373 1.369 1.364 1.358 1.350 1.342 1.331 1.320 1.306 1.291 1.273 1.254 1.232 1.209 1.183 1.155 1.125 1.093 1.058 1.020 0.984 0.950 0.920 0.892 0.867 0.845 0.826 0.810 0.796 0.784 0.775 0.768 0.762 0.759 0.756 0.754 0.754 0.754 0.754 0.754 0.755 0.756 0.759 0.762 0.768 0.775 0.784 0.796 0.810 0.827 0.846 0.868 0.893 0.919 0.941 0.961 0.978 0.992 1.004 1.014 1.021 1.026 1.030 1.032 1.033 1.034 1.034 1.033 1.033 1.031 1.028 1.024 1.018 1.009 0.998 0.984 0.966 0.946 0.921 0.892 0.860 0.831 0.809 0.793 0.804 0.934 0.934 0.000 
0.000 0.229 0.229 0.244 0.248 0.254 0.260 0.267 0.275 0.285 0.296 0.309 0.320 0.330 0.340 0.349 0.358 0.366 0.375 0.384 0.393 0.401 0.410 0.420 0.429 0.439 0.450 0.461 0.473 0.486 0.500 0.516 0.533 0.552 0.573 0.596 0.621 0.648 0.678 0.710 0.745 0.782 0.822 0.865 0.911 0.956 0.998 1.037 1.073 1.107 1.139 1.168 1.194 1.219 1.241 1.261 1.278 1.294 1.309 1.321 1.332 1.341 1.349 1.355 1.361 1.365 1.369 1.371 1.373 1.374 1.375 1.376 1.376 1.376 1.376 1.375 1.375 1.374 1.373 1.371 1.368 1.364 1.359 1.353 1.346 1.338 1.328 1.317 1.304 1.289 1.272 1.253 1.232 1.209 1.183 1.156 1.126 1.094 1.059 1.022 0.986 0.952 0.921 0.893 0.868 0.846 0.827 0.810 0.796 0.785 0.775 0.768 0.762 0.759 0.756 0.754 0.754 0.753 0.753 0.754 0.754 0.756 0.758 0.762 0.768 0.775 0.784 0.795 0.809 0.826 0.845 0.867 0.891 0.916 0.939 0.958 0.975 0.989 1.001 1.010 1.016 1.021 1.025 1.027 1.028 1.028 1.028 1.028 1.027 1.026 1.022 1.018 1.011 1.002 0.991 0.977 0.959 0.939 0.915 0.889 0.859 0.828 0.790 0.725 0.569 0.383 0.383 0.000 
0.000 0.203 0.203 0.218 0.223 0.229 0.237 0.245 0.255 0.268 0.283 0.297 0.309 0.321 0.331 0.341 0.351 0.360 0.370 0.379 0.388 0.398 0.407 0.417 0.427 0.437 0.448 0.459 0.472 0.485 0.499 0.515 0.532 0.550 0.571 0.593 0.618 0.645 0.674 0.705 0.740 0.777 0.816 0.859 0.903 0.948 0.990 1.029 1.066 1.100 1.131 1.160 1.187 1.211 1.233 1.253 1.271 1.287 1.301 1.313 1.324 1.334 1.342 1.348 1.354 1.358 1.362 1.365 1.367 1.368 1.369 1.369 1.369 1.369 1.369 1.369 1.369 1.368 1.367 1.365 1.362 1.359 1.354 1.349 1.342 1.334 1.324 1.313 1.301 1.286 1.270 1.251 1.231 1.208 1.183 1.156 1.126 1.095 1.060 1.024 0.987 0.953 0.922 0.894 0.869 0.847 0.827 0.810 0.796 0.785 0.775 0.768 0.762 0.759 0.756 0.754 0.754 0.753 0.753 0.754 0.754 0.756 0.758 0.762 0.767 0.774 0.783 0.794 0.808 0.824 0.843 0.864 0.889 0.914 0.936 0.955 0.971 0.985 0.996 1.005 1.012 1.016 1.019 1.021 1.022 1.023 1.023 1.022 1.021 1.019 1.016 1.011 1.005 0.996 0.984 0.969 0.952 0.932 0.909 0.885 0.859 0.829 0.790 0.718 0.538 0.166 0.166 0.000 
0.000 0.178 0.178 0.192 0.199 0.206 0.215 0.226 0.239 0.256 0.273 0.288 0.301 0.314 0.325 0.336 0.346 0.356 0.366 0.375 0.385 0.395 0.405 0.415 0.425 0.436 0.446 0.458 0.470 0.483 0.498 0.513 0.530 0.548 0.569 0.591 0.615 0.641 0.670 0.701 0.735 0.771 0.810 0.852 0.896 0.940 0.982 1.021 1.058 1.092 1.123 1.152 1.178 1.203 1.225 1.245 1.263 1.279 1.293 1.306 1.317 1.326 1.334 1.341 1.347 1.351 1.355 1.358 1.360 1.361 1.362 1.362 1.363 1.363 1.363 1.363 1.362 1.362 1.360 1.359 1.356 1.353 1.349 1.343 1.337 1.329 1.320 1.310 1.297 1.283 1.267 1.249 1.229 1.207 1.183 1.156 1.127 1.095 1.061 1.025 0.988 0.954 0.923 0.895 0.869 0.847 0.827 0.810 0.796 0.785 0.775 0.768 0.762 0.758 0.756 0.754 0.753 0.753 0.753 0.753 0.754 0.755 0.758 0.761 0.766 0.773 0.782 0.793 0.806 0.822 0.841 0.862 0.886 0.910 0.932 0.951 0.967 0.980 0.991 0.999 1.006 1.010 1.013 1.015 1.016 1.016 1.016 1.016 1.015 1.013 1.010 1.005 0.998 0.989 0.977 0.962 0.945 0.925 0.903 0.882 0.860 0.837 0.809 0.772 0.723 0.712 0.712 0.000 
0.000 0.152 0.152 0.167 0.175 0.184 0.195 0.209 0.228 0.248 0.266 0.282 0.296 0.309 0.321 0.332 0.342 0.352 0.362 0.372 0.382 0.393 0.403 0.413 0.423 0.434 0.445 0.456 0.469 0.482 0.496 0.511 0.528 0.546 0.566 0.588 0.612 0.638 0.666 0.696 0.730 0.765 0.804 0.845 0.888 0.933 0.974 1.013 1.050 1.083 1.115 1.144 1.170 1.194 1.216 1.236 1.254 1.271 1.285 1.297 1.308 1.318 1.326 1.333 1.339 1.343 1.347 1.350 1.352 1.354 1.355 1.355 1.356 1.356 1.356 1.356 1.355 1.355 1.353 1.352 1.349 1.346 1.342 1.337 1.331 1.324 1.315 1.305 1.293 1.280 1.264 1.247 1.228 1.206 1.182 1.155 1.127 1.096 1.062 1.026 0.989 0.955 0.923 0.895 0.870 0.847 0.827 0.810 0.796 0.784 0.775 0.768 0.762 0.758 0.755 0.753 0.753 0.752 0.752 0.752 0.753 0.754 0.757 0.760 0.765 0.772 0.780 0.791 0.804 0.820 0.838 0.858 0.882 0.906 0.927 0.946 0.961 0.974 0.985 0.993 1.000 1.004 1.007 1.009 1.009 1.010 1.009 1.009 1.008 1.006 1.003 0.998 0.991 0.982 0.970 0.956 0.938 0.918 0.896 0.879 0.865 0.856 0.852 0.866 0.930 1.079 1.079 0.000 
0.000 0.126 0.126 0.142 0.151 0.163 0.178 0.197 0.220 0.242 0.261 0.278 0.293 0.306 0.318 0.329 0.340 0.350 0.360 0.370 0.380 0.390 0.401 0.411 0.421 0.432 0.443 0.455 0.467 0.480 0.494 0.509 0.526 0.544 0.564 0.585 0.608 0.634 0.662 0.692 0.724 0.759 0.797 0.838 0.881 0.925 0.966 1.005 1.041 1.075 1.106 1.135 1.161 1.186 1.208 1.228 1.246 1.262 1.276 1.289 1.300 1.310 1.318 1.325 1.331 1.335 1.339 1.342 1.344 1.346 1.347 1.348 1.348 1.348 1.348 1.348 1.348 1.347 1.346 1.345 1.342 1.340 1.336 1.331 1.325 1.318 1.310 1.300 1.289 1.276 1.261 1.244 1.225 1.204 1.181 1.155 1.126 1.096 1.062 1.027 0.990 0.955 0.924 0.895 0.870 0.847 0.827 0.810 0.796 0.784 0.775 0.767 0.761 0.757 0.754 0.753 0.752 0.751 0.751 0.751 0.752 0.753 0.755 0.759 0.764 0.770 0.778 0.789 0.801 0.816 0.834 0.854 0.877 0.901 0.922 0.940 0.955 0.968 0.978 0.986 0.993 0.997 1.000 1.001 1.002 1.002 1.002 1.002 1.001 0.999 0.996 0.991 0.984 0.975 0.964 0.950 0.933 0.912 0.892 0.876 0.868 0.865 0.871 0.900 0.984 1.076 1.076 0.000 
0.000 0.100 0.100 0.117 0.129 0.144 0.164 0.190 0.216 0.239 0.259 0.276 0.291 0.304 0.316 0.327 0.338 0.348 0.358 0.369 0.379 0.389 0.399 0.409 0.420 0.430 0.441 0.453 0.465 0.478 0.492 0.507 0.524 0.542 0.561 0.582 0.605 0.630 0.657 0.687 0.719 0.754 0.791 0.830 0.873 0.917 0.958 0.996 1.033 1.066 1.097 1.126 1.152 1.177 1.199 1.219 1.237 1.253 1.267 1.280 1.291 1.301 1.309 1.316 1.322 1.327 1.331 1.334 1.336 1.338 1.339 1.339 1.340 1.340 1.340 1.340 1.340 1.339 1.338 1.337 1.335 1.332 1.329 1.324 1.319 1.312 1.304 1.294 1.284 1.271 1.257 1.240 1.222 1.201 1.179 1.154 1.126 1.095 1.063 1.027 0.990 0.956 0.924 0.895 0.870 0.847 0.827 0.810 0.796 0.784 0.774 0.766 0.760 0.756 0.753 0.751 0.750 0.750 0.750 0.750 0.750 0.751 0.753 0.757 0.761 0.767 0.775 0.785 0.798 0.812 0.829 0.849 0.871 0.895 0.915 0.933 0.948 0.961 0.971 0.979 0.985 0.989 0.992 0.994 0.994 0.995 0.995 0.994 0.993 0.991 0.988 0.983 0.977 0.968 0.958 0.944 0.928 0.909 0.889 0.875 0.867 0.866 0.872 0.902 0.985 1.073 1.073 0.000 
0.000 0.075 0.075 0.092 0.106 0.127 0.155 0.186 0.214 0.237 0.257 0.275 0.290 0.303 0.315 0.327 0.337 0.347 0.357 0.367 0.377 0.387 0.398 0.408 0.418 0.429 0.440 0.451 0.463 0.476 0.490 0.505 0.521 0.539 0.558 0.579 0.601 0.626 0.653 0.682 0.714 0.747 0.784 0.823 0.865 0.908 0.949 0.988 1.024 1.057 1.088 1.117 1.143 1.167 1.189 1.209 1.227 1.243 1.258 1.270 1.282 1.291 1.300 1.307 1.313 1.318 1.322 1.325 1.327 1.329 1.330 1.331 1.331 1.331 1.331 1.331 1.331 1.331 1.330 1.329 1.327 1.324 1.321 1.317 1.311 1.305 1.297 1.288 1.278 1.266 1.252 1.236 1.218 1.198 1.176 1.152 1.125 1.095 1.063 1.028 0.991 0.956 0.924 0.896 0.870 0.847 0.827 0.810 0.795 0.783 0.773 0.765 0.759 0.754 0.751 0.749 0.748 0.748 0.748 0.748 0.748 0.749 0.751 0.754 0.758 0.764 0.772 0.781 0.793 0.807 0.824 0.843 0.865 0.887 0.907 0.925 0.940 0.952 0.962 0.970 0.976 0.981 0.984 0.985 0.986 0.986 0.986 0.986 0.985 0.983 0.980 0.976 0.970 0.961 0.951 0.939 0.924 0.906 0.888 0.873 0.863 0.858 0.857 0.875 0.939 1.071 1.071 0.000 
0.000 0.049 0.049 0.067 0.087 0.116 0.152 0.186 0.214 0.237 0.257 0.274 0.290 0.303 0.315 0.326 0.337 0.347 0.357 0.367 0.377 0.386 0.396 0.406 0.416 0.427 0.438 0.449 0.461 0.474 0.488 0.503 0.519 0.536 0.555 0.575 0.598 0.622 0.648 0.677 0.708 0.741 0.777 0.816 0.857 0.899 0.940 0.979 1.014 1.048 1.078 1.107 1.133 1.157 1.179 1.199 1.217 1.233 1.248 1.260 1.272 1.281 1.290 1.297 1.303 1.308 1.312 1.315 1.318 1.320 1.321 1.322 1.322 1.322 1.322 1.322 1.322 1.322 1.321 1.320 1.318 1.316 1.313 1.309 1.304 1.297 1.290 1.281 1.271 1.260 1.246 1.231 1.214 1.195 1.173 1.149 1.123 1.094 1.062 1.028 0.991 0.956 0.924 0.896 0.870 0.847 0.826 0.809 0.794 0.782 0.771 0.763 0.757 0.752 0.749 0.747 0.746 0.745 0.745 0.745 0.745 0.746 0.748 0.751 0.755 0.760 0.767 0.777 0.788 0.801 0.817 0.836 0.857 0.879 0.899 0.916 0.931 0.943 0.953 0.961 0.967 0.972 0.975 0.977 0.978 0.978 0.978 0.978 0.977 0.975 0.972 0.968 0.962 0.954 0.945 0.933 0.920 0.904 0.887 0.871 0.855 0.839 0.818 0.791 0.772 0.869 0.869 0.000 
0.000 0.028 0.028 0.045 0.071 0.111 0.152 0.186 0.214 0.237 0.257 0.275 0.290 0.303 0.315 0.326 0.337 0.347 0.357 0.366 0.376 0.385 0.395 0.405 0.415 0.425 0.436 0.447 0.459 0.472 0.485 0.500 0.515 0.533 0.551 0.571 0.593 0.617 0.643 0.671 0.702 0.735 0.770 0.808 0.848 0.890 0.931 0.969 1.005 1.038 1.068 1.097 1.123 1.147 1.169 1.188 1.206 1.223 1.237 1.250 1.261 1.271 1.280 1.287 1.293 1.298 1.302 1.305 1.308 1.310 1.311 1.312 1.312 1.313 1.313 1.313 1.313 1.312 1.312 1.310 1.309 1.307 1.304 1.300 1.295 1.289 1.282 1.274 1.264 1.253 1.240 1.226 1.209 1.190 1.169 1.146 1.121 1.092 1.061 1.028 0.991 0.956 0.924 0.895 0.869 0.846 0.826 0.808 0.793 0.780 0.769 0.761 0.754 0.749 0.746 0.744 0.742 0.742 0.741 0.741 0.742 0.742 0.744 0.746 0.750 0.755 0.762 0.771 0.782 0.795 0.810 0.827 0.847 0.869 0.888 0.906 0.920 0.933 0.943 0.951 0.958 0.962 0.965 0.967 0.968 0.969 0.969 0.969 0.968 0.966 0.963 0.959 0.954 0.947 0.938 0.928 0.916 0.902 0.886 0.869 0.851 0.829 0.795 0.727 0.561 0.328 0.328 0.000 
0.000 0.010 0.010 0.028 0.065 0.112 0.153 0.187 0.215 0.239 0.258 0.276 0.290 0.304 0.316 0.327 0.337 0.347 0.357 0.366 0.375 0.385 0.394 0.404 0.413 0.423 0.434 0.445 0.456 0.469 0.482 0.496 0.512 0.529 0.547 0.567 0.589 0.612 0.638 0.666 0.695 0.728 0.762 0.800 0.839 0.881 0.921 0.959 0.994 1.027 1.058 1.086 1.112 1.136 1.158 1.177 1.195 1.212 1.226 1.239 1.250 1.260 1.269 1.276 1.282 1.287 1.292 1.295 1.297 1.299 1.301 1.302 1.302 1.302 1.303 1.303 1.302 1.302 1.302 1.301 1.299 1.297 1.294 1.291 1.286 1.281 1.274 1.266 1.257 1.246 1.234 1.219 1.203 1.185 1.165 1.143 1.118 1.090 1.060 1.027 0.991 0.956 0.924 0.895 0.869 0.845 0.824 0.806 0.791 0.778 0.767 0.758 0.751 0.746 0.742 0.740 0.738 0.737 0.737 0.737 0.737 0.738 0.739 0.741 0.745 0.750 0.756 0.764 0.774 0.787 0.801 0.818 0.837 0.858 0.877 0.894 0.909 0.921 0.932 0.940 0.947 0.952 0.955 0.958 0.959 0.959 0.959 0.959 0.958 0.957 0.955 0.951 0.946 0.940 0.932 0.923 0.911 0.899 0.884 0.868 0.850 0.828 0.793 0.723 0.551 0.210 0.210 0.000 
0.000 0.030 0.030 0.029 0.067 0.117 0.158 0.191 0.218 0.242 0.261 0.278 0.292 0.305 0.317 0.328 0.338 0.348 0.357 0.366 0.375 0.384 0.393 0.402 0.412 0.421 0.431 0.442 0.453 0.466 0.479 0.493 0.508 0.525 0.543 0.562 0.584 0.607 0.632 0.659 0.689 0.720 0.754 0.791 0.830 0.871 0.911 0.948 0.984 1.016 1.047 1.075 1.101 1.124 1.146 1.166 1.184 1.200 1.214 1.227 1.239 1.248 1.257 1.265 1.271 1.276 1.280 1.284 1.286 1.288 1.290 1.291 1.291 1.292 1.292 1.292 1.292 1.291 1.291 1.290 1.289 1.287 1.284 1.281 1.276 1.271 1.265 1.257 1.248 1.238 1.226 1.212 1.197 1.180 1.160 1.138 1.114 1.087 1.058 1.026 0.991 0.956 0.924 0.894 0.868 0.844 0.823 0.804 0.788 0.775 0.764 0.754 0.747 0.742 0.738 0.735 0.733 0.732 0.732 0.732 0.732 0.732 0.733 0.735 0.739 0.743 0.749 0.756 0.766 0.777 0.791 0.807 0.825 0.845 0.864 0.881 0.896 0.909 0.919 0.928 0.935 0.941 0.945 0.948 0.949 0.950 0.950 0.950 0.949 0.948 0.946 0.943 0.939 0.934 0.927 0.918 0.908 0.896 0.882 0.867 0.852 0.834 0.811 0.777 0.738 0.746 0.746 0.000 
0.000 0.062 0.062 0.052 0.085 0.129 0.167 0.199 0.225 0.247 0.266 0.282 0.296 0.308 0.319 0.329 0.339 0.348 0.357 0.366 0.375 0.384 0.392 0.401 0.410 0.419 0.429 0.439 0.450 0.462 0.475 0.489 0.504 0.520 0.538 0.557 0.578 0.601 0.626 0.652 0.681 0.713 0.746 0.782 0.820 0.861 0.900 0.937 0.972 1.005 1.035 1.063 1.089 1.112 1.134 1.154 1.171 1.188 1.202 1.215 1.226 1.236 1.245 1.252 1.259 1.264 1.268 1.272 1.275 1.277 1.278 1.279 1.280 1.280 1.280 1.280 1.280 1.280 1.280 1.279 1.278 1.276 1.273 1.270 1.266 1.261 1.255 1.248 1.239 1.229 1.218 1.205 1.190 1.173 1.154 1.133 1.110 1.084 1.056 1.025 0.991 0.956 0.923 0.893 0.866 0.842 0.820 0.801 0.785 0.771 0.760 0.750 0.742 0.737 0.732 0.729 0.727 0.726 0.726 0.725 0.725 0.726 0.727 0.729 0.731 0.735 0.741 0.748 0.756 0.767 0.780 0.795 0.812 0.831 0.850 0.867 0.882 0.895 0.906 0.915 0.923 0.929 0.933 0.937 0.939 0.940 0.941 0.941 0.941 0.940 0.938 0.936 0.933 0.928 0.922 0.914 0.905 0.894 0.880 0.867 0.857 0.850 0.848 0.862 0.924 1.058 1.058 0.000 
0.000 0.157 0.157 0.110 0.132 0.155 0.182 0.211 0.236 0.256 0.273 0.288 0.301 0.312 0.323 0.332 0.341 0.350 0.358 0.367 0.375 0.383 0.391 0.400 0.408 0.417 0.426 0.436 0.447 0.458 0.471 0.484 0.499 0.515 0.533 0.552 0.572 0.595 0.619 0.645 0.674 0.704 0.737 0.772 0.810 0.850 0.889 0.926 0.960 0.992 1.022 1.050 1.076 1.099 1.121 1.141 1.158 1.175 1.189 1.202 1.213 1.223 1.232 1.240 1.246 1.251 1.256 1.260 1.262 1.265 1.266 1.267 1.268 1.268 1.268 1.268 1.268 1.268 1.268 1.267 1.266 1.264 1.262 1.259 1.255 1.250 1.245 1.238 1.230 1.220 1.209 1.196 1.182 1.166 1.148 1.127 1.105 1.080 1.052 1.022 0.990 0.955 0.922 0.892 0.864 0.840 0.818 0.798 0.781 0.767 0.755 0.745 0.737 0.731 0.726 0.723 0.720 0.719 0.718 0.718 0.718 0.718 0.719 0.720 0.723 0.726 0.731 0.738 0.746 0.756 0.768 0.781 0.797 0.815 0.834 0.851 0.866 0.879 0.891 0.901 0.909 0.916 0.921 0.925 0.928 0.931 0.932 0.933 0.933 0.932 0.931 0.929 0.927 0.923 0.918 0.911 0.903 0.893 0.880 0.867 0.860 0.858 0.864 0.890 0.969 1.055 1.055 0.000 
0.000 0.270 0.270 0.207 0.187 0.189 0.206 0.230 0.252 0.270 0.285 0.297 0.309 0.319 0.328 0.336 0.345 0.352 0.360 0.368 0.375 0.383 0.391 0.398 0.406 0.415 0.423 0.433 0.443 0.454 0.466 0.480 0.494 0.510 0.527 0.545 0.566 0.588 0.611 0.637 0.665 0.695 0.727 0.762 0.799 0.838 0.877 0.913 0.947 0.979 1.009 1.037 1.062 1.086 1.107 1.127 1.145 1.161 1.175 1.188 1.200 1.210 1.219 1.226 1.233 1.238 1.243 1.246 1.249 1.251 1.253 1.254 1.255 1.255 1.256 1.256 1.256 1.255 1.255 1.254 1.253 1.252 1.250 1.247 1.243 1.239 1.233 1.227 1.219 1.210 1.199 1.187 1.173 1.158 1.140 1.121 1.099 1.075 1.048 1.019 0.988 0.954 0.920 0.890 0.862 0.837 0.814 0.794 0.777 0.762 0.749 0.739 0.730 0.724 0.719 0.715 0.712 0.711 0.710 0.710 0.710 0.710 0.710 0.711 0.713 0.716 0.721 0.727 0.734 0.743 0.754 0.767 0.781 0.798 0.816 0.833 0.849 0.862 0.875 0.885 0.894 0.902 0.908 0.913 0.917 0.921 0.923 0.925 0.925 0.925 0.925 0.924 0.922 0.919 0.915 0.909 0.902 0.893 0.880 0.868 0.860 0.858 0.864 0.890 0.967 1.053 1.053 0.000 
0.000 0.175 0.175 0.219 0.213 0.225 0.240 0.258 0.275 0.289 0.300 0.310 0.319 0.327 0.335 0.342 0.349 0.356 0.363 0.369 0.376 0.383 0.390 0.397 0.404 0.412 0.420 0.429 0.439 0.450 0.461 0.474 0.488 0.503 0.520 0.538 0.558 0.580 0.603 0.628 0.656 0.685 0.717 0.751 0.787 0.825 0.864 0.900 0.934 0.966 0.995 1.023 1.048 1.071 1.093 1.112 1.130 1.146 1.161 1.174 1.185 1.195 1.204 1.212 1.218 1.224 1.229 1.232 1.235 1.238 1.239 1.241 1.241 1.242 1.242 1.242 1.242 1.242 1.242 1.241 1.240 1.239 1.237 1.234 1.231 1.226 1.221 1.215 1.208 1.199 1.189 1.177 1.164 1.149 1.132 1.113 1.092 1.069 1.043 1.015 0.985 0.952 0.918 0.887 0.859 0.833 0.810 0.790 0.772 0.756 0.743 0.732 0.723 0.716 0.710 0.706 0.703 0.701 0.700 0.700 0.700 0.700 0.700 0.701 0.703 0.705 0.709 0.714 0.721 0.729 0.739 0.751 0.764 0.780 0.797 0.814 0.830 0.844 0.857 0.868 0.878 0.887 0.894 0.900 0.906 0.910 0.914 0.917 0.918 0.919 0.919 0.919 0.917 0.915 0.912 0.908 0.902 0.893 0.882 0.869 0.859 0.851 0.848 0.860 0.916 1.050 1.050 0.000 
0.000 0.027 0.027 0.143 0.236 0.268 0.284 0.296 0.306 0.314 0.321 0.327 0.333 0.338 0.344 0.349 0.355 0.360 0.366 0.371 0.377 0.383 0.389 0.395 0.402 0.409 0.417 0.425 0.435 0.445 0.456 0.468 0.482 0.497 0.513 0.531 0.550 0.571 0.594 0.619 0.646 0.675 0.706 0.739 0.774 0.812 0.850 0.886 0.919 0.951 0.980 1.007 1.033 1.056 1.077 1.097 1.114 1.131 1.145 1.158 1.170 1.180 1.189 1.197 1.203 1.209 1.214 1.217 1.221 1.223 1.225 1.226 1.227 1.227 1.228 1.228 1.228 1.228 1.227 1.227 1.226 1.225 1.223 1.220 1.217 1.213 1.208 1.202 1.195 1.187 1.177 1.166 1.153 1.139 1.123 1.105 1.084 1.062 1.037 1.010 0.981 0.949 0.915 0.884 0.855 0.829 0.805 0.784 0.766 0.749 0.736 0.724 0.715 0.707 0.701 0.696 0.693 0.691 0.690 0.689 0.689 0.689 0.689 0.689 0.691 0.693 0.696 0.701 0.706 0.714 0.723 0.734 0.746 0.760 0.776 0.793 0.809 0.824 0.837 0.849 0.860 0.870 0.879 0.886 0.893 0.899 0.904 0.908 0.911 0.913 0.914 0.915 0.914 0.913 0.911 0.908 0.902 0.895 0.884 0.872 0.857 0.838 0.812 0.775 0.732 0.805 0.805 0.000 
0.000 0.312 0.312 0.190 0.291 0.328 0.340 0.344 0.345 0.345 0.346 0.348 0.350 0.352 0.355 0.358 0.362 0.366 0.370 0.374 0.378 0.383 0.388 0.393 0.399 0.406 0.413 0.421 0.430 0.439 0.450 0.462 0.475 0.489 0.505 0.523 0.541 0.562 0.585 0.609 0.635 0.663 0.694 0.726 0.761 0.797 0.835 0.871 0.904 0.935 0.964 0.991 1.016 1.039 1.061 1.080 1.098 1.114 1.129 1.142 1.153 1.164 1.173 1.180 1.187 1.193 1.198 1.202 1.205 1.207 1.209 1.211 1.212 1.212 1.212 1.213 1.213 1.212 1.212 1.212 1.211 1.210 1.208 1.206 1.203 1.199 1.194 1.189 1.182 1.174 1.165 1.154 1.142 1.128 1.113 1.095 1.076 1.054 1.030 1.004 0.976 0.945 0.912 0.880 0.850 0.824 0.799 0.778 0.759 0.742 0.727 0.715 0.705 0.697 0.690 0.685 0.682 0.679 0.677 0.677 0.676 0.676 0.676 0.677 0.678 0.679 0.682 0.686 0.691 0.697 0.706 0.715 0.727 0.740 0.755 0.771 0.787 0.802 0.816 0.829 0.841 0.852 0.862 0.871 0.880 0.887 0.894 0.899 0.904 0.908 0.910 0.911 0.912 0.912 0.910 0.908 0.904 0.897 0.888 0.875 0.858 0.834 0.795 0.721 0.550 0.275 0.275 0.000 
0.000 0.692 0.692 0.493 0.438 0.424 0.412 0.401 0.390 0.382 0.376 0.372 0.369 0.368 0.368 0.369 0.370 0.372 0.374 0.377 0.379 0.383 0.386 0.391 0.396 0.402 0.408 0.416 0.424 0.433 0.444 0.455 0.467 0.481 0.497 0.514 0.532 0.552 0.574 0.598 0.623 0.651 0.681 0.712 0.746 0.782 0.819 0.854 0.887 0.918 0.947 0.974 0.999 1.022 1.043 1.063 1.080 1.096 1.111 1.124 1.136 1.146 1.155 1.163 1.170 1.176 1.181 1.185 1.188 1.191 1.193 1.194 1.195 1.196 1.196 1.196 1.196 1.196 1.196 1.196 1.195 1.194 1.192 1.190 1.187 1.184 1.180 1.174 1.168 1.160 1.151 1.141 1.130 1.116 1.101 1.085 1.066 1.045 1.022 0.997 0.970 0.940 0.907 0.875 0.845 0.817 0.793 0.770 0.751 0.733 0.718 0.705 0.695 0.686 0.679 0.673 0.669 0.666 0.664 0.663 0.662 0.662 0.662 0.662 0.663 0.664 0.666 0.670 0.674 0.680 0.687 0.696 0.706 0.718 0.732 0.747 0.763 0.779 0.794 0.807 0.821 0.833 0.844 0.855 0.865 0.874 0.882 0.890 0.896 0.901 0.906 0.909 0.910 0.911 0.911 0.909 0.906 0.900 0.892 0.880 0.862 0.836 0.796 0.723 0.560 0.253 0.253 0.000 
0.000 0.746 0.746 0.682 0.578 0.517 0.478 0.451 0.430 0.414 0.402 0.393 0.387 0.382 0.379 0.378 0.377 0.377 0.378 0.379 0.380 0.382 0.385 0.389 0.393 0.398 0.404 0.411 0.418 0.427 0.437 0.447 0.459 0.473 0.488 0.504 0.522 0.541 0.562 0.586 0.611 0.637 0.666 0.697 0.730 0.766 0.802 0.837 0.869 0.900 0.929 0.956 0.980 1.003 1.024 1.044 1.061 1.078 1.092 1.105 1.117 1.128 1.137 1.145 1.152 1.158 1.163 1.167 1.170 1.173 1.175 1.177 1.178 1.178 1.179 1.179 1.179 1.179 1.179 1.179 1.178 1.177 1.176 1.174 1.171 1.168 1.164 1.158 1.152 1.145 1.137 1.127 1.116 1.103 1.089 1.073 1.055 1.035 1.013 0.989 0.962 0.933 0.902 0.869 0.839 0.810 0.785 0.762 0.742 0.724 0.708 0.694 0.683 0.674 0.666 0.660 0.655 0.652 0.649 0.648 0.647 0.647 0.647 0.647 0.647 0.648 0.650 0.652 0.656 0.661 0.667 0.675 0.684 0.695 0.708 0.722 0.737 0.753 0.769 0.784 0.798 0.812 0.825 0.837 0.849 0.860 0.870 0.879 0.887 0.895 0.901 0.906 0.909 0.911 0.912 0.911 0.909 0.905 0.898 0.887 0.871 0.847 0.816 0.779 0.747 0.778 0.778 0.000 
0.000 0.737 0.737 0.720 0.643 0.573 0.524 0.488 0.460 0.439 0.423 0.411 0.401 0.394 0.388 0.385 0.382 0.380 0.380 0.380 0.380 0.381 0.383 0.386 0.389 0.394 0.399 0.405 0.412 0.420 0.429 0.439 0.451 0.463 0.478 0.493 0.510 0.529 0.550 0.572 0.597 0.623 0.651 0.681 0.714 0.748 0.784 0.818 0.850 0.881 0.909 0.936 0.960 0.983 1.004 1.024 1.041 1.058 1.072 1.085 1.097 1.108 1.117 1.125 1.132 1.138 1.144 1.148 1.151 1.154 1.156 1.158 1.159 1.160 1.160 1.160 1.161 1.161 1.160 1.160 1.160 1.159 1.157 1.156 1.153 1.150 1.146 1.142 1.136 1.129 1.121 1.112 1.101 1.089 1.075 1.060 1.043 1.023 1.002 0.979 0.953 0.925 0.895 0.862 0.831 0.802 0.776 0.753 0.731 0.713 0.696 0.682 0.670 0.660 0.652 0.645 0.640 0.636 0.633 0.632 0.630 0.630 0.630 0.630 0.630 0.630 0.632 0.634 0.637 0.641 0.646 0.653 0.662 0.671 0.683 0.696 0.710 0.726 0.742 0.758 0.774 0.789 0.803 0.817 0.831 0.844 0.856 0.867 0.878 0.887 0.896 0.903 0.908 0.912 0.914 0.915 0.914 0.912 0.908 0.899 0.887 0.873 0.865 0.877 0.927 1.037 1.037 0.000 
0.000 0.714 0.714 0.714 0.666 0.604 0.553 0.514 0.484 0.460 0.441 0.426 0.414 0.404 0.396 0.390 0.386 0.383 0.381 0.380 0.380 0.381 0.382 0.383 0.386 0.389 0.394 0.399 0.405 0.412 0.421 0.430 0.441 0.453 0.467 0.482 0.498 0.517 0.537 0.558 0.582 0.607 0.635 0.664 0.695 0.729 0.764 0.798 0.830 0.860 0.888 0.915 0.939 0.962 0.983 1.002 1.020 1.036 1.051 1.064 1.076 1.087 1.096 1.104 1.111 1.118 1.123 1.127 1.131 1.134 1.136 1.138 1.139 1.140 1.140 1.141 1.141 1.141 1.141 1.140 1.140 1.139 1.138 1.136 1.134 1.131 1.128 1.123 1.118 1.111 1.104 1.095 1.085 1.073 1.060 1.045 1.029 1.010 0.990 0.967 0.943 0.916 0.886 0.854 0.823 0.793 0.766 0.742 0.720 0.701 0.684 0.669 0.656 0.645 0.637 0.629 0.624 0.619 0.616 0.614 0.612 0.612 0.611 0.611 0.611 0.611 0.612 0.614 0.616 0.620 0.624 0.630 0.638 0.647 0.657 0.669 0.683 0.698 0.714 0.731 0.748 0.764 0.780 0.796 0.811 0.826 0.840 0.853 0.866 0.878 0.890 0.899 0.908 0.914 0.918 0.921 0.922 0.923 0.921 0.917 0.912 0.912 0.920 0.942 0.989 1.035 1.035 0.000 
0.000 0.688 0.688 0.695 0.667 0.618 0.571 0.533 0.502 0.477 0.456 0.438 0.424 0.412 0.403 0.395 0.389 0.384 0.382 0.380 0.379 0.379 0.379 0.380 0.382 0.384 0.388 0.392 0.398 0.404 0.412 0.421 0.431 0.442 0.455 0.470 0.485 0.503 0.522 0.543 0.566 0.591 0.617 0.645 0.676 0.708 0.742 0.776 0.808 0.838 0.866 0.892 0.916 0.939 0.960 0.979 0.997 1.013 1.028 1.041 1.053 1.064 1.073 1.082 1.089 1.095 1.101 1.105 1.109 1.112 1.114 1.116 1.118 1.119 1.119 1.119 1.120 1.120 1.120 1.119 1.119 1.118 1.117 1.116 1.114 1.111 1.108 1.103 1.098 1.092 1.085 1.077 1.067 1.056 1.043 1.029 1.013 0.996 0.976 0.954 0.931 0.904 0.876 0.845 0.813 0.783 0.755 0.730 0.708 0.688 0.670 0.654 0.641 0.630 0.620 0.612 0.606 0.601 0.597 0.595 0.593 0.592 0.591 0.591 0.591 0.591 0.592 0.593 0.595 0.597 0.601 0.606 0.613 0.621 0.630 0.641 0.654 0.669 0.685 0.702 0.719 0.737 0.755 0.772 0.789 0.806 0.822 0.838 0.853 0.868 0.882 0.895 0.907 0.917 0.925 0.930 0.934 0.938 0.940 0.942 0.945 0.953 0.966 0.987 1.016 1.035 1.035 0.000 
0.000 0.662 0.662 0.672 0.656 0.622 0.581 0.546 0.517 0.491 0.469 0.450 0.433 0.419 0.408 0.398 0.391 0.385 0.382 0.379 0.378 0.377 0.377 0.377 0.378 0.379 0.382 0.385 0.390 0.396 0.403 0.411 0.420 0.431 0.443 0.456 0.471 0.488 0.507 0.527 0.549 0.572 0.598 0.626 0.655 0.686 0.719 0.753 0.784 0.814 0.842 0.868 0.892 0.914 0.935 0.955 0.972 0.988 1.003 1.017 1.029 1.040 1.049 1.058 1.065 1.072 1.077 1.082 1.086 1.089 1.091 1.093 1.095 1.096 1.096 1.097 1.097 1.097 1.097 1.097 1.096 1.096 1.095 1.093 1.092 1.089 1.086 1.082 1.077 1.072 1.065 1.057 1.048 1.037 1.025 1.012 0.996 0.979 0.960 0.940 0.917 0.891 0.864 0.834 0.802 0.771 0.743 0.717 0.694 0.673 0.655 0.639 0.625 0.612 0.602 0.594 0.587 0.581 0.577 0.574 0.572 0.571 0.570 0.569 0.569 0.569 0.570 0.570 0.572 0.574 0.577 0.581 0.587 0.594 0.603 0.613 0.625 0.639 0.654 0.671 0.689 0.708 0.727 0.746 0.765 0.784 0.803 0.821 0.838 0.856 0.872 0.889 0.904 0.919 0.933 0.943 0.951 0.958 0.964 0.972 0.981 0.992 1.006 1.022 1.035 1.038 1.038 0.000 
0.000 0.636 0.636 0.647 0.637 0.616 0.585 0.555 0.528 0.503 0.480 0.460 0.441 0.425 0.412 0.401 0.392 0.386 0.381 0.378 0.376 0.374 0.374 0.373 0.373 0.374 0.376 0.378 0.382 0.387 0.393 0.400 0.408 0.418 0.429 0.442 0.457 0.472 0.490 0.509 0.530 0.553 0.578 0.604 0.633 0.663 0.695 0.728 0.759 0.788 0.816 0.842 0.866 0.888 0.909 0.928 0.946 0.962 0.977 0.990 1.003 1.013 1.023 1.032 1.039 1.046 1.052 1.056 1.060 1.064 1.066 1.068 1.070 1.071 1.072 1.072 1.072 1.072 1.072 1.072 1.072 1.071 1.071 1.069 1.068 1.065 1.063 1.059 1.054 1.049 1.043 1.035 1.026 1.016 1.005 0.992 0.977 0.961 0.943 0.923 0.901 0.876 0.850 0.821 0.789 0.758 0.729 0.703 0.679 0.658 0.638 0.622 0.607 0.594 0.583 0.574 0.567 0.560 0.556 0.552 0.550 0.548 0.547 0.546 0.546 0.546 0.546 0.547 0.547 0.549 0.552 0.555 0.560 0.567 0.574 0.584 0.595 0.608 0.623 0.639 0.658 0.677 0.698 0.718 0.739 0.760 0.781 0.801 0.821 0.841 0.861 0.880 0.900 0.919 0.938 0.956 0.971 0.983 0.994 1.005 1.018 1.030 1.043 1.054 1.059 1.059 1.059 0.000 
0.000 0.611 0.611 0.622 0.614 0.601 0.582 0.560 0.538 0.515 0.492 0.469 0.448 0.430 0.414 0.402 0.392 0.385 0.380 0.376 0.373 0.370 0.369 0.368 0.368 0.368 0.369 0.371 0.373 0.377 0.382 0.388 0.396 0.405 0.415 0.427 0.441 0.456 0.472 0.490 0.510 0.532 0.556 0.581 0.609 0.638 0.669 0.701 0.732 0.761 0.788 0.814 0.838 0.860 0.881 0.900 0.918 0.934 0.949 0.962 0.974 0.985 0.995 1.004 1.012 1.018 1.024 1.029 1.033 1.037 1.039 1.041 1.043 1.044 1.045 1.045 1.046 1.046 1.046 1.046 1.046 1.045 1.044 1.043 1.042 1.040 1.037 1.034 1.029 1.024 1.018 1.011 1.003 0.993 0.983 0.970 0.956 0.941 0.923 0.904 0.883 0.859 0.833 0.805 0.775 0.744 0.714 0.687 0.663 0.641 0.621 0.603 0.588 0.574 0.563 0.553 0.545 0.538 0.533 0.529 0.526 0.524 0.523 0.522 0.521 0.521 0.521 0.521 0.522 0.523 0.525 0.528 0.533 0.538 0.545 0.554 0.564 0.577 0.591 0.607 0.625 0.645 0.666 0.688 0.710 0.733 0.756 0.779 0.802 0.824 0.847 0.870 0.893 0.917 0.941 0.966 0.991 1.011 1.027 1.042 1.055 1.067 1.078 1.085 1.091 1.097 1.097 0.000 
0.000 0.585 0.585 0.596 0.591 0.585 0.576 0.563 0.545 0.525 0.502 0.477 0.453 0.433 0.416 0.403 0.392 0.384 0.377 0.372 0.368 0.366 0.364 0.362 0.362 0.362 0.362 0.362 0.364 0.367 0.371 0.376 0.383 0.391 0.400 0.411 0.423 0.437 0.453 0.470 0.489 0.510 0.533 0.557 0.583 0.611 0.641 0.672 0.702 0.731 0.758 0.784 0.808 0.830 0.850 0.870 0.887 0.903 0.918 0.932 0.944 0.955 0.965 0.974 0.982 0.989 0.994 0.999 1.004 1.007 1.010 1.012 1.014 1.015 1.016 1.017 1.017 1.017 1.017 1.017 1.017 1.017 1.016 1.015 1.014 1.012 1.009 1.006 1.002 0.998 0.992 0.985 0.977 0.968 0.958 0.946 0.933 0.918 0.901 0.883 0.862 0.840 0.815 0.788 0.758 0.727 0.697 0.670 0.645 0.622 0.601 0.583 0.567 0.553 0.541 0.530 0.522 0.515 0.509 0.504 0.501 0.498 0.497 0.496 0.495 0.495 0.495 0.495 0.495 0.496 0.498 0.500 0.504 0.509 0.515 0.523 0.533 0.544 0.558 0.574 0.591 0.611 0.633 0.655 0.679 0.704 0.729 0.754 0.780 0.805 0.831 0.857 0.884 0.912 0.940 0.970 1.004 1.035 1.059 1.078 1.092 1.104 1.113 1.119 1.125 1.129 1.129 0.000 
0.000 0.559 0.559 0.572 0.575 0.576 0.573 0.565 0.552 0.533 0.510 0.483 0.457 0.435 0.417 0.402 0.391 0.382 0.374 0.368 0.363 0.360 0.357 0.355 0.354 0.354 0.353 0.354 0.354 0.356 0.359 0.363 0.369 0.376 0.384 0.394 0.405 0.418 0.433 0.449 0.467 0.487 0.508 0.531 0.556 0.582 0.611 0.641 0.671 0.700 0.726 0.752 0.775 0.797 0.818 0.837 0.855 0.871 0.886 0.899 0.912 0.923 0.933 0.942 0.950 0.956 0.962 0.968 0.972 0.976 0.979 0.981 0.983 0.984 0.985 0.986 0.986 0.986 0.986 0.986 0.986 0.986 0.985 0.984 0.983 0.982 0.979 0.976 0.973 0.968 0.963 0.957 0.949 0.941 0.931 0.920 0.907 0.893 0.877 0.859 0.840 0.818 0.794 0.768 0.740 0.709 0.679 0.651 0.625 0.602 0.581 0.562 0.545 0.530 0.518 0.507 0.497 0.490 0.483 0.478 0.475 0.472 0.470 0.468 0.468 0.467 0.467 0.467 0.467 0.468 0.469 0.471 0.474 0.479 0.484 0.492 0.501 0.512 0.524 0.540 0.557 0.576 0.598 0.621 0.646 0.673 0.700 0.727 0.755 0.784 0.813 0.842 0.873 0.904 0.937 0.971 1.010 1.052 1.087 1.112 1.129 1.141 1.149 1.154 1.157 1.157 1.157 0.000 
0.000 0.533 0.533 0.551 0.568 0.573 0.573 0.568 0.558 0.540 0.516 0.487 0.459 0.436 0.417 0.402 0.389 0.378 0.369 0.362 0.357 0.352 0.349 0.347 0.345 0.344 0.344 0.344 0.344 0.345 0.347 0.350 0.354 0.360 0.367 0.376 0.386 0.398 0.411 0.426 0.443 0.461 0.481 0.503 0.527 0.552 0.579 0.608 0.637 0.666 0.692 0.717 0.741 0.763 0.783 0.802 0.820 0.836 0.851 0.864 0.877 0.888 0.898 0.907 0.915 0.922 0.928 0.933 0.938 0.941 0.944 0.947 0.949 0.950 0.951 0.952 0.952 0.953 0.953 0.953 0.953 0.952 0.952 0.951 0.950 0.949 0.947 0.944 0.941 0.937 0.932 0.926 0.919 0.911 0.901 0.891 0.879 0.865 0.850 0.833 0.814 0.793 0.770 0.745 0.718 0.689 0.658 0.630 0.604 0.580 0.558 0.539 0.522 0.506 0.493 0.481 0.472 0.463 0.457 0.451 0.447 0.444 0.441 0.440 0.439 0.438 0.438 0.438 0.438 0.438 0.439 0.441 0.444 0.447 0.452 0.459 0.468 0.478 0.490 0.505 0.522 0.541 0.562 0.586 0.612 0.639 0.668 0.697 0.728 0.759 0.791 0.824 0.858 0.893 0.930 0.969 1.012 1.060 1.107 1.142 1.165 1.179 1.187 1.191 1.190 1.187 1.187 0.000 
0.000 0.550 0.550 0.549 0.569 0.576 0.577 0.573 0.563 0.546 0.520 0.489 0.460 0.436 0.416 0.399 0.385 0.373 0.364 0.355 0.349 0.344 0.340 0.337 0.335 0.333 0.332 0.332 0.332 0.332 0.333 0.335 0.339 0.343 0.349 0.357 0.366 0.376 0.389 0.402 0.418 0.435 0.453 0.474 0.496 0.520 0.545 0.573 0.601 0.629 0.656 0.681 0.704 0.726 0.746 0.765 0.782 0.798 0.813 0.827 0.839 0.850 0.860 0.869 0.877 0.884 0.891 0.896 0.900 0.904 0.907 0.910 0.912 0.913 0.915 0.915 0.916 0.916 0.916 0.916 0.916 0.916 0.916 0.915 0.914 0.913 0.911 0.909 0.906 0.902 0.897 0.892 0.885 0.878 0.869 0.859 0.847 0.835 0.820 0.804 0.786 0.766 0.744 0.720 0.694 0.665 0.635 0.607 0.580 0.556 0.534 0.514 0.496 0.481 0.467 0.455 0.444 0.436 0.428 0.422 0.418 0.414 0.411 0.409 0.408 0.408 0.407 0.407 0.407 0.408 0.408 0.410 0.412 0.415 0.420 0.426 0.434 0.443 0.455 0.469 0.486 0.504 0.526 0.550 0.576 0.604 0.634 0.665 0.698 0.732 0.767 0.803 0.840 0.879 0.920 0.964 1.010 1.061 1.117 1.167 1.200 1.220 1.229 1.231 1.229 1.219 1.219 0.000 
0.000 0.570 0.570 0.566 0.582 0.588 0.588 0.583 0.571 0.550 0.522 0.489 0.459 0.435 0.414 0.396 0.380 0.367 0.356 0.347 0.340 0.333 0.329 0.325 0.322 0.321 0.319 0.319 0.318 0.318 0.319 0.320 0.322 0.326 0.330 0.337 0.344 0.354 0.364 0.377 0.391 0.406 0.424 0.443 0.463 0.485 0.510 0.535 0.563 0.590 0.617 0.641 0.664 0.686 0.706 0.724 0.742 0.758 0.772 0.786 0.798 0.809 0.820 0.829 0.837 0.844 0.850 0.855 0.860 0.864 0.867 0.870 0.872 0.874 0.875 0.876 0.876 0.876 0.877 0.877 0.877 0.876 0.876 0.876 0.875 0.874 0.872 0.870 0.867 0.864 0.859 0.854 0.848 0.841 0.833 0.824 0.813 0.801 0.787 0.772 0.755 0.736 0.715 0.692 0.667 0.640 0.610 0.582 0.555 0.530 0.508 0.488 0.470 0.454 0.439 0.427 0.416 0.406 0.399 0.392 0.387 0.383 0.380 0.378 0.376 0.376 0.375 0.375 0.375 0.375 0.376 0.377 0.379 0.382 0.386 0.391 0.399 0.408 0.419 0.433 0.449 0.467 0.488 0.512 0.538 0.567 0.598 0.630 0.665 0.701 0.739 0.778 0.819 0.862 0.906 0.954 1.004 1.059 1.119 1.181 1.232 1.262 1.277 1.282 1.281 1.278 1.278 0.000 
0.000 0.664 0.664 0.612 0.618 0.617 0.611 0.599 0.580 0.554 0.522 0.488 0.458 0.432 0.410 0.390 0.374 0.359 0.347 0.337 0.329 0.322 0.316 0.312 0.309 0.306 0.305 0.304 0.303 0.303 0.303 0.303 0.305 0.307 0.311 0.315 0.322 0.330 0.339 0.350 0.362 0.376 0.392 0.409 0.428 0.449 0.471 0.496 0.522 0.549 0.575 0.599 0.622 0.643 0.663 0.681 0.698 0.714 0.729 0.742 0.754 0.766 0.776 0.785 0.793 0.800 0.806 0.812 0.816 0.820 0.824 0.826 0.829 0.830 0.831 0.832 0.833 0.833 0.833 0.834 0.834 0.833 0.833 0.833 0.832 0.831 0.830 0.828 0.825 0.822 0.818 0.814 0.808 0.801 0.794 0.785 0.775 0.763 0.750 0.736 0.720 0.702 0.682 0.660 0.637 0.611 0.583 0.554 0.527 0.503 0.480 0.460 0.441 0.425 0.410 0.397 0.386 0.376 0.368 0.361 0.355 0.351 0.347 0.345 0.343 0.342 0.342 0.342 0.342 0.342 0.342 0.343 0.345 0.347 0.351 0.356 0.363 0.372 0.382 0.396 0.411 0.429 0.450 0.473 0.500 0.528 0.560 0.593 0.629 0.668 0.708 0.749 0.793 0.839 0.888 0.939 0.994 1.052 1.116 1.185 1.252 1.304 1.335 1.349 1.353 1.353 1.353 0.000 
0.000 0.760 0.760 0.703 0.685 0.669 0.648 0.623 0.592 0.557 0.521 0.486 0.455 0.428 0.404 0.383 0.365 0.349 0.336 0.325 0.316 0.308 0.302 0.297 0.293 0.290 0.288 0.287 0.286 0.285 0.285 0.285 0.286 0.287 0.290 0.293 0.298 0.305 0.312 0.322 0.332 0.345 0.359 0.374 0.391 0.410 0.431 0.454 0.478 0.504 0.530 0.554 0.576 0.597 0.617 0.635 0.652 0.668 0.682 0.695 0.707 0.718 0.728 0.737 0.745 0.752 0.759 0.764 0.769 0.773 0.776 0.779 0.781 0.783 0.784 0.785 0.786 0.786 0.787 0.787 0.787 0.787 0.786 0.786 0.786 0.785 0.783 0.782 0.780 0.777 0.773 0.769 0.764 0.758 0.751 0.742 0.733 0.722 0.710 0.697 0.681 0.665 0.646 0.625 0.603 0.578 0.552 0.524 0.497 0.473 0.450 0.430 0.411 0.394 0.379 0.366 0.354 0.344 0.335 0.328 0.322 0.317 0.313 0.311 0.309 0.308 0.307 0.307 0.307 0.307 0.307 0.308 0.309 0.312 0.315 0.320 0.326 0.335 0.345 0.357 0.373 0.390 0.411 0.434 0.460 0.489 0.520 0.554 0.591 0.631 0.673 0.717 0.763 0.812 0.864 0.919 0.977 1.040 1.107 1.180 1.259 1.334 1.394 1.432 1.450 1.452 1.452 0.000 
0.000 0.878 0.878 0.810 0.782 0.742 0.696 0.649 0.603 0.559 0.518 0.482 0.449 0.421 0.395 0.373 0.354 0.338 0.324 0.312 0.301 0.293 0.286 0.281 0.276 0.273 0.270 0.268 0.267 0.266 0.266 0.265 0.266 0.266 0.267 0.270 0.273 0.278 0.284 0.292 0.301 0.311 0.323 0.337 0.352 0.369 0.388 0.409 0.432 0.456 0.481 0.505 0.527 0.548 0.567 0.585 0.602 0.617 0.631 0.644 0.656 0.667 0.677 0.686 0.694 0.701 0.707 0.713 0.717 0.721 0.725 0.728 0.730 0.732 0.733 0.734 0.735 0.735 0.736 0.736 0.736 0.736 0.736 0.735 0.735 0.734 0.733 0.732 0.730 0.727 0.724 0.720 0.715 0.710 0.703 0.696 0.687 0.677 0.666 0.653 0.639 0.623 0.606 0.587 0.566 0.543 0.518 0.491 0.465 0.440 0.418 0.397 0.379 0.362 0.346 0.333 0.321 0.310 0.301 0.294 0.287 0.282 0.279 0.276 0.274 0.273 0.273 0.272 0.272 0.272 0.273 0.274 0.275 0.277 0.280 0.285 0.291 0.298 0.308 0.320 0.334 0.351 0.370 0.393 0.419 0.447 0.479 0.513 0.551 0.591 0.634 0.680 0.729 0.780 0.835 0.893 0.955 1.021 1.093 1.171 1.255 1.347 1.434 1.502 1.545 1.566 1.566 0.000 
0.000 0.993 0.993 0.927 0.871 0.807 0.735 0.668 0.609 0.558 0.514 0.476 0.441 0.411 0.385 0.362 0.341 0.324 0.309 0.296 0.285 0.276 0.268 0.262 0.257 0.253 0.250 0.247 0.246 0.245 0.244 0.243 0.243 0.243 0.244 0.245 0.247 0.251 0.255 0.261 0.267 0.276 0.286 0.297 0.311 0.326 0.343 0.362 0.383 0.406 0.430 0.453 0.475 0.496 0.514 0.532 0.548 0.563 0.577 0.590 0.601 0.612 0.622 0.630 0.638 0.645 0.651 0.657 0.661 0.666 0.669 0.672 0.674 0.676 0.677 0.678 0.679 0.680 0.680 0.680 0.680 0.680 0.680 0.680 0.680 0.679 0.678 0.677 0.675 0.673 0.670 0.667 0.662 0.657 0.651 0.645 0.637 0.628 0.617 0.606 0.593 0.578 0.562 0.544 0.525 0.503 0.480 0.455 0.429 0.405 0.383 0.363 0.344 0.327 0.312 0.298 0.286 0.275 0.266 0.259 0.253 0.249 0.245 0.243 0.241 0.240 0.240 0.240 0.240 0.240 0.240 0.241 0.242 0.244 0.247 0.251 0.257 0.264 0.272 0.283 0.296 0.312 0.330 0.352 0.377 0.405 0.436 0.470 0.507 0.548 0.592 0.639 0.689 0.742 0.799 0.860 0.926 0.996 1.072 1.154 1.245 1.347 1.454 1.546 1.610 1.636 1.636 0.000 
0.000 1.031 1.031 0.996 0.934 0.852 0.759 0.679 0.612 0.556 0.509 0.467 0.431 0.399 0.371 0.347 0.326 0.307 0.292 0.278 0.266 0.256 0.248 0.241 0.236 0.231 0.228 0.225 0.223 0.221 0.220 0.219 0.219 0.219 0.219 0.219 0.220 0.222 0.225 0.228 0.233 0.240 0.248 0.258 0.270 0.283 0.298 0.315 0.333 0.353 0.375 0.398 0.419 0.439 0.458 0.475 0.491 0.505 0.519 0.531 0.542 0.553 0.562 0.570 0.578 0.585 0.591 0.596 0.601 0.605 0.608 0.611 0.613 0.615 0.617 0.618 0.619 0.619 0.620 0.620 0.620 0.620 0.620 0.620 0.619 0.619 0.618 0.617 0.616 0.614 0.611 0.608 0.605 0.600 0.595 0.589 0.582 0.573 0.564 0.554 0.542 0.528 0.514 0.497 0.479 0.460 0.438 0.415 0.390 0.367 0.346 0.326 0.307 0.291 0.275 0.262 0.250 0.241 0.233 0.226 0.221 0.217 0.214 0.212 0.210 0.209 0.209 0.209 0.209 0.209 0.209 0.210 0.211 0.213 0.216 0.219 0.224 0.230 0.238 0.248 0.260 0.274 0.291 0.310 0.333 0.360 0.391 0.424 0.461 0.501 0.545 0.593 0.644 0.699 0.758 0.821 0.889 0.962 1.042 1.130 1.228 1.338 1.459 1.566 1.645 1.685 1.685 0.000 
0.000 1.067 1.067 1.035 0.971 0.877 0.771 0.683 0.611 0.551 0.500 0.456 0.417 0.384 0.355 0.330 0.308 0.288 0.272 0.258 0.245 0.235 0.226 0.219 0.212 0.207 0.203 0.200 0.197 0.195 0.194 0.193 0.192 0.192 0.192 0.191 0.192 0.192 0.194 0.197 0.201 0.207 0.214 0.222 0.232 0.243 0.256 0.270 0.286 0.304 0.322 0.342 0.362 0.380 0.397 0.414 0.429 0.443 0.456 0.468 0.478 0.488 0.497 0.506 0.513 0.520 0.525 0.531 0.535 0.539 0.542 0.545 0.548 0.549 0.551 0.552 0.553 0.554 0.554 0.554 0.554 0.554 0.554 0.554 0.554 0.554 0.553 0.552 0.551 0.549 0.547 0.545 0.541 0.538 0.533 0.528 0.521 0.514 0.506 0.497 0.486 0.474 0.461 0.446 0.430 0.412 0.393 0.371 0.348 0.326 0.305 0.286 0.268 0.252 0.238 0.226 0.216 0.208 0.201 0.195 0.190 0.187 0.184 0.182 0.181 0.180 0.180 0.180 0.180 0.180 0.180 0.181 0.182 0.183 0.186 0.189 0.193 0.199 0.206 0.214 0.225 0.237 0.252 0.270 0.291 0.315 0.344 0.376 0.412 0.452 0.495 0.542 0.594 0.649 0.709 0.773 0.843 0.920 1.003 1.096 1.201 1.320 1.453 1.569 1.655 1.700 1.700 0.000 
0.000 1.070 1.070 1.052 0.987 0.888 0.775 0.682 0.605 0.542 0.487 0.440 0.400 0.365 0.335 0.309 0.286 0.267 0.250 0.235 0.222 0.211 0.202 0.194 0.187 0.181 0.177 0.173 0.170 0.168 0.166 0.165 0.164 0.163 0.163 0.163 0.163 0.164 0.165 0.167 0.171 0.175 0.181 0.188 0.196 0.206 0.217 0.229 0.242 0.257 0.273 0.290 0.307 0.323 0.338 0.352 0.365 0.378 0.389 0.400 0.410 0.419 0.428 0.436 0.443 0.449 0.455 0.460 0.464 0.468 0.471 0.474 0.476 0.478 0.479 0.481 0.481 0.482 0.482 0.483 0.483 0.483 0.483 0.483 0.483 0.482 0.482 0.481 0.480 0.479 0.478 0.475 0.473 0.470 0.466 0.461 0.456 0.449 0.442 0.434 0.425 0.415 0.403 0.390 0.376 0.360 0.343 0.324 0.303 0.282 0.262 0.244 0.229 0.215 0.203 0.193 0.184 0.177 0.171 0.166 0.162 0.159 0.156 0.155 0.154 0.153 0.153 0.153 0.152 0.153 0.153 0.153 0.154 0.156 0.158 0.161 0.164 0.169 0.175 0.183 0.192 0.203 0.216 0.231 0.250 0.271 0.296 0.326 0.360 0.399 0.441 0.487 0.538 0.593 0.653 0.718 0.789 0.867 0.953 1.050 1.160 1.286 1.432 1.562 1.655 1.700 1.700 0.000 
0.000 1.072 1.072 1.055 0.992 0.890 0.772 0.674 0.593 0.526 0.469 0.420 0.378 0.343 0.312 0.285 0.262 0.242 0.224 0.209 0.196 0.185 0.175 0.166 0.159 0.153 0.149 0.145 0.142 0.140 0.139 0.138 0.137 0.137 0.137 0.137 0.137 0.137 0.138 0.140 0.143 0.146 0.151 0.157 0.164 0.172 0.181 0.191 0.202 0.214 0.228 0.242 0.256 0.270 0.282 0.294 0.305 0.316 0.326 0.335 0.343 0.351 0.358 0.365 0.371 0.376 0.381 0.385 0.389 0.393 0.395 0.398 0.400 0.402 0.403 0.404 0.405 0.406 0.406 0.406 0.407 0.407 0.407 0.407 0.407 0.406 0.406 0.406 0.405 0.404 0.403 0.401 0.399 0.396 0.393 0.389 0.385 0.380 0.374 0.367 0.359 0.350 0.340 0.329 0.317 0.304 0.289 0.272 0.254 0.236 0.219 0.205 0.192 0.180 0.170 0.161 0.154 0.148 0.143 0.139 0.135 0.133 0.131 0.129 0.128 0.128 0.127 0.127 0.127 0.127 0.128 0.128 0.129 0.130 0.132 0.134 0.138 0.142 0.147 0.153 0.161 0.170 0.181 0.195 0.210 0.229 0.251 0.276 0.307 0.342 0.382 0.426 0.475 0.529 0.588 0.653 0.724 0.803 0.890 0.989 1.101 1.232 1.385 1.537 1.646 1.700 1.700 0.000 
0.000 1.075 1.075 1.057 0.990 0.882 0.759 0.656 0.572 0.502 0.443 0.394 0.351 0.315 0.284 0.257 0.234 0.214 0.196 0.181 0.167 0.156 0.146 0.138 0.131 0.126 0.122 0.119 0.117 0.115 0.114 0.113 0.112 0.112 0.112 0.112 0.112 0.113 0.114 0.115 0.117 0.120 0.124 0.128 0.134 0.140 0.148 0.156 0.165 0.175 0.186 0.198 0.210 0.221 0.231 0.241 0.250 0.259 0.267 0.275 0.282 0.288 0.294 0.299 0.304 0.309 0.313 0.316 0.319 0.322 0.325 0.327 0.328 0.330 0.331 0.332 0.333 0.333 0.333 0.334 0.334 0.334 0.334 0.334 0.334 0.334 0.333 0.333 0.332 0.331 0.330 0.329 0.327 0.325 0.323 0.319 0.316 0.312 0.307 0.301 0.295 0.287 0.279 0.270 0.260 0.249 0.237 0.223 0.208 0.194 0.180 0.168 0.157 0.148 0.140 0.132 0.126 0.121 0.117 0.114 0.111 0.109 0.107 0.106 0.105 0.105 0.104 0.104 0.104 0.104 0.105 0.105 0.106 0.107 0.108 0.110 0.113 0.116 0.121 0.126 0.132 0.140 0.149 0.160 0.174 0.189 0.207 0.229 0.254 0.284 0.319 0.361 0.407 0.458 0.515 0.578 0.647 0.725 0.811 0.909 1.020 1.150 1.304 1.477 1.624 1.700 1.700 0.000 
0.000 1.078 1.078 1.057 0.978 0.855 0.728 0.624 0.539 0.468 0.409 0.360 0.318 0.282 0.251 0.224 0.202 0.182 0.164 0.149 0.136 0.126 0.118 0.111 0.105 0.101 0.098 0.095 0.093 0.092 0.091 0.090 0.090 0.090 0.090 0.090 0.090 0.090 0.091 0.092 0.094 0.096 0.099 0.103 0.107 0.112 0.118 0.125 0.132 0.140 0.149 0.158 0.168 0.177 0.185 0.193 0.201 0.207 0.214 0.220 0.226 0.231 0.235 0.240 0.244 0.247 0.251 0.253 0.256 0.258 0.260 0.262 0.263 0.264 0.265 0.266 0.266 0.267 0.267 0.267 0.267 0.267 0.267 0.267 0.267 0.267 0.267 0.267 0.266 0.266 0.265 0.264 0.262 0.260 0.258 0.256 0.253 0.250 0.246 0.241 0.236 0.230 0.224 0.217 0.208 0.200 0.190 0.179 0.167 0.155 0.144 0.135 0.126 0.118 0.112 0.106 0.101 0.097 0.094 0.091 0.089 0.087 0.086 0.085 0.084 0.084 0.084 0.083 0.083 0.084 0.084 0.084 0.084 0.085 0.087 0.088 0.090 0.093 0.097 0.101 0.106 0.112 0.120 0.129 0.140 0.152 0.167 0.185 0.205 0.230 0.259 0.293 0.333 0.380 0.433 0.492 0.558 0.632 0.714 0.807 0.912 1.034 1.179 1.358 1.564 1.700 1.700 0.000 
0.000 1.080 1.080 1.050 0.940 0.797 0.672 0.572 0.490 0.422 0.365 0.317 0.276 0.242 0.212 0.187 0.165 0.146 0.130 0.117 0.107 0.099 0.092 0.086 0.082 0.079 0.076 0.074 0.072 0.071 0.071 0.070 0.070 0.070 0.070 0.070 0.070 0.070 0.071 0.072 0.073 0.075 0.077 0.080 0.083 0.087 0.092 0.097 0.103 0.109 0.116 0.123 0.130 0.137 0.144 0.150 0.156 0.161 0.166 0.171 0.175 0.179 0.183 0.187 0.190 0.192 0.195 0.197 0.199 0.201 0.202 0.204 0.205 0.206 0.206 0.207 0.207 0.208 0.208 0.208 0.208 0.208 0.208 0.208 0.208 0.208 0.208 0.207 0.207 0.207 0.206 0.205 0.204 0.203 0.201 0.199 0.197 0.194 0.191 0.188 0.184 0.179 0.174 0.168 0.162 0.155 0.147 0.139 0.130 0.121 0.112 0.105 0.098 0.092 0.087 0.083 0.079 0.076 0.073 0.071 0.069 0.068 0.067 0.066 0.065 0.065 0.065 0.065 0.065 0.065 0.065 0.065 0.066 0.066 0.067 0.069 0.070 0.072 0.075 0.078 0.083 0.088 0.094 0.101 0.109 0.119 0.131 0.145 0.161 0.180 0.203 0.230 0.261 0.299 0.343 0.395 0.455 0.522 0.597 0.681 0.773 0.876 0.996 1.151 1.378 1.700 1.700 0.000 
0.000 1.024 1.024 1.008 0.842 0.696 0.585 0.496 0.422 0.360 0.308 0.264 0.226 0.194 0.167 0.144 0.126 0.110 0.098 0.088 0.080 0.074 0.069 0.065 0.062 0.059 0.057 0.055 0.054 0.053 0.053 0.052 0.052 0.052 0.052 0.052 0.052 0.052 0.053 0.054 0.055 0.056 0.057 0.060 0.062 0.065 0.068 0.072 0.077 0.081 0.086 0.092 0.098 0.103 0.108 0.112 0.117 0.121 0.125 0.128 0.131 0.134 0.137 0.140 0.142 0.144 0.146 0.148 0.149 0.150 0.152 0.152 0.153 0.154 0.154 0.155 0.155 0.155 0.156 0.156 0.156 0.156 0.156 0.156 0.156 0.156 0.156 0.155 0.155 0.155 0.154 0.154 0.153 0.152 0.150 0.149 0.147 0.145 0.143 0.140 0.137 0.134 0.130 0.126 0.121 0.116 0.110 0.104 0.097 0.090 0.084 0.078 0.073 0.069 0.065 0.062 0.059 0.057 0.055 0.053 0.052 0.051 0.050 0.049 0.049 0.049 0.049 0.049 0.048 0.049 0.049 0.049 0.049 0.050 0.050 0.051 0.053 0.054 0.056 0.059 0.062 0.066 0.070 0.075 0.082 0.089 0.098 0.109 0.121 0.136 0.153 0.173 0.197 0.225 0.259 0.299 0.345 0.399 0.462 0.530 0.599 0.668 0.736 0.814 0.920 1.059 1.059 0.000 
0.000 0.477 0.477 0.759 0.637 0.536 0.460 0.393 0.334 0.282 0.237 0.199 0.168 0.142 0.121 0.104 0.090 0.079 0.070 0.063 0.057 0.053 0.049 0.046 0.044 0.042 0.040 0.039 0.039 0.038 0.038 0.037 0.037 0.037 0.037 0.037 0.037 0.037 0.038 0.038 0.039 0.040 0.041 0.042 0.044 0.046 0.049 0.051 0.054 0.058 0.061 0.065 0.069 0.073 0.077 0.080 0.083 0.086 0.089 0.091 0.093 0.096 0.098 0.099 0.101 0.103 0.104 0.105 0.106 0.107 0.108 0.108 0.109 0.110 0.110 0.110 0.110 0.111 0.111 0.111 0.111 0.111 0.111 0.111 0.111 0.111 0.111 0.111 0.110 0.110 0.110 0.109 0.109 0.108 0.107 0.106 0.105 0.103 0.102 0.100 0.098 0.095 0.093 0.090 0.086 0.083 0.079 0.074 0.069 0.064 0.060 0.056 0.052 0.049 0.046 0.044 0.042 0.040 0.039 0.038 0.037 0.036 0.035 0.035 0.035 0.035 0.035 0.034 0.034 0.034 0.035 0.035 0.035 0.035 0.036 0.036 0.037 0.039 0.040 0.042 0.044 0.047 0.050 0.054 0.058 0.064 0.070 0.078 0.086 0.097 0.109 0.124 0.141 0.161 0.185 0.214 0.248 0.287 0.333 0.379 0.418 0.448 0.464 0.458 0.383 0.199 0.199 0.000 
0.000 0.000 0.000 0.245 0.330 0.322 0.300 0.267 0.229 0.191 0.160 0.133 0.112 0.094 0.080 0.069 0.060 0.053 0.047 0.042 0.038 0.035 0.033 0.031 0.029 0.028 0.027 0.026 0.026 0.025 0.025 0.025 0.025 0.025 0.025 0.025 0.025 0.025 0.025 0.025 0.026 0.026 0.027 0.028 0.029 0.031 0.032 0.034 0.036 0.038 0.041 0.043 0.046 0.048 0.051 0.053 0.055 0.057 0.059 0.060 0.062 0.063 0.065 0.066 0.067 0.068 0.069 0.070 0.070 0.071 0.071 0.072 0.072 0.073 0.073 0.073 0.073 0.073 0.073 0.073 0.073 0.073 0.073 0.073 0.073 0.073 0.073 0.073 0.073 0.073 0.073 0.072 0.072 0.071 0.071 0.070 0.069 0.069 0.067 0.066 0.065 0.063 0.061 0.059 0.057 0.055 0.052 0.049 0.046 0.043 0.040 0.037 0.035 0.032 0.031 0.029 0.028 0.027 0.026 0.025 0.024 0.024 0.023 0.023 0.023 0.023 0.023 0.023 0.023 0.023 0.023 0.023 0.023 0.023 0.024 0.024 0.025 0.026 0.026 0.028 0.029 0.031 0.033 0.036 0.039 0.042 0.046 0.051 0.057 0.064 0.072 0.082 0.094 0.107 0.123 0.142 0.165 0.193 0.224 0.251 0.269 0.277 0.273 0.244 0.143 0.000 0.000 0.000 
0.000 0.000 0.000 0.052 0.145 0.168 0.168 0.158 0.138 0.115 0.095 0.079 0.067 0.056 0.048 0.041 0.036 0.031 0.028 0.025 0.023 0.021 0.019 0.018 0.017 0.016 0.016 0.015 0.015 0.015 0.015 0.015 0.015 0.015 0.015 0.015 0.015 0.015 0.015 0.015 0.015 0.016 0.016 0.017 0.017 0.018 0.019 0.020 0.021 0.023 0.024 0.026 0.027 0.029 0.030 0.031 0.033 0.034 0.035 0.036 0.037 0.038 0.038 0.039 0.040 0.040 0.041 0.041 0.042 0.042 0.042 0.043 0.043 0.043 0.043 0.043 0.043 0.043 0.044 0.044 0.044 0.044 0.044 0.044 0.044 0.044 0.043 0.043 0.043 0.043 0.043 0.043 0.043 0.042 0.042 0.042 0.041 0.041 0.040 0.039 0.038 0.038 0.036 0.035 0.034 0.032 0.031 0.029 0.027 0.025 0.023 0.022 0.021 0.019 0.018 0.017 0.016 0.016 0.015 0.015 0.014 0.014 0.014 0.014 0.014 0.014 0.014 0.014 0.014 0.014 0.014 0.014 0.014 0.014 0.014 0.014 0.015 0.015 0.016 0.016 0.017 0.018 0.020 0.021 0.023 0.025 0.028 0.031 0.034 0.038 0.043 0.049 0.056 0.064 0.073 0.085 0.099 0.116 0.134 0.148 0.155 0.156 0.150 0.125 0.061 0.000 0.000 0.000 
0.000 0.000 0.000 0.016 0.059 0.076 0.079 0.077 0.069 0.057 0.047 0.039 0.033 0.028 0.023 0.020 0.018 0.015 0.014 0.012 0.011 0.010 0.009 0.009 0.008 0.008 0.008 0.008 0.007 0.007 0.007 0.007 0.007 0.007 0.007 0.007 0.007 0.007 0.007 0.007 0.007 0.008 0.008 0.008 0.008 0.009 0.009 0.010 0.010 0.011 0.012 0.013 0.013 0.014 0.015 0.015 0.016 0.017 0.017 0.018 0.018 0.018 0.019 0.019 0.019 0.020 0.020 0.020 0.020 0.021 0.021 0.021 0.021 0.021 0.021 0.021 0.021 0.021 0.021 0.021 0.021 0.021 0.021 0.021 0.021 0.021 0.021 0.021 0.021 0.021 0.021 0.021 0.021 0.021 0.021 0.020 0.020 0.020 0.020 0.019 0.019 0.018 0.018 0.017 0.017 0.016 0.015 0.014 0.013 0.012 0.012 0.011 0.010 0.009 0.009 0.008 0.008 0.008 0.007 0.007 0.007 0.007 0.007 0.007 0.007 0.007 0.007 0.007 0.007 0.007 0.007 0.007 0.007 0.007 0.007 0.007 0.007 0.007 0.008 0.008 0.008 0.009 0.010 0.010 0.011 0.012 0.014 0.015 0.017 0.019 0.021 0.024 0.027 0.031 0.036 0.042 0.049 0.057 0.066 0.072 0.075 0.074 0.070 0.056 0.025 0.000 0.000 0.000 
0.000 0.000 0.000 0.004 0.018 0.024 0.025 0.024 0.022 0.019 0.015 0.013 0.011 0.009 0.008 0.006 0.006 0.005 0.004 0.004 0.004 0.003 0.003 0.003 0.003 0.003 0.003 0.002 0.002 0.002 0.002 0.002 0.002 0.002 0.002 0.002 0.002 0.002 0.002 0.002 0.002 0.002 0.003 0.003 0.003 0.003 0.003 0.003 0.003 0.004 0.004 0.004 0.004 0.005 0.005 0.005 0.005 0.005 0.005 0.006 0.006 0.006 0.006 0.006 0.006 0.006 0.006 0.007 0.007 0.007 0.007 0.007 0.007 0.007 0.007 0.007 0.007 0.007 0.007 0.007 0.007 0.007 0.007 0.007 0.007 0.007 0.007 0.007 0.007 0.007 0.007 0.007 0.007 0.007 0.007 0.007 0.007 0.006 0.006 0.006 0.006 0.006 0.006 0.006 0.005 0.005 0.005 0.005 0.004 0.004 0.004 0.003 0.003 0.003 0.003 0.003 0.003 0.002 0.002 0.002 0.002 0.002 0.002 0.002 0.002 0.002 0.002 0.002 0.002 0.002 0.002 0.002 0.002 0.002 0.002 0.002 0.002 0.002 0.002 0.003 0.003 0.003 0.003 0.003 0.004 0.004 0.004 0.005 0.005 0.006 0.007 0.008 0.009 0.010 0.012 0.013 0.016 0.019 0.021 0.023 0.024 0.024 0.022 0.017 0.007 0.000 0.000 0.000 
0.000 0.000 0.000 0.000 0.000 0.000 0.000 0.000 0.000 0.000 0.000 0.000 0.000 0.000 0.000 0.000 0.000 0.000 0.000 0.000 0.000 0.000 0.000 0.000 0.000 0.000 0.000 0.000 0.000 0.000 0.000 0.000 0.000 0.000 0.000 0.000 0.000 0.000 0.000 0.000 0.000 0.000 0.000 0.000 0.000 0.000 0.000 0.000 0.000 0.000 0.000 0.000 0.000 0.000 0.000 0.000 0.000 0.000 0.000 0.000 0.000 0.000 0.000 0.000 0.000 0.000 0.000 0.000 0.000 0.000 0.000 0.000 0.000 0.000 0.000 0.000 0.000 0.000 0.000 0.000 0.000 0.000 0.000 0.000 0.000 0.000 0.000 0.000 0.000 0.000 0.000 0.000 0.000 0.000 0.000 0.000 0.000 0.000 0.000 0.000 0.000 0.000 0.000 0.000 0.000 0.000 0.000 0.000 0.000 0.000 0.000 0.000 0.000 0.000 0.000 0.000 0.000 0.000 0.000 0.000 0.000 0.000 0.000 0.000 0.000 0.000 0.000 0.000 0.000 0.000 0.000 0.000 0.000 0.000 0.000 0.000 0.000 0.000 0.000 0.000 0.000 0.000 0.000 0.000 0.000 0.000 0.000 0.000 0.000 0.000 0.000 0.000 0.000 0.000 0.000 0.000 0.000 0.000 0.000 0.000 0.000 0.000 0.000 0.000 0.000 0.000 0.000 0.000 
0.000 0.089 0.089 0.077 0.065 0.049 0.049 0.029 0.010 0.010 0.001 0.003 0.005 0.005 0.005 0.005 0.005 0.005 0.004 0.002 0.002 0.001 0.000 0.001 0.001 0.001 0.001 0.001 0.001 0.001 0.001 0.001 0.001 0.001 0.001 0.001 0.001 0.001 0.001 0.001 0.000 0.000 0.000 0.001 0.004 0.008 0.008 0.021 0.046 0.046 0.070 0.087 0.098 0.098 0.108 0.116 0.122 0.122 0.127 0.122 0.122 0.106 0.089 0.081 0.081 0.081 0.080 0.079 0.079 0.078 0.077 0.077 0.076 0.077 0.077 0.077 0.077 0.076 0.074 0.074 0.073 0.071 0.071 0.069 0.069 0.073 0.073 0.076 0.062 0.031 0.031 0.001 0.000 0.000 0.007 0.022 0.025 0.025 0.018 0.011 0.017 0.017 0.035 0.053 0.053 0.059 0.055 0.051 0.051 0.046 0.039 0.033 0.033 0.025 0.015 0.015 0.006 0.001 0.002 0.002 0.002 0.002 0.002 0.002 0.001 0.001 0.001 0.001 0.001 0.001 0.001 0.001 0.000 0.000 0.001 0.003 0.004 0.004 0.007 0.012 0.016 0.016 0.018 0.017 0.017 0.016 0.015 0.014 0.014 0.013 0.011 0.009 0.009 0.007 0.005 0.005 0.003 0.002 0.000 0.000 0.000 0.000 0.000 0.000 0.007 0.014 0.014 0.000 
0.000 0.000 0.000 0.000 0.000 0.000 0.000 0.000 0.000 0.000 0.000 0.000 0.000 0.000 0.000 0.000 0.000 0.000 0.000 0.000 0.000 0.000 0.000 0.000 0.000 0.000 0.000 0.000 0.000 0.000 0.000 0.000 0.000 0.000 0.000 0.000 0.000 0.000 0.000 0.000 0.000 0.000 0.000 0.000 0.000 0.000 0.000 0.000 0.000 0.000 0.000 0.000 0.000 0.000 0.000 0.000 0.000 0.000 0.000 0.000 0.000 0.000 0.000 0.000 0.000 0.000 0.000 0.000 0.000 0.000 0.000 0.000 0.000 0.000 0.000 0.000 0.000 0.000 0.000 0.000 0.000 0.000 0.000 0.000 0.000 0.000 0.000 0.000 0.000 0.000 0.000 0.000 0.000 0.000 0.000 0.000 0.000 0.000 0.000 0.000 0.000 0.000 0.000 0.000 0.000 0.000 0.000 0.000 0.000 0.000 0.000 0.000 0.000 0.000 0.000 0.000 0.000 0.000 0.000 0.000 0.000 0.000 0.000 0.000 0.000 0.000 0.000 0.000 0.000 0.000 0.000 0.000 0.000 0.000 0.000 0.000 0.000 0.000 0.000 0.000 0.000 0.000 0.000 0.000 0.000 0.000 0.000 0.000 0.000 0.000 0.000 0.000 0.000 0.000 0.000 0.000 0.000 0.000 0.000 0.000 0.000 0.000 0.000 0.000 0.000 0.000 0.000 0.000 
