ncols 168
nrows 121
xllcenter 640304.69
yllcenter 1081277.12
cellsize 46.59
NODATA_value -9999.000
0.000 0.000 0.000 0.000 0.000 0.000 0.000 0.000 0.000 0.000 0.000 0.000 0.000 0.000 0.000 0.000 0.000 0.000 0.000 0.000 0.000 0.000 0.000 0.000 0.000 0.000 0.000 0.000 0.000 0.000 0.000 0.000 0.000 0.000 0.000 0.000 0.000 0.000 0.000 0.000 0.000 0.000 0.000 0.000 0.000 0.000 0.000 0.000 0.000 0.000 0.000 0.000 0.000 0.000 0.000 0.000 0.000 0.000 0.000 0.000 0.000 0.000 0.000 0.000 0.000 0.000 0.000 0.000 0.000 0.000 0.000 0.000 0.000 0.000 0.000 0.000 0.000 0.000 0.000 0.000 0.000 0.000 0.000 0.000 0.000 0.000 0.000 0.000 0.000 0.000 0.000 0.000 0.000 0.000 0.000 0.000 0.000 0.000 0.000 0.000 0.000 0.000 0.000 0.000 0.000 0.000 0.000 0.000 0.000 0.000 0.000 0.000 0.000 0.000 0.000 0.000 0.000 0.000 0.000 0.000 0.000 0.000 0.000 0.000 0.000 0.000 0.000 0.000 0.000 0.000 0.000 0.000 0.000 0.000 0.000 0.000 0.000 0.000 0.000 0.000 0.000 0.000 0.000 0.000 0.000 0.000 0.000 0.000 0.000 0.000 0.000 0.000 0.000 0.000 0.000 0.000 0.000 0.000 0.000 0.000 0.000 0.000 0.000 0.000 0.000 0.000 0.000 0.000 
0.000 0.397 0.397 0.397 0.296 0.018 0.018 0.000 0.000 0.000 0.024 0.303 0.397 0.397 0.397 0.397 0.397 0.397 0.397 0.397 0.397 0.397 0.397 0.397 0.397 0.397 0.397 0.397 0.397 0.397 0.397 0.397 0.397 0.397 0.481 0.481 0.614 0.784 0.955 0.955 1.032 1.061 1.061 1.061 1.061 1.054 1.054 1.036 1.033 1.033 1.012 0.958 0.784 0.784 0.609 0.498 0.519 0.519 0.678 0.853 0.853 0.986 0.311 0.501 0.501 1.060 1.047 0.944 0.944 0.815 0.686 0.686 0.644 0.691 0.821 0.821 0.950 0.580 0.251 0.251 0.931 1.064 1.064 1.064 1.064 1.064 1.064 1.068 1.081 1.131 1.131 1.181 1.199 1.199 1.127 0.921 0.684 0.684 0.439 0.472 0.334 0.334 0.188 0.856 0.856 0.930 0.757 0.571 0.571 0.460 0.485 0.671 0.671 0.857 1.018 1.018 1.156 1.258 0.760 0.760 0.516 1.272 1.263 1.263 1.162 1.067 1.067 1.067 1.067 1.067 1.067 1.067 1.067 1.067 1.068 1.068 1.068 1.068 1.068 1.068 1.068 1.068 1.068 1.068 1.068 1.068 1.068 1.069 1.069 1.069 1.069 1.069 1.069 1.013 0.445 0.445 0.644 1.038 0.914 0.914 0.730 0.531 0.328 0.328 0.101 0.000 0.000 0.000 
0.000 0.234 0.234 0.233 0.174 0.011 0.011 0.000 0.000 0.000 0.013 0.164 0.220 0.220 0.225 0.224 0.223 0.223 0.222 0.221 0.221 0.220 0.219 0.218 0.218 0.217 0.216 0.212 0.212 0.202 0.200 0.200 0.203 0.211 0.339 0.339 0.521 0.744 0.968 0.968 1.056 1.080 1.080 1.080 1.080 0.900 0.900 0.500 0.497 0.497 0.687 0.918 0.691 0.691 0.464 0.330 0.397 0.397 0.608 0.835 0.835 1.038 0.730 0.820 0.820 1.075 1.045 0.909 0.909 0.741 0.573 0.573 0.543 0.618 0.786 0.786 0.954 0.845 0.718 0.718 1.023 1.082 1.082 1.083 1.083 1.083 1.083 1.091 1.112 1.176 1.176 1.240 1.257 1.257 1.136 0.866 0.544 0.544 0.191 0.199 0.308 0.308 0.525 0.939 0.939 0.896 0.663 0.424 0.424 0.312 0.363 0.602 0.602 0.841 1.044 1.044 1.214 1.345 1.240 1.240 1.186 1.415 1.324 1.324 1.199 1.086 1.086 1.086 1.086 1.086 1.086 1.086 1.086 1.086 1.086 1.086 1.087 1.087 1.087 1.087 1.087 1.087 1.087 1.087 1.087 1.087 1.087 1.087 1.087 1.087 1.088 1.088 1.088 1.069 0.877 0.877 0.945 1.045 0.869 0.869 0.633 0.377 0.112 0.112 0.033 0.000 0.000 0.000 
0.000 0.046 0.046 0.140 0.146 0.075 0.021 0.011 0.007 0.007 0.017 0.083 0.178 0.207 0.217 0.222 0.223 0.223 0.223 0.222 0.222 0.221 0.221 0.220 0.219 0.219 0.218 0.216 0.215 0.211 0.206 0.206 0.208 0.218 0.276 0.344 0.430 0.630 0.852 0.945 0.998 1.051 1.063 1.063 1.057 0.982 0.871 0.689 0.543 0.534 0.596 0.771 0.768 0.689 0.583 0.422 0.398 0.422 0.502 0.720 0.824 0.901 0.882 0.820 0.847 0.947 1.022 0.967 0.901 0.826 0.663 0.598 0.583 0.597 0.700 0.785 0.860 0.888 0.812 0.792 0.889 1.033 1.069 1.077 1.079 1.080 1.082 1.085 1.099 1.138 1.167 1.195 1.228 1.231 1.182 1.007 0.708 0.546 0.378 0.249 0.283 0.334 0.435 0.733 0.880 0.875 0.777 0.551 0.452 0.399 0.376 0.482 0.597 0.712 0.933 1.036 1.126 1.262 1.272 1.241 1.232 1.297 1.342 1.314 1.263 1.146 1.103 1.094 1.090 1.088 1.087 1.086 1.086 1.086 1.086 1.086 1.086 1.086 1.086 1.086 1.086 1.087 1.087 1.087 1.087 1.087 1.087 1.087 1.087 1.086 1.086 1.085 1.082 1.067 0.986 0.918 0.923 0.975 0.944 0.864 0.761 0.529 0.278 0.182 0.158 0.171 0.171 0.000 
0.000 0.014 0.014 0.047 0.072 0.064 0.043 0.033 0.031 0.035 0.055 0.103 0.163 0.197 0.213 0.221 0.224 0.225 0.226 0.226 0.226 0.226 0.225 0.225 0.225 0.225 0.225 0.225 0.224 0.224 0.225 0.228 0.238 0.262 0.306 0.379 0.484 0.641 0.796 0.892 0.951 0.984 0.997 0.997 0.981 0.938 0.848 0.723 0.652 0.639 0.660 0.707 0.717 0.687 0.605 0.534 0.509 0.518 0.575 0.694 0.801 0.846 0.854 0.856 0.873 0.916 0.936 0.930 0.889 0.814 0.727 0.679 0.667 0.675 0.715 0.787 0.838 0.855 0.857 0.867 0.913 0.990 1.033 1.054 1.065 1.071 1.076 1.082 1.093 1.113 1.134 1.148 1.151 1.137 1.085 0.961 0.759 0.581 0.465 0.415 0.404 0.437 0.533 0.680 0.753 0.761 0.721 0.617 0.534 0.503 0.504 0.531 0.612 0.731 0.881 1.010 1.115 1.186 1.221 1.231 1.236 1.259 1.276 1.269 1.229 1.163 1.122 1.104 1.095 1.090 1.087 1.086 1.086 1.085 1.085 1.085 1.085 1.085 1.085 1.085 1.085 1.085 1.085 1.085 1.085 1.085 1.085 1.084 1.083 1.082 1.079 1.074 1.063 1.040 0.994 0.956 0.943 0.934 0.915 0.861 0.760 0.606 0.480 0.433 0.441 0.493 0.493 0.000 
0.000 0.001 0.001 0.017 0.046 0.059 0.061 0.061 0.064 0.074 0.094 0.127 0.168 0.196 0.213 0.221 0.226 0.229 0.231 0.231 0.232 0.233 0.233 0.234 0.234 0.235 0.237 0.239 0.241 0.245 0.252 0.264 0.284 0.316 0.364 0.434 0.534 0.660 0.772 0.848 0.896 0.921 0.929 0.929 0.920 0.891 0.834 0.758 0.714 0.698 0.696 0.704 0.703 0.685 0.641 0.610 0.602 0.609 0.640 0.710 0.785 0.826 0.847 0.863 0.880 0.896 0.900 0.896 0.874 0.825 0.772 0.746 0.738 0.740 0.754 0.791 0.830 0.852 0.872 0.895 0.930 0.978 1.011 1.032 1.046 1.056 1.064 1.071 1.078 1.085 1.090 1.089 1.081 1.058 1.007 0.915 0.773 0.644 0.569 0.538 0.533 0.546 0.595 0.668 0.703 0.708 0.693 0.647 0.605 0.591 0.591 0.606 0.651 0.737 0.857 0.977 1.066 1.125 1.167 1.195 1.209 1.215 1.215 1.210 1.192 1.157 1.125 1.107 1.097 1.091 1.087 1.086 1.085 1.084 1.084 1.084 1.083 1.083 1.083 1.083 1.083 1.083 1.083 1.083 1.082 1.082 1.081 1.080 1.078 1.075 1.069 1.061 1.047 1.026 0.996 0.968 0.947 0.927 0.901 0.857 0.784 0.706 0.665 0.655 0.670 0.707 0.707 0.000 
0.000 0.000 0.000 0.009 0.039 0.064 0.080 0.091 0.101 0.114 0.131 0.154 0.180 0.201 0.216 0.225 0.231 0.235 0.238 0.240 0.241 0.243 0.244 0.246 0.248 0.250 0.253 0.258 0.264 0.273 0.287 0.307 0.335 0.372 0.421 0.486 0.572 0.674 0.760 0.820 0.859 0.879 0.887 0.887 0.882 0.866 0.832 0.785 0.750 0.731 0.721 0.713 0.706 0.694 0.675 0.664 0.663 0.669 0.689 0.731 0.784 0.822 0.847 0.866 0.879 0.886 0.887 0.884 0.870 0.839 0.807 0.791 0.786 0.786 0.791 0.806 0.831 0.856 0.881 0.909 0.942 0.975 1.000 1.017 1.030 1.039 1.047 1.052 1.054 1.054 1.053 1.047 1.034 1.007 0.961 0.888 0.784 0.695 0.641 0.617 0.611 0.615 0.636 0.671 0.690 0.693 0.687 0.666 0.648 0.644 0.647 0.661 0.694 0.753 0.840 0.937 1.013 1.070 1.113 1.144 1.161 1.166 1.167 1.165 1.158 1.143 1.123 1.107 1.096 1.090 1.087 1.085 1.083 1.082 1.082 1.081 1.081 1.081 1.081 1.080 1.080 1.080 1.080 1.079 1.078 1.077 1.076 1.074 1.071 1.066 1.058 1.048 1.035 1.018 0.995 0.970 0.948 0.926 0.900 0.866 0.828 0.802 0.792 0.797 0.817 0.833 0.833 0.000 
0.000 0.000 0.000 0.009 0.042 0.077 0.103 0.123 0.139 0.153 0.167 0.182 0.199 0.213 0.224 0.233 0.239 0.244 0.248 0.250 0.253 0.256 0.258 0.261 0.265 0.269 0.274 0.282 0.292 0.306 0.326 0.350 0.380 0.418 0.466 0.526 0.602 0.685 0.753 0.803 0.835 0.854 0.862 0.864 0.861 0.853 0.834 0.804 0.776 0.757 0.742 0.729 0.720 0.713 0.708 0.707 0.709 0.716 0.731 0.755 0.791 0.824 0.850 0.868 0.879 0.883 0.884 0.881 0.872 0.853 0.835 0.825 0.821 0.821 0.823 0.829 0.842 0.863 0.890 0.919 0.949 0.975 0.994 1.008 1.018 1.025 1.029 1.031 1.032 1.030 1.026 1.017 1.001 0.974 0.933 0.872 0.794 0.729 0.689 0.668 0.660 0.659 0.665 0.679 0.689 0.691 0.689 0.681 0.677 0.677 0.683 0.696 0.723 0.766 0.829 0.905 0.971 1.023 1.063 1.091 1.109 1.120 1.126 1.128 1.128 1.124 1.115 1.103 1.095 1.089 1.085 1.082 1.081 1.079 1.079 1.078 1.078 1.077 1.077 1.077 1.076 1.076 1.075 1.075 1.074 1.072 1.070 1.067 1.062 1.056 1.048 1.038 1.026 1.010 0.992 0.971 0.949 0.928 0.907 0.889 0.876 0.871 0.874 0.890 0.922 0.934 0.934 0.000 
0.000 0.034 0.034 0.022 0.056 0.101 0.135 0.159 0.178 0.192 0.203 0.213 0.222 0.231 0.239 0.246 0.252 0.256 0.261 0.264 0.268 0.271 0.275 0.280 0.285 0.291 0.299 0.310 0.323 0.341 0.362 0.387 0.418 0.455 0.501 0.557 0.625 0.694 0.750 0.792 0.821 0.839 0.848 0.851 0.851 0.848 0.837 0.819 0.798 0.779 0.764 0.752 0.745 0.742 0.743 0.746 0.750 0.757 0.768 0.783 0.805 0.832 0.854 0.870 0.879 0.883 0.884 0.883 0.877 0.868 0.858 0.853 0.851 0.851 0.852 0.856 0.863 0.877 0.900 0.928 0.955 0.976 0.991 1.002 1.009 1.014 1.016 1.017 1.016 1.013 1.007 0.996 0.978 0.952 0.915 0.864 0.802 0.754 0.722 0.703 0.693 0.689 0.688 0.691 0.694 0.695 0.695 0.695 0.697 0.700 0.707 0.720 0.742 0.775 0.822 0.881 0.937 0.983 1.019 1.046 1.066 1.080 1.090 1.097 1.101 1.102 1.101 1.096 1.090 1.085 1.081 1.079 1.077 1.076 1.075 1.074 1.074 1.073 1.073 1.072 1.072 1.071 1.070 1.069 1.068 1.066 1.063 1.059 1.054 1.047 1.039 1.029 1.017 1.003 0.987 0.969 0.951 0.935 0.923 0.917 0.915 0.917 0.925 0.948 0.988 1.015 1.015 0.000 
0.000 0.071 0.071 0.060 0.094 0.141 0.177 0.202 0.220 0.233 0.241 0.246 0.250 0.255 0.259 0.264 0.268 0.273 0.277 0.281 0.285 0.290 0.295 0.301 0.307 0.316 0.326 0.339 0.354 0.372 0.393 0.419 0.450 0.486 0.530 0.582 0.643 0.702 0.750 0.786 0.813 0.830 0.841 0.846 0.847 0.846 0.841 0.831 0.816 0.801 0.789 0.781 0.778 0.778 0.780 0.784 0.789 0.796 0.803 0.813 0.826 0.844 0.862 0.875 0.882 0.886 0.887 0.887 0.886 0.883 0.880 0.878 0.878 0.878 0.880 0.883 0.889 0.898 0.914 0.937 0.960 0.978 0.991 0.999 1.004 1.006 1.007 1.007 1.005 1.001 0.993 0.981 0.962 0.937 0.903 0.858 0.810 0.772 0.745 0.728 0.717 0.711 0.708 0.706 0.705 0.705 0.706 0.709 0.713 0.718 0.725 0.737 0.755 0.781 0.816 0.861 0.909 0.950 0.983 1.009 1.029 1.045 1.058 1.068 1.075 1.081 1.084 1.084 1.082 1.079 1.076 1.074 1.072 1.071 1.070 1.069 1.069 1.068 1.067 1.067 1.066 1.065 1.064 1.063 1.061 1.059 1.056 1.051 1.046 1.039 1.031 1.022 1.010 0.997 0.982 0.968 0.955 0.947 0.942 0.940 0.941 0.945 0.957 0.980 1.018 1.047 1.047 0.000 
0.000 0.210 0.210 0.137 0.165 0.202 0.232 0.254 0.268 0.276 0.281 0.282 0.283 0.284 0.285 0.287 0.290 0.293 0.297 0.301 0.306 0.311 0.317 0.324 0.332 0.342 0.353 0.366 0.381 0.400 0.422 0.447 0.477 0.513 0.554 0.602 0.657 0.708 0.751 0.784 0.808 0.826 0.837 0.844 0.847 0.848 0.846 0.842 0.835 0.825 0.818 0.815 0.815 0.816 0.819 0.823 0.827 0.832 0.837 0.844 0.851 0.862 0.874 0.883 0.888 0.892 0.895 0.897 0.899 0.900 0.901 0.902 0.903 0.905 0.907 0.910 0.915 0.922 0.932 0.948 0.967 0.981 0.991 0.998 1.001 1.002 1.002 1.001 0.998 0.992 0.983 0.969 0.951 0.927 0.895 0.856 0.816 0.785 0.762 0.746 0.735 0.728 0.724 0.721 0.720 0.719 0.720 0.723 0.726 0.731 0.738 0.748 0.763 0.784 0.811 0.845 0.885 0.921 0.951 0.976 0.997 1.014 1.029 1.041 1.051 1.059 1.065 1.069 1.070 1.070 1.068 1.067 1.066 1.065 1.064 1.063 1.063 1.062 1.061 1.061 1.060 1.059 1.058 1.056 1.054 1.052 1.048 1.044 1.038 1.032 1.024 1.015 1.004 0.992 0.979 0.969 0.961 0.957 0.955 0.955 0.957 0.963 0.975 0.997 1.027 1.044 1.044 0.000 
0.000 0.354 0.354 0.278 0.274 0.289 0.305 0.315 0.320 0.322 0.321 0.320 0.318 0.316 0.316 0.316 0.316 0.318 0.321 0.324 0.329 0.334 0.340 0.348 0.356 0.365 0.377 0.390 0.406 0.425 0.447 0.472 0.501 0.535 0.574 0.619 0.669 0.714 0.752 0.783 0.806 0.824 0.836 0.844 0.849 0.852 0.854 0.854 0.853 0.850 0.848 0.849 0.850 0.853 0.856 0.860 0.863 0.867 0.870 0.874 0.878 0.883 0.890 0.895 0.900 0.903 0.907 0.910 0.915 0.919 0.922 0.925 0.927 0.930 0.933 0.936 0.940 0.945 0.952 0.962 0.975 0.986 0.993 0.998 1.000 1.000 1.000 0.997 0.993 0.986 0.975 0.961 0.943 0.919 0.890 0.854 0.821 0.794 0.774 0.759 0.749 0.742 0.737 0.734 0.733 0.733 0.733 0.735 0.737 0.741 0.747 0.756 0.768 0.785 0.806 0.833 0.864 0.896 0.924 0.948 0.969 0.987 1.002 1.015 1.027 1.037 1.046 1.052 1.055 1.057 1.058 1.058 1.058 1.057 1.057 1.056 1.056 1.055 1.055 1.054 1.053 1.052 1.051 1.049 1.047 1.044 1.041 1.036 1.031 1.025 1.017 1.009 0.998 0.987 0.978 0.970 0.966 0.963 0.963 0.963 0.966 0.973 0.985 1.006 1.029 1.042 1.042 0.000 
0.000 0.479 0.479 0.414 0.402 0.388 0.380 0.374 0.368 0.362 0.357 0.352 0.349 0.346 0.345 0.345 0.345 0.345 0.347 0.349 0.352 0.357 0.362 0.369 0.377 0.387 0.399 0.413 0.429 0.448 0.469 0.494 0.523 0.555 0.592 0.634 0.679 0.719 0.754 0.783 0.806 0.823 0.836 0.845 0.853 0.859 0.864 0.868 0.872 0.874 0.877 0.880 0.884 0.887 0.891 0.895 0.898 0.900 0.902 0.904 0.906 0.907 0.910 0.913 0.916 0.919 0.923 0.928 0.933 0.939 0.944 0.948 0.952 0.954 0.957 0.960 0.963 0.967 0.972 0.978 0.985 0.992 0.997 0.999 1.000 1.000 0.999 0.995 0.990 0.981 0.970 0.955 0.937 0.914 0.886 0.854 0.825 0.802 0.783 0.769 0.759 0.752 0.748 0.745 0.744 0.744 0.744 0.744 0.746 0.749 0.754 0.761 0.771 0.785 0.802 0.823 0.848 0.875 0.900 0.923 0.944 0.962 0.978 0.992 1.004 1.016 1.025 1.033 1.039 1.043 1.046 1.047 1.048 1.048 1.048 1.048 1.048 1.048 1.047 1.046 1.046 1.045 1.043 1.042 1.039 1.037 1.033 1.029 1.024 1.019 1.012 1.003 0.994 0.984 0.976 0.971 0.968 0.967 0.967 0.968 0.971 0.978 0.990 1.009 1.029 1.039 1.039 0.000 
0.000 0.603 0.603 0.537 0.496 0.462 0.438 0.420 0.406 0.395 0.387 0.380 0.375 0.372 0.370 0.369 0.369 0.369 0.370 0.371 0.374 0.378 0.383 0.389 0.397 0.407 0.419 0.433 0.450 0.469 0.490 0.514 0.542 0.573 0.607 0.646 0.687 0.724 0.757 0.784 0.806 0.823 0.837 0.849 0.859 0.869 0.877 0.885 0.892 0.899 0.905 0.910 0.915 0.919 0.924 0.927 0.930 0.932 0.933 0.934 0.934 0.934 0.934 0.935 0.937 0.940 0.944 0.949 0.955 0.962 0.968 0.972 0.976 0.979 0.981 0.984 0.986 0.988 0.991 0.994 0.998 1.001 1.002 1.003 1.002 1.001 0.998 0.994 0.988 0.978 0.966 0.951 0.932 0.910 0.883 0.854 0.828 0.807 0.790 0.777 0.768 0.761 0.756 0.753 0.752 0.752 0.752 0.752 0.753 0.756 0.760 0.765 0.773 0.784 0.798 0.815 0.835 0.857 0.879 0.901 0.921 0.939 0.955 0.970 0.983 0.995 1.005 1.014 1.022 1.028 1.032 1.035 1.037 1.038 1.039 1.039 1.039 1.039 1.039 1.038 1.037 1.037 1.035 1.034 1.032 1.029 1.026 1.022 1.018 1.012 1.006 0.999 0.990 0.982 0.975 0.971 0.969 0.968 0.968 0.969 0.972 0.979 0.991 1.010 1.027 1.036 1.036 0.000 
0.000 0.640 0.640 0.609 0.560 0.512 0.478 0.454 0.435 0.421 0.411 0.403 0.397 0.394 0.391 0.390 0.390 0.390 0.390 0.391 0.393 0.396 0.401 0.407 0.415 0.426 0.438 0.452 0.469 0.488 0.509 0.533 0.559 0.589 0.621 0.657 0.695 0.729 0.759 0.785 0.807 0.825 0.841 0.855 0.869 0.881 0.893 0.904 0.914 0.923 0.931 0.938 0.944 0.949 0.954 0.958 0.961 0.963 0.964 0.964 0.964 0.963 0.962 0.962 0.963 0.965 0.968 0.973 0.979 0.986 0.992 0.997 1.001 1.003 1.005 1.007 1.008 1.009 1.010 1.011 1.011 1.011 1.010 1.008 1.006 1.003 0.999 0.994 0.986 0.976 0.964 0.948 0.929 0.907 0.881 0.854 0.831 0.812 0.796 0.784 0.774 0.768 0.763 0.760 0.759 0.758 0.758 0.758 0.759 0.761 0.764 0.768 0.775 0.783 0.794 0.808 0.824 0.842 0.862 0.881 0.900 0.918 0.935 0.950 0.964 0.976 0.986 0.996 1.004 1.011 1.017 1.021 1.024 1.026 1.028 1.029 1.029 1.029 1.029 1.029 1.029 1.028 1.027 1.025 1.024 1.021 1.019 1.015 1.011 1.007 1.001 0.994 0.986 0.980 0.974 0.971 0.969 0.968 0.968 0.969 0.972 0.979 0.991 1.009 1.025 1.034 1.034 0.000 
0.000 0.675 0.675 0.647 0.595 0.542 0.504 0.477 0.456 0.441 0.429 0.421 0.415 0.411 0.409 0.407 0.407 0.407 0.407 0.408 0.409 0.413 0.417 0.424 0.433 0.443 0.456 0.470 0.487 0.506 0.526 0.549 0.575 0.603 0.634 0.668 0.702 0.734 0.763 0.787 0.809 0.829 0.848 0.865 0.881 0.896 0.911 0.924 0.937 0.947 0.956 0.964 0.971 0.977 0.982 0.986 0.990 0.992 0.993 0.994 0.994 0.993 0.993 0.993 0.993 0.994 0.996 1.000 1.006 1.013 1.018 1.022 1.025 1.027 1.028 1.029 1.029 1.030 1.029 1.028 1.026 1.023 1.020 1.016 1.011 1.006 1.001 0.994 0.986 0.975 0.962 0.946 0.927 0.905 0.880 0.855 0.833 0.815 0.801 0.789 0.780 0.773 0.768 0.765 0.763 0.763 0.763 0.763 0.763 0.764 0.767 0.770 0.775 0.782 0.791 0.802 0.815 0.830 0.847 0.864 0.882 0.899 0.916 0.931 0.945 0.958 0.969 0.979 0.987 0.995 1.001 1.006 1.010 1.014 1.016 1.018 1.019 1.019 1.019 1.019 1.019 1.019 1.018 1.017 1.015 1.014 1.011 1.009 1.005 1.001 0.996 0.990 0.983 0.977 0.973 0.970 0.968 0.967 0.967 0.968 0.971 0.978 0.989 1.006 1.023 1.031 1.031 0.000 
0.000 0.650 0.650 0.652 0.607 0.557 0.519 0.491 0.470 0.455 0.443 0.435 0.429 0.425 0.423 0.422 0.421 0.421 0.421 0.422 0.424 0.427 0.433 0.440 0.449 0.459 0.472 0.487 0.503 0.522 0.542 0.565 0.590 0.616 0.645 0.677 0.709 0.739 0.767 0.792 0.815 0.836 0.857 0.877 0.896 0.914 0.930 0.946 0.959 0.971 0.981 0.989 0.997 1.003 1.009 1.013 1.017 1.019 1.021 1.022 1.023 1.023 1.024 1.024 1.025 1.025 1.027 1.030 1.035 1.040 1.044 1.047 1.049 1.050 1.050 1.051 1.051 1.050 1.048 1.046 1.042 1.037 1.031 1.025 1.019 1.012 1.004 0.996 0.986 0.975 0.961 0.945 0.925 0.903 0.879 0.856 0.836 0.818 0.804 0.793 0.784 0.777 0.773 0.769 0.767 0.766 0.766 0.766 0.766 0.767 0.769 0.771 0.775 0.781 0.788 0.797 0.808 0.821 0.834 0.850 0.866 0.882 0.898 0.914 0.928 0.941 0.952 0.963 0.972 0.980 0.987 0.992 0.997 1.001 1.004 1.006 1.007 1.008 1.009 1.009 1.009 1.009 1.009 1.008 1.007 1.006 1.004 1.002 0.999 0.995 0.991 0.986 0.980 0.975 0.971 0.968 0.966 0.965 0.965 0.966 0.968 0.973 0.984 1.001 1.019 1.029 1.029 0.000 
0.000 0.624 0.624 0.632 0.607 0.563 0.526 0.498 0.478 0.464 0.453 0.445 0.440 0.437 0.434 0.433 0.433 0.433 0.433 0.434 0.437 0.441 0.447 0.454 0.463 0.475 0.487 0.502 0.519 0.537 0.557 0.579 0.603 0.629 0.656 0.686 0.716 0.745 0.772 0.798 0.822 0.846 0.869 0.891 0.913 0.933 0.950 0.966 0.980 0.992 1.003 1.012 1.021 1.028 1.033 1.038 1.042 1.045 1.047 1.049 1.050 1.051 1.052 1.053 1.054 1.055 1.057 1.059 1.063 1.066 1.069 1.070 1.071 1.072 1.072 1.072 1.071 1.070 1.068 1.064 1.059 1.052 1.045 1.037 1.028 1.019 1.009 0.999 0.987 0.975 0.961 0.944 0.924 0.902 0.878 0.857 0.838 0.821 0.808 0.797 0.788 0.781 0.776 0.773 0.770 0.769 0.769 0.768 0.769 0.769 0.770 0.772 0.775 0.780 0.786 0.793 0.802 0.812 0.824 0.837 0.852 0.866 0.882 0.897 0.912 0.925 0.937 0.948 0.958 0.966 0.973 0.979 0.985 0.989 0.992 0.995 0.997 0.998 0.999 1.000 1.000 1.000 1.000 1.000 0.999 0.998 0.997 0.995 0.993 0.990 0.986 0.982 0.977 0.973 0.969 0.966 0.964 0.961 0.960 0.959 0.961 0.965 0.973 0.990 1.013 1.026 1.026 0.000 
0.000 0.598 0.598 0.608 0.594 0.564 0.528 0.501 0.482 0.469 0.459 0.453 0.448 0.445 0.443 0.443 0.442 0.442 0.443 0.445 0.448 0.453 0.459 0.467 0.477 0.489 0.502 0.516 0.533 0.551 0.571 0.592 0.615 0.640 0.667 0.694 0.723 0.752 0.779 0.806 0.833 0.859 0.884 0.908 0.931 0.951 0.969 0.986 1.000 1.013 1.024 1.034 1.043 1.050 1.057 1.062 1.066 1.069 1.072 1.074 1.076 1.077 1.079 1.080 1.081 1.082 1.084 1.086 1.088 1.090 1.092 1.093 1.093 1.093 1.093 1.093 1.091 1.089 1.086 1.082 1.076 1.069 1.060 1.050 1.039 1.028 1.016 1.003 0.990 0.976 0.960 0.943 0.923 0.901 0.879 0.858 0.840 0.824 0.811 0.800 0.791 0.784 0.779 0.775 0.773 0.771 0.770 0.770 0.770 0.771 0.771 0.773 0.775 0.779 0.783 0.789 0.797 0.805 0.816 0.827 0.840 0.853 0.867 0.882 0.897 0.911 0.923 0.934 0.944 0.953 0.961 0.968 0.973 0.978 0.982 0.985 0.987 0.989 0.990 0.991 0.991 0.991 0.991 0.991 0.991 0.990 0.990 0.988 0.987 0.984 0.981 0.978 0.974 0.970 0.967 0.963 0.960 0.956 0.952 0.949 0.947 0.949 0.955 0.972 1.004 1.023 1.023 0.000 
0.000 0.572 0.572 0.583 0.575 0.556 0.527 0.501 0.483 0.471 0.463 0.457 0.454 0.451 0.450 0.450 0.450 0.450 0.452 0.455 0.459 0.464 0.471 0.480 0.490 0.502 0.515 0.530 0.546 0.564 0.583 0.604 0.627 0.651 0.677 0.703 0.731 0.760 0.788 0.817 0.846 0.874 0.900 0.924 0.947 0.968 0.987 1.004 1.019 1.032 1.044 1.055 1.064 1.072 1.078 1.084 1.089 1.092 1.095 1.098 1.100 1.102 1.103 1.104 1.106 1.107 1.108 1.110 1.111 1.113 1.113 1.114 1.114 1.114 1.113 1.112 1.110 1.108 1.104 1.099 1.093 1.085 1.075 1.064 1.052 1.038 1.024 1.009 0.994 0.978 0.961 0.943 0.923 0.901 0.879 0.859 0.842 0.826 0.813 0.803 0.794 0.787 0.781 0.777 0.775 0.773 0.772 0.771 0.771 0.771 0.772 0.773 0.775 0.777 0.781 0.786 0.792 0.800 0.808 0.818 0.829 0.841 0.855 0.869 0.883 0.897 0.910 0.922 0.932 0.941 0.950 0.957 0.963 0.968 0.972 0.975 0.978 0.980 0.981 0.982 0.983 0.983 0.983 0.983 0.983 0.983 0.982 0.982 0.980 0.979 0.976 0.974 0.971 0.967 0.963 0.959 0.954 0.949 0.941 0.934 0.927 0.923 0.925 0.938 0.985 1.042 1.042 0.000 
0.000 0.546 0.546 0.558 0.553 0.542 0.522 0.500 0.483 0.472 0.464 0.460 0.457 0.456 0.455 0.455 0.456 0.457 0.459 0.463 0.468 0.474 0.482 0.491 0.501 0.513 0.527 0.541 0.558 0.575 0.594 0.615 0.637 0.661 0.686 0.712 0.740 0.769 0.798 0.829 0.859 0.887 0.914 0.939 0.962 0.983 1.003 1.020 1.036 1.050 1.062 1.073 1.083 1.091 1.098 1.104 1.109 1.114 1.117 1.120 1.122 1.124 1.126 1.127 1.129 1.130 1.131 1.132 1.133 1.133 1.134 1.134 1.134 1.133 1.133 1.131 1.129 1.125 1.121 1.116 1.109 1.100 1.090 1.078 1.065 1.050 1.034 1.017 1.000 0.982 0.963 0.943 0.923 0.901 0.880 0.861 0.844 0.829 0.816 0.805 0.796 0.789 0.783 0.779 0.776 0.774 0.773 0.772 0.772 0.772 0.772 0.773 0.774 0.776 0.779 0.783 0.788 0.795 0.802 0.811 0.821 0.832 0.844 0.856 0.870 0.885 0.898 0.910 0.921 0.931 0.939 0.947 0.953 0.958 0.963 0.966 0.969 0.972 0.973 0.974 0.975 0.976 0.976 0.976 0.976 0.976 0.976 0.975 0.974 0.973 0.971 0.969 0.967 0.963 0.959 0.955 0.949 0.942 0.933 0.922 0.909 0.893 0.876 0.866 0.909 1.069 1.069 0.000 
0.000 0.520 0.520 0.533 0.530 0.523 0.512 0.496 0.481 0.471 0.464 0.461 0.459 0.459 0.459 0.459 0.460 0.463 0.466 0.471 0.477 0.484 0.492 0.501 0.512 0.524 0.537 0.552 0.568 0.586 0.605 0.625 0.647 0.670 0.694 0.721 0.748 0.777 0.808 0.839 0.870 0.899 0.927 0.952 0.976 0.997 1.017 1.035 1.052 1.066 1.079 1.091 1.101 1.110 1.117 1.124 1.129 1.133 1.137 1.140 1.143 1.145 1.147 1.148 1.149 1.150 1.151 1.152 1.153 1.153 1.153 1.153 1.153 1.152 1.151 1.149 1.146 1.142 1.137 1.131 1.124 1.115 1.105 1.092 1.078 1.062 1.045 1.026 1.007 0.986 0.966 0.945 0.923 0.901 0.881 0.863 0.846 0.831 0.819 0.808 0.799 0.791 0.785 0.781 0.777 0.775 0.774 0.773 0.773 0.772 0.773 0.773 0.774 0.775 0.778 0.781 0.785 0.790 0.797 0.804 0.813 0.823 0.834 0.846 0.859 0.873 0.887 0.899 0.911 0.921 0.930 0.938 0.944 0.950 0.955 0.958 0.962 0.964 0.966 0.967 0.968 0.968 0.969 0.969 0.969 0.969 0.969 0.968 0.968 0.967 0.966 0.964 0.962 0.959 0.955 0.950 0.944 0.936 0.927 0.915 0.900 0.878 0.842 0.774 0.681 0.679 0.679 0.000 
0.000 0.495 0.495 0.507 0.506 0.502 0.497 0.487 0.476 0.468 0.464 0.461 0.460 0.460 0.461 0.462 0.465 0.468 0.473 0.478 0.485 0.492 0.501 0.511 0.522 0.534 0.547 0.562 0.578 0.595 0.613 0.633 0.655 0.678 0.702 0.728 0.756 0.785 0.816 0.848 0.880 0.910 0.938 0.964 0.988 1.010 1.031 1.049 1.066 1.081 1.095 1.107 1.117 1.126 1.134 1.141 1.147 1.152 1.156 1.159 1.162 1.164 1.166 1.167 1.169 1.169 1.170 1.171 1.171 1.171 1.171 1.171 1.170 1.169 1.168 1.165 1.162 1.158 1.153 1.147 1.139 1.129 1.118 1.106 1.091 1.075 1.056 1.036 1.015 0.993 0.970 0.947 0.924 0.903 0.883 0.865 0.849 0.834 0.821 0.810 0.801 0.793 0.787 0.782 0.779 0.776 0.774 0.773 0.773 0.773 0.773 0.773 0.773 0.775 0.776 0.779 0.782 0.787 0.792 0.799 0.807 0.816 0.826 0.837 0.849 0.863 0.877 0.890 0.901 0.912 0.921 0.929 0.936 0.942 0.947 0.951 0.954 0.957 0.959 0.960 0.961 0.962 0.962 0.962 0.962 0.962 0.962 0.962 0.962 0.961 0.960 0.959 0.956 0.954 0.950 0.945 0.939 0.932 0.923 0.912 0.898 0.875 0.835 0.753 0.557 0.134 0.134 0.000 
0.000 0.469 0.469 0.482 0.481 0.480 0.478 0.474 0.468 0.464 0.461 0.460 0.460 0.461 0.463 0.465 0.469 0.473 0.478 0.485 0.492 0.500 0.509 0.519 0.530 0.542 0.556 0.570 0.586 0.603 0.621 0.641 0.662 0.685 0.709 0.735 0.763 0.792 0.823 0.856 0.888 0.919 0.947 0.974 0.999 1.022 1.043 1.062 1.079 1.095 1.109 1.121 1.132 1.142 1.150 1.158 1.164 1.169 1.173 1.177 1.179 1.182 1.184 1.185 1.186 1.187 1.187 1.188 1.188 1.188 1.188 1.187 1.187 1.185 1.184 1.181 1.178 1.173 1.168 1.161 1.153 1.143 1.132 1.118 1.103 1.087 1.068 1.047 1.024 1.000 0.974 0.950 0.927 0.905 0.885 0.867 0.851 0.837 0.824 0.813 0.803 0.795 0.789 0.784 0.780 0.777 0.775 0.774 0.773 0.773 0.773 0.773 0.773 0.774 0.775 0.777 0.780 0.784 0.788 0.794 0.801 0.809 0.819 0.829 0.841 0.853 0.867 0.881 0.893 0.904 0.913 0.922 0.929 0.935 0.940 0.944 0.948 0.950 0.952 0.954 0.955 0.955 0.956 0.956 0.956 0.956 0.956 0.956 0.955 0.955 0.954 0.953 0.951 0.948 0.944 0.940 0.934 0.928 0.920 0.911 0.899 0.879 0.844 0.779 0.643 0.435 0.435 0.000 
0.000 0.443 0.443 0.456 0.456 0.457 0.457 0.458 0.457 0.456 0.457 0.458 0.459 0.461 0.464 0.468 0.472 0.478 0.484 0.490 0.498 0.507 0.516 0.526 0.538 0.550 0.563 0.577 0.593 0.610 0.628 0.647 0.668 0.691 0.715 0.741 0.769 0.798 0.830 0.862 0.895 0.927 0.956 0.983 1.009 1.032 1.054 1.073 1.091 1.107 1.122 1.135 1.146 1.156 1.165 1.173 1.179 1.184 1.189 1.193 1.196 1.198 1.200 1.201 1.202 1.203 1.203 1.203 1.204 1.203 1.203 1.203 1.202 1.201 1.198 1.196 1.192 1.187 1.182 1.175 1.166 1.156 1.144 1.131 1.115 1.098 1.079 1.057 1.033 1.008 0.980 0.954 0.931 0.909 0.889 0.871 0.854 0.840 0.827 0.815 0.806 0.797 0.791 0.785 0.781 0.778 0.775 0.774 0.773 0.773 0.772 0.772 0.773 0.773 0.774 0.776 0.778 0.781 0.785 0.790 0.797 0.804 0.813 0.822 0.833 0.845 0.859 0.872 0.885 0.896 0.906 0.915 0.922 0.929 0.934 0.938 0.942 0.945 0.947 0.948 0.949 0.950 0.950 0.950 0.950 0.950 0.950 0.950 0.949 0.949 0.948 0.946 0.944 0.942 0.938 0.934 0.929 0.924 0.919 0.913 0.905 0.895 0.884 0.878 0.904 1.014 1.014 0.000 
0.000 0.417 0.417 0.430 0.432 0.433 0.436 0.438 0.442 0.446 0.450 0.453 0.457 0.461 0.465 0.470 0.475 0.481 0.488 0.496 0.504 0.513 0.522 0.533 0.544 0.556 0.569 0.584 0.599 0.616 0.633 0.653 0.674 0.696 0.720 0.746 0.774 0.804 0.835 0.868 0.902 0.933 0.963 0.991 1.017 1.041 1.063 1.084 1.102 1.119 1.134 1.147 1.159 1.169 1.178 1.186 1.193 1.199 1.203 1.207 1.210 1.213 1.215 1.216 1.217 1.218 1.218 1.218 1.218 1.218 1.218 1.217 1.216 1.215 1.212 1.209 1.206 1.201 1.195 1.187 1.179 1.168 1.156 1.143 1.127 1.109 1.089 1.067 1.043 1.016 0.987 0.960 0.936 0.913 0.893 0.874 0.858 0.843 0.830 0.818 0.808 0.799 0.792 0.787 0.782 0.779 0.776 0.774 0.773 0.773 0.772 0.772 0.772 0.773 0.773 0.774 0.776 0.779 0.783 0.787 0.793 0.800 0.807 0.816 0.827 0.838 0.851 0.865 0.878 0.889 0.900 0.909 0.916 0.923 0.929 0.933 0.937 0.939 0.941 0.943 0.944 0.944 0.945 0.945 0.945 0.945 0.945 0.944 0.944 0.943 0.941 0.940 0.938 0.935 0.932 0.928 0.924 0.920 0.917 0.915 0.915 0.919 0.930 0.960 1.034 1.132 1.132 0.000 
0.000 0.391 0.391 0.405 0.408 0.411 0.415 0.420 0.427 0.435 0.442 0.448 0.454 0.460 0.466 0.472 0.478 0.485 0.492 0.500 0.509 0.518 0.528 0.538 0.550 0.562 0.575 0.589 0.604 0.620 0.638 0.657 0.678 0.701 0.725 0.751 0.779 0.808 0.839 0.873 0.907 0.939 0.970 0.998 1.025 1.049 1.072 1.093 1.112 1.129 1.144 1.158 1.170 1.181 1.191 1.199 1.206 1.212 1.217 1.221 1.224 1.226 1.228 1.230 1.231 1.231 1.231 1.231 1.231 1.231 1.231 1.230 1.229 1.228 1.225 1.222 1.218 1.213 1.207 1.200 1.191 1.180 1.168 1.154 1.138 1.120 1.100 1.077 1.052 1.025 0.996 0.968 0.942 0.919 0.898 0.879 0.862 0.846 0.833 0.821 0.810 0.801 0.794 0.788 0.783 0.779 0.777 0.775 0.773 0.772 0.772 0.772 0.772 0.772 0.773 0.774 0.775 0.777 0.780 0.784 0.790 0.796 0.803 0.812 0.821 0.832 0.845 0.858 0.871 0.883 0.894 0.903 0.911 0.918 0.924 0.928 0.932 0.935 0.937 0.938 0.939 0.940 0.940 0.940 0.940 0.940 0.940 0.939 0.938 0.937 0.935 0.933 0.930 0.928 0.924 0.921 0.918 0.916 0.915 0.916 0.920 0.930 0.952 0.994 1.064 1.116 1.116 0.000 
0.000 0.365 0.365 0.380 0.384 0.390 0.397 0.406 0.416 0.427 0.436 0.444 0.452 0.459 0.466 0.473 0.480 0.488 0.496 0.504 0.513 0.522 0.532 0.543 0.554 0.566 0.579 0.593 0.608 0.624 0.642 0.661 0.682 0.705 0.729 0.755 0.782 0.812 0.843 0.876 0.911 0.944 0.975 1.004 1.031 1.056 1.080 1.101 1.120 1.138 1.154 1.168 1.181 1.192 1.202 1.210 1.217 1.224 1.229 1.233 1.236 1.239 1.241 1.242 1.243 1.243 1.244 1.244 1.244 1.244 1.243 1.243 1.241 1.240 1.237 1.234 1.230 1.225 1.219 1.211 1.202 1.191 1.179 1.165 1.149 1.131 1.110 1.088 1.062 1.035 1.004 0.975 0.949 0.925 0.903 0.883 0.866 0.850 0.836 0.823 0.813 0.804 0.796 0.789 0.784 0.780 0.777 0.775 0.773 0.772 0.772 0.772 0.772 0.772 0.772 0.773 0.774 0.776 0.779 0.782 0.787 0.792 0.799 0.807 0.817 0.827 0.839 0.852 0.866 0.878 0.889 0.898 0.906 0.913 0.919 0.924 0.928 0.930 0.933 0.934 0.935 0.935 0.936 0.936 0.936 0.936 0.935 0.934 0.933 0.931 0.929 0.926 0.923 0.920 0.916 0.914 0.912 0.911 0.912 0.915 0.920 0.933 0.959 1.005 1.069 1.107 1.107 0.000 
0.000 0.339 0.339 0.355 0.362 0.370 0.381 0.394 0.408 0.421 0.432 0.442 0.451 0.459 0.467 0.475 0.482 0.490 0.499 0.507 0.517 0.526 0.536 0.547 0.558 0.570 0.583 0.597 0.612 0.628 0.646 0.665 0.686 0.708 0.732 0.758 0.786 0.815 0.846 0.879 0.914 0.948 0.980 1.009 1.037 1.063 1.086 1.108 1.128 1.146 1.163 1.177 1.190 1.202 1.212 1.221 1.228 1.234 1.240 1.244 1.247 1.250 1.252 1.253 1.254 1.255 1.255 1.255 1.255 1.255 1.255 1.254 1.253 1.251 1.249 1.245 1.241 1.236 1.230 1.222 1.213 1.202 1.190 1.175 1.159 1.141 1.121 1.098 1.072 1.044 1.014 0.984 0.957 0.932 0.909 0.889 0.870 0.854 0.839 0.826 0.815 0.806 0.798 0.791 0.785 0.781 0.778 0.775 0.773 0.772 0.772 0.771 0.771 0.771 0.772 0.772 0.773 0.775 0.777 0.780 0.785 0.790 0.796 0.804 0.812 0.823 0.834 0.847 0.860 0.873 0.884 0.894 0.902 0.909 0.915 0.920 0.924 0.927 0.929 0.930 0.931 0.932 0.932 0.932 0.932 0.932 0.931 0.930 0.929 0.927 0.924 0.920 0.916 0.912 0.908 0.906 0.905 0.905 0.906 0.910 0.917 0.932 0.959 1.006 1.066 1.099 1.099 0.000 
0.000 0.314 0.314 0.330 0.340 0.352 0.368 0.386 0.403 0.418 0.430 0.441 0.450 0.459 0.467 0.476 0.484 0.493 0.501 0.510 0.520 0.529 0.539 0.550 0.561 0.573 0.585 0.599 0.614 0.631 0.648 0.668 0.688 0.711 0.735 0.761 0.788 0.818 0.849 0.882 0.917 0.951 0.983 1.014 1.042 1.068 1.092 1.114 1.135 1.153 1.170 1.185 1.199 1.210 1.221 1.230 1.238 1.244 1.249 1.254 1.257 1.260 1.262 1.264 1.265 1.265 1.265 1.265 1.265 1.265 1.265 1.264 1.263 1.261 1.259 1.256 1.251 1.246 1.240 1.232 1.223 1.212 1.200 1.185 1.169 1.151 1.131 1.108 1.083 1.055 1.024 0.993 0.965 0.939 0.916 0.894 0.875 0.858 0.843 0.830 0.818 0.808 0.799 0.792 0.786 0.782 0.778 0.776 0.774 0.772 0.772 0.771 0.771 0.771 0.771 0.772 0.773 0.774 0.776 0.779 0.783 0.788 0.794 0.801 0.809 0.819 0.830 0.842 0.856 0.869 0.880 0.890 0.899 0.906 0.912 0.917 0.921 0.924 0.926 0.927 0.928 0.929 0.929 0.929 0.929 0.928 0.928 0.927 0.925 0.922 0.919 0.915 0.910 0.904 0.900 0.897 0.896 0.896 0.897 0.900 0.908 0.923 0.950 0.998 1.060 1.095 1.095 0.000 
0.000 0.288 0.288 0.305 0.319 0.336 0.358 0.381 0.401 0.416 0.429 0.440 0.450 0.459 0.468 0.477 0.486 0.495 0.504 0.513 0.522 0.532 0.542 0.552 0.563 0.575 0.587 0.601 0.616 0.633 0.651 0.670 0.691 0.713 0.737 0.763 0.790 0.820 0.851 0.884 0.919 0.954 0.986 1.017 1.046 1.072 1.097 1.120 1.141 1.160 1.177 1.192 1.206 1.218 1.229 1.238 1.246 1.253 1.258 1.263 1.267 1.269 1.272 1.273 1.274 1.275 1.275 1.275 1.275 1.275 1.274 1.274 1.273 1.271 1.268 1.265 1.261 1.256 1.249 1.241 1.232 1.222 1.209 1.195 1.179 1.161 1.140 1.118 1.093 1.065 1.035 1.003 0.974 0.947 0.923 0.900 0.880 0.863 0.847 0.833 0.821 0.810 0.801 0.794 0.788 0.783 0.779 0.776 0.774 0.772 0.772 0.771 0.771 0.771 0.771 0.772 0.772 0.773 0.775 0.778 0.781 0.786 0.791 0.798 0.806 0.815 0.826 0.838 0.852 0.865 0.876 0.887 0.895 0.903 0.909 0.914 0.918 0.921 0.923 0.925 0.926 0.926 0.926 0.926 0.926 0.926 0.925 0.924 0.921 0.919 0.915 0.910 0.904 0.897 0.892 0.887 0.884 0.882 0.881 0.883 0.888 0.901 0.926 0.973 1.045 1.092 1.092 0.000 
0.000 0.262 0.262 0.280 0.299 0.324 0.353 0.379 0.400 0.416 0.429 0.441 0.451 0.460 0.469 0.479 0.487 0.496 0.505 0.515 0.524 0.533 0.543 0.553 0.564 0.576 0.589 0.603 0.618 0.634 0.652 0.672 0.692 0.715 0.739 0.764 0.792 0.821 0.852 0.885 0.920 0.955 0.989 1.020 1.049 1.076 1.101 1.125 1.146 1.165 1.183 1.198 1.213 1.225 1.236 1.245 1.254 1.261 1.266 1.271 1.275 1.278 1.280 1.282 1.283 1.283 1.283 1.284 1.283 1.283 1.283 1.282 1.281 1.279 1.277 1.274 1.270 1.264 1.258 1.250 1.241 1.231 1.218 1.204 1.188 1.170 1.150 1.127 1.102 1.075 1.045 1.013 0.983 0.955 0.930 0.907 0.886 0.867 0.851 0.836 0.824 0.813 0.803 0.795 0.789 0.784 0.779 0.776 0.774 0.773 0.772 0.771 0.771 0.771 0.771 0.771 0.772 0.773 0.775 0.777 0.780 0.785 0.790 0.796 0.804 0.813 0.823 0.835 0.848 0.861 0.873 0.884 0.893 0.900 0.907 0.912 0.916 0.919 0.921 0.923 0.924 0.924 0.924 0.924 0.924 0.923 0.923 0.921 0.919 0.916 0.911 0.906 0.899 0.891 0.883 0.876 0.869 0.864 0.859 0.856 0.855 0.861 0.878 0.918 1.004 1.090 1.090 0.000 
0.000 0.236 0.236 0.256 0.281 0.316 0.352 0.379 0.400 0.416 0.430 0.441 0.452 0.462 0.471 0.480 0.489 0.498 0.507 0.516 0.525 0.534 0.544 0.554 0.565 0.577 0.590 0.604 0.619 0.636 0.654 0.673 0.694 0.716 0.740 0.766 0.793 0.822 0.853 0.886 0.921 0.957 0.991 1.022 1.052 1.079 1.105 1.128 1.150 1.170 1.188 1.204 1.218 1.231 1.242 1.252 1.260 1.268 1.274 1.278 1.282 1.285 1.288 1.289 1.290 1.291 1.291 1.291 1.291 1.291 1.291 1.290 1.289 1.287 1.285 1.282 1.278 1.273 1.266 1.259 1.250 1.239 1.227 1.213 1.197 1.179 1.159 1.136 1.112 1.085 1.055 1.023 0.992 0.963 0.937 0.913 0.892 0.872 0.855 0.840 0.827 0.815 0.805 0.797 0.790 0.785 0.780 0.777 0.775 0.773 0.772 0.771 0.771 0.771 0.771 0.771 0.772 0.773 0.774 0.776 0.780 0.783 0.788 0.795 0.802 0.810 0.820 0.832 0.845 0.858 0.870 0.881 0.890 0.898 0.905 0.910 0.914 0.917 0.920 0.921 0.922 0.922 0.922 0.922 0.922 0.922 0.921 0.919 0.917 0.913 0.909 0.902 0.895 0.886 0.876 0.865 0.853 0.841 0.829 0.817 0.805 0.795 0.792 0.811 0.886 1.087 1.087 0.000 
0.000 0.210 0.210 0.232 0.267 0.315 0.353 0.381 0.402 0.418 0.432 0.444 0.454 0.464 0.473 0.482 0.491 0.500 0.508 0.517 0.526 0.535 0.545 0.555 0.566 0.578 0.591 0.605 0.620 0.637 0.655 0.674 0.695 0.717 0.741 0.767 0.794 0.823 0.854 0.887 0.922 0.958 0.992 1.024 1.054 1.082 1.108 1.132 1.154 1.174 1.192 1.208 1.223 1.236 1.248 1.258 1.266 1.274 1.280 1.285 1.289 1.292 1.294 1.296 1.297 1.298 1.298 1.298 1.298 1.298 1.298 1.297 1.296 1.295 1.292 1.289 1.285 1.280 1.274 1.266 1.257 1.247 1.235 1.221 1.205 1.187 1.167 1.145 1.121 1.094 1.065 1.034 1.001 0.972 0.945 0.920 0.898 0.877 0.860 0.844 0.830 0.818 0.807 0.799 0.792 0.786 0.781 0.778 0.775 0.773 0.772 0.771 0.771 0.771 0.771 0.771 0.772 0.773 0.774 0.776 0.779 0.783 0.787 0.793 0.800 0.809 0.818 0.829 0.842 0.855 0.868 0.879 0.888 0.896 0.903 0.908 0.913 0.916 0.918 0.920 0.921 0.921 0.921 0.921 0.921 0.921 0.920 0.918 0.915 0.911 0.906 0.900 0.892 0.882 0.870 0.856 0.840 0.822 0.801 0.777 0.749 0.714 0.671 0.622 0.578 0.612 0.612 0.000 
0.000 0.184 0.184 0.210 0.263 0.318 0.357 0.385 0.407 0.423 0.436 0.448 0.458 0.467 0.476 0.484 0.493 0.501 0.509 0.518 0.526 0.535 0.545 0.555 0.566 0.578 0.592 0.606 0.621 0.638 0.656 0.675 0.696 0.718 0.742 0.767 0.795 0.824 0.855 0.888 0.922 0.958 0.993 1.025 1.056 1.084 1.110 1.134 1.157 1.177 1.196 1.212 1.227 1.241 1.252 1.263 1.272 1.279 1.285 1.291 1.295 1.298 1.301 1.302 1.303 1.304 1.305 1.305 1.305 1.305 1.304 1.304 1.303 1.301 1.299 1.296 1.292 1.287 1.281 1.273 1.265 1.254 1.242 1.229 1.213 1.195 1.176 1.154 1.130 1.103 1.075 1.043 1.011 0.980 0.952 0.927 0.904 0.883 0.864 0.848 0.833 0.821 0.810 0.801 0.793 0.787 0.782 0.778 0.776 0.774 0.772 0.772 0.771 0.771 0.771 0.771 0.772 0.773 0.774 0.776 0.778 0.782 0.787 0.792 0.799 0.807 0.816 0.827 0.840 0.853 0.866 0.877 0.886 0.894 0.901 0.907 0.911 0.915 0.917 0.919 0.920 0.920 0.920 0.920 0.920 0.920 0.919 0.917 0.914 0.910 0.905 0.898 0.889 0.879 0.865 0.849 0.830 0.808 0.781 0.749 0.710 0.659 0.588 0.479 0.284 0.063 0.063 0.000 
0.000 0.193 0.193 0.206 0.272 0.330 0.369 0.396 0.416 0.431 0.444 0.454 0.463 0.471 0.479 0.487 0.495 0.502 0.510 0.518 0.526 0.535 0.545 0.555 0.567 0.579 0.592 0.606 0.622 0.638 0.656 0.675 0.696 0.718 0.742 0.768 0.795 0.824 0.855 0.888 0.923 0.959 0.994 1.026 1.057 1.085 1.112 1.137 1.159 1.180 1.199 1.216 1.231 1.245 1.257 1.267 1.276 1.284 1.290 1.296 1.300 1.303 1.306 1.308 1.309 1.310 1.310 1.310 1.310 1.310 1.310 1.310 1.309 1.307 1.305 1.302 1.298 1.293 1.287 1.280 1.271 1.261 1.249 1.236 1.220 1.203 1.184 1.162 1.138 1.112 1.084 1.053 1.020 0.989 0.960 0.934 0.910 0.888 0.869 0.852 0.837 0.824 0.812 0.803 0.795 0.788 0.783 0.779 0.776 0.774 0.773 0.772 0.771 0.771 0.771 0.771 0.772 0.773 0.774 0.776 0.778 0.782 0.786 0.791 0.798 0.806 0.815 0.825 0.837 0.851 0.864 0.875 0.885 0.893 0.900 0.906 0.910 0.914 0.916 0.918 0.919 0.920 0.920 0.920 0.920 0.919 0.918 0.916 0.914 0.910 0.904 0.897 0.888 0.877 0.862 0.845 0.824 0.798 0.768 0.730 0.684 0.627 0.551 0.437 0.218 0.000 0.000 0.000 
0.000 0.306 0.306 0.251 0.303 0.358 0.393 0.416 0.433 0.445 0.455 0.463 0.470 0.477 0.484 0.490 0.497 0.503 0.511 0.518 0.526 0.535 0.545 0.555 0.567 0.579 0.592 0.606 0.622 0.638 0.656 0.676 0.696 0.718 0.742 0.768 0.795 0.824 0.855 0.888 0.923 0.959 0.994 1.027 1.058 1.086 1.113 1.138 1.161 1.182 1.201 1.218 1.234 1.248 1.260 1.271 1.280 1.288 1.295 1.300 1.305 1.308 1.311 1.313 1.314 1.315 1.315 1.315 1.315 1.315 1.315 1.315 1.314 1.312 1.310 1.307 1.304 1.299 1.293 1.286 1.277 1.267 1.256 1.243 1.227 1.210 1.191 1.170 1.147 1.121 1.093 1.062 1.029 0.997 0.968 0.941 0.916 0.894 0.874 0.856 0.840 0.827 0.815 0.805 0.797 0.790 0.784 0.780 0.777 0.775 0.773 0.772 0.772 0.772 0.771 0.772 0.772 0.773 0.774 0.776 0.778 0.781 0.786 0.791 0.797 0.805 0.814 0.824 0.836 0.849 0.862 0.873 0.883 0.892 0.899 0.905 0.910 0.913 0.916 0.918 0.919 0.919 0.920 0.920 0.919 0.919 0.918 0.916 0.913 0.909 0.904 0.897 0.887 0.875 0.861 0.843 0.821 0.793 0.760 0.718 0.668 0.608 0.541 0.449 0.278 0.000 0.000 0.000 
0.000 0.436 0.436 0.368 0.380 0.411 0.434 0.448 0.458 0.465 0.470 0.475 0.479 0.484 0.488 0.493 0.498 0.504 0.511 0.518 0.526 0.535 0.545 0.555 0.567 0.579 0.592 0.607 0.622 0.639 0.656 0.676 0.696 0.719 0.742 0.768 0.795 0.824 0.855 0.888 0.923 0.959 0.994 1.027 1.058 1.087 1.114 1.139 1.162 1.184 1.203 1.221 1.236 1.250 1.263 1.274 1.283 1.291 1.298 1.304 1.308 1.312 1.315 1.317 1.318 1.319 1.320 1.320 1.320 1.320 1.320 1.319 1.318 1.317 1.315 1.312 1.309 1.304 1.298 1.291 1.283 1.273 1.262 1.249 1.234 1.217 1.199 1.178 1.154 1.129 1.101 1.071 1.038 1.006 0.975 0.948 0.922 0.899 0.879 0.860 0.844 0.830 0.818 0.808 0.799 0.792 0.786 0.781 0.778 0.775 0.774 0.773 0.772 0.772 0.772 0.772 0.772 0.773 0.774 0.776 0.778 0.781 0.785 0.790 0.797 0.804 0.813 0.823 0.834 0.847 0.860 0.872 0.882 0.891 0.898 0.904 0.909 0.913 0.916 0.917 0.919 0.919 0.919 0.919 0.919 0.919 0.918 0.916 0.913 0.909 0.904 0.896 0.887 0.875 0.860 0.842 0.819 0.791 0.756 0.713 0.659 0.597 0.548 0.520 0.520 0.492 0.492 0.000 
0.000 0.611 0.611 0.515 0.506 0.498 0.493 0.488 0.485 0.484 0.484 0.485 0.487 0.489 0.492 0.495 0.499 0.505 0.511 0.518 0.526 0.535 0.545 0.555 0.567 0.579 0.592 0.607 0.622 0.639 0.656 0.676 0.696 0.719 0.742 0.768 0.795 0.824 0.855 0.888 0.923 0.959 0.994 1.027 1.058 1.088 1.115 1.140 1.164 1.185 1.205 1.222 1.238 1.253 1.265 1.276 1.286 1.294 1.301 1.307 1.312 1.316 1.319 1.321 1.322 1.323 1.324 1.324 1.324 1.324 1.324 1.323 1.323 1.321 1.319 1.317 1.313 1.309 1.303 1.296 1.288 1.279 1.268 1.255 1.240 1.224 1.205 1.185 1.162 1.137 1.110 1.080 1.047 1.014 0.983 0.955 0.929 0.905 0.884 0.865 0.848 0.834 0.821 0.810 0.801 0.794 0.788 0.783 0.779 0.776 0.775 0.773 0.773 0.772 0.772 0.772 0.773 0.773 0.774 0.776 0.778 0.781 0.785 0.790 0.796 0.803 0.812 0.822 0.833 0.846 0.859 0.871 0.881 0.890 0.897 0.904 0.909 0.913 0.915 0.917 0.919 0.919 0.919 0.919 0.919 0.919 0.918 0.916 0.913 0.909 0.904 0.896 0.887 0.875 0.860 0.842 0.819 0.791 0.756 0.712 0.656 0.593 0.551 0.546 0.628 1.033 1.033 0.000 
0.000 0.785 0.785 0.688 0.638 0.581 0.541 0.517 0.503 0.496 0.493 0.492 0.492 0.492 0.494 0.497 0.500 0.505 0.511 0.518 0.526 0.535 0.545 0.555 0.567 0.579 0.592 0.607 0.622 0.639 0.656 0.676 0.696 0.719 0.742 0.768 0.795 0.824 0.855 0.888 0.923 0.959 0.994 1.027 1.059 1.088 1.115 1.141 1.164 1.186 1.206 1.224 1.240 1.254 1.267 1.278 1.288 1.297 1.304 1.310 1.315 1.319 1.322 1.324 1.325 1.326 1.327 1.327 1.327 1.327 1.327 1.327 1.326 1.325 1.323 1.321 1.317 1.313 1.308 1.301 1.293 1.284 1.273 1.260 1.246 1.230 1.212 1.192 1.169 1.145 1.118 1.088 1.056 1.023 0.991 0.962 0.935 0.911 0.889 0.870 0.852 0.837 0.824 0.813 0.804 0.796 0.789 0.784 0.780 0.777 0.775 0.774 0.773 0.773 0.773 0.773 0.773 0.774 0.774 0.776 0.778 0.781 0.785 0.790 0.796 0.803 0.811 0.821 0.832 0.844 0.858 0.870 0.880 0.889 0.897 0.903 0.908 0.912 0.915 0.917 0.919 0.919 0.919 0.920 0.919 0.919 0.918 0.916 0.913 0.909 0.904 0.897 0.887 0.875 0.861 0.842 0.819 0.791 0.756 0.713 0.658 0.596 0.546 0.514 0.504 0.568 0.568 0.000 
0.000 0.955 0.955 0.846 0.721 0.623 0.564 0.530 0.511 0.501 0.497 0.495 0.494 0.495 0.496 0.498 0.501 0.506 0.512 0.519 0.526 0.535 0.545 0.555 0.567 0.579 0.592 0.607 0.622 0.639 0.656 0.676 0.696 0.718 0.742 0.768 0.795 0.824 0.855 0.888 0.922 0.959 0.994 1.027 1.059 1.088 1.115 1.141 1.165 1.186 1.206 1.225 1.241 1.256 1.269 1.280 1.290 1.299 1.306 1.312 1.317 1.321 1.324 1.327 1.328 1.329 1.330 1.330 1.330 1.330 1.330 1.330 1.329 1.328 1.326 1.324 1.321 1.317 1.311 1.305 1.297 1.288 1.278 1.266 1.252 1.236 1.218 1.198 1.176 1.152 1.125 1.096 1.065 1.031 0.999 0.969 0.942 0.917 0.895 0.875 0.857 0.841 0.828 0.816 0.806 0.798 0.791 0.786 0.782 0.779 0.777 0.775 0.774 0.774 0.774 0.774 0.774 0.774 0.775 0.776 0.778 0.781 0.785 0.790 0.796 0.803 0.811 0.820 0.831 0.843 0.856 0.869 0.879 0.888 0.896 0.903 0.908 0.912 0.915 0.917 0.919 0.919 0.920 0.920 0.920 0.919 0.918 0.916 0.914 0.910 0.905 0.897 0.888 0.877 0.862 0.844 0.821 0.794 0.760 0.718 0.667 0.607 0.537 0.443 0.266 0.026 0.026 0.000 
0.000 1.004 1.004 0.925 0.747 0.634 0.570 0.534 0.514 0.503 0.498 0.496 0.496 0.496 0.497 0.499 0.502 0.507 0.512 0.519 0.527 0.536 0.545 0.556 0.567 0.579 0.592 0.607 0.622 0.638 0.656 0.675 0.696 0.718 0.742 0.767 0.795 0.824 0.855 0.887 0.922 0.958 0.994 1.027 1.058 1.088 1.115 1.141 1.165 1.187 1.207 1.225 1.242 1.256 1.270 1.281 1.291 1.300 1.308 1.314 1.319 1.323 1.326 1.329 1.331 1.332 1.333 1.333 1.333 1.333 1.333 1.333 1.332 1.331 1.329 1.327 1.324 1.320 1.315 1.309 1.301 1.293 1.282 1.270 1.257 1.241 1.224 1.204 1.183 1.159 1.133 1.104 1.073 1.040 1.007 0.976 0.949 0.923 0.900 0.880 0.861 0.845 0.831 0.819 0.809 0.801 0.794 0.788 0.784 0.780 0.778 0.776 0.775 0.775 0.775 0.775 0.775 0.775 0.776 0.777 0.779 0.782 0.785 0.790 0.796 0.803 0.810 0.820 0.830 0.842 0.855 0.868 0.878 0.888 0.896 0.903 0.908 0.912 0.915 0.918 0.919 0.920 0.920 0.920 0.920 0.920 0.919 0.917 0.915 0.911 0.906 0.899 0.890 0.879 0.864 0.847 0.825 0.799 0.767 0.728 0.681 0.623 0.547 0.432 0.215 0.000 0.000 0.000 
0.000 0.785 0.785 0.875 0.740 0.629 0.567 0.532 0.513 0.503 0.498 0.496 0.496 0.496 0.497 0.500 0.503 0.508 0.513 0.520 0.527 0.536 0.545 0.556 0.567 0.579 0.592 0.606 0.622 0.638 0.656 0.675 0.696 0.718 0.742 0.767 0.794 0.823 0.854 0.887 0.922 0.958 0.993 1.027 1.058 1.088 1.115 1.141 1.165 1.187 1.207 1.226 1.242 1.257 1.270 1.282 1.293 1.301 1.309 1.315 1.321 1.325 1.328 1.331 1.333 1.334 1.335 1.335 1.335 1.335 1.335 1.335 1.334 1.333 1.332 1.330 1.327 1.323 1.318 1.312 1.305 1.296 1.286 1.275 1.261 1.246 1.229 1.210 1.189 1.166 1.140 1.112 1.081 1.049 1.015 0.984 0.955 0.930 0.906 0.885 0.866 0.850 0.835 0.823 0.812 0.804 0.796 0.790 0.786 0.782 0.780 0.778 0.777 0.776 0.776 0.776 0.776 0.776 0.777 0.778 0.780 0.782 0.786 0.790 0.796 0.802 0.810 0.819 0.830 0.841 0.854 0.867 0.878 0.887 0.895 0.902 0.908 0.912 0.916 0.918 0.919 0.920 0.921 0.921 0.921 0.920 0.920 0.918 0.916 0.913 0.908 0.901 0.893 0.882 0.869 0.853 0.833 0.809 0.780 0.746 0.705 0.652 0.582 0.475 0.285 0.000 0.000 0.000 
0.000 0.571 0.571 0.683 0.661 0.598 0.550 0.522 0.507 0.499 0.496 0.495 0.495 0.496 0.498 0.501 0.505 0.509 0.515 0.521 0.528 0.537 0.546 0.556 0.567 0.579 0.592 0.606 0.621 0.638 0.655 0.674 0.695 0.717 0.741 0.766 0.794 0.823 0.853 0.886 0.921 0.957 0.993 1.026 1.058 1.088 1.115 1.141 1.165 1.187 1.207 1.226 1.242 1.258 1.271 1.283 1.293 1.302 1.310 1.317 1.322 1.326 1.330 1.332 1.334 1.336 1.336 1.337 1.337 1.337 1.337 1.337 1.336 1.335 1.334 1.332 1.329 1.325 1.321 1.315 1.308 1.300 1.290 1.279 1.266 1.251 1.234 1.216 1.195 1.172 1.147 1.119 1.089 1.057 1.023 0.992 0.963 0.936 0.912 0.891 0.871 0.854 0.840 0.827 0.816 0.807 0.799 0.793 0.788 0.784 0.781 0.779 0.778 0.778 0.777 0.777 0.777 0.777 0.778 0.779 0.781 0.783 0.786 0.791 0.796 0.802 0.810 0.819 0.829 0.841 0.853 0.866 0.877 0.887 0.895 0.902 0.908 0.912 0.916 0.918 0.920 0.921 0.922 0.922 0.922 0.922 0.921 0.920 0.918 0.915 0.911 0.905 0.897 0.887 0.876 0.861 0.844 0.823 0.799 0.772 0.741 0.704 0.662 0.619 0.573 0.520 0.520 0.000 
0.000 0.366 0.366 0.474 0.506 0.517 0.507 0.498 0.493 0.491 0.491 0.492 0.494 0.496 0.499 0.502 0.506 0.511 0.516 0.523 0.530 0.538 0.547 0.557 0.567 0.579 0.591 0.605 0.620 0.637 0.654 0.674 0.694 0.716 0.740 0.765 0.793 0.822 0.852 0.885 0.920 0.956 0.992 1.026 1.058 1.087 1.115 1.141 1.165 1.187 1.207 1.226 1.243 1.258 1.271 1.283 1.294 1.303 1.311 1.317 1.323 1.327 1.331 1.334 1.336 1.337 1.338 1.338 1.338 1.339 1.338 1.338 1.338 1.337 1.336 1.334 1.331 1.328 1.323 1.317 1.311 1.303 1.293 1.282 1.270 1.255 1.239 1.221 1.200 1.178 1.153 1.126 1.097 1.065 1.031 0.999 0.970 0.943 0.918 0.896 0.877 0.859 0.844 0.831 0.820 0.810 0.802 0.796 0.790 0.786 0.784 0.781 0.780 0.779 0.779 0.779 0.779 0.779 0.779 0.780 0.782 0.784 0.787 0.791 0.796 0.803 0.810 0.819 0.829 0.840 0.853 0.865 0.876 0.886 0.895 0.902 0.908 0.913 0.916 0.919 0.921 0.922 0.923 0.924 0.924 0.924 0.923 0.922 0.921 0.918 0.914 0.909 0.903 0.895 0.885 0.872 0.858 0.842 0.825 0.808 0.793 0.782 0.779 0.797 0.870 1.054 1.054 0.000 
0.000 0.213 0.213 0.304 0.375 0.419 0.444 0.460 0.470 0.477 0.483 0.487 0.491 0.495 0.499 0.503 0.508 0.513 0.518 0.525 0.532 0.539 0.548 0.557 0.567 0.578 0.591 0.605 0.619 0.636 0.653 0.672 0.693 0.715 0.739 0.764 0.791 0.820 0.851 0.884 0.919 0.955 0.991 1.025 1.057 1.087 1.115 1.141 1.165 1.187 1.207 1.226 1.243 1.258 1.271 1.284 1.294 1.303 1.311 1.318 1.324 1.328 1.332 1.334 1.337 1.338 1.339 1.339 1.340 1.340 1.340 1.340 1.339 1.338 1.337 1.335 1.333 1.329 1.325 1.320 1.313 1.305 1.296 1.285 1.273 1.259 1.243 1.225 1.205 1.183 1.159 1.133 1.104 1.073 1.040 1.007 0.977 0.950 0.925 0.902 0.882 0.864 0.849 0.835 0.824 0.814 0.805 0.799 0.793 0.789 0.786 0.784 0.782 0.781 0.781 0.781 0.781 0.781 0.781 0.782 0.783 0.785 0.788 0.792 0.797 0.803 0.810 0.819 0.828 0.839 0.852 0.864 0.876 0.886 0.894 0.902 0.908 0.913 0.917 0.920 0.922 0.924 0.925 0.926 0.926 0.926 0.926 0.925 0.924 0.922 0.919 0.915 0.910 0.904 0.896 0.887 0.877 0.867 0.858 0.852 0.850 0.852 0.865 0.898 0.975 1.054 1.054 0.000 
0.000 0.154 0.154 0.208 0.288 0.357 0.403 0.433 0.453 0.466 0.476 0.483 0.489 0.494 0.499 0.504 0.509 0.515 0.520 0.526 0.533 0.540 0.548 0.557 0.567 0.578 0.590 0.604 0.618 0.634 0.652 0.671 0.691 0.713 0.737 0.762 0.789 0.818 0.849 0.882 0.917 0.954 0.990 1.024 1.056 1.086 1.114 1.140 1.164 1.187 1.207 1.226 1.243 1.258 1.271 1.284 1.294 1.304 1.312 1.318 1.324 1.329 1.332 1.335 1.337 1.339 1.340 1.340 1.341 1.341 1.341 1.340 1.340 1.339 1.338 1.336 1.334 1.331 1.327 1.321 1.315 1.308 1.299 1.288 1.276 1.262 1.247 1.229 1.210 1.189 1.165 1.139 1.111 1.080 1.048 1.015 0.985 0.957 0.931 0.908 0.888 0.870 0.854 0.840 0.828 0.818 0.809 0.802 0.796 0.792 0.789 0.786 0.785 0.784 0.783 0.783 0.783 0.783 0.783 0.784 0.785 0.787 0.790 0.793 0.798 0.804 0.811 0.819 0.828 0.839 0.851 0.864 0.875 0.885 0.894 0.902 0.908 0.913 0.918 0.921 0.924 0.926 0.928 0.929 0.929 0.929 0.929 0.929 0.929 0.927 0.926 0.923 0.920 0.915 0.910 0.904 0.898 0.894 0.891 0.890 0.893 0.900 0.918 0.953 1.011 1.051 1.051 0.000 
0.000 0.096 0.096 0.148 0.238 0.327 0.383 0.420 0.444 0.461 0.473 0.482 0.489 0.495 0.500 0.505 0.511 0.516 0.522 0.528 0.534 0.541 0.549 0.557 0.567 0.577 0.589 0.602 0.617 0.633 0.650 0.669 0.689 0.711 0.735 0.760 0.787 0.816 0.847 0.880 0.915 0.952 0.988 1.022 1.055 1.085 1.113 1.140 1.164 1.186 1.207 1.226 1.243 1.258 1.271 1.284 1.294 1.304 1.312 1.319 1.324 1.329 1.333 1.336 1.338 1.339 1.340 1.341 1.341 1.341 1.341 1.341 1.341 1.340 1.339 1.337 1.335 1.332 1.328 1.323 1.317 1.310 1.301 1.291 1.279 1.266 1.250 1.233 1.214 1.193 1.170 1.145 1.117 1.087 1.055 1.022 0.992 0.964 0.938 0.915 0.894 0.875 0.859 0.845 0.832 0.822 0.813 0.806 0.800 0.795 0.792 0.789 0.787 0.786 0.786 0.785 0.785 0.785 0.785 0.786 0.787 0.789 0.791 0.795 0.799 0.804 0.811 0.819 0.828 0.839 0.850 0.863 0.875 0.885 0.894 0.902 0.908 0.914 0.919 0.923 0.926 0.928 0.930 0.932 0.933 0.933 0.934 0.934 0.934 0.934 0.933 0.932 0.930 0.927 0.924 0.921 0.919 0.917 0.917 0.919 0.924 0.934 0.953 0.984 1.025 1.048 1.048 0.000 
0.000 0.036 0.036 0.100 0.226 0.320 0.377 0.416 0.441 0.459 0.472 0.481 0.489 0.495 0.501 0.506 0.512 0.517 0.523 0.529 0.535 0.541 0.549 0.557 0.566 0.576 0.588 0.601 0.615 0.631 0.648 0.667 0.687 0.709 0.732 0.758 0.785 0.814 0.845 0.877 0.912 0.949 0.986 1.021 1.053 1.084 1.112 1.139 1.163 1.186 1.206 1.225 1.242 1.258 1.271 1.284 1.294 1.304 1.312 1.319 1.324 1.329 1.333 1.336 1.338 1.340 1.341 1.341 1.342 1.342 1.342 1.342 1.341 1.341 1.340 1.338 1.336 1.333 1.329 1.324 1.318 1.311 1.303 1.293 1.281 1.268 1.253 1.237 1.218 1.198 1.175 1.150 1.123 1.094 1.062 1.030 0.999 0.971 0.945 0.922 0.900 0.881 0.865 0.850 0.837 0.827 0.817 0.810 0.804 0.799 0.795 0.792 0.790 0.789 0.788 0.788 0.788 0.788 0.788 0.789 0.790 0.791 0.793 0.796 0.800 0.806 0.812 0.820 0.828 0.839 0.850 0.862 0.874 0.885 0.894 0.902 0.909 0.915 0.920 0.924 0.928 0.930 0.933 0.935 0.936 0.937 0.938 0.939 0.939 0.940 0.940 0.939 0.939 0.938 0.937 0.936 0.935 0.936 0.937 0.941 0.947 0.958 0.976 1.003 1.031 1.046 1.046 0.000 
0.000 0.134 0.134 0.118 0.242 0.324 0.378 0.415 0.441 0.459 0.472 0.482 0.489 0.496 0.502 0.507 0.513 0.518 0.524 0.529 0.535 0.541 0.548 0.556 0.565 0.575 0.587 0.599 0.613 0.629 0.646 0.664 0.684 0.706 0.729 0.755 0.782 0.811 0.842 0.874 0.909 0.946 0.983 1.018 1.051 1.082 1.111 1.138 1.162 1.185 1.206 1.225 1.242 1.257 1.271 1.284 1.294 1.304 1.312 1.319 1.324 1.329 1.333 1.336 1.338 1.340 1.341 1.342 1.342 1.342 1.342 1.342 1.342 1.341 1.340 1.339 1.337 1.334 1.330 1.325 1.319 1.313 1.304 1.295 1.283 1.271 1.256 1.240 1.222 1.202 1.179 1.155 1.128 1.100 1.069 1.036 1.006 0.978 0.952 0.928 0.907 0.888 0.871 0.856 0.843 0.831 0.822 0.814 0.808 0.803 0.799 0.796 0.794 0.792 0.792 0.791 0.791 0.791 0.791 0.792 0.792 0.794 0.796 0.799 0.802 0.807 0.813 0.820 0.829 0.839 0.850 0.862 0.874 0.884 0.894 0.902 0.909 0.915 0.921 0.925 0.929 0.932 0.935 0.937 0.939 0.940 0.942 0.943 0.944 0.945 0.945 0.946 0.946 0.946 0.947 0.947 0.948 0.950 0.953 0.957 0.964 0.975 0.991 1.014 1.033 1.043 1.043 0.000 
0.000 0.471 0.471 0.301 0.316 0.346 0.383 0.419 0.444 0.461 0.474 0.483 0.491 0.498 0.503 0.509 0.514 0.519 0.525 0.530 0.535 0.541 0.548 0.556 0.564 0.574 0.585 0.597 0.611 0.626 0.643 0.661 0.681 0.703 0.726 0.751 0.778 0.807 0.838 0.871 0.906 0.943 0.980 1.016 1.049 1.080 1.109 1.136 1.161 1.184 1.205 1.224 1.241 1.257 1.271 1.283 1.294 1.304 1.312 1.319 1.324 1.329 1.333 1.336 1.338 1.340 1.341 1.342 1.342 1.342 1.342 1.342 1.342 1.341 1.341 1.339 1.337 1.334 1.331 1.326 1.320 1.314 1.306 1.296 1.285 1.273 1.259 1.243 1.225 1.205 1.183 1.159 1.133 1.105 1.075 1.043 1.012 0.984 0.958 0.934 0.913 0.894 0.877 0.861 0.848 0.837 0.827 0.819 0.812 0.807 0.803 0.800 0.798 0.796 0.795 0.795 0.794 0.794 0.794 0.795 0.795 0.797 0.798 0.801 0.804 0.809 0.814 0.821 0.829 0.839 0.849 0.861 0.873 0.884 0.894 0.902 0.909 0.916 0.921 0.926 0.930 0.933 0.936 0.939 0.941 0.943 0.944 0.946 0.947 0.949 0.950 0.951 0.952 0.953 0.955 0.956 0.958 0.961 0.965 0.970 0.978 0.988 1.002 1.020 1.034 1.041 1.041 0.000 
0.000 0.524 0.524 0.446 0.379 0.379 0.400 0.429 0.451 0.467 0.479 0.487 0.495 0.501 0.506 0.511 0.516 0.521 0.525 0.530 0.535 0.541 0.547 0.555 0.563 0.573 0.583 0.595 0.609 0.623 0.640 0.658 0.677 0.699 0.722 0.747 0.774 0.803 0.834 0.867 0.902 0.939 0.977 1.013 1.046 1.078 1.107 1.134 1.160 1.183 1.204 1.223 1.241 1.256 1.271 1.283 1.294 1.303 1.312 1.319 1.324 1.329 1.333 1.336 1.338 1.340 1.341 1.342 1.342 1.342 1.342 1.342 1.342 1.342 1.341 1.339 1.337 1.335 1.331 1.327 1.321 1.314 1.307 1.297 1.287 1.275 1.261 1.245 1.228 1.208 1.187 1.163 1.138 1.110 1.080 1.049 1.018 0.990 0.964 0.940 0.919 0.899 0.882 0.867 0.854 0.842 0.832 0.824 0.817 0.812 0.807 0.804 0.802 0.800 0.799 0.798 0.798 0.798 0.798 0.798 0.799 0.800 0.801 0.804 0.807 0.811 0.816 0.823 0.830 0.839 0.849 0.861 0.873 0.884 0.893 0.902 0.910 0.916 0.922 0.927 0.931 0.934 0.938 0.940 0.943 0.945 0.947 0.948 0.950 0.952 0.953 0.955 0.957 0.958 0.960 0.963 0.966 0.969 0.974 0.980 0.988 0.998 1.010 1.023 1.033 1.038 1.038 0.000 
0.000 0.187 0.187 0.362 0.391 0.412 0.430 0.450 0.466 0.478 0.487 0.494 0.500 0.505 0.510 0.514 0.518 0.522 0.525 0.530 0.535 0.540 0.546 0.553 0.562 0.571 0.581 0.593 0.606 0.620 0.636 0.654 0.674 0.695 0.718 0.743 0.770 0.799 0.829 0.862 0.898 0.935 0.973 1.009 1.043 1.075 1.105 1.132 1.158 1.181 1.202 1.222 1.240 1.256 1.270 1.282 1.293 1.303 1.311 1.318 1.324 1.329 1.333 1.336 1.338 1.340 1.341 1.342 1.342 1.342 1.342 1.342 1.342 1.342 1.341 1.339 1.337 1.335 1.331 1.327 1.322 1.315 1.307 1.298 1.288 1.276 1.262 1.247 1.230 1.211 1.190 1.167 1.142 1.115 1.085 1.054 1.024 0.995 0.969 0.946 0.924 0.905 0.887 0.872 0.859 0.847 0.837 0.829 0.822 0.816 0.812 0.808 0.806 0.804 0.803 0.802 0.802 0.802 0.802 0.802 0.802 0.803 0.805 0.807 0.810 0.813 0.818 0.824 0.831 0.840 0.850 0.861 0.873 0.884 0.893 0.902 0.910 0.916 0.922 0.927 0.932 0.935 0.939 0.941 0.944 0.946 0.948 0.950 0.952 0.954 0.956 0.958 0.960 0.962 0.965 0.968 0.971 0.976 0.981 0.988 0.996 1.006 1.016 1.025 1.032 1.035 1.035 0.000 
0.000 0.200 0.200 0.269 0.407 0.453 0.472 0.483 0.491 0.496 0.501 0.505 0.508 0.511 0.514 0.517 0.519 0.522 0.525 0.529 0.534 0.539 0.545 0.552 0.560 0.568 0.579 0.590 0.603 0.617 0.633 0.650 0.669 0.690 0.713 0.738 0.765 0.793 0.824 0.857 0.893 0.930 0.968 1.005 1.039 1.072 1.102 1.129 1.155 1.179 1.201 1.220 1.238 1.255 1.269 1.282 1.293 1.303 1.311 1.318 1.324 1.329 1.333 1.336 1.338 1.340 1.341 1.342 1.342 1.342 1.342 1.342 1.342 1.342 1.341 1.339 1.337 1.335 1.331 1.327 1.322 1.316 1.308 1.299 1.289 1.277 1.264 1.249 1.232 1.213 1.193 1.170 1.146 1.119 1.090 1.059 1.029 1.000 0.974 0.951 0.929 0.909 0.892 0.877 0.863 0.851 0.841 0.833 0.826 0.820 0.815 0.812 0.809 0.807 0.806 0.805 0.805 0.805 0.805 0.805 0.806 0.806 0.808 0.810 0.812 0.816 0.820 0.826 0.833 0.841 0.850 0.861 0.872 0.883 0.893 0.902 0.910 0.916 0.922 0.928 0.932 0.936 0.939 0.942 0.945 0.947 0.949 0.952 0.954 0.956 0.958 0.960 0.962 0.965 0.967 0.971 0.975 0.980 0.986 0.994 1.003 1.012 1.020 1.026 1.030 1.033 1.033 0.000 
0.000 0.650 0.650 0.420 0.488 0.520 0.529 0.528 0.524 0.520 0.518 0.517 0.517 0.517 0.518 0.519 0.521 0.522 0.525 0.528 0.532 0.537 0.543 0.550 0.557 0.566 0.576 0.587 0.599 0.613 0.629 0.646 0.665 0.685 0.708 0.733 0.759 0.788 0.819 0.852 0.887 0.925 0.963 1.000 1.035 1.068 1.098 1.126 1.153 1.177 1.199 1.219 1.237 1.253 1.268 1.281 1.292 1.302 1.310 1.318 1.324 1.329 1.333 1.336 1.338 1.340 1.341 1.342 1.342 1.342 1.342 1.342 1.342 1.342 1.341 1.339 1.337 1.335 1.332 1.327 1.322 1.316 1.308 1.300 1.290 1.278 1.265 1.250 1.234 1.215 1.195 1.173 1.149 1.123 1.094 1.064 1.033 1.005 0.979 0.955 0.933 0.914 0.896 0.881 0.867 0.855 0.845 0.836 0.829 0.823 0.819 0.815 0.812 0.810 0.809 0.808 0.808 0.808 0.808 0.808 0.808 0.809 0.810 0.812 0.815 0.818 0.822 0.828 0.834 0.842 0.851 0.861 0.872 0.883 0.893 0.902 0.910 0.917 0.923 0.928 0.932 0.936 0.940 0.943 0.945 0.948 0.950 0.952 0.955 0.957 0.959 0.961 0.964 0.966 0.969 0.973 0.977 0.982 0.989 0.997 1.008 1.018 1.024 1.028 1.030 1.030 1.030 0.000 
0.000 0.925 0.925 0.762 0.667 0.623 0.594 0.571 0.553 0.540 0.531 0.526 0.522 0.521 0.520 0.520 0.521 0.522 0.524 0.527 0.531 0.535 0.541 0.547 0.554 0.563 0.572 0.583 0.595 0.609 0.624 0.641 0.660 0.680 0.702 0.727 0.753 0.782 0.813 0.846 0.881 0.919 0.958 0.995 1.031 1.064 1.094 1.123 1.149 1.174 1.196 1.216 1.235 1.251 1.266 1.279 1.291 1.301 1.310 1.317 1.323 1.328 1.332 1.336 1.338 1.340 1.341 1.342 1.342 1.342 1.342 1.342 1.342 1.342 1.341 1.339 1.337 1.335 1.332 1.327 1.322 1.316 1.309 1.300 1.290 1.279 1.266 1.251 1.235 1.217 1.197 1.175 1.152 1.126 1.098 1.068 1.037 1.009 0.983 0.959 0.938 0.918 0.900 0.885 0.871 0.859 0.849 0.840 0.833 0.827 0.822 0.818 0.815 0.813 0.812 0.811 0.810 0.810 0.810 0.810 0.811 0.811 0.812 0.814 0.817 0.820 0.824 0.829 0.835 0.843 0.851 0.861 0.872 0.883 0.893 0.902 0.910 0.917 0.923 0.928 0.932 0.936 0.940 0.943 0.946 0.948 0.951 0.953 0.955 0.957 0.960 0.962 0.964 0.967 0.970 0.973 0.978 0.983 0.990 0.999 1.011 1.022 1.028 1.031 1.031 1.028 1.028 0.000 
0.000 0.999 0.999 0.924 0.788 0.696 0.637 0.598 0.571 0.552 0.539 0.531 0.526 0.523 0.521 0.521 0.521 0.522 0.523 0.526 0.529 0.533 0.538 0.544 0.551 0.559 0.569 0.579 0.591 0.605 0.620 0.636 0.654 0.674 0.696 0.721 0.747 0.776 0.806 0.840 0.875 0.913 0.952 0.990 1.025 1.059 1.090 1.119 1.146 1.171 1.193 1.214 1.233 1.249 1.264 1.278 1.290 1.300 1.309 1.316 1.322 1.328 1.332 1.335 1.338 1.339 1.341 1.341 1.342 1.342 1.342 1.342 1.342 1.341 1.341 1.339 1.337 1.335 1.331 1.327 1.322 1.316 1.309 1.300 1.290 1.279 1.267 1.252 1.236 1.219 1.199 1.177 1.154 1.129 1.101 1.071 1.041 1.013 0.987 0.963 0.941 0.921 0.904 0.888 0.874 0.862 0.852 0.843 0.835 0.829 0.824 0.820 0.818 0.815 0.814 0.813 0.813 0.812 0.812 0.812 0.813 0.813 0.814 0.816 0.818 0.821 0.825 0.830 0.836 0.843 0.852 0.861 0.872 0.883 0.893 0.902 0.910 0.917 0.923 0.928 0.933 0.937 0.940 0.943 0.946 0.949 0.951 0.953 0.955 0.958 0.960 0.962 0.965 0.967 0.970 0.974 0.978 0.983 0.990 0.999 1.011 1.025 1.034 1.038 1.038 1.030 1.030 0.000 
0.000 0.994 0.994 0.960 0.834 0.727 0.658 0.612 0.580 0.558 0.543 0.533 0.527 0.523 0.522 0.521 0.521 0.521 0.522 0.524 0.527 0.530 0.535 0.541 0.548 0.556 0.565 0.575 0.587 0.600 0.614 0.631 0.649 0.669 0.690 0.715 0.741 0.769 0.800 0.833 0.868 0.906 0.945 0.984 1.020 1.054 1.085 1.115 1.142 1.167 1.190 1.211 1.230 1.247 1.262 1.276 1.288 1.298 1.307 1.315 1.321 1.327 1.331 1.334 1.337 1.339 1.340 1.341 1.341 1.342 1.342 1.342 1.341 1.341 1.340 1.339 1.337 1.335 1.331 1.327 1.322 1.316 1.309 1.300 1.291 1.280 1.267 1.253 1.237 1.220 1.200 1.179 1.156 1.131 1.104 1.075 1.044 1.016 0.990 0.966 0.944 0.925 0.907 0.891 0.877 0.865 0.854 0.845 0.838 0.831 0.826 0.823 0.820 0.817 0.816 0.815 0.814 0.814 0.814 0.814 0.814 0.815 0.816 0.817 0.820 0.823 0.826 0.831 0.837 0.844 0.852 0.861 0.872 0.883 0.893 0.902 0.910 0.917 0.923 0.928 0.933 0.937 0.940 0.943 0.946 0.949 0.951 0.953 0.955 0.958 0.960 0.962 0.965 0.967 0.970 0.974 0.978 0.983 0.990 0.999 1.011 1.026 1.041 1.052 1.059 1.064 1.064 0.000 
0.000 0.908 0.908 0.935 0.841 0.735 0.664 0.616 0.583 0.560 0.544 0.534 0.527 0.523 0.521 0.521 0.520 0.520 0.521 0.522 0.524 0.527 0.532 0.537 0.544 0.551 0.560 0.570 0.582 0.595 0.609 0.625 0.643 0.663 0.685 0.709 0.735 0.763 0.794 0.827 0.862 0.899 0.939 0.977 1.014 1.048 1.080 1.110 1.138 1.163 1.186 1.208 1.227 1.244 1.260 1.274 1.286 1.296 1.306 1.313 1.320 1.326 1.330 1.333 1.336 1.338 1.339 1.340 1.341 1.341 1.341 1.341 1.341 1.341 1.340 1.339 1.337 1.334 1.331 1.327 1.322 1.316 1.309 1.300 1.291 1.280 1.267 1.253 1.238 1.220 1.201 1.181 1.158 1.133 1.106 1.077 1.047 1.019 0.993 0.969 0.947 0.927 0.909 0.894 0.879 0.867 0.856 0.847 0.840 0.833 0.828 0.824 0.821 0.819 0.817 0.816 0.816 0.816 0.815 0.816 0.816 0.816 0.817 0.819 0.821 0.823 0.827 0.832 0.837 0.844 0.852 0.861 0.871 0.882 0.893 0.902 0.910 0.917 0.923 0.928 0.933 0.937 0.940 0.943 0.946 0.949 0.951 0.953 0.955 0.958 0.960 0.962 0.964 0.967 0.970 0.973 0.977 0.983 0.989 0.998 1.010 1.025 1.045 1.069 1.089 1.098 1.098 0.000 
0.000 0.809 0.809 0.854 0.812 0.732 0.664 0.616 0.583 0.560 0.544 0.534 0.527 0.523 0.520 0.519 0.519 0.519 0.519 0.520 0.522 0.524 0.528 0.533 0.539 0.547 0.555 0.565 0.577 0.589 0.604 0.620 0.638 0.658 0.680 0.703 0.729 0.757 0.788 0.820 0.855 0.892 0.931 0.971 1.008 1.042 1.075 1.105 1.133 1.159 1.182 1.204 1.223 1.241 1.257 1.271 1.283 1.294 1.304 1.312 1.318 1.324 1.329 1.332 1.335 1.337 1.339 1.339 1.340 1.340 1.340 1.340 1.340 1.340 1.339 1.338 1.336 1.334 1.331 1.327 1.322 1.316 1.309 1.300 1.291 1.280 1.267 1.254 1.238 1.221 1.202 1.182 1.159 1.135 1.108 1.080 1.050 1.022 0.996 0.971 0.950 0.930 0.912 0.896 0.882 0.869 0.858 0.849 0.841 0.835 0.830 0.826 0.822 0.820 0.819 0.817 0.817 0.817 0.817 0.817 0.817 0.817 0.818 0.819 0.821 0.824 0.828 0.832 0.838 0.844 0.852 0.861 0.871 0.882 0.892 0.901 0.909 0.916 0.923 0.928 0.933 0.937 0.940 0.943 0.946 0.949 0.951 0.953 0.955 0.957 0.960 0.962 0.964 0.966 0.969 0.972 0.976 0.981 0.987 0.996 1.007 1.022 1.044 1.077 1.111 1.123 1.123 0.000 
0.000 0.698 0.698 0.753 0.742 0.705 0.655 0.612 0.581 0.559 0.543 0.532 0.525 0.521 0.518 0.517 0.516 0.516 0.516 0.517 0.518 0.521 0.524 0.529 0.535 0.542 0.551 0.560 0.572 0.585 0.599 0.615 0.633 0.653 0.675 0.698 0.724 0.752 0.782 0.814 0.848 0.885 0.924 0.963 1.001 1.036 1.069 1.099 1.128 1.154 1.178 1.200 1.219 1.237 1.254 1.268 1.281 1.292 1.301 1.310 1.317 1.322 1.327 1.331 1.334 1.336 1.337 1.338 1.339 1.339 1.339 1.339 1.339 1.339 1.338 1.337 1.335 1.333 1.330 1.326 1.321 1.316 1.309 1.300 1.291 1.280 1.268 1.254 1.238 1.222 1.203 1.182 1.160 1.136 1.110 1.082 1.052 1.024 0.998 0.974 0.952 0.932 0.914 0.897 0.883 0.871 0.860 0.851 0.843 0.836 0.831 0.827 0.824 0.821 0.819 0.818 0.818 0.817 0.817 0.817 0.818 0.818 0.819 0.820 0.822 0.825 0.828 0.833 0.838 0.844 0.852 0.861 0.871 0.882 0.892 0.901 0.909 0.916 0.922 0.928 0.932 0.937 0.940 0.943 0.946 0.948 0.951 0.953 0.955 0.957 0.959 0.961 0.963 0.965 0.967 0.970 0.973 0.977 0.983 0.990 1.001 1.016 1.040 1.076 1.121 1.146 1.146 0.000 
0.000 0.594 0.594 0.646 0.651 0.648 0.630 0.601 0.574 0.554 0.539 0.529 0.522 0.517 0.515 0.513 0.513 0.513 0.513 0.513 0.514 0.517 0.520 0.525 0.530 0.537 0.546 0.556 0.567 0.580 0.595 0.611 0.629 0.649 0.670 0.694 0.719 0.746 0.776 0.808 0.841 0.878 0.916 0.956 0.994 1.029 1.062 1.093 1.122 1.148 1.173 1.195 1.215 1.233 1.250 1.265 1.277 1.289 1.299 1.307 1.314 1.320 1.325 1.329 1.332 1.334 1.336 1.337 1.338 1.338 1.338 1.338 1.338 1.338 1.337 1.336 1.334 1.332 1.329 1.326 1.321 1.315 1.308 1.300 1.291 1.280 1.268 1.254 1.239 1.222 1.203 1.183 1.161 1.137 1.111 1.083 1.054 1.026 0.999 0.975 0.953 0.933 0.915 0.899 0.885 0.872 0.861 0.852 0.844 0.837 0.832 0.828 0.824 0.822 0.820 0.819 0.818 0.818 0.818 0.818 0.818 0.818 0.819 0.820 0.822 0.825 0.828 0.833 0.838 0.844 0.852 0.861 0.871 0.882 0.892 0.901 0.909 0.916 0.922 0.928 0.932 0.936 0.940 0.943 0.946 0.948 0.950 0.952 0.954 0.956 0.958 0.960 0.961 0.963 0.965 0.967 0.969 0.972 0.976 0.981 0.990 1.004 1.026 1.064 1.119 1.154 1.154 0.000 
0.000 0.494 0.494 0.547 0.570 0.583 0.587 0.578 0.561 0.544 0.531 0.522 0.515 0.511 0.509 0.508 0.507 0.507 0.508 0.508 0.510 0.512 0.515 0.520 0.526 0.533 0.542 0.552 0.563 0.576 0.591 0.607 0.625 0.644 0.666 0.689 0.714 0.741 0.770 0.801 0.835 0.870 0.908 0.948 0.986 1.022 1.056 1.087 1.116 1.143 1.167 1.190 1.210 1.229 1.246 1.261 1.274 1.286 1.296 1.304 1.312 1.318 1.323 1.327 1.330 1.332 1.334 1.335 1.336 1.336 1.336 1.336 1.336 1.336 1.336 1.335 1.333 1.331 1.328 1.325 1.320 1.314 1.308 1.300 1.290 1.280 1.267 1.254 1.239 1.222 1.204 1.183 1.162 1.138 1.112 1.085 1.055 1.027 1.001 0.977 0.955 0.934 0.916 0.900 0.886 0.873 0.862 0.852 0.845 0.838 0.832 0.828 0.825 0.822 0.821 0.819 0.819 0.818 0.818 0.818 0.818 0.819 0.820 0.821 0.823 0.825 0.828 0.833 0.838 0.844 0.852 0.861 0.870 0.881 0.891 0.901 0.909 0.916 0.922 0.927 0.932 0.936 0.940 0.943 0.945 0.948 0.950 0.952 0.953 0.955 0.956 0.957 0.959 0.960 0.961 0.961 0.962 0.963 0.965 0.967 0.971 0.980 0.998 1.033 1.099 1.158 1.158 0.000 
0.000 0.436 0.436 0.475 0.509 0.528 0.539 0.543 0.538 0.528 0.518 0.511 0.506 0.503 0.501 0.500 0.500 0.500 0.501 0.502 0.504 0.507 0.511 0.515 0.521 0.529 0.538 0.548 0.559 0.572 0.587 0.603 0.621 0.640 0.662 0.684 0.709 0.736 0.765 0.795 0.828 0.863 0.901 0.940 0.978 1.015 1.048 1.080 1.109 1.137 1.162 1.185 1.205 1.224 1.241 1.256 1.270 1.282 1.292 1.301 1.309 1.315 1.320 1.324 1.328 1.330 1.332 1.333 1.334 1.334 1.335 1.335 1.334 1.334 1.334 1.333 1.331 1.329 1.327 1.323 1.319 1.313 1.307 1.299 1.290 1.279 1.267 1.254 1.239 1.222 1.204 1.184 1.162 1.138 1.113 1.086 1.056 1.028 1.002 0.978 0.956 0.935 0.917 0.901 0.886 0.874 0.863 0.853 0.845 0.838 0.833 0.828 0.825 0.823 0.821 0.820 0.819 0.819 0.818 0.818 0.819 0.819 0.820 0.821 0.823 0.825 0.829 0.833 0.838 0.844 0.852 0.860 0.870 0.881 0.891 0.900 0.908 0.915 0.921 0.927 0.931 0.935 0.939 0.942 0.944 0.947 0.949 0.950 0.952 0.953 0.954 0.955 0.955 0.955 0.955 0.955 0.953 0.952 0.949 0.946 0.943 0.940 0.945 0.968 1.033 1.142 1.142 0.000 
0.000 0.410 0.410 0.433 0.462 0.482 0.495 0.503 0.507 0.505 0.500 0.496 0.493 0.491 0.490 0.490 0.491 0.492 0.493 0.495 0.498 0.501 0.505 0.511 0.517 0.525 0.534 0.544 0.556 0.569 0.583 0.600 0.617 0.637 0.657 0.680 0.704 0.731 0.759 0.789 0.822 0.856 0.893 0.932 0.970 1.007 1.041 1.073 1.103 1.130 1.156 1.179 1.200 1.219 1.236 1.252 1.266 1.278 1.288 1.297 1.305 1.312 1.317 1.321 1.325 1.328 1.329 1.331 1.332 1.332 1.332 1.332 1.332 1.332 1.332 1.331 1.329 1.328 1.325 1.322 1.317 1.312 1.305 1.298 1.289 1.279 1.267 1.253 1.239 1.222 1.204 1.184 1.162 1.139 1.114 1.086 1.057 1.029 1.003 0.979 0.956 0.936 0.918 0.902 0.887 0.874 0.863 0.853 0.845 0.839 0.833 0.829 0.825 0.823 0.821 0.820 0.819 0.819 0.819 0.819 0.819 0.819 0.820 0.821 0.823 0.825 0.829 0.833 0.838 0.844 0.852 0.860 0.870 0.880 0.890 0.899 0.907 0.915 0.921 0.926 0.931 0.935 0.938 0.941 0.943 0.945 0.947 0.948 0.949 0.950 0.951 0.951 0.950 0.950 0.948 0.946 0.942 0.937 0.929 0.919 0.906 0.888 0.866 0.845 0.867 1.006 1.006 0.000 
0.000 0.384 0.384 0.403 0.424 0.441 0.454 0.464 0.471 0.475 0.476 0.475 0.475 0.475 0.476 0.477 0.479 0.481 0.484 0.487 0.490 0.495 0.500 0.506 0.513 0.521 0.530 0.540 0.552 0.566 0.580 0.596 0.614 0.633 0.653 0.676 0.700 0.726 0.753 0.783 0.815 0.849 0.885 0.923 0.962 0.999 1.033 1.066 1.096 1.123 1.149 1.173 1.194 1.213 1.231 1.247 1.261 1.273 1.284 1.293 1.301 1.308 1.314 1.318 1.322 1.324 1.326 1.328 1.329 1.329 1.330 1.330 1.330 1.329 1.329 1.328 1.327 1.325 1.323 1.320 1.315 1.310 1.304 1.297 1.288 1.278 1.266 1.253 1.238 1.222 1.204 1.184 1.162 1.139 1.114 1.087 1.058 1.030 1.003 0.979 0.957 0.937 0.918 0.902 0.887 0.874 0.863 0.854 0.846 0.839 0.833 0.829 0.825 0.823 0.821 0.820 0.819 0.819 0.819 0.819 0.819 0.819 0.820 0.821 0.823 0.825 0.828 0.833 0.838 0.844 0.851 0.860 0.869 0.880 0.890 0.899 0.907 0.914 0.920 0.925 0.930 0.934 0.937 0.940 0.942 0.944 0.945 0.946 0.946 0.947 0.947 0.946 0.945 0.943 0.940 0.936 0.929 0.920 0.909 0.895 0.877 0.852 0.813 0.745 0.596 0.435 0.435 0.000 
0.000 0.358 0.358 0.376 0.390 0.404 0.416 0.426 0.434 0.441 0.447 0.450 0.453 0.456 0.459 0.462 0.465 0.469 0.473 0.477 0.482 0.487 0.493 0.500 0.508 0.516 0.526 0.537 0.549 0.562 0.577 0.593 0.610 0.629 0.649 0.671 0.695 0.720 0.748 0.777 0.808 0.842 0.877 0.915 0.954 0.991 1.025 1.058 1.088 1.116 1.142 1.166 1.188 1.207 1.225 1.241 1.256 1.268 1.279 1.289 1.297 1.304 1.310 1.314 1.318 1.321 1.323 1.325 1.326 1.326 1.326 1.327 1.327 1.326 1.326 1.325 1.324 1.323 1.320 1.317 1.313 1.308 1.302 1.295 1.286 1.276 1.265 1.252 1.238 1.221 1.204 1.184 1.162 1.139 1.114 1.087 1.059 1.030 1.004 0.980 0.957 0.937 0.919 0.902 0.888 0.875 0.863 0.854 0.846 0.839 0.833 0.829 0.825 0.823 0.821 0.820 0.819 0.819 0.819 0.819 0.819 0.819 0.820 0.821 0.823 0.825 0.828 0.832 0.837 0.844 0.851 0.859 0.868 0.879 0.889 0.898 0.906 0.913 0.919 0.924 0.928 0.932 0.935 0.938 0.940 0.941 0.942 0.943 0.943 0.943 0.942 0.941 0.939 0.936 0.931 0.925 0.916 0.906 0.893 0.877 0.857 0.832 0.797 0.728 0.543 0.132 0.132 0.000 
0.000 0.332 0.332 0.349 0.359 0.371 0.381 0.390 0.399 0.407 0.414 0.421 0.427 0.433 0.438 0.444 0.449 0.454 0.460 0.466 0.472 0.479 0.487 0.494 0.503 0.512 0.523 0.534 0.546 0.559 0.574 0.590 0.607 0.626 0.646 0.667 0.690 0.715 0.742 0.771 0.802 0.834 0.869 0.906 0.945 0.982 1.017 1.050 1.080 1.109 1.135 1.159 1.181 1.201 1.219 1.235 1.250 1.263 1.274 1.284 1.292 1.299 1.305 1.310 1.314 1.317 1.319 1.321 1.322 1.323 1.323 1.323 1.323 1.323 1.323 1.322 1.321 1.319 1.317 1.314 1.310 1.306 1.300 1.293 1.284 1.275 1.264 1.251 1.237 1.221 1.203 1.184 1.162 1.139 1.114 1.088 1.059 1.031 1.004 0.980 0.958 0.937 0.919 0.902 0.888 0.875 0.863 0.854 0.846 0.839 0.833 0.829 0.825 0.823 0.821 0.820 0.819 0.819 0.818 0.818 0.819 0.819 0.820 0.821 0.822 0.825 0.828 0.832 0.837 0.843 0.850 0.858 0.867 0.878 0.888 0.897 0.904 0.911 0.917 0.922 0.927 0.930 0.933 0.935 0.937 0.938 0.938 0.939 0.938 0.938 0.937 0.935 0.932 0.928 0.922 0.915 0.905 0.894 0.879 0.862 0.842 0.823 0.800 0.767 0.716 0.686 0.686 0.000 
0.000 0.307 0.307 0.322 0.330 0.340 0.349 0.358 0.367 0.375 0.384 0.392 0.401 0.409 0.417 0.425 0.432 0.440 0.447 0.455 0.463 0.471 0.480 0.489 0.498 0.508 0.519 0.531 0.543 0.557 0.571 0.587 0.604 0.622 0.642 0.663 0.686 0.710 0.737 0.765 0.795 0.827 0.862 0.898 0.936 0.974 1.009 1.042 1.072 1.101 1.127 1.152 1.174 1.194 1.212 1.229 1.244 1.257 1.268 1.278 1.287 1.294 1.300 1.305 1.309 1.313 1.315 1.317 1.318 1.319 1.319 1.319 1.319 1.319 1.319 1.318 1.317 1.316 1.314 1.311 1.307 1.303 1.297 1.290 1.282 1.273 1.262 1.249 1.236 1.220 1.202 1.183 1.162 1.139 1.114 1.088 1.059 1.031 1.004 0.980 0.958 0.937 0.919 0.902 0.888 0.875 0.863 0.854 0.846 0.839 0.833 0.829 0.825 0.823 0.821 0.820 0.819 0.818 0.818 0.818 0.818 0.819 0.819 0.820 0.822 0.824 0.828 0.831 0.836 0.842 0.849 0.857 0.866 0.876 0.886 0.895 0.903 0.910 0.915 0.920 0.924 0.928 0.930 0.932 0.933 0.934 0.934 0.934 0.934 0.933 0.931 0.929 0.925 0.920 0.914 0.906 0.896 0.884 0.869 0.850 0.831 0.817 0.811 0.822 0.899 1.094 1.094 0.000 
0.000 0.281 0.281 0.296 0.303 0.311 0.319 0.328 0.337 0.347 0.357 0.368 0.379 0.389 0.399 0.408 0.418 0.427 0.436 0.445 0.454 0.464 0.473 0.483 0.494 0.504 0.516 0.527 0.540 0.554 0.568 0.584 0.600 0.618 0.638 0.659 0.681 0.705 0.731 0.759 0.788 0.820 0.854 0.890 0.927 0.965 1.000 1.033 1.064 1.093 1.119 1.144 1.166 1.187 1.205 1.222 1.237 1.250 1.262 1.272 1.281 1.289 1.295 1.300 1.304 1.308 1.310 1.312 1.313 1.314 1.315 1.315 1.315 1.315 1.314 1.314 1.313 1.312 1.310 1.307 1.304 1.299 1.294 1.287 1.279 1.270 1.260 1.248 1.234 1.218 1.201 1.182 1.162 1.139 1.114 1.088 1.059 1.031 1.004 0.980 0.958 0.937 0.919 0.902 0.888 0.875 0.863 0.854 0.846 0.839 0.833 0.829 0.825 0.822 0.821 0.819 0.818 0.818 0.818 0.818 0.818 0.818 0.819 0.820 0.822 0.824 0.827 0.831 0.836 0.841 0.848 0.856 0.865 0.875 0.885 0.893 0.901 0.908 0.913 0.918 0.922 0.925 0.927 0.928 0.929 0.929 0.929 0.929 0.928 0.927 0.925 0.922 0.918 0.913 0.906 0.898 0.888 0.876 0.862 0.844 0.825 0.813 0.811 0.826 0.910 1.092 1.092 0.000 
0.000 0.255 0.255 0.270 0.276 0.284 0.292 0.301 0.311 0.322 0.334 0.347 0.360 0.372 0.384 0.395 0.405 0.416 0.426 0.436 0.447 0.457 0.467 0.478 0.489 0.500 0.512 0.524 0.537 0.551 0.565 0.580 0.597 0.615 0.634 0.654 0.676 0.700 0.725 0.753 0.782 0.813 0.846 0.881 0.918 0.956 0.991 1.024 1.055 1.084 1.111 1.136 1.158 1.179 1.198 1.215 1.230 1.244 1.256 1.266 1.275 1.283 1.289 1.295 1.299 1.302 1.305 1.307 1.308 1.309 1.310 1.310 1.310 1.310 1.310 1.309 1.308 1.307 1.305 1.303 1.299 1.295 1.290 1.284 1.276 1.267 1.257 1.245 1.232 1.217 1.200 1.181 1.161 1.138 1.114 1.088 1.059 1.031 1.004 0.980 0.958 0.937 0.919 0.902 0.888 0.875 0.863 0.854 0.845 0.838 0.833 0.828 0.825 0.822 0.820 0.819 0.818 0.818 0.817 0.817 0.817 0.818 0.818 0.819 0.821 0.823 0.826 0.830 0.834 0.840 0.847 0.854 0.863 0.873 0.883 0.891 0.899 0.905 0.911 0.915 0.918 0.921 0.923 0.924 0.924 0.924 0.924 0.924 0.923 0.921 0.919 0.916 0.912 0.906 0.899 0.891 0.882 0.870 0.856 0.840 0.822 0.806 0.792 0.782 0.800 0.934 0.934 0.000 
0.000 0.229 0.229 0.244 0.250 0.258 0.267 0.276 0.287 0.300 0.315 0.331 0.345 0.359 0.371 0.383 0.395 0.406 0.418 0.429 0.440 0.451 0.462 0.473 0.485 0.497 0.509 0.521 0.534 0.548 0.562 0.577 0.594 0.611 0.630 0.650 0.672 0.695 0.720 0.746 0.775 0.806 0.838 0.873 0.909 0.947 0.982 1.015 1.046 1.075 1.102 1.127 1.150 1.171 1.190 1.207 1.223 1.236 1.248 1.259 1.268 1.276 1.283 1.288 1.293 1.296 1.299 1.301 1.303 1.304 1.304 1.304 1.304 1.304 1.304 1.304 1.303 1.302 1.300 1.298 1.295 1.291 1.286 1.280 1.272 1.264 1.254 1.242 1.229 1.214 1.198 1.180 1.160 1.138 1.114 1.087 1.059 1.031 1.004 0.980 0.958 0.937 0.919 0.902 0.887 0.874 0.863 0.853 0.845 0.838 0.832 0.828 0.824 0.821 0.819 0.818 0.817 0.817 0.817 0.817 0.817 0.817 0.817 0.818 0.820 0.822 0.825 0.828 0.833 0.838 0.845 0.852 0.861 0.871 0.880 0.889 0.896 0.902 0.907 0.911 0.914 0.917 0.918 0.918 0.919 0.919 0.919 0.918 0.917 0.915 0.913 0.909 0.905 0.899 0.893 0.885 0.875 0.865 0.852 0.838 0.821 0.802 0.773 0.716 0.566 0.383 0.383 0.000 
0.000 0.203 0.203 0.218 0.225 0.233 0.243 0.254 0.267 0.283 0.301 0.318 0.333 0.348 0.361 0.374 0.387 0.399 0.410 0.422 0.434 0.446 0.457 0.469 0.481 0.493 0.505 0.518 0.531 0.545 0.559 0.574 0.590 0.607 0.626 0.646 0.667 0.690 0.714 0.740 0.768 0.798 0.830 0.864 0.900 0.937 0.973 1.006 1.037 1.066 1.093 1.118 1.141 1.162 1.182 1.199 1.215 1.228 1.241 1.252 1.261 1.269 1.276 1.281 1.286 1.290 1.293 1.295 1.296 1.297 1.298 1.298 1.298 1.298 1.298 1.298 1.297 1.296 1.295 1.292 1.289 1.286 1.281 1.275 1.268 1.260 1.250 1.239 1.226 1.212 1.196 1.178 1.158 1.136 1.113 1.087 1.059 1.031 1.004 0.980 0.957 0.937 0.918 0.902 0.887 0.874 0.863 0.853 0.844 0.837 0.832 0.827 0.823 0.820 0.818 0.817 0.816 0.816 0.815 0.815 0.815 0.816 0.816 0.817 0.818 0.820 0.823 0.827 0.831 0.836 0.843 0.850 0.859 0.868 0.878 0.886 0.893 0.899 0.903 0.907 0.910 0.911 0.912 0.913 0.913 0.913 0.913 0.912 0.911 0.909 0.906 0.903 0.898 0.893 0.886 0.879 0.870 0.860 0.849 0.836 0.822 0.803 0.773 0.708 0.535 0.166 0.166 0.000 
0.000 0.178 0.178 0.193 0.201 0.210 0.221 0.234 0.250 0.270 0.290 0.308 0.325 0.340 0.354 0.367 0.380 0.392 0.405 0.417 0.429 0.441 0.453 0.465 0.477 0.489 0.502 0.515 0.528 0.541 0.556 0.571 0.587 0.604 0.622 0.641 0.662 0.684 0.708 0.734 0.761 0.791 0.822 0.855 0.891 0.928 0.963 0.996 1.028 1.057 1.084 1.109 1.132 1.153 1.173 1.190 1.206 1.220 1.233 1.244 1.253 1.261 1.268 1.274 1.279 1.283 1.286 1.288 1.290 1.291 1.291 1.292 1.292 1.292 1.292 1.291 1.291 1.290 1.288 1.286 1.283 1.280 1.275 1.270 1.263 1.255 1.245 1.235 1.222 1.208 1.193 1.175 1.156 1.135 1.112 1.086 1.059 1.031 1.004 0.980 0.957 0.937 0.918 0.901 0.886 0.873 0.862 0.852 0.843 0.836 0.830 0.826 0.822 0.819 0.817 0.816 0.815 0.814 0.814 0.814 0.814 0.814 0.815 0.815 0.817 0.819 0.821 0.825 0.829 0.834 0.840 0.847 0.856 0.865 0.874 0.882 0.889 0.894 0.899 0.902 0.904 0.906 0.907 0.907 0.907 0.907 0.907 0.906 0.905 0.903 0.900 0.897 0.892 0.887 0.881 0.873 0.865 0.855 0.846 0.836 0.825 0.812 0.792 0.761 0.720 0.712 0.712 0.000 
0.000 0.152 0.152 0.168 0.177 0.188 0.201 0.217 0.238 0.261 0.283 0.301 0.318 0.334 0.348 0.362 0.375 0.387 0.400 0.412 0.424 0.437 0.449 0.461 0.473 0.486 0.498 0.511 0.524 0.538 0.552 0.567 0.583 0.600 0.617 0.637 0.657 0.679 0.702 0.728 0.754 0.783 0.814 0.847 0.881 0.918 0.953 0.987 1.018 1.047 1.074 1.099 1.123 1.144 1.163 1.181 1.197 1.211 1.224 1.235 1.245 1.253 1.260 1.266 1.271 1.275 1.278 1.280 1.282 1.283 1.284 1.284 1.285 1.285 1.284 1.284 1.284 1.283 1.282 1.280 1.277 1.273 1.269 1.264 1.257 1.249 1.240 1.230 1.218 1.204 1.189 1.172 1.153 1.133 1.110 1.085 1.058 1.030 1.004 0.979 0.957 0.936 0.917 0.901 0.886 0.872 0.861 0.851 0.842 0.835 0.829 0.824 0.820 0.817 0.815 0.814 0.813 0.812 0.812 0.812 0.812 0.812 0.813 0.813 0.815 0.816 0.819 0.822 0.826 0.831 0.837 0.844 0.852 0.861 0.870 0.878 0.884 0.889 0.894 0.897 0.899 0.900 0.900 0.901 0.901 0.901 0.900 0.899 0.898 0.896 0.894 0.891 0.887 0.882 0.876 0.869 0.860 0.851 0.843 0.837 0.832 0.830 0.832 0.853 0.927 1.079 1.079 0.000 
0.000 0.126 0.126 0.142 0.153 0.166 0.183 0.204 0.231 0.256 0.278 0.297 0.314 0.330 0.344 0.358 0.371 0.384 0.396 0.409 0.421 0.433 0.445 0.458 0.470 0.482 0.495 0.508 0.521 0.534 0.549 0.563 0.579 0.595 0.613 0.632 0.652 0.673 0.696 0.721 0.747 0.776 0.806 0.838 0.872 0.908 0.943 0.976 1.008 1.037 1.064 1.089 1.113 1.134 1.154 1.171 1.187 1.202 1.214 1.226 1.236 1.244 1.251 1.257 1.262 1.267 1.270 1.272 1.274 1.275 1.276 1.276 1.277 1.277 1.277 1.276 1.276 1.275 1.274 1.272 1.270 1.266 1.262 1.257 1.251 1.243 1.235 1.225 1.213 1.200 1.185 1.169 1.150 1.130 1.108 1.084 1.057 1.030 1.003 0.978 0.956 0.935 0.916 0.900 0.885 0.871 0.860 0.849 0.841 0.833 0.827 0.822 0.818 0.815 0.813 0.812 0.811 0.810 0.810 0.810 0.810 0.810 0.810 0.811 0.812 0.814 0.816 0.819 0.823 0.828 0.833 0.840 0.848 0.857 0.865 0.873 0.879 0.884 0.888 0.890 0.892 0.893 0.894 0.894 0.894 0.894 0.894 0.893 0.892 0.890 0.888 0.885 0.881 0.877 0.871 0.864 0.856 0.848 0.841 0.837 0.836 0.838 0.850 0.887 0.980 1.076 1.076 0.000 
0.000 0.100 0.100 0.117 0.130 0.146 0.169 0.197 0.227 0.252 0.275 0.295 0.312 0.328 0.342 0.356 0.368 0.381 0.393 0.406 0.418 0.430 0.442 0.454 0.466 0.479 0.491 0.504 0.517 0.531 0.545 0.559 0.575 0.591 0.608 0.627 0.647 0.668 0.690 0.714 0.740 0.768 0.797 0.829 0.862 0.897 0.933 0.966 0.997 1.026 1.053 1.079 1.102 1.124 1.143 1.161 1.177 1.192 1.205 1.216 1.226 1.235 1.242 1.248 1.253 1.258 1.261 1.263 1.265 1.267 1.267 1.268 1.268 1.268 1.268 1.268 1.268 1.267 1.266 1.264 1.262 1.259 1.255 1.250 1.244 1.237 1.228 1.219 1.207 1.195 1.180 1.164 1.146 1.127 1.105 1.082 1.056 1.029 1.002 0.977 0.955 0.934 0.915 0.898 0.883 0.870 0.858 0.848 0.839 0.831 0.825 0.820 0.816 0.813 0.810 0.809 0.808 0.807 0.807 0.807 0.807 0.807 0.807 0.808 0.809 0.810 0.812 0.815 0.819 0.824 0.829 0.836 0.843 0.852 0.860 0.867 0.873 0.877 0.881 0.884 0.885 0.887 0.887 0.887 0.887 0.887 0.887 0.886 0.885 0.884 0.882 0.879 0.876 0.872 0.867 0.861 0.854 0.846 0.840 0.837 0.836 0.838 0.851 0.888 0.981 1.073 1.073 0.000 
0.000 0.075 0.075 0.092 0.108 0.130 0.160 0.194 0.225 0.251 0.274 0.294 0.311 0.327 0.341 0.354 0.367 0.379 0.391 0.403 0.415 0.427 0.439 0.451 0.463 0.475 0.488 0.500 0.513 0.527 0.540 0.555 0.570 0.586 0.603 0.622 0.641 0.662 0.684 0.707 0.733 0.760 0.789 0.820 0.852 0.887 0.922 0.955 0.986 1.015 1.042 1.068 1.091 1.113 1.132 1.150 1.166 1.181 1.194 1.205 1.216 1.224 1.232 1.238 1.243 1.248 1.251 1.254 1.256 1.257 1.258 1.259 1.259 1.259 1.259 1.259 1.259 1.258 1.257 1.255 1.253 1.250 1.246 1.242 1.236 1.229 1.221 1.212 1.201 1.189 1.175 1.159 1.142 1.123 1.102 1.079 1.054 1.027 1.001 0.976 0.953 0.932 0.913 0.896 0.881 0.868 0.856 0.845 0.836 0.829 0.822 0.817 0.813 0.810 0.807 0.805 0.804 0.804 0.803 0.803 0.803 0.803 0.803 0.804 0.805 0.806 0.808 0.811 0.815 0.819 0.824 0.830 0.838 0.846 0.854 0.860 0.866 0.870 0.874 0.876 0.878 0.880 0.880 0.881 0.881 0.881 0.881 0.880 0.879 0.878 0.877 0.874 0.871 0.868 0.863 0.858 0.852 0.845 0.839 0.835 0.832 0.832 0.838 0.862 0.935 1.071 1.071 0.000 
0.000 0.049 0.049 0.067 0.087 0.117 0.156 0.193 0.224 0.251 0.274 0.293 0.311 0.326 0.341 0.354 0.366 0.378 0.390 0.401 0.413 0.425 0.436 0.448 0.460 0.472 0.484 0.496 0.509 0.522 0.536 0.550 0.565 0.581 0.598 0.616 0.635 0.655 0.677 0.700 0.725 0.752 0.780 0.810 0.842 0.876 0.911 0.944 0.975 1.004 1.031 1.056 1.080 1.101 1.121 1.139 1.155 1.170 1.183 1.194 1.205 1.213 1.221 1.227 1.233 1.237 1.241 1.244 1.246 1.247 1.248 1.249 1.249 1.249 1.249 1.249 1.249 1.248 1.247 1.246 1.244 1.241 1.237 1.233 1.228 1.221 1.213 1.204 1.194 1.182 1.169 1.154 1.137 1.118 1.098 1.075 1.051 1.025 0.999 0.974 0.951 0.930 0.911 0.894 0.879 0.865 0.853 0.842 0.833 0.826 0.819 0.814 0.809 0.806 0.803 0.802 0.800 0.799 0.799 0.799 0.799 0.799 0.799 0.800 0.800 0.802 0.804 0.806 0.809 0.813 0.818 0.824 0.831 0.839 0.846 0.852 0.858 0.862 0.866 0.868 0.871 0.872 0.873 0.874 0.875 0.875 0.875 0.874 0.874 0.873 0.871 0.870 0.867 0.864 0.860 0.856 0.850 0.844 0.838 0.832 0.825 0.815 0.802 0.781 0.769 0.869 0.869 0.000 
0.000 0.028 0.028 0.045 0.072 0.113 0.156 0.193 0.224 0.251 0.274 0.294 0.311 0.327 0.341 0.354 0.366 0.377 0.389 0.400 0.411 0.423 0.434 0.445 0.457 0.468 0.480 0.492 0.505 0.518 0.531 0.545 0.560 0.576 0.592 0.610 0.629 0.649 0.670 0.693 0.717 0.743 0.771 0.800 0.832 0.865 0.899 0.932 0.963 0.992 1.019 1.044 1.067 1.089 1.109 1.127 1.143 1.158 1.171 1.183 1.193 1.202 1.209 1.216 1.221 1.226 1.230 1.232 1.235 1.236 1.237 1.238 1.238 1.238 1.238 1.238 1.238 1.238 1.237 1.235 1.233 1.231 1.228 1.223 1.218 1.212 1.205 1.196 1.186 1.175 1.162 1.147 1.131 1.113 1.093 1.071 1.048 1.023 0.996 0.971 0.949 0.928 0.909 0.891 0.876 0.862 0.850 0.839 0.830 0.822 0.815 0.810 0.805 0.802 0.799 0.797 0.796 0.795 0.794 0.794 0.794 0.794 0.794 0.794 0.795 0.796 0.798 0.800 0.803 0.807 0.812 0.817 0.824 0.831 0.838 0.844 0.849 0.853 0.857 0.860 0.863 0.865 0.866 0.868 0.868 0.869 0.869 0.869 0.869 0.868 0.867 0.865 0.863 0.861 0.857 0.853 0.849 0.843 0.837 0.830 0.821 0.807 0.779 0.718 0.559 0.328 0.328 0.000 
0.000 0.010 0.010 0.028 0.066 0.113 0.158 0.195 0.226 0.252 0.275 0.294 0.312 0.327 0.341 0.354 0.366 0.377 0.388 0.399 0.410 0.421 0.432 0.443 0.454 0.465 0.476 0.488 0.500 0.513 0.526 0.540 0.555 0.570 0.586 0.604 0.622 0.642 0.663 0.685 0.709 0.734 0.761 0.790 0.821 0.853 0.887 0.920 0.951 0.979 1.006 1.032 1.055 1.076 1.096 1.114 1.130 1.145 1.158 1.170 1.180 1.189 1.197 1.204 1.209 1.214 1.218 1.221 1.223 1.224 1.225 1.226 1.227 1.227 1.227 1.227 1.227 1.226 1.225 1.224 1.222 1.220 1.217 1.213 1.208 1.202 1.195 1.187 1.177 1.166 1.154 1.140 1.124 1.107 1.087 1.067 1.044 1.019 0.993 0.968 0.945 0.924 0.905 0.888 0.872 0.858 0.846 0.835 0.825 0.817 0.811 0.805 0.800 0.797 0.794 0.792 0.790 0.789 0.789 0.788 0.788 0.788 0.788 0.789 0.789 0.790 0.792 0.794 0.797 0.800 0.804 0.809 0.815 0.822 0.829 0.834 0.839 0.844 0.848 0.851 0.854 0.857 0.859 0.861 0.862 0.863 0.864 0.864 0.864 0.863 0.862 0.861 0.860 0.858 0.855 0.852 0.848 0.843 0.837 0.830 0.821 0.806 0.778 0.714 0.549 0.210 0.210 0.000 
0.000 0.030 0.030 0.029 0.067 0.118 0.162 0.199 0.229 0.255 0.277 0.296 0.313 0.328 0.342 0.354 0.366 0.377 0.388 0.398 0.409 0.419 0.429 0.440 0.450 0.461 0.472 0.484 0.495 0.508 0.521 0.534 0.549 0.564 0.580 0.597 0.615 0.634 0.655 0.677 0.700 0.725 0.751 0.780 0.810 0.842 0.875 0.907 0.938 0.966 0.993 1.018 1.041 1.063 1.082 1.100 1.117 1.132 1.145 1.157 1.167 1.176 1.184 1.191 1.196 1.201 1.205 1.208 1.210 1.212 1.213 1.214 1.214 1.214 1.214 1.214 1.214 1.214 1.213 1.212 1.210 1.208 1.205 1.201 1.197 1.191 1.184 1.177 1.167 1.157 1.145 1.131 1.116 1.100 1.081 1.061 1.039 1.015 0.989 0.965 0.942 0.921 0.901 0.884 0.868 0.854 0.841 0.830 0.821 0.812 0.805 0.799 0.795 0.791 0.788 0.785 0.784 0.783 0.782 0.782 0.782 0.782 0.782 0.782 0.782 0.783 0.785 0.786 0.789 0.792 0.796 0.801 0.806 0.812 0.818 0.824 0.829 0.834 0.838 0.842 0.845 0.848 0.851 0.854 0.856 0.857 0.858 0.859 0.859 0.859 0.859 0.858 0.857 0.855 0.853 0.850 0.847 0.843 0.837 0.831 0.823 0.813 0.796 0.768 0.735 0.746 0.746 0.000 
0.000 0.062 0.062 0.052 0.085 0.131 0.172 0.207 0.236 0.261 0.282 0.300 0.316 0.331 0.344 0.356 0.367 0.378 0.388 0.398 0.408 0.417 0.427 0.437 0.447 0.458 0.468 0.479 0.490 0.502 0.515 0.528 0.542 0.557 0.573 0.589 0.607 0.626 0.646 0.668 0.691 0.715 0.741 0.769 0.798 0.829 0.862 0.894 0.924 0.953 0.980 1.004 1.027 1.049 1.068 1.086 1.103 1.117 1.130 1.142 1.153 1.162 1.170 1.177 1.182 1.187 1.191 1.194 1.196 1.198 1.199 1.200 1.201 1.201 1.201 1.201 1.201 1.201 1.200 1.199 1.197 1.195 1.193 1.189 1.185 1.179 1.173 1.165 1.157 1.147 1.135 1.122 1.108 1.091 1.074 1.054 1.033 1.010 0.985 0.960 0.937 0.916 0.896 0.879 0.863 0.849 0.836 0.825 0.815 0.806 0.799 0.793 0.788 0.784 0.781 0.778 0.777 0.775 0.775 0.774 0.774 0.774 0.774 0.774 0.775 0.775 0.776 0.778 0.780 0.783 0.787 0.791 0.796 0.801 0.807 0.813 0.818 0.823 0.827 0.832 0.836 0.839 0.843 0.846 0.849 0.851 0.853 0.854 0.855 0.855 0.855 0.855 0.854 0.853 0.852 0.849 0.847 0.843 0.838 0.833 0.830 0.828 0.832 0.851 0.921 1.058 1.058 0.000 
0.000 0.157 0.157 0.110 0.133 0.157 0.187 0.219 0.247 0.270 0.290 0.307 0.321 0.335 0.347 0.358 0.369 0.379 0.388 0.398 0.407 0.416 0.425 0.435 0.444 0.454 0.464 0.474 0.485 0.496 0.509 0.521 0.535 0.550 0.565 0.581 0.599 0.617 0.637 0.658 0.681 0.705 0.730 0.757 0.786 0.817 0.849 0.880 0.910 0.939 0.965 0.990 1.013 1.034 1.053 1.071 1.087 1.102 1.115 1.127 1.138 1.147 1.155 1.162 1.168 1.172 1.176 1.179 1.182 1.184 1.185 1.186 1.186 1.187 1.187 1.187 1.187 1.186 1.186 1.185 1.184 1.182 1.179 1.176 1.172 1.167 1.160 1.153 1.145 1.135 1.124 1.112 1.098 1.082 1.065 1.046 1.026 1.004 0.979 0.955 0.932 0.911 0.891 0.873 0.857 0.843 0.830 0.818 0.808 0.800 0.792 0.786 0.781 0.777 0.773 0.771 0.769 0.767 0.766 0.766 0.766 0.765 0.766 0.766 0.766 0.766 0.767 0.769 0.771 0.773 0.776 0.780 0.784 0.789 0.795 0.800 0.806 0.811 0.816 0.821 0.825 0.830 0.834 0.838 0.841 0.845 0.847 0.849 0.851 0.852 0.852 0.852 0.852 0.852 0.851 0.849 0.847 0.843 0.838 0.835 0.834 0.836 0.846 0.880 0.966 1.055 1.055 0.000 
0.000 0.270 0.270 0.208 0.188 0.192 0.210 0.238 0.263 0.283 0.301 0.316 0.329 0.341 0.352 0.362 0.371 0.380 0.389 0.398 0.406 0.415 0.423 0.432 0.441 0.450 0.459 0.469 0.479 0.490 0.502 0.514 0.528 0.542 0.557 0.573 0.590 0.608 0.628 0.648 0.670 0.694 0.719 0.745 0.773 0.803 0.835 0.866 0.896 0.924 0.950 0.974 0.997 1.018 1.037 1.055 1.071 1.086 1.099 1.111 1.122 1.131 1.139 1.146 1.152 1.157 1.161 1.164 1.166 1.168 1.170 1.170 1.171 1.171 1.171 1.171 1.171 1.171 1.171 1.170 1.169 1.167 1.164 1.161 1.157 1.153 1.147 1.140 1.132 1.123 1.112 1.100 1.087 1.072 1.056 1.038 1.018 0.996 0.973 0.949 0.926 0.904 0.885 0.867 0.850 0.836 0.823 0.811 0.801 0.792 0.784 0.778 0.772 0.768 0.764 0.762 0.760 0.758 0.757 0.756 0.756 0.756 0.756 0.756 0.756 0.757 0.757 0.759 0.760 0.762 0.765 0.768 0.772 0.777 0.781 0.787 0.792 0.798 0.803 0.809 0.814 0.819 0.824 0.829 0.834 0.838 0.841 0.844 0.847 0.849 0.850 0.851 0.851 0.851 0.850 0.849 0.847 0.843 0.839 0.836 0.835 0.836 0.846 0.879 0.964 1.053 1.053 0.000 
0.000 0.175 0.175 0.219 0.215 0.228 0.245 0.266 0.286 0.302 0.316 0.328 0.339 0.349 0.358 0.367 0.375 0.383 0.391 0.398 0.406 0.414 0.421 0.429 0.437 0.445 0.454 0.463 0.473 0.484 0.495 0.507 0.520 0.533 0.548 0.564 0.580 0.598 0.617 0.638 0.659 0.682 0.707 0.733 0.760 0.789 0.820 0.851 0.880 0.908 0.934 0.958 0.980 1.001 1.021 1.038 1.054 1.069 1.082 1.094 1.105 1.114 1.122 1.129 1.135 1.140 1.144 1.147 1.150 1.152 1.153 1.154 1.155 1.155 1.155 1.155 1.155 1.155 1.154 1.154 1.153 1.151 1.149 1.146 1.142 1.138 1.132 1.126 1.118 1.109 1.099 1.088 1.075 1.061 1.045 1.028 1.009 0.988 0.965 0.942 0.918 0.897 0.877 0.859 0.843 0.828 0.814 0.803 0.792 0.783 0.775 0.769 0.763 0.758 0.755 0.752 0.749 0.748 0.747 0.746 0.745 0.745 0.745 0.745 0.745 0.746 0.746 0.747 0.749 0.750 0.753 0.756 0.759 0.763 0.768 0.773 0.778 0.784 0.790 0.796 0.802 0.808 0.814 0.819 0.825 0.830 0.835 0.839 0.843 0.846 0.848 0.849 0.850 0.850 0.850 0.849 0.847 0.845 0.841 0.837 0.833 0.831 0.832 0.850 0.912 1.050 1.050 0.000 
0.000 0.027 0.027 0.143 0.237 0.271 0.290 0.304 0.317 0.327 0.336 0.345 0.352 0.359 0.366 0.373 0.380 0.386 0.393 0.399 0.406 0.412 0.419 0.426 0.433 0.441 0.449 0.458 0.467 0.477 0.488 0.499 0.511 0.525 0.539 0.554 0.570 0.588 0.606 0.626 0.647 0.670 0.694 0.719 0.746 0.774 0.804 0.835 0.864 0.891 0.917 0.941 0.963 0.984 1.003 1.020 1.036 1.051 1.064 1.076 1.086 1.096 1.104 1.111 1.117 1.122 1.126 1.129 1.132 1.134 1.135 1.136 1.137 1.137 1.137 1.137 1.137 1.137 1.137 1.136 1.135 1.134 1.132 1.129 1.126 1.121 1.116 1.110 1.103 1.095 1.085 1.074 1.062 1.048 1.033 1.016 0.998 0.978 0.957 0.933 0.910 0.889 0.869 0.851 0.834 0.819 0.805 0.793 0.783 0.773 0.765 0.758 0.753 0.748 0.744 0.741 0.738 0.736 0.735 0.734 0.734 0.733 0.733 0.733 0.733 0.734 0.734 0.735 0.736 0.737 0.739 0.742 0.745 0.749 0.753 0.758 0.763 0.769 0.775 0.782 0.788 0.795 0.802 0.809 0.815 0.822 0.828 0.833 0.838 0.842 0.845 0.848 0.849 0.850 0.850 0.850 0.849 0.846 0.843 0.838 0.830 0.818 0.798 0.766 0.729 0.805 0.805 0.000 
0.000 0.312 0.312 0.190 0.293 0.332 0.346 0.352 0.356 0.359 0.362 0.365 0.369 0.373 0.377 0.381 0.386 0.391 0.396 0.401 0.406 0.411 0.417 0.423 0.429 0.436 0.443 0.451 0.460 0.470 0.480 0.491 0.502 0.515 0.529 0.544 0.559 0.576 0.594 0.614 0.635 0.656 0.680 0.705 0.731 0.759 0.788 0.818 0.847 0.873 0.899 0.922 0.945 0.965 0.984 1.001 1.017 1.032 1.045 1.057 1.067 1.076 1.084 1.091 1.097 1.102 1.107 1.110 1.113 1.115 1.116 1.117 1.118 1.118 1.119 1.119 1.119 1.119 1.118 1.118 1.117 1.115 1.113 1.111 1.108 1.104 1.099 1.093 1.086 1.078 1.069 1.059 1.047 1.034 1.020 1.004 0.986 0.967 0.946 0.924 0.901 0.879 0.859 0.841 0.824 0.809 0.795 0.783 0.772 0.762 0.754 0.747 0.741 0.736 0.732 0.728 0.726 0.724 0.722 0.721 0.721 0.720 0.720 0.720 0.720 0.720 0.721 0.721 0.722 0.723 0.725 0.727 0.730 0.733 0.737 0.742 0.747 0.753 0.760 0.767 0.774 0.781 0.789 0.797 0.805 0.812 0.820 0.826 0.833 0.838 0.843 0.847 0.849 0.850 0.851 0.851 0.850 0.849 0.845 0.840 0.830 0.814 0.781 0.713 0.548 0.275 0.275 0.000 
0.000 0.692 0.692 0.493 0.440 0.428 0.419 0.410 0.402 0.395 0.391 0.389 0.388 0.388 0.389 0.391 0.393 0.396 0.399 0.402 0.406 0.410 0.414 0.419 0.425 0.431 0.438 0.445 0.453 0.462 0.471 0.482 0.493 0.505 0.518 0.533 0.548 0.564 0.582 0.601 0.621 0.642 0.665 0.689 0.715 0.742 0.771 0.800 0.828 0.855 0.880 0.903 0.925 0.945 0.964 0.981 0.997 1.011 1.024 1.036 1.046 1.056 1.064 1.071 1.077 1.082 1.086 1.090 1.092 1.094 1.096 1.097 1.098 1.098 1.099 1.099 1.099 1.099 1.098 1.098 1.097 1.096 1.094 1.092 1.089 1.085 1.080 1.075 1.068 1.061 1.052 1.042 1.031 1.019 1.005 0.990 0.973 0.954 0.935 0.913 0.890 0.869 0.849 0.830 0.813 0.798 0.784 0.771 0.760 0.750 0.742 0.735 0.728 0.723 0.719 0.715 0.712 0.710 0.708 0.707 0.707 0.706 0.706 0.706 0.706 0.706 0.706 0.706 0.707 0.708 0.710 0.712 0.714 0.717 0.721 0.725 0.731 0.737 0.743 0.750 0.758 0.766 0.775 0.784 0.793 0.802 0.810 0.819 0.827 0.834 0.840 0.845 0.849 0.851 0.853 0.853 0.853 0.852 0.849 0.844 0.833 0.815 0.782 0.715 0.557 0.253 0.253 0.000 
0.000 0.746 0.746 0.682 0.579 0.521 0.485 0.459 0.441 0.427 0.417 0.410 0.405 0.402 0.400 0.399 0.400 0.400 0.402 0.403 0.405 0.408 0.412 0.416 0.420 0.426 0.432 0.438 0.446 0.454 0.462 0.472 0.483 0.494 0.507 0.521 0.536 0.551 0.569 0.587 0.606 0.627 0.650 0.673 0.698 0.724 0.752 0.781 0.809 0.835 0.860 0.883 0.904 0.924 0.943 0.960 0.975 0.990 1.003 1.014 1.025 1.034 1.042 1.049 1.055 1.060 1.064 1.068 1.071 1.073 1.074 1.076 1.076 1.077 1.077 1.077 1.077 1.077 1.077 1.076 1.076 1.075 1.073 1.071 1.068 1.064 1.060 1.055 1.049 1.042 1.034 1.024 1.014 1.002 0.989 0.974 0.958 0.940 0.921 0.901 0.878 0.857 0.837 0.818 0.801 0.785 0.771 0.758 0.747 0.737 0.728 0.721 0.714 0.709 0.704 0.700 0.697 0.695 0.693 0.692 0.691 0.690 0.690 0.690 0.690 0.690 0.690 0.690 0.691 0.692 0.693 0.695 0.697 0.700 0.704 0.708 0.713 0.719 0.726 0.733 0.741 0.750 0.759 0.769 0.779 0.790 0.800 0.810 0.820 0.829 0.837 0.844 0.849 0.853 0.856 0.858 0.858 0.858 0.856 0.851 0.842 0.827 0.802 0.771 0.744 0.778 0.778 0.000 
0.000 0.737 0.737 0.720 0.643 0.576 0.529 0.496 0.471 0.452 0.438 0.427 0.419 0.413 0.409 0.406 0.404 0.404 0.403 0.404 0.405 0.407 0.409 0.412 0.416 0.420 0.425 0.431 0.438 0.445 0.453 0.462 0.472 0.483 0.495 0.508 0.523 0.538 0.554 0.572 0.591 0.611 0.633 0.656 0.680 0.706 0.733 0.761 0.788 0.814 0.838 0.861 0.882 0.902 0.920 0.937 0.952 0.967 0.979 0.991 1.001 1.010 1.018 1.025 1.031 1.037 1.041 1.044 1.047 1.049 1.051 1.052 1.053 1.054 1.054 1.054 1.054 1.054 1.054 1.054 1.053 1.052 1.050 1.048 1.046 1.043 1.039 1.034 1.028 1.021 1.014 1.005 0.995 0.983 0.971 0.957 0.942 0.925 0.906 0.886 0.865 0.843 0.823 0.804 0.787 0.771 0.757 0.744 0.733 0.722 0.713 0.705 0.699 0.693 0.688 0.684 0.681 0.678 0.676 0.675 0.674 0.673 0.673 0.673 0.673 0.673 0.673 0.673 0.673 0.674 0.675 0.677 0.679 0.682 0.685 0.689 0.694 0.700 0.707 0.715 0.723 0.733 0.743 0.753 0.764 0.776 0.788 0.800 0.811 0.822 0.832 0.842 0.850 0.856 0.861 0.864 0.866 0.867 0.867 0.865 0.860 0.853 0.851 0.868 0.925 1.037 1.037 0.000 
0.000 0.714 0.714 0.714 0.666 0.606 0.558 0.522 0.494 0.472 0.455 0.442 0.431 0.423 0.417 0.412 0.408 0.406 0.404 0.404 0.404 0.405 0.406 0.408 0.411 0.414 0.418 0.423 0.429 0.436 0.443 0.452 0.461 0.471 0.483 0.495 0.509 0.523 0.539 0.556 0.575 0.594 0.615 0.637 0.661 0.686 0.712 0.740 0.766 0.792 0.815 0.838 0.859 0.878 0.896 0.913 0.928 0.942 0.955 0.966 0.976 0.985 0.993 1.000 1.006 1.012 1.016 1.019 1.022 1.025 1.026 1.028 1.029 1.029 1.029 1.029 1.030 1.029 1.029 1.029 1.028 1.028 1.026 1.024 1.022 1.019 1.015 1.011 1.005 0.999 0.992 0.983 0.974 0.963 0.951 0.938 0.923 0.907 0.890 0.871 0.850 0.829 0.808 0.789 0.772 0.756 0.742 0.728 0.717 0.706 0.697 0.689 0.682 0.676 0.671 0.667 0.663 0.661 0.658 0.657 0.656 0.655 0.654 0.654 0.654 0.654 0.654 0.654 0.655 0.655 0.656 0.658 0.660 0.662 0.666 0.670 0.675 0.681 0.688 0.695 0.704 0.714 0.725 0.736 0.748 0.761 0.774 0.788 0.801 0.814 0.827 0.839 0.850 0.860 0.867 0.873 0.877 0.880 0.883 0.885 0.887 0.892 0.907 0.936 0.988 1.035 1.035 0.000 
0.000 0.688 0.688 0.695 0.667 0.619 0.575 0.540 0.511 0.488 0.469 0.454 0.441 0.431 0.423 0.416 0.411 0.407 0.405 0.403 0.403 0.402 0.403 0.404 0.406 0.408 0.411 0.416 0.421 0.426 0.433 0.441 0.449 0.459 0.470 0.481 0.494 0.508 0.523 0.540 0.557 0.576 0.596 0.618 0.640 0.665 0.690 0.717 0.743 0.768 0.791 0.813 0.834 0.853 0.871 0.887 0.902 0.916 0.928 0.940 0.950 0.959 0.967 0.974 0.980 0.985 0.989 0.993 0.996 0.998 1.000 1.001 1.002 1.003 1.003 1.003 1.003 1.003 1.003 1.003 1.002 1.001 1.000 0.999 0.996 0.994 0.990 0.986 0.981 0.975 0.968 0.960 0.951 0.941 0.930 0.917 0.903 0.888 0.871 0.853 0.833 0.812 0.792 0.773 0.755 0.739 0.725 0.711 0.699 0.689 0.679 0.671 0.664 0.657 0.652 0.648 0.644 0.641 0.639 0.637 0.636 0.635 0.634 0.634 0.634 0.634 0.634 0.634 0.634 0.635 0.636 0.637 0.639 0.642 0.645 0.649 0.654 0.660 0.667 0.675 0.684 0.694 0.705 0.717 0.730 0.744 0.759 0.774 0.789 0.805 0.820 0.835 0.850 0.863 0.875 0.884 0.891 0.898 0.905 0.912 0.921 0.935 0.955 0.983 1.015 1.035 1.035 0.000 
0.000 0.662 0.662 0.672 0.656 0.623 0.584 0.552 0.525 0.502 0.482 0.465 0.450 0.438 0.427 0.419 0.412 0.407 0.404 0.402 0.401 0.400 0.399 0.400 0.400 0.402 0.404 0.407 0.411 0.416 0.422 0.429 0.437 0.446 0.456 0.467 0.479 0.492 0.506 0.522 0.539 0.557 0.576 0.597 0.619 0.642 0.666 0.692 0.718 0.742 0.765 0.787 0.807 0.826 0.843 0.859 0.874 0.888 0.900 0.911 0.921 0.930 0.938 0.945 0.951 0.956 0.961 0.964 0.967 0.970 0.972 0.973 0.974 0.974 0.975 0.975 0.975 0.975 0.975 0.975 0.974 0.974 0.973 0.971 0.969 0.966 0.963 0.959 0.955 0.949 0.943 0.935 0.927 0.917 0.906 0.894 0.881 0.866 0.851 0.833 0.814 0.794 0.774 0.755 0.737 0.721 0.706 0.692 0.680 0.669 0.660 0.651 0.644 0.637 0.632 0.627 0.623 0.620 0.618 0.616 0.615 0.614 0.613 0.613 0.612 0.612 0.612 0.613 0.613 0.613 0.614 0.616 0.617 0.620 0.623 0.627 0.632 0.638 0.645 0.653 0.663 0.673 0.685 0.697 0.711 0.726 0.742 0.758 0.775 0.793 0.811 0.829 0.847 0.865 0.882 0.897 0.910 0.921 0.933 0.945 0.960 0.978 0.998 1.019 1.034 1.038 1.038 0.000 
0.000 0.636 0.636 0.647 0.638 0.617 0.588 0.560 0.536 0.514 0.493 0.474 0.458 0.443 0.431 0.421 0.413 0.407 0.403 0.400 0.398 0.396 0.395 0.395 0.395 0.395 0.397 0.399 0.402 0.406 0.411 0.417 0.424 0.432 0.441 0.451 0.462 0.475 0.488 0.503 0.519 0.536 0.555 0.575 0.596 0.618 0.641 0.666 0.691 0.715 0.738 0.759 0.779 0.797 0.814 0.830 0.845 0.858 0.870 0.881 0.891 0.900 0.908 0.915 0.921 0.926 0.930 0.934 0.937 0.939 0.941 0.943 0.944 0.944 0.945 0.945 0.945 0.945 0.945 0.945 0.944 0.944 0.943 0.941 0.940 0.937 0.934 0.931 0.926 0.921 0.915 0.908 0.900 0.891 0.881 0.869 0.857 0.843 0.828 0.811 0.793 0.774 0.754 0.735 0.717 0.701 0.686 0.672 0.660 0.648 0.639 0.630 0.622 0.615 0.610 0.605 0.601 0.598 0.595 0.593 0.592 0.591 0.590 0.590 0.589 0.589 0.589 0.589 0.590 0.590 0.591 0.592 0.594 0.597 0.600 0.604 0.609 0.615 0.622 0.630 0.640 0.651 0.663 0.676 0.691 0.706 0.723 0.741 0.760 0.780 0.800 0.821 0.843 0.864 0.887 0.910 0.931 0.949 0.966 0.982 1.000 1.018 1.036 1.050 1.058 1.059 1.059 0.000 
0.000 0.611 0.611 0.622 0.615 0.603 0.585 0.565 0.545 0.525 0.504 0.483 0.464 0.448 0.434 0.422 0.413 0.407 0.401 0.397 0.394 0.391 0.390 0.389 0.388 0.388 0.389 0.390 0.392 0.395 0.399 0.404 0.410 0.417 0.425 0.435 0.445 0.457 0.469 0.483 0.498 0.515 0.532 0.551 0.571 0.592 0.615 0.639 0.663 0.686 0.708 0.729 0.748 0.766 0.783 0.799 0.813 0.826 0.838 0.849 0.859 0.868 0.876 0.882 0.888 0.893 0.898 0.902 0.905 0.907 0.909 0.910 0.911 0.912 0.912 0.913 0.913 0.913 0.913 0.913 0.912 0.912 0.911 0.910 0.908 0.906 0.903 0.900 0.896 0.891 0.885 0.879 0.871 0.863 0.853 0.842 0.831 0.817 0.803 0.787 0.770 0.752 0.732 0.713 0.695 0.679 0.664 0.650 0.637 0.626 0.616 0.607 0.599 0.592 0.586 0.581 0.577 0.573 0.571 0.569 0.567 0.566 0.565 0.565 0.565 0.565 0.565 0.565 0.565 0.565 0.566 0.568 0.569 0.572 0.575 0.579 0.584 0.590 0.598 0.606 0.616 0.627 0.639 0.653 0.669 0.685 0.703 0.723 0.743 0.765 0.788 0.811 0.836 0.862 0.889 0.919 0.950 0.977 1.000 1.021 1.039 1.057 1.071 1.082 1.090 1.097 1.097 0.000 
0.000 0.585 0.585 0.596 0.593 0.587 0.579 0.567 0.552 0.534 0.514 0.491 0.469 0.451 0.435 0.423 0.413 0.405 0.398 0.393 0.389 0.386 0.383 0.382 0.381 0.380 0.380 0.380 0.382 0.384 0.387 0.391 0.396 0.402 0.409 0.417 0.427 0.438 0.449 0.462 0.476 0.492 0.508 0.526 0.545 0.565 0.587 0.609 0.633 0.655 0.677 0.697 0.716 0.734 0.750 0.766 0.780 0.793 0.804 0.815 0.825 0.833 0.841 0.848 0.854 0.859 0.863 0.867 0.870 0.872 0.874 0.876 0.877 0.877 0.878 0.878 0.878 0.878 0.878 0.878 0.878 0.877 0.877 0.876 0.874 0.872 0.870 0.867 0.863 0.858 0.853 0.847 0.840 0.832 0.823 0.813 0.802 0.789 0.776 0.761 0.745 0.727 0.708 0.689 0.672 0.655 0.640 0.626 0.613 0.601 0.591 0.582 0.574 0.567 0.561 0.555 0.551 0.547 0.545 0.542 0.541 0.540 0.539 0.538 0.538 0.538 0.538 0.538 0.539 0.539 0.540 0.541 0.543 0.546 0.549 0.553 0.558 0.565 0.572 0.581 0.591 0.602 0.615 0.629 0.645 0.663 0.682 0.702 0.724 0.748 0.773 0.799 0.827 0.857 0.888 0.923 0.962 1.001 1.032 1.057 1.077 1.094 1.107 1.116 1.124 1.129 1.129 0.000 
0.000 0.559 0.559 0.573 0.577 0.578 0.576 0.570 0.558 0.542 0.522 0.497 0.473 0.453 0.436 0.423 0.412 0.402 0.395 0.388 0.383 0.379 0.376 0.374 0.372 0.371 0.370 0.370 0.371 0.372 0.374 0.377 0.381 0.386 0.392 0.399 0.408 0.417 0.428 0.440 0.453 0.467 0.483 0.500 0.517 0.536 0.556 0.578 0.600 0.622 0.643 0.663 0.682 0.699 0.715 0.730 0.744 0.757 0.768 0.779 0.788 0.797 0.804 0.811 0.817 0.822 0.826 0.830 0.833 0.835 0.837 0.839 0.840 0.841 0.841 0.841 0.841 0.841 0.841 0.841 0.841 0.841 0.840 0.839 0.838 0.836 0.834 0.831 0.827 0.823 0.818 0.813 0.806 0.799 0.790 0.781 0.771 0.759 0.746 0.732 0.717 0.700 0.682 0.664 0.646 0.629 0.614 0.600 0.587 0.575 0.564 0.555 0.547 0.539 0.533 0.528 0.523 0.520 0.517 0.515 0.513 0.512 0.511 0.510 0.510 0.510 0.510 0.510 0.510 0.511 0.512 0.513 0.515 0.518 0.521 0.525 0.531 0.537 0.545 0.554 0.564 0.576 0.589 0.604 0.620 0.639 0.659 0.680 0.704 0.729 0.757 0.786 0.817 0.850 0.885 0.924 0.968 1.016 1.059 1.091 1.114 1.132 1.144 1.152 1.156 1.157 1.157 0.000 
0.000 0.533 0.533 0.551 0.570 0.576 0.576 0.573 0.563 0.548 0.527 0.501 0.475 0.453 0.436 0.421 0.409 0.398 0.390 0.382 0.376 0.371 0.367 0.364 0.362 0.360 0.359 0.359 0.359 0.359 0.360 0.362 0.365 0.369 0.374 0.380 0.388 0.396 0.406 0.417 0.429 0.442 0.456 0.471 0.488 0.506 0.525 0.545 0.566 0.587 0.608 0.627 0.645 0.662 0.678 0.692 0.706 0.718 0.729 0.740 0.749 0.757 0.765 0.771 0.777 0.782 0.786 0.790 0.793 0.796 0.798 0.799 0.800 0.801 0.802 0.802 0.802 0.802 0.802 0.802 0.802 0.802 0.801 0.800 0.799 0.797 0.795 0.793 0.790 0.786 0.781 0.776 0.770 0.763 0.755 0.747 0.737 0.726 0.714 0.701 0.686 0.671 0.654 0.636 0.618 0.601 0.586 0.571 0.558 0.547 0.536 0.526 0.518 0.510 0.504 0.499 0.494 0.490 0.487 0.485 0.483 0.482 0.481 0.480 0.480 0.480 0.480 0.480 0.481 0.481 0.482 0.484 0.486 0.488 0.492 0.496 0.502 0.508 0.516 0.525 0.536 0.548 0.561 0.577 0.594 0.613 0.634 0.657 0.682 0.709 0.738 0.770 0.803 0.840 0.879 0.922 0.969 1.023 1.078 1.121 1.151 1.170 1.182 1.188 1.189 1.187 1.187 0.000 
0.000 0.550 0.550 0.549 0.570 0.579 0.580 0.578 0.569 0.554 0.531 0.503 0.476 0.453 0.435 0.419 0.405 0.393 0.383 0.375 0.368 0.362 0.357 0.353 0.351 0.348 0.347 0.346 0.345 0.345 0.346 0.347 0.348 0.351 0.355 0.361 0.367 0.374 0.383 0.392 0.403 0.415 0.428 0.442 0.457 0.473 0.491 0.509 0.529 0.550 0.569 0.588 0.606 0.622 0.638 0.652 0.665 0.677 0.688 0.698 0.707 0.715 0.723 0.729 0.735 0.740 0.744 0.748 0.751 0.753 0.755 0.757 0.758 0.759 0.759 0.760 0.760 0.760 0.760 0.760 0.760 0.760 0.759 0.758 0.757 0.756 0.754 0.752 0.749 0.745 0.741 0.737 0.731 0.725 0.717 0.709 0.700 0.690 0.679 0.666 0.653 0.638 0.622 0.605 0.587 0.571 0.555 0.541 0.528 0.516 0.505 0.496 0.487 0.479 0.473 0.467 0.463 0.459 0.456 0.453 0.451 0.450 0.449 0.449 0.448 0.448 0.448 0.449 0.449 0.449 0.450 0.452 0.454 0.457 0.461 0.465 0.471 0.477 0.485 0.495 0.506 0.518 0.532 0.548 0.566 0.586 0.607 0.631 0.658 0.686 0.717 0.751 0.788 0.827 0.870 0.917 0.967 1.024 1.088 1.146 1.186 1.211 1.224 1.228 1.228 1.219 1.219 0.000 
0.000 0.570 0.570 0.566 0.583 0.591 0.591 0.587 0.577 0.559 0.533 0.503 0.475 0.452 0.432 0.415 0.399 0.386 0.375 0.366 0.358 0.351 0.346 0.341 0.338 0.335 0.333 0.331 0.331 0.330 0.330 0.330 0.331 0.333 0.336 0.340 0.345 0.351 0.358 0.367 0.376 0.386 0.398 0.411 0.424 0.439 0.455 0.472 0.490 0.509 0.529 0.547 0.564 0.580 0.595 0.609 0.622 0.633 0.644 0.654 0.663 0.671 0.678 0.684 0.690 0.695 0.699 0.702 0.705 0.708 0.710 0.712 0.713 0.714 0.714 0.715 0.715 0.715 0.715 0.715 0.715 0.715 0.714 0.714 0.713 0.711 0.710 0.708 0.705 0.702 0.698 0.694 0.689 0.683 0.676 0.669 0.661 0.651 0.641 0.629 0.617 0.603 0.588 0.572 0.555 0.538 0.523 0.509 0.495 0.483 0.473 0.463 0.454 0.446 0.440 0.434 0.429 0.425 0.422 0.420 0.418 0.416 0.416 0.415 0.415 0.415 0.415 0.415 0.415 0.416 0.417 0.419 0.421 0.424 0.428 0.432 0.438 0.445 0.453 0.463 0.474 0.487 0.501 0.518 0.536 0.556 0.579 0.604 0.631 0.661 0.694 0.730 0.769 0.811 0.857 0.908 0.962 1.022 1.089 1.160 1.217 1.253 1.272 1.279 1.280 1.278 1.278 0.000 
0.000 0.664 0.664 0.612 0.619 0.619 0.614 0.604 0.586 0.563 0.534 0.502 0.474 0.449 0.428 0.409 0.392 0.378 0.366 0.355 0.346 0.339 0.333 0.327 0.323 0.320 0.317 0.315 0.314 0.313 0.313 0.312 0.313 0.313 0.315 0.318 0.322 0.327 0.333 0.340 0.348 0.357 0.366 0.377 0.389 0.403 0.417 0.432 0.449 0.467 0.485 0.503 0.520 0.535 0.550 0.563 0.576 0.587 0.597 0.607 0.615 0.623 0.630 0.636 0.642 0.647 0.651 0.654 0.657 0.660 0.662 0.663 0.664 0.665 0.666 0.666 0.667 0.667 0.667 0.667 0.667 0.667 0.666 0.666 0.665 0.664 0.663 0.661 0.658 0.656 0.652 0.648 0.644 0.639 0.632 0.626 0.618 0.609 0.600 0.589 0.577 0.565 0.551 0.536 0.520 0.503 0.488 0.474 0.461 0.449 0.438 0.428 0.419 0.411 0.404 0.399 0.394 0.390 0.386 0.384 0.382 0.381 0.380 0.379 0.379 0.379 0.379 0.379 0.380 0.380 0.381 0.383 0.386 0.389 0.393 0.398 0.404 0.411 0.419 0.429 0.441 0.454 0.469 0.485 0.504 0.525 0.549 0.574 0.603 0.634 0.668 0.706 0.747 0.792 0.841 0.894 0.952 1.016 1.086 1.163 1.237 1.295 1.330 1.346 1.352 1.353 1.353 0.000 
0.000 0.760 0.760 0.704 0.686 0.671 0.651 0.627 0.599 0.566 0.532 0.499 0.470 0.444 0.421 0.401 0.383 0.368 0.355 0.343 0.333 0.325 0.318 0.312 0.307 0.303 0.300 0.297 0.296 0.294 0.293 0.293 0.293 0.293 0.294 0.295 0.298 0.301 0.306 0.311 0.318 0.325 0.333 0.342 0.353 0.364 0.377 0.390 0.405 0.421 0.439 0.456 0.472 0.487 0.501 0.514 0.526 0.537 0.547 0.557 0.565 0.572 0.579 0.585 0.591 0.595 0.599 0.603 0.606 0.608 0.610 0.612 0.613 0.614 0.614 0.615 0.615 0.615 0.615 0.615 0.615 0.615 0.615 0.615 0.614 0.613 0.612 0.610 0.608 0.606 0.603 0.599 0.595 0.591 0.585 0.579 0.572 0.564 0.555 0.546 0.535 0.523 0.510 0.497 0.481 0.466 0.450 0.436 0.423 0.411 0.400 0.391 0.382 0.374 0.367 0.361 0.356 0.352 0.349 0.346 0.344 0.343 0.342 0.342 0.341 0.341 0.341 0.342 0.342 0.343 0.344 0.346 0.348 0.352 0.356 0.361 0.367 0.375 0.383 0.394 0.405 0.419 0.434 0.451 0.471 0.492 0.516 0.542 0.572 0.604 0.639 0.678 0.721 0.768 0.820 0.876 0.937 1.004 1.077 1.158 1.243 1.325 1.388 1.429 1.449 1.452 1.452 0.000 
0.000 0.878 0.878 0.810 0.783 0.744 0.699 0.654 0.610 0.568 0.530 0.495 0.464 0.437 0.412 0.391 0.372 0.356 0.341 0.329 0.318 0.309 0.301 0.295 0.289 0.285 0.281 0.278 0.275 0.274 0.272 0.271 0.271 0.270 0.271 0.271 0.273 0.275 0.278 0.282 0.287 0.292 0.298 0.306 0.314 0.323 0.334 0.346 0.359 0.374 0.390 0.406 0.422 0.437 0.450 0.463 0.474 0.485 0.494 0.503 0.511 0.518 0.525 0.531 0.536 0.540 0.544 0.548 0.550 0.553 0.555 0.557 0.558 0.559 0.559 0.560 0.560 0.560 0.561 0.561 0.561 0.560 0.560 0.560 0.559 0.559 0.558 0.556 0.555 0.553 0.550 0.547 0.543 0.539 0.534 0.529 0.523 0.516 0.508 0.499 0.489 0.479 0.467 0.454 0.440 0.425 0.410 0.396 0.383 0.372 0.361 0.351 0.342 0.334 0.327 0.322 0.317 0.313 0.309 0.307 0.305 0.304 0.303 0.303 0.302 0.302 0.302 0.303 0.303 0.304 0.305 0.307 0.309 0.313 0.317 0.322 0.329 0.336 0.346 0.356 0.368 0.382 0.398 0.415 0.435 0.457 0.481 0.508 0.538 0.571 0.607 0.648 0.692 0.740 0.794 0.852 0.916 0.986 1.063 1.147 1.239 1.337 1.429 1.499 1.544 1.566 1.566 0.000 
0.000 0.993 0.993 0.927 0.872 0.809 0.738 0.673 0.617 0.568 0.526 0.489 0.456 0.427 0.401 0.379 0.359 0.341 0.326 0.313 0.301 0.291 0.283 0.275 0.269 0.264 0.260 0.256 0.253 0.251 0.249 0.248 0.247 0.246 0.246 0.246 0.246 0.247 0.249 0.251 0.254 0.258 0.263 0.268 0.275 0.284 0.293 0.303 0.315 0.328 0.341 0.356 0.370 0.384 0.396 0.408 0.419 0.429 0.438 0.446 0.454 0.461 0.467 0.473 0.478 0.482 0.486 0.489 0.492 0.494 0.496 0.498 0.499 0.500 0.501 0.501 0.502 0.502 0.502 0.502 0.502 0.502 0.502 0.502 0.501 0.501 0.500 0.499 0.497 0.496 0.494 0.491 0.488 0.484 0.480 0.475 0.470 0.464 0.457 0.449 0.440 0.430 0.420 0.408 0.396 0.382 0.367 0.354 0.341 0.329 0.319 0.309 0.301 0.294 0.287 0.282 0.278 0.274 0.271 0.269 0.268 0.267 0.266 0.265 0.265 0.265 0.265 0.265 0.266 0.266 0.268 0.269 0.271 0.275 0.278 0.283 0.289 0.297 0.306 0.317 0.329 0.343 0.359 0.377 0.397 0.419 0.443 0.471 0.501 0.535 0.572 0.613 0.658 0.708 0.762 0.823 0.889 0.962 1.042 1.130 1.228 1.337 1.449 1.544 1.609 1.636 1.636 0.000 
0.000 1.031 1.031 0.996 0.934 0.853 0.762 0.684 0.619 0.566 0.520 0.480 0.445 0.414 0.387 0.364 0.343 0.324 0.308 0.294 0.282 0.271 0.262 0.254 0.248 0.242 0.237 0.233 0.229 0.227 0.224 0.222 0.221 0.220 0.219 0.219 0.218 0.219 0.219 0.220 0.222 0.225 0.228 0.233 0.239 0.246 0.254 0.263 0.273 0.284 0.296 0.309 0.321 0.333 0.344 0.354 0.364 0.373 0.381 0.388 0.395 0.401 0.407 0.412 0.417 0.421 0.424 0.427 0.430 0.432 0.434 0.435 0.437 0.438 0.438 0.439 0.439 0.439 0.440 0.440 0.440 0.440 0.440 0.439 0.439 0.439 0.438 0.437 0.436 0.435 0.433 0.431 0.428 0.425 0.422 0.418 0.413 0.408 0.402 0.395 0.387 0.379 0.369 0.359 0.348 0.335 0.322 0.309 0.297 0.287 0.277 0.269 0.262 0.255 0.250 0.245 0.241 0.238 0.236 0.234 0.232 0.231 0.231 0.230 0.230 0.230 0.230 0.230 0.231 0.231 0.232 0.234 0.236 0.239 0.242 0.247 0.252 0.259 0.267 0.277 0.288 0.302 0.318 0.336 0.356 0.378 0.403 0.431 0.461 0.495 0.532 0.574 0.619 0.670 0.726 0.787 0.855 0.930 1.014 1.106 1.210 1.328 1.454 1.563 1.644 1.685 1.685 0.000 
0.000 1.067 1.067 1.036 0.971 0.878 0.774 0.688 0.618 0.560 0.511 0.468 0.431 0.399 0.370 0.346 0.324 0.305 0.288 0.273 0.260 0.249 0.239 0.231 0.224 0.217 0.212 0.207 0.203 0.200 0.197 0.195 0.193 0.192 0.191 0.190 0.189 0.189 0.189 0.190 0.191 0.194 0.197 0.201 0.205 0.211 0.218 0.225 0.234 0.243 0.254 0.265 0.276 0.286 0.296 0.304 0.313 0.320 0.327 0.334 0.340 0.345 0.350 0.354 0.358 0.362 0.365 0.367 0.370 0.371 0.373 0.374 0.375 0.376 0.377 0.377 0.378 0.378 0.378 0.378 0.378 0.378 0.378 0.378 0.378 0.377 0.377 0.376 0.375 0.374 0.372 0.371 0.369 0.366 0.363 0.359 0.355 0.351 0.346 0.340 0.333 0.326 0.318 0.309 0.299 0.288 0.276 0.265 0.255 0.246 0.238 0.231 0.225 0.219 0.214 0.210 0.207 0.204 0.202 0.201 0.199 0.199 0.198 0.198 0.198 0.198 0.198 0.198 0.198 0.199 0.199 0.201 0.203 0.205 0.208 0.212 0.217 0.223 0.230 0.239 0.249 0.261 0.276 0.293 0.313 0.335 0.360 0.387 0.418 0.451 0.488 0.530 0.575 0.626 0.682 0.744 0.814 0.890 0.976 1.073 1.183 1.308 1.447 1.567 1.654 1.700 1.700 0.000 
0.000 1.070 1.070 1.052 0.987 0.889 0.778 0.687 0.613 0.550 0.498 0.452 0.413 0.379 0.350 0.324 0.302 0.282 0.265 0.249 0.236 0.224 0.214 0.205 0.197 0.191 0.185 0.179 0.175 0.171 0.168 0.166 0.164 0.163 0.162 0.161 0.161 0.161 0.161 0.162 0.163 0.164 0.167 0.170 0.174 0.179 0.184 0.191 0.198 0.206 0.215 0.224 0.233 0.242 0.250 0.258 0.265 0.271 0.277 0.283 0.288 0.293 0.297 0.300 0.304 0.307 0.309 0.311 0.313 0.315 0.316 0.318 0.318 0.319 0.320 0.320 0.320 0.321 0.321 0.321 0.321 0.321 0.321 0.321 0.320 0.320 0.320 0.319 0.318 0.317 0.316 0.314 0.313 0.310 0.308 0.305 0.301 0.297 0.293 0.288 0.282 0.276 0.269 0.262 0.253 0.244 0.234 0.225 0.216 0.209 0.202 0.196 0.190 0.186 0.182 0.178 0.175 0.173 0.171 0.170 0.169 0.168 0.168 0.167 0.167 0.167 0.167 0.167 0.168 0.168 0.169 0.170 0.172 0.174 0.176 0.180 0.184 0.189 0.195 0.203 0.212 0.223 0.236 0.251 0.268 0.289 0.313 0.340 0.370 0.403 0.440 0.481 0.526 0.576 0.632 0.694 0.763 0.841 0.929 1.028 1.142 1.274 1.425 1.559 1.654 1.700 1.700 0.000 
0.000 1.072 1.072 1.055 0.992 0.891 0.775 0.679 0.600 0.534 0.479 0.431 0.391 0.356 0.326 0.299 0.276 0.256 0.238 0.223 0.209 0.197 0.187 0.177 0.169 0.162 0.156 0.151 0.146 0.143 0.141 0.139 0.137 0.136 0.135 0.135 0.135 0.135 0.135 0.135 0.136 0.137 0.139 0.142 0.145 0.149 0.154 0.159 0.165 0.171 0.179 0.186 0.194 0.202 0.209 0.215 0.221 0.226 0.231 0.236 0.240 0.244 0.248 0.251 0.253 0.256 0.258 0.260 0.262 0.263 0.264 0.265 0.266 0.266 0.267 0.267 0.267 0.268 0.268 0.268 0.268 0.268 0.268 0.267 0.267 0.267 0.267 0.266 0.266 0.265 0.264 0.262 0.261 0.259 0.257 0.254 0.251 0.248 0.244 0.240 0.236 0.230 0.225 0.218 0.211 0.204 0.195 0.188 0.180 0.174 0.168 0.163 0.159 0.155 0.151 0.148 0.146 0.144 0.143 0.141 0.141 0.140 0.140 0.139 0.139 0.139 0.139 0.140 0.140 0.140 0.141 0.142 0.143 0.145 0.147 0.150 0.154 0.158 0.163 0.170 0.178 0.187 0.198 0.210 0.226 0.244 0.265 0.290 0.319 0.351 0.386 0.426 0.470 0.519 0.574 0.635 0.704 0.781 0.868 0.968 1.084 1.219 1.379 1.534 1.645 1.700 1.700 0.000 
0.000 1.075 1.075 1.057 0.991 0.883 0.761 0.661 0.578 0.510 0.453 0.404 0.363 0.327 0.296 0.270 0.247 0.227 0.209 0.193 0.179 0.167 0.156 0.147 0.139 0.133 0.128 0.124 0.120 0.117 0.115 0.114 0.112 0.112 0.111 0.111 0.111 0.111 0.111 0.111 0.112 0.113 0.114 0.116 0.119 0.122 0.125 0.130 0.135 0.140 0.146 0.152 0.159 0.165 0.171 0.176 0.181 0.185 0.189 0.193 0.197 0.200 0.203 0.205 0.207 0.209 0.211 0.213 0.214 0.215 0.216 0.217 0.218 0.218 0.218 0.219 0.219 0.219 0.219 0.219 0.219 0.219 0.219 0.219 0.219 0.219 0.218 0.218 0.217 0.217 0.216 0.215 0.213 0.212 0.210 0.208 0.206 0.203 0.200 0.197 0.193 0.189 0.184 0.179 0.173 0.167 0.160 0.153 0.148 0.142 0.138 0.133 0.130 0.126 0.124 0.121 0.119 0.118 0.117 0.116 0.115 0.114 0.114 0.114 0.114 0.114 0.114 0.114 0.114 0.115 0.115 0.116 0.117 0.118 0.120 0.123 0.126 0.129 0.134 0.139 0.146 0.153 0.162 0.173 0.186 0.201 0.219 0.240 0.265 0.294 0.328 0.365 0.408 0.455 0.507 0.566 0.633 0.708 0.793 0.891 1.005 1.138 1.297 1.474 1.623 1.700 1.700 0.000 
0.000 1.078 1.078 1.057 0.978 0.856 0.730 0.628 0.544 0.475 0.418 0.369 0.328 0.292 0.262 0.236 0.213 0.193 0.176 0.160 0.147 0.135 0.126 0.118 0.112 0.107 0.103 0.099 0.096 0.094 0.092 0.091 0.090 0.089 0.089 0.089 0.089 0.089 0.089 0.089 0.089 0.090 0.091 0.093 0.095 0.097 0.100 0.104 0.107 0.112 0.116 0.122 0.127 0.132 0.136 0.141 0.144 0.148 0.151 0.154 0.157 0.160 0.162 0.164 0.166 0.167 0.169 0.170 0.171 0.172 0.173 0.173 0.174 0.174 0.175 0.175 0.175 0.175 0.175 0.175 0.175 0.175 0.175 0.175 0.175 0.175 0.175 0.174 0.174 0.173 0.173 0.172 0.171 0.169 0.168 0.166 0.165 0.162 0.160 0.157 0.154 0.151 0.147 0.143 0.138 0.133 0.128 0.123 0.118 0.114 0.110 0.107 0.104 0.101 0.099 0.097 0.095 0.094 0.093 0.092 0.092 0.091 0.091 0.091 0.091 0.091 0.091 0.091 0.091 0.092 0.092 0.093 0.094 0.095 0.096 0.098 0.101 0.104 0.107 0.112 0.117 0.123 0.130 0.139 0.149 0.162 0.176 0.193 0.213 0.237 0.266 0.299 0.338 0.382 0.431 0.487 0.549 0.620 0.701 0.793 0.899 1.023 1.171 1.354 1.563 1.700 1.700 0.000 
0.000 1.080 1.080 1.050 0.940 0.798 0.675 0.576 0.495 0.428 0.372 0.325 0.285 0.251 0.222 0.197 0.175 0.156 0.139 0.126 0.115 0.106 0.098 0.092 0.087 0.083 0.080 0.077 0.075 0.073 0.072 0.071 0.070 0.069 0.069 0.069 0.069 0.069 0.069 0.069 0.070 0.070 0.071 0.072 0.074 0.075 0.078 0.080 0.083 0.087 0.090 0.094 0.098 0.102 0.106 0.109 0.112 0.115 0.118 0.120 0.122 0.124 0.126 0.127 0.129 0.130 0.131 0.132 0.133 0.134 0.134 0.135 0.135 0.135 0.136 0.136 0.136 0.136 0.136 0.136 0.136 0.136 0.136 0.136 0.136 0.136 0.136 0.135 0.135 0.135 0.134 0.133 0.133 0.132 0.131 0.129 0.128 0.126 0.124 0.122 0.120 0.117 0.114 0.111 0.107 0.103 0.099 0.095 0.092 0.088 0.085 0.083 0.080 0.078 0.077 0.075 0.074 0.073 0.072 0.072 0.071 0.071 0.071 0.071 0.071 0.071 0.071 0.071 0.071 0.071 0.071 0.072 0.073 0.073 0.075 0.076 0.078 0.080 0.083 0.087 0.091 0.096 0.101 0.108 0.116 0.126 0.137 0.151 0.167 0.186 0.208 0.234 0.265 0.302 0.345 0.395 0.452 0.516 0.589 0.671 0.763 0.867 0.989 1.147 1.377 1.700 1.700 0.000 
0.000 1.024 1.024 1.008 0.843 0.697 0.588 0.500 0.426 0.365 0.314 0.270 0.233 0.202 0.175 0.152 0.133 0.118 0.105 0.095 0.087 0.080 0.074 0.069 0.065 0.062 0.060 0.058 0.056 0.055 0.054 0.053 0.052 0.052 0.052 0.052 0.052 0.052 0.052 0.052 0.052 0.052 0.053 0.054 0.055 0.056 0.058 0.060 0.062 0.065 0.067 0.070 0.074 0.076 0.079 0.082 0.084 0.086 0.088 0.090 0.091 0.093 0.094 0.095 0.096 0.097 0.098 0.099 0.099 0.100 0.100 0.101 0.101 0.101 0.101 0.102 0.102 0.102 0.102 0.102 0.102 0.102 0.102 0.102 0.102 0.102 0.101 0.101 0.101 0.101 0.100 0.100 0.099 0.098 0.098 0.097 0.096 0.094 0.093 0.091 0.089 0.087 0.085 0.083 0.080 0.077 0.074 0.071 0.068 0.066 0.064 0.062 0.060 0.059 0.057 0.056 0.055 0.055 0.054 0.054 0.053 0.053 0.053 0.053 0.053 0.053 0.053 0.053 0.053 0.053 0.053 0.054 0.054 0.055 0.056 0.057 0.058 0.060 0.062 0.065 0.068 0.072 0.076 0.081 0.087 0.095 0.103 0.113 0.125 0.140 0.156 0.176 0.200 0.228 0.260 0.299 0.345 0.398 0.458 0.524 0.593 0.661 0.731 0.811 0.918 1.059 1.059 0.000 
0.000 0.477 0.477 0.759 0.638 0.538 0.462 0.396 0.337 0.285 0.241 0.204 0.173 0.147 0.126 0.109 0.096 0.084 0.075 0.068 0.062 0.057 0.053 0.049 0.047 0.044 0.043 0.041 0.040 0.039 0.038 0.038 0.037 0.037 0.037 0.037 0.037 0.037 0.037 0.037 0.037 0.037 0.038 0.038 0.039 0.040 0.041 0.043 0.044 0.046 0.048 0.050 0.052 0.054 0.056 0.058 0.060 0.061 0.062 0.064 0.065 0.066 0.067 0.068 0.068 0.069 0.070 0.070 0.071 0.071 0.071 0.072 0.072 0.072 0.072 0.072 0.072 0.072 0.072 0.072 0.072 0.072 0.072 0.072 0.072 0.072 0.072 0.072 0.072 0.072 0.071 0.071 0.070 0.070 0.069 0.069 0.068 0.067 0.066 0.065 0.064 0.062 0.061 0.059 0.057 0.055 0.053 0.051 0.049 0.047 0.045 0.044 0.043 0.042 0.041 0.040 0.039 0.039 0.038 0.038 0.038 0.038 0.038 0.038 0.037 0.037 0.038 0.038 0.038 0.038 0.038 0.038 0.039 0.039 0.040 0.040 0.042 0.043 0.044 0.046 0.048 0.051 0.054 0.058 0.062 0.067 0.074 0.081 0.089 0.100 0.112 0.126 0.143 0.163 0.186 0.214 0.247 0.286 0.330 0.375 0.414 0.444 0.461 0.456 0.382 0.199 0.199 0.000 
0.000 0.000 0.000 0.245 0.331 0.323 0.301 0.269 0.231 0.194 0.162 0.136 0.115 0.098 0.084 0.073 0.064 0.056 0.050 0.045 0.041 0.038 0.035 0.033 0.031 0.029 0.028 0.027 0.026 0.026 0.025 0.025 0.025 0.024 0.024 0.024 0.024 0.024 0.024 0.024 0.024 0.025 0.025 0.025 0.026 0.026 0.027 0.028 0.029 0.030 0.032 0.033 0.035 0.036 0.037 0.038 0.039 0.040 0.041 0.042 0.043 0.044 0.044 0.045 0.045 0.046 0.046 0.046 0.047 0.047 0.047 0.047 0.048 0.048 0.048 0.048 0.048 0.048 0.048 0.048 0.048 0.048 0.048 0.048 0.048 0.048 0.048 0.048 0.047 0.047 0.047 0.047 0.047 0.046 0.046 0.045 0.045 0.044 0.044 0.043 0.042 0.041 0.040 0.039 0.038 0.036 0.035 0.033 0.032 0.031 0.030 0.029 0.028 0.028 0.027 0.026 0.026 0.026 0.025 0.025 0.025 0.025 0.025 0.025 0.025 0.025 0.025 0.025 0.025 0.025 0.025 0.025 0.025 0.026 0.026 0.027 0.027 0.028 0.029 0.031 0.032 0.034 0.036 0.038 0.041 0.045 0.049 0.054 0.059 0.066 0.074 0.083 0.095 0.108 0.124 0.143 0.165 0.192 0.222 0.248 0.267 0.275 0.271 0.242 0.143 0.000 0.000 0.000 
0.000 0.000 0.000 0.052 0.145 0.168 0.169 0.159 0.139 0.117 0.097 0.081 0.069 0.058 0.050 0.043 0.038 0.033 0.030 0.027 0.024 0.022 0.021 0.019 0.018 0.017 0.017 0.016 0.016 0.015 0.015 0.015 0.015 0.015 0.014 0.014 0.014 0.014 0.014 0.014 0.015 0.015 0.015 0.015 0.015 0.016 0.016 0.017 0.017 0.018 0.019 0.020 0.020 0.021 0.022 0.023 0.023 0.024 0.025 0.025 0.025 0.026 0.026 0.027 0.027 0.027 0.027 0.028 0.028 0.028 0.028 0.028 0.028 0.028 0.028 0.028 0.028 0.028 0.028 0.028 0.028 0.028 0.028 0.028 0.028 0.028 0.028 0.028 0.028 0.028 0.028 0.028 0.028 0.027 0.027 0.027 0.027 0.026 0.026 0.025 0.025 0.024 0.024 0.023 0.022 0.022 0.021 0.020 0.019 0.018 0.018 0.017 0.017 0.016 0.016 0.016 0.015 0.015 0.015 0.015 0.015 0.015 0.015 0.015 0.015 0.015 0.015 0.015 0.015 0.015 0.015 0.015 0.015 0.015 0.016 0.016 0.016 0.017 0.017 0.018 0.019 0.020 0.021 0.023 0.024 0.026 0.029 0.032 0.035 0.039 0.044 0.050 0.056 0.064 0.074 0.085 0.099 0.115 0.133 0.147 0.154 0.155 0.149 0.124 0.061 0.000 0.000 0.000 
0.000 0.000 0.000 0.016 0.059 0.076 0.079 0.077 0.069 0.058 0.048 0.040 0.034 0.029 0.025 0.021 0.019 0.016 0.015 0.013 0.012 0.011 0.010 0.010 0.009 0.009 0.008 0.008 0.008 0.007 0.007 0.007 0.007 0.007 0.007 0.007 0.007 0.007 0.007 0.007 0.007 0.007 0.007 0.007 0.008 0.008 0.008 0.008 0.008 0.009 0.009 0.010 0.010 0.010 0.011 0.011 0.011 0.012 0.012 0.012 0.012 0.013 0.013 0.013 0.013 0.013 0.013 0.014 0.014 0.014 0.014 0.014 0.014 0.014 0.014 0.014 0.014 0.014 0.014 0.014 0.014 0.014 0.014 0.014 0.014 0.014 0.014 0.014 0.014 0.014 0.014 0.014 0.014 0.013 0.013 0.013 0.013 0.013 0.013 0.012 0.012 0.012 0.012 0.011 0.011 0.011 0.010 0.010 0.009 0.009 0.009 0.008 0.008 0.008 0.008 0.008 0.008 0.007 0.007 0.007 0.007 0.007 0.007 0.007 0.007 0.007 0.007 0.007 0.007 0.007 0.007 0.007 0.007 0.008 0.008 0.008 0.008 0.008 0.009 0.009 0.009 0.010 0.010 0.011 0.012 0.013 0.014 0.016 0.017 0.019 0.022 0.024 0.028 0.031 0.036 0.042 0.049 0.057 0.066 0.072 0.074 0.074 0.070 0.056 0.025 0.000 0.000 0.000 
0.000 0.000 0.000 0.004 0.018 0.024 0.025 0.025 0.023 0.019 0.015 0.013 0.011 0.009 0.008 0.007 0.006 0.005 0.005 0.004 0.004 0.004 0.003 0.003 0.003 0.003 0.003 0.003 0.002 0.002 0.002 0.002 0.002 0.002 0.002 0.002 0.002 0.002 0.002 0.002 0.002 0.002 0.002 0.002 0.002 0.002 0.003 0.003 0.003 0.003 0.003 0.003 0.003 0.003 0.003 0.004 0.004 0.004 0.004 0.004 0.004 0.004 0.004 0.004 0.004 0.004 0.004 0.004 0.004 0.004 0.004 0.004 0.004 0.004 0.004 0.004 0.004 0.004 0.004 0.004 0.004 0.004 0.004 0.004 0.004 0.004 0.004 0.004 0.004 0.004 0.004 0.004 0.004 0.004 0.004 0.004 0.004 0.004 0.004 0.004 0.004 0.004 0.004 0.004 0.004 0.003 0.003 0.003 0.003 0.003 0.003 0.003 0.003 0.003 0.003 0.002 0.002 0.002 0.002 0.002 0.002 0.002 0.002 0.002 0.002 0.002 0.002 0.002 0.002 0.002 0.002 0.002 0.002 0.002 0.002 0.003 0.003 0.003 0.003 0.003 0.003 0.003 0.003 0.004 0.004 0.004 0.005 0.005 0.006 0.006 0.007 0.008 0.009 0.010 0.012 0.013 0.016 0.018 0.021 0.023 0.024 0.023 0.022 0.017 0.007 0.000 0.000 0.000 
0.000 0.000 0.000 0.000 0.000 0.000 0.000 0.000 0.000 0.000 0.000 0.000 0.000 0.000 0.000 0.000 0.000 0.000 0.000 0.000 0.000 0.000 0.000 0.000 0.000 0.000 0.000 0.000 0.000 0.000 0.000 0.000 0.000 0.000 0.000 0.000 0.000 0.000 0.000 0.000 0.000 0.000 0.000 0.000 0.000 0.000 0.000 0.000 0.000 0.000 0.000 0.000 0.000 0.000 0.000 0.000 0.000 0.000 0.000 0.000 0.000 0.000 0.000 0.000 0.000 0.000 0.000 0.000 0.000 0.000 0.000 0.000 0.000 0.000 0.000 0.000 0.000 0.000 0.000 0.000 0.000 0.000 0.000 0.000 0.000 0.000 0.000 0.000 0.000 0.000 0.000 0.000 0.000 0.000 0.000 0.000 0.000 0.000 0.000 0.000 0.000 0.000 0.000 0.000 0.000 0.000 0.000 0.000 0.000 0.000 0.000 0.000 0.000 0.000 0.000 0.000 0.000 0.000 0.000 0.000 0.000 0.000 0.000 0.000 0.000 0.000 0.000 0.000 0.000 0.000 0.000 0.000 0.000 0.000 0.000 0.000 0.000 0.000 0.000 0.000 0.000 0.000 0.000 0.000 0.000 0.000 0.000 0.000 0.000 0.000 0.000 0.000 0.000 0.000 0.000 0.000 0.000 0.000 0.000 0.000 0.000 0.000 0.000 0.000 0.000 0.000 0.000 0.000 
0.000 0.089 0.089 0.077 0.065 0.049 0.049 0.029 0.010 0.010 0.001 0.003 0.005 0.005 0.005 0.005 0.005 0.005 0.004 0.002 0.002 0.001 0.000 0.001 0.001 0.001 0.001 0.001 0.001 0.001 0.001 0.001 0.001 0.001 0.001 0.001 0.001 0.001 0.001 0.001 0.000 0.000 0.000 0.001 0.004 0.008 0.008 0.021 0.046 0.046 0.070 0.087 0.098 0.098 0.108 0.116 0.122 0.122 0.127 0.122 0.122 0.106 0.089 0.081 0.081 0.081 0.080 0.079 0.079 0.078 0.077 0.077 0.076 0.077 0.077 0.077 0.077 0.076 0.074 0.074 0.073 0.071 0.071 0.069 0.069 0.073 0.073 0.076 0.062 0.031 0.031 0.001 0.000 0.000 0.007 0.022 0.025 0.025 0.018 0.011 0.017 0.017 0.035 0.053 0.053 0.059 0.055 0.051 0.051 0.046 0.039 0.033 0.033 0.025 0.015 0.015 0.006 0.001 0.002 0.002 0.002 0.002 0.002 0.002 0.001 0.001 0.001 0.001 0.001 0.001 0.001 0.001 0.000 0.000 0.001 0.003 0.004 0.004 0.007 0.012 0.016 0.016 0.018 0.017 0.017 0.016 0.015 0.014 0.014 0.013 0.011 0.009 0.009 0.007 0.005 0.005 0.003 0.002 0.000 0.000 0.000 0.000 0.000 0.000 0.007 0.014 0.014 0.000 
0.000 0.000 0.000 0.000 0.000 0.000 0.000 0.000 0.000 0.000 0.000 0.000 0.000 0.000 0.000 0.000 0.000 0.000 0.000 0.000 0.000 0.000 0.000 0.000 0.000 0.000 0.000 0.000 0.000 0.000 0.000 0.000 0.000 0.000 0.000 0.000 0.000 0.000 0.000 0.000 0.000 0.000 0.000 0.000 0.000 0.000 0.000 0.000 0.000 0.000 0.000 0.000 0.000 0.000 0.000 0.000 0.000 0.000 0.000 0.000 0.000 0.000 0.000 0.000 0.000 0.000 0.000 0.000 0.000 0.000 0.000 0.000 0.000 0.000 0.000 0.000 0.000 0.000 0.000 0.000 0.000 0.000 0.000 0.000 0.000 0.000 0.000 0.000 0.000 0.000 0.000 0.000 0.000 0.000 0.000 0.000 0.000 0.000 0.000 0.000 0.000 0.000 0.000 0.000 0.000 0.000 0.000 0.000 0.000 0.000 0.000 0.000 0.000 0.000 0.000 0.000 0.000 0.000 0.000 0.000 0.000 0.000 0.000 0.000 0.000 0.000 0.000 0.000 0.000 0.000 0.000 0.000 0.000 0.000 0.000 0.000 0.000 0.000 0.000 0.000 0.000 0.000 0.000 0.000 0.000 0.000 0.000 0.000 0.000 0.000 0.000 0.000 0.000 0.000 0.000 0.000 0.000 0.000 0.000 0.000 0.000 0.000 0.000 0.000 0.000 0.000 0.000 0.000 
