ncols 168
nrows 121
xllcenter 640304.69
yllcenter 1081277.12
cellsize 46.59
NODATA_value -9999.000
0.000 0.645 0.645 0.482 0.319 0.194 0.194 0.107 0.020 0.020 0.097 0.338 0.578 0.578 0.683 0.650 0.618 0.618 0.606 0.615 0.615 0.623 0.627 0.625 0.625 0.624 0.627 0.636 0.636 0.644 0.642 0.642 0.630 0.618 0.669 0.669 0.782 0.895 0.955 0.955 1.032 1.060 1.060 1.060 1.060 1.060 1.060 1.060 1.060 1.060 1.031 0.960 0.790 0.790 0.619 0.511 0.530 0.530 0.685 0.856 0.856 0.979 0.265 0.468 0.468 1.058 1.048 0.949 0.949 0.825 0.701 0.701 0.658 0.702 0.826 0.826 0.950 0.535 0.173 0.173 0.917 1.060 1.060 1.060 1.060 1.060 1.060 1.064 1.075 1.121 1.121 1.168 1.186 1.186 1.125 0.933 0.717 0.717 0.500 0.541 0.339 0.339 0.102 0.836 0.836 0.939 0.783 0.613 0.613 0.503 0.521 0.692 0.692 0.862 1.011 1.011 1.138 1.231 0.601 0.601 0.296 1.226 1.242 1.242 1.149 1.060 1.060 1.060 1.060 1.060 1.060 1.060 1.060 1.060 1.060 1.060 1.060 1.060 1.060 1.060 1.060 1.060 1.060 1.060 1.060 1.060 1.060 1.060 1.060 1.060 1.060 1.060 1.060 0.985 0.241 0.241 0.504 1.035 0.935 0.935 0.777 0.606 0.436 0.436 0.135 0.000 0.000 0.000 
0.000 0.397 0.397 0.397 0.296 0.018 0.018 0.000 0.000 0.000 0.024 0.303 0.397 0.397 0.397 0.397 0.397 0.397 0.397 0.397 0.397 0.397 0.397 0.397 0.397 0.397 0.397 0.397 0.397 0.397 0.397 0.397 0.397 0.397 0.481 0.481 0.614 0.784 0.955 0.955 1.032 1.061 1.061 1.061 1.061 1.054 1.054 1.036 1.033 1.033 1.012 0.958 0.784 0.784 0.609 0.498 0.519 0.519 0.678 0.853 0.853 0.986 0.311 0.501 0.501 1.060 1.047 0.944 0.944 0.815 0.686 0.686 0.644 0.691 0.821 0.821 0.950 0.580 0.251 0.251 0.931 1.064 1.064 1.064 1.064 1.064 1.064 1.068 1.081 1.131 1.131 1.181 1.199 1.199 1.127 0.921 0.684 0.684 0.439 0.472 0.334 0.334 0.188 0.856 0.856 0.930 0.757 0.571 0.571 0.460 0.485 0.671 0.671 0.857 1.018 1.018 1.156 1.258 0.760 0.760 0.516 1.272 1.263 1.263 1.162 1.067 1.067 1.067 1.067 1.067 1.067 1.067 1.067 1.067 1.068 1.068 1.068 1.068 1.068 1.068 1.068 1.068 1.068 1.068 1.068 1.068 1.068 1.069 1.069 1.069 1.069 1.069 1.069 1.013 0.445 0.445 0.644 1.038 0.914 0.914 0.730 0.531 0.328 0.328 0.101 0.000 0.000 0.000 
0.000 0.234 0.234 0.233 0.174 0.011 0.011 0.000 0.000 0.000 0.013 0.164 0.220 0.220 0.225 0.224 0.223 0.223 0.222 0.221 0.221 0.220 0.219 0.218 0.218 0.217 0.216 0.212 0.212 0.202 0.200 0.200 0.203 0.211 0.339 0.339 0.521 0.744 0.968 0.968 1.056 1.080 1.080 1.080 1.080 0.900 0.900 0.500 0.497 0.497 0.687 0.918 0.691 0.691 0.464 0.330 0.397 0.397 0.608 0.835 0.835 1.038 0.730 0.820 0.820 1.075 1.045 0.909 0.909 0.741 0.573 0.573 0.543 0.618 0.786 0.786 0.954 0.845 0.718 0.718 1.023 1.082 1.082 1.083 1.083 1.083 1.083 1.091 1.112 1.176 1.176 1.240 1.257 1.257 1.136 0.866 0.544 0.544 0.191 0.199 0.308 0.308 0.525 0.939 0.939 0.896 0.663 0.424 0.424 0.312 0.363 0.602 0.602 0.841 1.044 1.044 1.214 1.345 1.240 1.240 1.186 1.415 1.324 1.324 1.199 1.086 1.086 1.086 1.086 1.086 1.086 1.086 1.086 1.086 1.086 1.086 1.087 1.087 1.087 1.087 1.087 1.087 1.087 1.087 1.087 1.087 1.087 1.087 1.087 1.087 1.088 1.088 1.088 1.069 0.877 0.877 0.945 1.045 0.869 0.869 0.633 0.377 0.112 0.112 0.033 0.000 0.000 0.000 
0.000 0.046 0.046 0.045 0.033 0.002 0.002 0.000 0.000 0.000 0.001 0.011 0.025 0.025 0.037 0.036 0.035 0.035 0.034 0.033 0.033 0.032 0.031 0.030 0.030 0.029 0.028 0.022 0.022 0.003 0.000 0.000 0.007 0.025 0.199 0.199 0.432 0.708 0.984 0.984 1.083 1.102 1.102 1.103 1.104 0.775 0.775 0.045 0.049 0.049 0.420 0.893 0.623 0.623 0.353 0.204 0.314 0.314 0.568 0.839 0.839 1.096 1.107 1.112 1.112 1.103 1.058 0.898 0.898 0.704 0.510 0.510 0.495 0.593 0.788 0.788 0.983 1.082 1.118 1.118 1.118 1.119 1.119 1.120 1.120 1.121 1.121 1.132 1.160 1.232 1.232 1.305 1.316 1.316 1.146 0.823 0.438 0.438 0.009 0.000 0.275 0.275 0.733 0.944 0.944 0.821 0.559 0.297 0.297 0.203 0.286 0.562 0.562 0.838 1.057 1.057 1.226 1.350 1.474 1.474 1.524 1.412 1.273 1.273 1.145 1.038 1.038 1.066 1.095 1.122 1.122 1.136 1.140 1.140 1.077 0.885 1.042 1.042 1.142 1.143 1.144 1.144 1.144 1.145 1.145 1.145 1.146 1.146 1.146 1.147 1.148 1.148 1.148 1.149 1.149 1.149 1.150 1.101 0.900 0.900 0.646 0.352 0.010 0.010 0.116 0.171 0.171 0.000 
0.000 0.014 0.014 0.014 0.011 0.001 0.001 0.000 0.000 0.000 0.000 0.000 0.006 0.006 0.014 0.013 0.013 0.013 0.013 0.013 0.013 0.013 0.013 0.013 0.013 0.013 0.013 0.011 0.011 0.001 0.000 0.000 0.004 0.012 0.228 0.228 0.496 0.802 1.102 1.102 1.199 1.208 1.208 1.209 1.210 1.054 1.054 0.706 0.709 0.709 0.854 1.017 0.792 0.792 0.568 0.452 0.570 0.570 0.784 1.004 1.004 1.210 1.215 1.218 1.218 1.209 1.162 1.027 1.027 0.866 0.706 0.706 0.711 0.802 0.964 0.964 1.126 1.201 1.224 1.224 1.224 1.225 1.225 1.226 1.226 1.227 1.227 1.238 1.264 1.324 1.324 1.385 1.376 1.376 1.159 0.813 0.424 0.424 0.010 0.000 0.230 0.230 0.612 0.759 0.759 0.650 0.433 0.217 0.217 0.184 0.304 0.584 0.584 0.864 1.048 1.048 1.152 1.202 1.250 1.250 1.251 1.145 1.028 1.028 0.936 0.880 0.880 0.985 1.090 1.185 1.185 1.234 1.246 1.246 1.028 0.372 0.909 0.909 1.248 1.249 1.250 1.250 1.250 1.251 1.251 1.251 1.252 1.252 1.252 1.253 1.254 1.254 1.254 1.255 1.255 1.255 1.256 1.207 1.002 1.002 0.764 0.445 0.014 0.014 0.334 0.493 0.493 0.000 
0.000 0.001 0.001 0.001 0.001 0.000 0.000 0.000 0.000 0.000 0.000 0.000 0.000 0.000 0.001 0.000 0.000 0.000 0.000 0.000 0.000 0.000 0.000 0.000 0.000 0.000 0.000 0.000 0.000 0.000 0.000 0.000 0.000 0.000 0.258 0.258 0.562 0.898 1.220 1.220 1.314 1.315 1.315 1.316 1.316 1.317 1.317 1.317 1.318 1.318 1.258 1.144 0.966 0.966 0.788 0.705 0.827 0.827 1.000 1.170 1.170 1.323 1.324 1.325 1.325 1.316 1.269 1.161 1.161 1.034 0.908 0.908 0.930 1.012 1.140 1.140 1.267 1.321 1.331 1.331 1.332 1.333 1.333 1.333 1.334 1.334 1.334 1.346 1.369 1.416 1.416 1.463 1.434 1.434 1.171 0.804 0.410 0.410 0.011 0.000 0.168 0.168 0.446 0.532 0.532 0.448 0.291 0.136 0.136 0.142 0.295 0.607 0.607 0.890 1.033 1.033 1.062 1.035 0.963 0.963 0.891 0.863 0.780 0.780 0.728 0.729 0.729 0.912 1.096 1.261 1.261 1.336 1.355 1.355 1.117 0.403 0.988 0.988 1.357 1.358 1.359 1.359 1.359 1.360 1.360 1.360 1.361 1.362 1.362 1.362 1.363 1.363 1.363 1.364 1.365 1.365 1.365 1.317 1.115 1.115 0.895 0.611 0.236 0.236 0.551 0.707 0.707 0.000 
0.000 0.000 0.000 0.000 0.000 0.000 0.000 0.000 0.000 0.000 0.000 0.000 0.000 0.000 0.000 0.000 0.000 0.000 0.000 0.000 0.000 0.000 0.000 0.000 0.000 0.000 0.000 0.000 0.000 0.000 0.000 0.000 0.000 0.000 0.306 0.306 0.649 1.009 1.332 1.332 1.427 1.427 1.427 1.428 1.429 1.429 1.429 1.430 1.431 1.431 1.385 1.300 1.175 1.175 1.050 0.995 1.094 1.094 1.217 1.334 1.334 1.436 1.437 1.437 1.437 1.431 1.394 1.318 1.318 1.229 1.141 1.141 1.165 1.226 1.316 1.316 1.404 1.439 1.444 1.444 1.444 1.445 1.445 1.446 1.446 1.447 1.447 1.456 1.473 1.506 1.506 1.539 1.488 1.488 1.180 0.793 0.396 0.396 0.011 0.000 0.068 0.068 0.179 0.213 0.213 0.178 0.116 0.054 0.054 0.056 0.233 0.635 0.635 0.918 1.008 1.008 0.947 0.838 0.570 0.570 0.389 0.557 0.524 0.524 0.518 0.589 0.589 0.853 1.119 1.354 1.354 1.445 1.468 1.468 1.385 1.134 1.340 1.340 1.470 1.471 1.471 1.471 1.472 1.472 1.472 1.473 1.474 1.474 1.474 1.475 1.475 1.476 1.476 1.477 1.477 1.477 1.477 1.431 1.237 1.237 1.038 0.838 0.639 0.639 0.768 0.833 0.833 0.000 
0.000 0.000 0.000 0.000 0.000 0.000 0.000 0.000 0.000 0.000 0.000 0.000 0.000 0.000 0.000 0.000 0.000 0.000 0.000 0.000 0.000 0.001 0.001 0.001 0.001 0.000 0.000 0.000 0.000 0.000 0.000 0.000 0.000 0.000 0.354 0.354 0.735 1.120 1.441 1.441 1.536 1.535 1.535 1.533 1.533 1.535 1.535 1.537 1.539 1.539 1.509 1.453 1.379 1.379 1.306 1.277 1.349 1.349 1.423 1.490 1.490 1.544 1.545 1.545 1.545 1.541 1.514 1.469 1.469 1.417 1.366 1.366 1.385 1.422 1.471 1.471 1.519 1.539 1.543 1.543 1.547 1.550 1.550 1.552 1.552 1.552 1.552 1.558 1.570 1.589 1.589 1.608 1.539 1.539 1.191 0.790 0.391 0.391 0.012 0.000 0.000 0.000 0.000 0.000 0.000 0.000 0.000 0.000 0.000 0.000 0.192 0.650 0.650 0.926 0.965 0.965 0.815 0.601 0.266 0.266 0.068 0.298 0.295 0.295 0.335 0.473 0.473 0.808 1.145 1.440 1.440 1.536 1.562 1.562 1.566 1.569 1.570 1.570 1.570 1.571 1.571 1.571 1.572 1.572 1.572 1.572 1.573 1.573 1.573 1.574 1.574 1.575 1.575 1.575 1.576 1.576 1.571 1.459 0.996 0.996 0.988 1.009 0.893 0.893 0.919 0.934 0.934 0.000 
0.000 0.034 0.034 0.026 0.015 0.001 0.001 0.000 0.000 0.000 0.000 0.000 0.000 0.000 0.007 0.038 0.055 0.055 0.064 0.068 0.068 0.072 0.069 0.058 0.058 0.014 0.000 0.000 0.000 0.000 0.000 0.000 0.000 0.000 0.403 0.403 0.819 1.221 1.524 1.524 1.603 1.586 1.586 1.569 1.569 1.579 1.579 1.597 1.615 1.615 1.610 1.587 1.553 1.553 1.520 1.508 1.541 1.541 1.575 1.605 1.605 1.630 1.631 1.631 1.631 1.629 1.618 1.598 1.598 1.576 1.554 1.554 1.548 1.548 1.552 1.552 1.561 1.577 1.597 1.597 1.617 1.630 1.630 1.638 1.638 1.639 1.639 1.641 1.646 1.655 1.655 1.663 1.579 1.579 1.205 0.803 0.402 0.402 0.014 0.000 0.000 0.000 0.000 0.000 0.000 0.000 0.000 0.000 0.000 0.000 0.190 0.646 0.646 0.902 0.891 0.891 0.657 0.301 0.099 0.099 0.025 0.108 0.107 0.107 0.188 0.391 0.391 0.783 1.175 1.515 1.515 1.605 1.635 1.635 1.645 1.654 1.656 1.656 1.656 1.657 1.657 1.657 1.658 1.658 1.658 1.658 1.659 1.659 1.659 1.660 1.660 1.661 1.661 1.661 1.662 1.662 1.650 1.418 0.460 0.460 0.781 1.137 1.032 1.032 1.019 1.015 1.015 0.000 
0.000 0.071 0.071 0.054 0.030 0.002 0.002 0.000 0.000 0.000 0.000 0.000 0.000 0.000 0.014 0.078 0.113 0.113 0.133 0.142 0.142 0.151 0.146 0.122 0.122 0.031 0.000 0.000 0.000 0.000 0.000 0.000 0.000 0.000 0.450 0.450 0.899 1.316 1.596 1.596 1.654 1.614 1.614 1.574 1.575 1.596 1.596 1.636 1.676 1.676 1.696 1.700 1.700 1.700 1.700 1.700 1.700 1.700 1.700 1.700 1.700 1.700 1.700 1.700 1.700 1.700 1.700 1.700 1.700 1.700 1.699 1.699 1.658 1.612 1.565 1.565 1.538 1.558 1.606 1.606 1.654 1.684 1.684 1.700 1.700 1.700 1.700 1.700 1.700 1.700 1.700 1.697 1.605 1.605 1.232 0.851 0.475 0.475 0.108 0.068 0.035 0.035 0.000 0.000 0.000 0.000 0.000 0.000 0.000 0.000 0.175 0.598 0.598 0.813 0.772 0.772 0.511 0.113 0.000 0.000 0.000 0.000 0.000 0.000 0.107 0.351 0.351 0.761 1.171 1.525 1.525 1.609 1.650 1.650 1.675 1.698 1.700 1.700 1.700 1.700 1.700 1.700 1.700 1.700 1.700 1.700 1.700 1.700 1.700 1.700 1.700 1.700 1.700 1.700 1.700 1.700 1.681 1.460 0.584 0.584 0.867 1.183 1.088 1.088 1.059 1.047 1.047 0.000 
0.000 0.210 0.210 0.159 0.089 0.017 0.017 0.004 0.000 0.000 0.001 0.012 0.069 0.069 0.160 0.276 0.356 0.356 0.410 0.433 0.433 0.456 0.432 0.344 0.344 0.086 0.000 0.000 0.000 0.000 0.000 0.000 0.000 0.000 0.478 0.478 0.941 1.352 1.568 1.568 1.559 1.453 1.453 1.345 1.365 1.435 1.435 1.542 1.650 1.650 1.698 1.700 1.700 1.700 1.700 1.700 1.700 1.700 1.700 1.700 1.700 1.700 1.700 1.700 1.700 1.700 1.700 1.700 1.700 1.698 1.693 1.693 1.590 1.476 1.364 1.364 1.317 1.371 1.486 1.486 1.602 1.667 1.667 1.700 1.700 1.700 1.700 1.700 1.700 1.700 1.700 1.687 1.599 1.599 1.287 0.972 0.669 0.669 0.385 0.268 0.136 0.136 0.000 0.000 0.000 0.000 0.000 0.000 0.000 0.000 0.140 0.480 0.480 0.625 0.583 0.583 0.382 0.085 0.000 0.000 0.000 0.000 0.000 0.000 0.110 0.363 0.363 0.744 1.125 1.456 1.456 1.538 1.600 1.600 1.652 1.695 1.700 1.700 1.700 1.700 1.700 1.700 1.700 1.700 1.700 1.700 1.700 1.700 1.700 1.700 1.700 1.700 1.700 1.700 1.700 1.700 1.674 1.561 1.199 1.199 1.171 1.172 1.085 1.085 1.056 1.044 1.044 0.000 
0.000 0.354 0.354 0.266 0.149 0.032 0.032 0.008 0.000 0.000 0.001 0.024 0.138 0.138 0.305 0.473 0.600 0.600 0.687 0.725 0.725 0.762 0.717 0.567 0.567 0.156 0.010 0.000 0.000 0.000 0.000 0.000 0.000 0.000 0.507 0.507 0.984 1.387 1.537 1.537 1.462 1.288 1.288 1.113 1.155 1.277 1.277 1.452 1.624 1.624 1.699 1.685 1.577 1.577 1.622 1.700 1.700 1.700 1.700 1.700 1.700 1.700 1.700 1.700 1.700 1.700 1.700 1.700 1.700 1.695 1.681 1.681 1.516 1.333 1.156 1.156 1.099 1.191 1.374 1.374 1.557 1.654 1.654 1.700 1.700 1.700 1.700 1.700 1.700 1.700 1.700 1.680 1.599 1.599 1.351 1.103 0.862 0.862 0.634 0.444 0.223 0.223 0.000 0.000 0.000 0.000 0.000 0.000 0.000 0.000 0.095 0.325 0.325 0.430 0.394 0.394 0.242 0.054 0.000 0.000 0.000 0.000 0.000 0.000 0.112 0.370 0.370 0.722 1.071 1.377 1.377 1.469 1.555 1.555 1.632 1.693 1.700 1.700 1.700 1.700 1.700 1.700 1.700 1.700 1.700 1.700 1.700 1.700 1.700 1.700 1.700 1.700 1.700 1.700 1.700 1.700 1.667 1.593 1.439 1.439 1.285 1.160 1.082 1.082 1.054 1.042 1.042 0.000 
0.000 0.479 0.479 0.355 0.190 0.026 0.026 0.004 0.000 0.000 0.003 0.056 0.224 0.224 0.458 0.693 0.858 0.858 0.969 1.021 1.021 1.074 0.995 0.775 0.775 0.390 0.140 0.000 0.000 0.000 0.000 0.000 0.000 0.000 0.535 0.535 1.027 1.422 1.488 1.488 1.342 1.100 1.100 0.857 0.950 1.142 1.142 1.384 1.604 1.604 1.699 1.600 0.888 0.888 1.195 1.700 1.700 1.700 1.700 1.700 1.700 1.700 1.700 1.700 1.700 1.700 1.700 1.700 1.700 1.688 1.649 1.649 1.421 1.171 0.930 0.930 0.890 1.030 1.281 1.281 1.531 1.649 1.649 1.700 1.700 1.700 1.700 1.700 1.700 1.700 1.700 1.678 1.612 1.612 1.431 1.250 1.054 1.054 0.831 0.577 0.287 0.287 0.000 0.000 0.000 0.000 0.000 0.000 0.000 0.000 0.034 0.118 0.118 0.228 0.206 0.206 0.086 0.019 0.000 0.000 0.000 0.000 0.000 0.000 0.112 0.371 0.371 0.694 1.009 1.287 1.287 1.402 1.516 1.516 1.617 1.692 1.700 1.700 1.700 1.700 1.700 1.700 1.700 1.700 1.700 1.700 1.700 1.700 1.700 1.700 1.700 1.700 1.700 1.700 1.700 1.700 1.660 1.578 1.424 1.424 1.270 1.148 1.079 1.079 1.051 1.039 1.039 0.000 
0.000 0.603 0.603 0.443 0.231 0.020 0.020 0.000 0.000 0.000 0.004 0.087 0.306 0.306 0.604 0.902 1.101 1.101 1.236 1.303 1.303 1.371 1.261 0.970 0.970 0.605 0.258 0.000 0.000 0.000 0.000 0.000 0.000 0.000 0.523 0.523 1.023 1.435 1.426 1.426 1.223 0.932 0.932 0.642 0.782 1.036 1.036 1.334 1.589 1.589 1.700 1.551 0.478 0.478 0.941 1.700 1.700 1.700 1.700 1.700 1.700 1.700 1.700 1.700 1.700 1.700 1.700 1.700 1.700 1.679 1.614 1.614 1.333 1.026 0.731 0.731 0.718 0.903 1.211 1.211 1.518 1.649 1.649 1.700 1.700 1.700 1.700 1.700 1.700 1.700 1.700 1.677 1.621 1.621 1.491 1.362 1.196 1.196 0.969 0.666 0.328 0.328 0.000 0.000 0.000 0.015 0.026 0.004 0.004 0.000 0.000 0.000 0.000 0.089 0.079 0.079 0.000 0.000 0.000 0.000 0.000 0.000 0.000 0.000 0.115 0.380 0.380 0.681 0.969 1.225 1.225 1.360 1.494 1.494 1.612 1.691 1.700 1.700 1.700 1.700 1.700 1.700 1.700 1.700 1.700 1.700 1.700 1.700 1.700 1.700 1.700 1.700 1.700 1.677 1.315 1.315 1.367 1.563 1.409 1.409 1.255 1.136 1.076 1.076 1.049 1.036 1.036 0.000 
0.000 0.640 0.640 0.464 0.236 0.021 0.021 0.000 0.000 0.000 0.005 0.107 0.328 0.328 0.621 0.913 1.121 1.121 1.278 1.388 1.388 1.499 1.379 1.027 1.027 0.624 0.262 0.000 0.000 0.000 0.000 0.000 0.000 0.000 0.239 0.239 0.716 1.320 1.284 1.284 1.108 0.867 0.867 0.628 0.804 1.077 1.077 1.369 1.599 1.599 1.700 1.636 1.167 1.167 1.368 1.700 1.700 1.700 1.700 1.700 1.700 1.700 1.700 1.700 1.700 1.700 1.700 1.700 1.700 1.670 1.573 1.573 1.262 0.923 0.600 0.600 0.635 0.857 1.195 1.195 1.534 1.660 1.660 1.700 1.700 1.700 1.700 1.700 1.700 1.700 1.700 1.677 1.626 1.626 1.519 1.413 1.254 1.254 1.009 0.683 0.333 0.333 0.000 0.000 0.000 0.052 0.091 0.014 0.014 0.000 0.000 0.000 0.000 0.031 0.028 0.028 0.000 0.000 0.000 0.000 0.000 0.000 0.000 0.000 0.120 0.399 0.399 0.684 0.953 1.193 1.193 1.340 1.488 1.488 1.614 1.691 1.700 1.700 1.700 1.700 1.700 1.700 1.700 1.700 1.700 1.700 1.700 1.700 1.700 1.700 1.700 1.700 1.700 1.642 0.677 0.677 0.883 1.548 1.394 1.394 1.240 1.124 1.073 1.073 1.046 1.034 1.034 0.000 
0.000 0.675 0.675 0.484 0.240 0.022 0.022 0.000 0.000 0.000 0.006 0.124 0.345 0.345 0.627 0.908 1.123 1.123 1.303 1.458 1.458 1.610 1.483 1.074 1.074 0.637 0.263 0.000 0.000 0.000 0.000 0.000 0.003 0.012 0.026 0.026 0.463 1.181 1.137 1.137 1.004 0.831 0.831 0.663 0.864 1.139 1.139 1.414 1.613 1.613 1.700 1.700 1.700 1.700 1.700 1.700 1.700 1.700 1.700 1.700 1.700 1.700 1.700 1.700 1.700 1.700 1.700 1.700 1.700 1.661 1.534 1.534 1.201 0.842 0.499 0.499 0.584 0.837 1.197 1.197 1.556 1.673 1.673 1.700 1.700 1.700 1.700 1.700 1.700 1.700 1.700 1.673 1.620 1.620 1.521 1.423 1.265 1.265 1.004 0.669 0.322 0.322 0.000 0.000 0.000 0.105 0.210 0.150 0.150 0.141 0.143 0.144 0.144 0.125 0.071 0.071 0.000 0.000 0.000 0.000 0.000 0.000 0.000 0.000 0.127 0.427 0.427 0.702 0.957 1.185 1.185 1.339 1.493 1.493 1.622 1.692 1.700 1.700 1.700 1.700 1.700 1.700 1.700 1.700 1.700 1.700 1.700 1.700 1.700 1.700 1.700 1.700 1.700 1.653 0.835 0.835 0.995 1.533 1.379 1.379 1.225 1.111 1.070 1.070 1.044 1.031 1.031 0.000 
0.000 0.650 0.650 0.459 0.220 0.021 0.021 0.000 0.000 0.000 0.005 0.106 0.278 0.278 0.493 0.707 0.931 0.931 1.157 1.379 1.379 1.571 1.455 1.031 1.031 0.595 0.240 0.000 0.000 0.000 0.000 0.000 0.025 0.092 0.199 0.199 0.498 0.920 0.958 0.958 0.953 0.931 0.931 0.915 1.085 1.293 1.293 1.500 1.639 1.639 1.700 1.700 1.700 1.700 1.700 1.700 1.700 1.700 1.700 1.700 1.700 1.700 1.700 1.700 1.700 1.700 1.700 1.700 1.700 1.653 1.502 1.502 1.166 0.806 0.465 0.465 0.600 0.872 1.232 1.232 1.591 1.689 1.689 1.700 1.700 1.700 1.700 1.700 1.700 1.700 1.700 1.664 1.597 1.597 1.484 1.371 1.201 1.201 0.930 0.609 0.288 0.288 0.000 0.000 0.000 0.181 0.398 0.448 0.448 0.459 0.461 0.462 0.462 0.396 0.225 0.225 0.000 0.000 0.000 0.000 0.000 0.000 0.000 0.000 0.138 0.465 0.465 0.735 0.982 1.200 1.200 1.354 1.508 1.508 1.634 1.693 1.700 1.700 1.700 1.700 1.700 1.700 1.700 1.700 1.700 1.700 1.700 1.700 1.700 1.700 1.700 1.700 1.700 1.688 1.473 1.473 1.465 1.518 1.364 1.364 1.210 1.099 1.067 1.067 1.041 1.029 1.029 0.000 
0.000 0.624 0.624 0.433 0.201 0.020 0.020 0.000 0.000 0.000 0.004 0.086 0.209 0.209 0.356 0.502 0.740 0.740 1.014 1.304 1.304 1.530 1.425 0.988 0.988 0.552 0.217 0.000 0.000 0.000 0.000 0.000 0.040 0.147 0.316 0.316 0.487 0.655 0.787 0.787 0.914 1.039 1.039 1.163 1.301 1.441 1.441 1.581 1.664 1.664 1.700 1.700 1.700 1.700 1.700 1.700 1.700 1.700 1.700 1.700 1.700 1.700 1.700 1.700 1.700 1.700 1.700 1.700 1.700 1.646 1.469 1.469 1.131 0.771 0.430 0.430 0.616 0.907 1.265 1.265 1.616 1.700 1.700 1.700 1.700 1.700 1.700 1.700 1.700 1.700 1.700 1.655 1.571 1.571 1.444 1.317 1.136 1.136 0.859 0.552 0.262 0.262 0.022 0.082 0.082 0.315 0.585 0.702 0.702 0.725 0.726 0.727 0.727 0.613 0.382 0.382 0.087 0.021 0.000 0.000 0.000 0.000 0.000 0.000 0.148 0.502 0.502 0.768 1.006 1.215 1.215 1.370 1.524 1.524 1.646 1.694 1.700 1.700 1.700 1.700 1.700 1.700 1.700 1.700 1.700 1.700 1.700 1.700 1.700 1.700 1.700 1.700 1.700 1.700 1.700 1.700 1.627 1.503 1.349 1.349 1.199 1.003 0.721 0.721 0.912 1.026 1.026 0.000 
0.000 0.598 0.598 0.408 0.181 0.018 0.018 0.000 0.000 0.000 0.002 0.048 0.116 0.116 0.195 0.274 0.551 0.551 0.894 1.251 1.251 1.485 1.382 0.946 0.946 0.509 0.194 0.000 0.000 0.000 0.000 0.000 0.022 0.080 0.168 0.168 0.260 0.371 0.647 0.647 0.922 1.182 1.182 1.397 1.496 1.568 1.568 1.641 1.682 1.682 1.700 1.700 1.700 1.700 1.700 1.700 1.700 1.700 1.700 1.700 1.700 1.700 1.700 1.700 1.700 1.700 1.700 1.700 1.700 1.639 1.436 1.436 1.095 0.736 0.395 0.395 0.631 0.943 1.296 1.296 1.621 1.700 1.700 1.700 1.700 1.700 1.700 1.700 1.700 1.700 1.700 1.643 1.543 1.543 1.401 1.259 1.069 1.069 0.791 0.497 0.246 0.246 0.072 0.267 0.267 0.521 0.771 0.905 0.905 0.931 0.932 0.934 0.934 0.771 0.540 0.540 0.264 0.063 0.000 0.000 0.000 0.000 0.000 0.000 0.158 0.538 0.538 0.799 1.030 1.231 1.231 1.385 1.539 1.539 1.658 1.695 1.700 1.700 1.700 1.700 1.700 1.700 1.700 1.700 1.700 1.700 1.700 1.700 1.700 1.700 1.700 1.700 1.700 1.700 1.700 1.700 1.621 1.488 1.334 1.334 1.189 0.868 0.211 0.211 0.721 1.023 1.023 0.000 
0.000 0.572 0.572 0.383 0.161 0.016 0.016 0.000 0.000 0.000 0.001 0.014 0.031 0.031 0.051 0.073 0.385 0.385 0.793 1.210 1.210 1.443 1.339 0.903 0.903 0.466 0.170 0.000 0.000 0.000 0.000 0.000 0.006 0.023 0.045 0.045 0.071 0.135 0.538 0.538 0.936 1.303 1.303 1.579 1.633 1.637 1.637 1.640 1.652 1.652 1.665 1.680 1.694 1.694 1.699 1.700 1.700 1.700 1.700 1.700 1.700 1.700 1.700 1.700 1.700 1.700 1.700 1.700 1.700 1.636 1.422 1.422 1.098 0.760 0.438 0.438 0.684 0.974 1.284 1.284 1.558 1.641 1.641 1.662 1.683 1.695 1.695 1.700 1.700 1.700 1.700 1.625 1.495 1.495 1.327 1.158 0.956 0.956 0.695 0.399 0.193 0.193 0.108 0.371 0.371 0.633 0.863 0.988 0.988 1.002 0.989 0.977 0.977 0.792 0.544 0.544 0.260 0.062 0.000 0.000 0.000 0.000 0.000 0.000 0.165 0.564 0.564 0.826 1.049 1.238 1.238 1.385 1.532 1.532 1.645 1.677 1.688 1.688 1.534 1.185 1.550 1.550 1.700 1.700 1.700 1.700 1.700 1.700 1.700 1.700 1.700 1.514 1.514 1.151 1.548 1.548 1.624 1.499 1.362 1.362 1.235 0.973 0.453 0.453 0.822 1.042 1.042 0.000 
0.000 0.546 0.546 0.358 0.141 0.015 0.015 0.000 0.000 0.000 0.000 0.007 0.014 0.014 0.028 0.062 0.390 0.390 0.813 1.241 1.241 1.426 1.297 0.860 0.860 0.424 0.147 0.000 0.000 0.000 0.000 0.000 0.003 0.010 0.020 0.020 0.031 0.084 0.546 0.546 0.979 1.353 1.353 1.588 1.579 1.516 1.516 1.452 1.478 1.478 1.530 1.602 1.673 1.673 1.698 1.700 1.700 1.700 1.700 1.700 1.700 1.700 1.700 1.700 1.700 1.700 1.700 1.700 1.700 1.641 1.445 1.445 1.174 0.893 0.627 0.627 0.804 0.998 1.198 1.198 1.380 1.484 1.484 1.562 1.641 1.681 1.681 1.700 1.700 1.700 1.700 1.597 1.422 1.422 1.211 1.001 0.785 0.785 0.562 0.246 0.094 0.094 0.130 0.384 0.384 0.639 0.854 0.942 0.942 0.929 0.892 0.855 0.855 0.676 0.402 0.402 0.082 0.020 0.000 0.000 0.000 0.000 0.000 0.000 0.170 0.583 0.583 0.848 1.065 1.240 1.240 1.375 1.509 1.509 1.614 1.646 1.667 1.667 1.260 0.334 1.302 1.302 1.700 1.700 1.700 1.700 1.700 1.700 1.700 1.700 1.700 1.233 1.233 0.316 1.317 1.317 1.633 1.523 1.411 1.411 1.306 1.182 1.018 1.018 1.047 1.069 1.069 0.000 
0.000 0.520 0.520 0.333 0.121 0.013 0.013 0.000 0.000 0.000 0.000 0.000 0.000 0.000 0.009 0.057 0.400 0.400 0.836 1.273 1.273 1.410 1.254 0.817 0.817 0.381 0.123 0.000 0.000 0.000 0.000 0.000 0.000 0.000 0.000 0.000 0.000 0.045 0.559 0.559 1.021 1.398 1.398 1.581 1.509 1.378 1.378 1.246 1.298 1.298 1.395 1.526 1.654 1.654 1.697 1.700 1.700 1.700 1.700 1.700 1.700 1.700 1.700 1.700 1.700 1.700 1.700 1.700 1.700 1.650 1.480 1.480 1.265 1.046 0.836 0.836 0.920 1.003 1.088 1.088 1.195 1.193 1.193 1.268 1.587 1.670 1.670 1.700 1.700 1.700 1.700 1.564 1.338 1.338 1.082 0.834 0.612 0.612 0.432 0.146 0.045 0.045 0.146 0.387 0.387 0.627 0.823 0.868 0.868 0.826 0.762 0.698 0.698 0.492 0.246 0.246 0.000 0.000 0.000 0.000 0.000 0.000 0.000 0.000 0.174 0.600 0.600 0.870 1.080 1.237 1.237 1.358 1.479 1.479 1.575 1.613 1.647 1.647 1.319 0.550 1.365 1.365 1.700 1.700 1.700 1.700 1.700 1.700 1.700 1.700 1.700 1.335 1.335 0.618 1.398 1.398 1.645 1.560 1.475 1.475 1.388 1.302 1.219 1.219 0.871 0.679 0.679 0.000 
0.000 0.495 0.495 0.308 0.101 0.011 0.011 0.000 0.000 0.000 0.000 0.000 0.000 0.000 0.014 0.093 0.443 0.443 0.879 1.316 1.316 1.398 1.211 0.775 0.775 0.338 0.099 0.000 0.000 0.000 0.000 0.000 0.000 0.000 0.000 0.000 0.000 0.046 0.591 0.591 1.064 1.423 1.423 1.530 1.389 1.190 1.190 0.991 1.098 1.098 1.259 1.456 1.640 1.640 1.699 1.700 1.700 1.700 1.700 1.700 1.700 1.700 1.700 1.700 1.700 1.700 1.700 1.700 1.700 1.663 1.536 1.536 1.385 1.231 1.080 1.080 1.029 0.977 0.941 0.941 0.997 0.705 0.705 0.688 1.514 1.663 1.663 1.700 1.700 1.700 1.700 1.526 1.241 1.241 0.936 0.658 0.436 0.436 0.304 0.103 0.049 0.049 0.156 0.377 0.377 0.598 0.769 0.767 0.767 0.692 0.599 0.506 0.506 0.248 0.076 0.076 0.000 0.000 0.000 0.000 0.000 0.000 0.000 0.000 0.178 0.617 0.617 0.893 1.093 1.232 1.232 1.338 1.443 1.443 1.531 1.580 1.627 1.627 1.575 1.402 1.614 1.614 1.700 1.700 1.700 1.700 1.700 1.700 1.700 1.700 1.700 1.616 1.616 1.452 1.627 1.627 1.658 1.601 1.545 1.545 1.473 1.386 1.280 1.280 0.543 0.134 0.134 0.000 
0.000 0.469 0.469 0.283 0.081 0.009 0.009 0.000 0.000 0.000 0.000 0.000 0.000 0.000 0.019 0.129 0.485 0.485 0.922 1.358 1.358 1.387 1.172 0.738 0.738 0.304 0.083 0.006 0.006 0.001 0.000 0.000 0.000 0.000 0.000 0.000 0.000 0.047 0.623 0.623 1.107 1.448 1.448 1.477 1.272 1.012 1.012 0.751 0.918 0.918 1.143 1.400 1.628 1.628 1.700 1.700 1.700 1.700 1.700 1.700 1.700 1.700 1.700 1.700 1.700 1.700 1.700 1.700 1.700 1.676 1.595 1.595 1.506 1.405 1.291 1.291 1.113 0.933 0.788 0.788 0.817 0.517 0.517 0.541 1.493 1.661 1.661 1.700 1.700 1.691 1.691 1.482 1.146 1.146 0.800 0.505 0.291 0.291 0.200 0.068 0.052 0.052 0.165 0.370 0.370 0.575 0.723 0.673 0.673 0.566 0.447 0.332 0.332 0.108 0.000 0.000 0.000 0.000 0.000 0.000 0.000 0.000 0.000 0.000 0.179 0.625 0.625 0.900 1.090 1.211 1.211 1.308 1.403 1.403 1.488 1.549 1.611 1.611 1.663 1.700 1.700 1.700 1.700 1.700 1.700 1.700 1.700 1.700 1.700 1.700 1.700 1.700 1.700 1.700 1.696 1.696 1.675 1.645 1.614 1.614 1.548 1.454 1.326 1.326 0.750 0.435 0.435 0.000 
0.000 0.443 0.443 0.257 0.061 0.007 0.007 0.000 0.000 0.000 0.000 0.000 0.000 0.000 0.025 0.165 0.528 0.528 0.965 1.401 1.401 1.383 1.146 0.725 0.725 0.303 0.099 0.033 0.033 0.006 0.000 0.000 0.000 0.000 0.000 0.000 0.000 0.048 0.654 0.654 1.150 1.473 1.473 1.420 1.163 0.856 0.856 0.548 0.787 0.787 1.074 1.375 1.622 1.622 1.700 1.700 1.700 1.700 1.700 1.700 1.700 1.700 1.700 1.700 1.700 1.700 1.700 1.700 1.700 1.691 1.661 1.661 1.628 1.562 1.451 1.451 1.159 0.865 0.625 0.625 0.662 0.733 0.733 0.973 1.543 1.664 1.664 1.700 1.699 1.673 1.673 1.431 1.055 1.055 0.676 0.377 0.178 0.178 0.121 0.041 0.055 0.055 0.173 0.364 0.364 0.556 0.684 0.585 0.585 0.447 0.305 0.172 0.172 0.055 0.000 0.000 0.000 0.000 0.000 0.000 0.000 0.000 0.000 0.000 0.179 0.626 0.626 0.898 1.077 1.180 1.180 1.270 1.360 1.360 1.445 1.521 1.597 1.597 1.659 1.700 1.700 1.700 1.700 1.700 1.700 1.700 1.700 1.700 1.700 1.700 1.700 1.700 1.700 1.700 1.699 1.699 1.695 1.689 1.683 1.683 1.620 1.516 1.368 1.368 1.135 1.014 1.014 0.000 
0.000 0.417 0.417 0.232 0.041 0.005 0.005 0.000 0.000 0.000 0.000 0.000 0.000 0.000 0.029 0.201 0.571 0.571 1.007 1.444 1.444 1.390 1.145 0.752 0.752 0.360 0.167 0.094 0.094 0.017 0.000 0.000 0.000 0.000 0.000 0.000 0.017 0.096 0.698 0.698 1.192 1.504 1.504 1.395 1.117 0.802 0.802 0.492 0.635 0.635 0.951 1.386 1.624 1.624 1.700 1.700 1.700 1.700 1.700 1.700 1.700 1.700 1.700 1.700 1.700 1.700 1.700 1.700 1.700 1.700 1.700 1.700 1.700 1.649 1.530 1.530 1.171 0.811 0.520 0.520 0.585 0.868 0.868 1.227 1.587 1.673 1.673 1.700 1.698 1.655 1.655 1.408 1.036 1.036 0.664 0.380 0.189 0.189 0.126 0.043 0.064 0.064 0.198 0.394 0.394 0.588 0.708 0.567 0.567 0.403 0.243 0.101 0.101 0.031 0.000 0.000 0.000 0.000 0.000 0.000 0.000 0.000 0.000 0.000 0.123 0.430 0.430 0.754 0.966 1.084 1.084 1.196 1.304 1.304 1.406 1.496 1.587 1.587 1.657 1.700 1.700 1.700 1.700 1.700 1.700 1.700 1.700 1.700 1.700 1.700 1.700 1.700 1.700 1.700 1.700 1.700 1.700 1.700 1.700 1.700 1.632 1.520 1.366 1.366 1.212 1.132 1.132 0.000 
0.000 0.391 0.391 0.207 0.020 0.002 0.002 0.000 0.000 0.000 0.000 0.000 0.000 0.000 0.034 0.237 0.613 0.613 1.050 1.487 1.487 1.438 1.235 0.924 0.924 0.615 0.413 0.261 0.261 0.049 0.000 0.000 0.000 0.000 0.000 0.000 0.081 0.270 0.775 0.775 1.235 1.549 1.549 1.442 1.219 0.980 0.980 0.760 0.438 0.438 0.715 1.473 1.645 1.645 1.700 1.700 1.700 1.700 1.700 1.700 1.700 1.700 1.700 1.700 1.700 1.700 1.700 1.700 1.700 1.700 1.700 1.700 1.700 1.639 1.495 1.495 1.135 0.776 0.492 0.492 0.608 0.903 0.903 1.262 1.622 1.686 1.686 1.700 1.698 1.637 1.637 1.415 1.090 1.090 0.766 0.513 0.323 0.323 0.211 0.072 0.077 0.077 0.238 0.453 0.453 0.663 0.787 0.607 0.607 0.419 0.245 0.099 0.099 0.031 0.000 0.000 0.000 0.000 0.000 0.000 0.000 0.000 0.000 0.000 0.033 0.113 0.113 0.524 0.798 0.950 0.950 1.101 1.241 1.241 1.369 1.474 1.579 1.579 1.658 1.700 1.700 1.700 1.700 1.700 1.700 1.700 1.700 1.700 1.700 1.700 1.700 1.700 1.700 1.700 1.700 1.700 1.700 1.700 1.700 1.700 1.624 1.505 1.351 1.351 1.197 1.116 1.116 0.000 
0.000 0.365 0.365 0.184 0.003 0.000 0.000 0.000 0.000 0.000 0.000 0.000 0.000 0.000 0.039 0.272 0.656 0.656 1.093 1.529 1.529 1.491 1.332 1.102 1.102 0.870 0.655 0.422 0.422 0.079 0.000 0.000 0.000 0.000 0.000 0.000 0.130 0.405 0.841 0.841 1.278 1.595 1.595 1.496 1.329 1.162 1.162 1.024 0.517 0.517 0.737 1.551 1.664 1.664 1.700 1.700 1.700 1.700 1.700 1.700 1.700 1.700 1.700 1.700 1.700 1.700 1.700 1.700 1.700 1.700 1.700 1.700 1.700 1.628 1.460 1.460 1.100 0.741 0.463 0.463 0.630 0.938 0.938 1.295 1.645 1.695 1.695 1.565 1.282 1.508 1.508 1.431 1.154 1.154 0.878 0.646 0.447 0.447 0.286 0.098 0.091 0.091 0.282 0.517 0.517 0.732 0.848 0.640 0.640 0.431 0.244 0.097 0.097 0.039 0.009 0.009 0.000 0.000 0.000 0.000 0.000 0.000 0.000 0.000 0.000 0.000 0.000 0.363 0.637 0.827 0.827 1.016 1.186 1.186 1.335 1.455 1.574 1.574 1.660 1.700 1.700 1.700 1.700 1.700 1.700 1.700 1.700 1.700 1.700 1.700 1.700 1.700 1.700 1.700 1.700 1.700 1.700 1.700 1.700 1.700 1.616 1.490 1.336 1.336 1.185 1.107 1.107 0.000 
0.000 0.339 0.339 0.171 0.001 0.000 0.000 0.000 0.000 0.000 0.000 0.000 0.000 0.000 0.043 0.307 0.699 0.699 1.135 1.572 1.572 1.559 1.453 1.305 1.305 1.128 0.883 0.563 0.563 0.107 0.000 0.000 0.000 0.000 0.000 0.000 0.144 0.447 0.884 0.884 1.320 1.644 1.644 1.566 1.457 1.356 1.356 1.280 1.124 1.124 1.255 1.614 1.679 1.679 1.700 1.700 1.700 1.700 1.700 1.700 1.700 1.700 1.700 1.700 1.700 1.700 1.700 1.700 1.700 1.700 1.700 1.700 1.700 1.618 1.425 1.425 1.065 0.705 0.434 0.434 0.652 0.973 0.973 1.324 1.655 1.698 1.698 1.291 0.440 1.266 1.266 1.456 1.227 1.227 1.000 0.778 0.562 0.562 0.353 0.121 0.107 0.107 0.330 0.583 0.583 0.795 0.895 0.667 0.667 0.439 0.241 0.095 0.095 0.055 0.025 0.025 0.000 0.000 0.000 0.000 0.000 0.000 0.000 0.000 0.000 0.000 0.000 0.242 0.480 0.708 0.708 0.936 1.133 1.133 1.303 1.437 1.572 1.572 1.665 1.700 1.700 1.700 1.700 1.700 1.700 1.700 1.700 1.700 1.700 1.700 1.700 1.700 1.700 1.700 1.700 1.700 1.700 1.700 1.700 1.700 1.608 1.475 1.321 1.321 1.175 1.099 1.099 0.000 
0.000 0.314 0.314 0.158 0.000 0.000 0.000 0.000 0.000 0.000 0.000 0.000 0.000 0.000 0.046 0.334 0.725 0.725 1.151 1.576 1.576 1.594 1.545 1.476 1.476 1.345 1.074 0.683 0.683 0.160 0.017 0.017 0.000 0.000 0.000 0.000 0.159 0.490 0.927 0.927 1.357 1.680 1.680 1.627 1.568 1.520 1.520 1.491 1.546 1.546 1.606 1.662 1.691 1.691 1.546 1.424 1.657 1.657 1.700 1.700 1.700 1.700 1.700 1.700 1.700 1.700 1.700 1.700 1.700 1.700 1.700 1.700 1.700 1.516 1.077 1.077 0.960 0.714 0.460 0.460 0.715 1.035 1.035 1.366 1.663 1.432 1.432 1.000 0.466 1.268 1.268 1.463 1.261 1.261 1.060 0.841 0.613 0.613 0.377 0.130 0.121 0.121 0.374 0.642 0.642 0.846 0.932 0.707 0.707 0.482 0.287 0.146 0.146 0.096 0.049 0.049 0.000 0.000 0.000 0.000 0.000 0.000 0.000 0.000 0.000 0.000 0.000 0.134 0.353 0.639 0.639 0.894 1.107 1.107 1.288 1.432 1.576 1.576 1.672 1.700 1.700 1.700 1.700 1.700 1.700 1.700 1.700 1.700 1.700 1.700 1.700 1.700 1.700 1.700 1.700 1.700 1.700 1.700 1.700 1.700 1.600 1.460 1.306 1.306 1.167 1.095 1.095 0.000 
0.000 0.288 0.288 0.145 0.000 0.000 0.000 0.000 0.000 0.000 0.000 0.000 0.000 0.000 0.046 0.335 0.698 0.698 1.084 1.462 1.462 1.531 1.553 1.564 1.564 1.455 1.165 0.748 0.748 0.276 0.077 0.077 0.000 0.000 0.000 0.000 0.173 0.533 0.969 0.969 1.383 1.692 1.692 1.672 1.649 1.631 1.631 1.620 1.641 1.641 1.664 1.686 1.696 1.696 1.144 0.710 1.546 1.546 1.700 1.700 1.700 1.700 1.700 1.700 1.700 1.700 1.700 1.700 1.700 1.700 1.700 1.700 1.700 1.307 0.369 0.369 0.774 0.772 0.545 0.545 0.821 1.125 1.125 1.420 1.669 0.906 0.906 0.684 1.309 1.496 1.496 1.454 1.261 1.261 1.069 0.847 0.612 0.612 0.368 0.126 0.134 0.134 0.416 0.694 0.694 0.888 0.961 0.754 0.754 0.547 0.366 0.231 0.231 0.156 0.078 0.078 0.000 0.000 0.000 0.000 0.000 0.000 0.000 0.000 0.000 0.000 0.000 0.031 0.240 0.593 0.593 0.869 1.093 1.093 1.280 1.432 1.584 1.584 1.681 1.700 1.700 1.700 1.700 1.700 1.700 1.700 1.700 1.700 1.700 1.700 1.700 1.700 1.700 1.700 1.700 1.700 1.700 1.700 1.700 1.700 1.593 1.445 1.291 1.291 1.160 1.092 1.092 0.000 
0.000 0.262 0.262 0.133 0.000 0.000 0.000 0.000 0.000 0.000 0.000 0.000 0.000 0.000 0.043 0.320 0.643 0.643 0.979 1.303 1.303 1.425 1.521 1.611 1.611 1.519 1.217 0.780 0.780 0.344 0.111 0.111 0.000 0.000 0.000 0.000 0.187 0.575 1.012 1.012 1.407 1.700 1.700 1.700 1.700 1.700 1.700 1.700 1.700 1.700 1.700 1.700 1.700 1.700 1.070 0.579 1.525 1.525 1.700 1.700 1.700 1.700 1.700 1.700 1.700 1.700 1.700 1.700 1.700 1.700 1.700 1.700 1.700 1.308 0.374 0.374 0.840 0.899 0.719 0.719 0.976 1.238 1.238 1.482 1.675 0.939 0.939 0.848 1.697 1.580 1.580 1.408 1.197 1.197 0.986 0.769 0.534 0.534 0.267 0.088 0.145 0.145 0.449 0.732 0.732 0.920 0.992 0.831 0.831 0.670 0.516 0.373 0.373 0.250 0.123 0.123 0.000 0.000 0.000 0.000 0.000 0.000 0.000 0.000 0.000 0.000 0.000 0.000 0.212 0.599 0.599 0.881 1.104 1.104 1.289 1.443 1.595 1.595 1.690 1.700 1.700 1.700 1.700 1.700 1.700 1.700 1.700 1.700 1.700 1.700 1.700 1.700 1.700 1.700 1.700 1.700 1.700 1.699 1.693 1.693 1.581 1.430 1.276 1.276 1.153 1.090 1.090 0.000 
0.000 0.236 0.236 0.120 0.000 0.000 0.000 0.000 0.000 0.000 0.000 0.000 0.000 0.000 0.034 0.260 0.510 0.510 0.767 1.023 1.023 1.209 1.386 1.557 1.557 1.472 1.174 0.738 0.738 0.301 0.091 0.091 0.000 0.000 0.000 0.000 0.201 0.618 1.055 1.055 1.431 1.700 1.700 1.700 1.700 1.700 1.700 1.700 1.700 1.700 1.700 1.700 1.700 1.700 1.471 1.293 1.636 1.636 1.700 1.700 1.700 1.700 1.700 1.700 1.700 1.700 1.700 1.700 1.700 1.700 1.700 1.700 1.700 1.531 1.130 1.130 1.173 1.097 0.982 0.982 1.178 1.375 1.375 1.552 1.683 1.465 1.465 1.437 1.697 1.542 1.542 1.331 1.082 1.082 0.832 0.626 0.399 0.399 0.100 0.025 0.153 0.153 0.477 0.759 0.759 0.944 1.025 0.926 0.926 0.827 0.708 0.547 0.547 0.365 0.177 0.177 0.000 0.000 0.000 0.000 0.000 0.000 0.000 0.000 0.000 0.000 0.000 0.000 0.221 0.626 0.626 0.909 1.126 1.126 1.304 1.458 1.608 1.608 1.698 1.700 1.700 1.700 1.700 1.700 1.700 1.700 1.700 1.700 1.700 1.700 1.700 1.700 1.700 1.700 1.700 1.700 1.700 1.698 1.685 1.685 1.568 1.415 1.260 1.260 1.146 1.087 1.087 0.000 
0.000 0.210 0.210 0.107 0.000 0.000 0.000 0.000 0.000 0.000 0.000 0.000 0.000 0.000 0.026 0.193 0.367 0.367 0.551 0.751 0.751 1.002 1.262 1.513 1.513 1.428 1.132 0.695 0.695 0.258 0.071 0.071 0.000 0.000 0.010 0.010 0.225 0.661 1.097 1.097 1.454 1.700 1.700 1.700 1.700 1.700 1.700 1.700 1.700 1.700 1.700 1.700 1.700 1.700 1.700 1.700 1.700 1.700 1.700 1.700 1.700 1.700 1.700 1.700 1.700 1.700 1.700 1.700 1.700 1.700 1.700 1.700 1.700 1.653 1.540 1.540 1.410 1.300 1.236 1.236 1.367 1.497 1.497 1.611 1.689 1.700 1.700 1.700 1.697 1.497 1.497 1.245 0.958 0.958 0.674 0.485 0.301 0.301 0.054 0.011 0.162 0.162 0.504 0.787 0.787 0.975 1.072 1.036 1.036 1.001 0.908 0.706 0.706 0.464 0.221 0.221 0.000 0.000 0.000 0.000 0.000 0.000 0.000 0.000 0.000 0.000 0.000 0.000 0.230 0.654 0.654 0.936 1.148 1.148 1.319 1.473 1.616 1.616 1.700 1.700 1.248 1.248 1.294 1.700 1.700 1.700 1.700 1.700 1.700 1.700 1.700 1.700 1.700 1.700 1.700 1.700 1.700 1.696 1.673 1.673 1.241 0.919 1.194 1.194 0.848 0.612 0.612 0.000 
0.000 0.184 0.184 0.095 0.000 0.000 0.000 0.000 0.000 0.000 0.000 0.000 0.001 0.001 0.016 0.108 0.202 0.202 0.321 0.498 0.498 0.818 1.159 1.491 1.491 1.391 1.089 0.652 0.652 0.216 0.050 0.050 0.000 0.000 0.037 0.037 0.267 0.704 1.140 1.140 1.478 1.700 1.700 1.700 1.700 1.700 1.700 1.700 1.700 1.700 1.700 1.700 1.700 1.700 1.700 1.700 1.700 1.700 1.700 1.700 1.700 1.700 1.700 1.700 1.700 1.700 1.700 1.700 1.700 1.700 1.700 1.700 1.700 1.676 1.619 1.619 1.556 1.506 1.481 1.481 1.544 1.607 1.607 1.661 1.695 1.700 1.700 1.700 1.697 1.448 1.448 1.153 0.829 0.829 0.513 0.347 0.227 0.227 0.090 0.028 0.170 0.170 0.532 0.814 0.814 1.010 1.129 1.155 1.155 1.182 1.113 0.859 0.859 0.554 0.260 0.260 0.000 0.000 0.000 0.000 0.000 0.000 0.000 0.000 0.000 0.000 0.000 0.000 0.240 0.682 0.682 0.964 1.170 1.170 1.334 1.488 1.622 1.622 1.700 1.700 0.662 0.662 0.765 1.700 1.700 1.700 1.700 1.700 1.700 1.700 1.700 1.700 1.700 1.700 1.700 1.700 1.700 1.695 1.660 1.660 0.858 0.335 1.117 1.117 0.504 0.063 0.063 0.000 
0.000 0.193 0.193 0.114 0.027 0.017 0.017 0.007 0.001 0.001 0.000 0.000 0.001 0.001 0.008 0.041 0.074 0.074 0.147 0.317 0.317 0.690 1.094 1.487 1.487 1.374 1.082 0.667 0.667 0.254 0.100 0.100 0.048 0.026 0.068 0.068 0.289 0.702 1.113 1.113 1.423 1.627 1.627 1.651 1.676 1.695 1.695 1.700 1.700 1.700 1.700 1.700 1.700 1.700 1.700 1.700 1.700 1.700 1.700 1.700 1.700 1.700 1.700 1.700 1.700 1.700 1.700 1.700 1.700 1.700 1.700 1.700 1.440 1.369 1.662 1.662 1.644 1.628 1.622 1.622 1.645 1.668 1.668 1.688 1.698 1.700 1.700 1.700 1.697 1.437 1.437 1.144 0.831 0.831 0.530 0.364 0.246 0.246 0.127 0.043 0.184 0.184 0.579 0.866 0.866 1.048 1.145 1.163 1.163 1.181 1.101 0.831 0.831 0.464 0.178 0.178 0.000 0.000 0.000 0.000 0.000 0.000 0.000 0.000 0.000 0.000 0.000 0.078 0.324 0.709 0.709 0.989 1.183 1.183 1.335 1.480 1.601 1.601 1.674 1.682 0.994 0.994 1.070 1.700 1.700 1.700 1.700 1.700 1.700 1.700 1.700 1.700 1.700 1.700 1.700 1.700 1.406 1.037 1.506 1.506 1.113 0.628 0.670 0.670 0.258 0.000 0.000 0.000 
0.000 0.306 0.306 0.229 0.134 0.084 0.084 0.033 0.002 0.002 0.000 0.000 0.001 0.001 0.003 0.017 0.030 0.030 0.096 0.290 0.290 0.683 1.107 1.520 1.520 1.400 1.142 0.790 0.790 0.441 0.276 0.276 0.181 0.096 0.104 0.104 0.278 0.628 0.977 0.977 1.248 1.445 1.445 1.532 1.619 1.682 1.682 1.699 1.700 1.700 1.700 1.700 1.700 1.700 1.700 1.700 1.700 1.700 1.700 1.700 1.700 1.700 1.700 1.700 1.700 1.700 1.700 1.700 1.700 1.700 1.700 1.700 0.941 0.758 1.671 1.671 1.683 1.678 1.676 1.676 1.684 1.691 1.691 1.696 1.700 1.700 1.700 1.700 1.698 1.453 1.453 1.191 0.920 0.920 0.663 0.480 0.323 0.323 0.166 0.056 0.202 0.202 0.636 0.931 0.931 1.088 1.139 1.114 1.114 1.088 0.982 0.717 0.717 0.289 0.040 0.040 0.000 0.000 0.000 0.000 0.000 0.000 0.000 0.000 0.000 0.000 0.000 0.183 0.434 0.736 0.736 1.012 1.195 1.195 1.331 1.465 1.572 1.572 1.640 1.660 1.569 1.569 1.595 1.700 1.700 1.700 1.700 1.700 1.700 1.700 1.700 1.700 1.700 1.700 1.700 1.700 1.062 0.264 1.324 1.324 1.466 1.059 0.175 0.175 0.023 0.000 0.000 0.000 
0.000 0.436 0.436 0.323 0.188 0.143 0.143 0.059 0.003 0.003 0.000 0.000 0.000 0.000 0.000 0.000 0.000 0.000 0.064 0.286 0.286 0.693 1.130 1.558 1.558 1.440 1.225 0.942 0.942 0.659 0.473 0.473 0.319 0.165 0.129 0.129 0.249 0.528 0.807 0.807 1.046 1.250 1.250 1.407 1.565 1.677 1.677 1.698 1.700 1.700 1.700 1.700 1.700 1.700 1.700 1.700 1.700 1.700 1.700 1.700 1.700 1.700 1.700 1.700 1.700 1.700 1.700 1.700 1.700 1.700 1.700 1.700 0.715 0.479 1.672 1.672 1.700 1.700 1.700 1.700 1.700 1.700 1.700 1.700 1.700 1.700 1.700 1.699 1.695 1.491 1.491 1.280 1.064 1.064 0.843 0.630 0.420 0.420 0.209 0.138 0.297 0.297 0.702 1.005 1.005 1.121 1.099 1.007 1.007 0.917 0.782 0.561 0.561 0.195 0.000 0.000 0.000 0.000 0.000 0.000 0.000 0.000 0.000 0.000 0.000 0.000 0.000 0.128 0.390 0.763 0.763 1.028 1.197 1.197 1.318 1.439 1.534 1.534 1.602 1.635 1.669 1.669 1.690 1.700 1.700 1.700 1.700 1.700 1.700 1.700 1.269 1.182 1.182 1.697 1.700 1.700 1.320 0.839 1.438 1.438 1.493 1.205 0.599 0.599 0.502 0.492 0.492 0.000 
0.000 0.611 0.611 0.359 0.103 0.183 0.183 0.083 0.001 0.001 0.000 0.000 0.000 0.000 0.000 0.000 0.000 0.000 0.072 0.325 0.325 0.736 1.172 1.602 1.602 1.504 1.346 1.143 1.143 0.930 0.701 0.701 0.466 0.230 0.139 0.139 0.193 0.390 0.587 0.587 0.805 1.039 1.039 1.278 1.518 1.682 1.682 1.699 1.700 1.700 1.700 1.700 1.700 1.700 1.700 1.700 1.700 1.700 1.700 1.700 1.700 1.700 1.700 1.700 1.700 1.700 1.700 1.700 1.700 1.700 1.700 1.700 0.718 0.475 1.669 1.669 1.700 1.700 1.700 1.700 1.700 1.700 1.700 1.700 1.700 1.700 1.700 1.697 1.690 1.544 1.544 1.397 1.242 1.242 1.051 0.801 0.528 0.528 0.255 0.257 0.434 0.434 0.772 1.085 1.085 1.151 1.043 0.874 0.874 0.709 0.546 0.386 0.386 0.135 0.000 0.000 0.000 0.000 0.000 0.000 0.000 0.000 0.000 0.000 0.000 0.000 0.000 0.023 0.297 0.789 0.789 1.041 1.197 1.197 1.303 1.409 1.495 1.495 1.563 1.611 1.658 1.658 1.688 1.700 1.700 1.700 1.700 1.700 1.700 1.700 0.764 0.571 0.571 1.690 1.700 1.700 1.663 1.609 1.594 1.594 1.478 1.313 1.126 1.126 1.059 1.033 1.033 0.000 
0.000 0.785 0.785 0.460 0.130 0.231 0.231 0.103 0.000 0.000 0.000 0.000 0.000 0.000 0.000 0.000 0.000 0.000 0.080 0.362 0.362 0.775 1.208 1.635 1.635 1.568 1.471 1.345 1.345 1.185 0.911 0.911 0.596 0.280 0.136 0.136 0.126 0.244 0.361 0.361 0.570 0.847 0.847 1.166 1.479 1.688 1.688 1.699 1.440 1.440 1.431 1.700 1.700 1.700 1.700 1.700 1.700 1.700 1.700 1.700 1.700 1.700 1.700 1.700 1.700 1.700 1.700 1.700 1.700 1.700 1.700 1.700 1.000 0.825 1.675 1.675 1.700 1.700 1.657 1.657 1.297 1.436 1.436 1.700 1.700 1.700 1.700 1.697 1.691 1.606 1.606 1.522 1.423 1.423 1.239 0.950 0.621 0.621 0.291 0.329 0.522 0.522 0.839 1.154 1.154 1.165 0.965 0.728 0.728 0.515 0.342 0.240 0.240 0.084 0.000 0.000 0.000 0.000 0.000 0.000 0.000 0.000 0.000 0.000 0.000 0.000 0.000 0.000 0.281 0.808 0.808 1.041 1.184 1.184 1.279 1.373 1.456 1.456 1.528 1.590 1.653 1.653 1.689 1.700 1.700 1.700 1.700 1.700 1.700 1.700 1.141 1.027 1.027 1.692 1.700 1.700 1.700 1.688 1.599 1.599 1.463 1.309 1.155 1.155 0.792 0.568 0.568 0.000 
0.000 0.955 0.955 0.717 0.424 0.301 0.301 0.117 0.000 0.000 0.000 0.000 0.000 0.000 0.000 0.000 0.000 0.000 0.087 0.395 0.395 0.807 1.232 1.650 1.650 1.632 1.602 1.550 1.550 1.416 1.093 1.093 0.702 0.309 0.116 0.116 0.045 0.086 0.127 0.127 0.342 0.681 0.681 1.076 1.450 1.696 1.696 1.700 0.890 0.890 0.865 1.700 1.700 1.700 1.700 1.700 1.700 1.700 1.700 1.700 1.700 1.700 1.700 1.700 1.700 1.700 1.700 1.700 1.700 1.700 1.700 1.700 1.496 1.445 1.692 1.692 1.700 1.700 1.586 1.586 0.623 0.995 0.995 1.700 1.700 1.700 1.700 1.699 1.697 1.674 1.674 1.652 1.605 1.605 1.417 1.088 0.706 0.706 0.322 0.379 0.587 0.587 0.904 1.219 1.219 1.171 0.879 0.577 0.577 0.326 0.152 0.105 0.105 0.037 0.000 0.000 0.000 0.000 0.000 0.000 0.000 0.000 0.000 0.000 0.000 0.000 0.000 0.000 0.286 0.824 0.824 1.039 1.168 1.168 1.252 1.336 1.416 1.416 1.495 1.571 1.648 1.648 1.690 1.700 1.700 1.700 1.700 1.700 1.700 1.700 1.646 1.637 1.637 1.699 1.700 1.700 1.700 1.686 1.586 1.586 1.448 1.294 1.140 1.140 0.459 0.026 0.026 0.000 
0.000 1.004 1.004 0.834 0.580 0.321 0.321 0.116 0.000 0.000 0.000 0.000 0.000 0.000 0.000 0.000 0.000 0.000 0.086 0.394 0.394 0.775 1.163 1.541 1.541 1.583 1.626 1.645 1.645 1.530 1.180 1.180 0.744 0.307 0.097 0.097 0.000 0.000 0.000 0.000 0.227 0.612 0.612 1.049 1.445 1.700 1.700 1.700 0.886 0.886 0.861 1.700 1.700 1.700 1.700 1.634 1.316 1.316 1.495 1.700 1.700 1.700 1.700 1.700 1.700 1.700 1.700 1.700 1.700 1.700 1.700 1.700 1.700 1.700 1.700 1.700 1.700 1.700 1.604 1.604 0.784 1.101 1.101 1.700 1.700 1.700 1.700 1.698 1.695 1.683 1.683 1.672 1.636 1.636 1.454 1.152 0.804 0.804 0.457 0.493 0.645 0.645 0.870 1.085 1.085 1.029 0.793 0.558 0.558 0.356 0.185 0.055 0.055 0.015 0.000 0.000 0.000 0.000 0.000 0.000 0.000 0.000 0.000 0.000 0.000 0.000 0.000 0.000 0.246 0.712 0.712 0.904 1.044 1.044 1.157 1.271 1.371 1.371 1.466 1.557 1.648 1.648 1.694 1.700 1.700 1.700 1.700 1.700 1.700 1.700 1.700 1.700 1.700 1.700 1.700 1.700 1.700 1.685 1.574 1.574 1.433 1.280 1.129 1.129 0.440 0.000 0.000 0.000 
0.000 0.785 0.785 0.648 0.444 0.238 0.238 0.085 0.000 0.000 0.000 0.000 0.000 0.000 0.000 0.000 0.000 0.000 0.073 0.337 0.337 0.642 0.947 1.242 1.242 1.366 1.491 1.582 1.582 1.482 1.138 1.138 0.701 0.264 0.081 0.081 0.000 0.000 0.000 0.000 0.245 0.655 0.655 1.091 1.464 1.700 1.700 1.700 1.435 1.435 1.428 1.700 1.700 1.700 1.700 1.509 0.588 0.588 1.108 1.700 1.700 1.700 1.700 1.700 1.700 1.700 1.700 1.700 1.700 1.700 1.700 1.700 1.700 1.700 1.700 1.700 1.700 1.700 1.675 1.675 1.458 1.542 1.542 1.700 1.700 1.700 1.700 1.696 1.687 1.662 1.662 1.636 1.589 1.589 1.421 1.179 0.908 0.908 0.638 0.636 0.700 0.700 0.795 0.870 0.870 0.828 0.707 0.587 0.587 0.466 0.299 0.036 0.036 0.003 0.000 0.000 0.000 0.000 0.000 0.000 0.000 0.000 0.000 0.000 0.000 0.000 0.000 0.000 0.196 0.571 0.571 0.739 0.896 0.896 1.048 1.200 1.325 1.325 1.438 1.543 1.649 1.649 1.699 1.700 1.700 1.700 1.700 1.700 1.700 1.700 1.700 1.700 1.700 1.700 1.700 1.700 1.700 1.684 1.562 1.562 1.418 1.266 1.119 1.119 0.438 0.000 0.000 0.000 
0.000 0.571 0.571 0.467 0.314 0.161 0.161 0.057 0.000 0.000 0.000 0.000 0.000 0.000 0.000 0.000 0.001 0.001 0.059 0.269 0.269 0.496 0.726 0.957 0.957 1.163 1.370 1.532 1.532 1.437 1.095 1.095 0.658 0.222 0.064 0.064 0.000 0.000 0.011 0.011 0.271 0.698 0.698 1.134 1.484 1.700 1.700 1.700 1.700 1.700 1.700 1.700 1.700 1.700 1.700 1.455 0.262 0.262 0.932 1.700 1.700 1.700 1.700 1.700 1.700 1.671 1.317 1.427 1.427 1.700 1.700 1.700 1.700 1.700 1.700 1.700 1.700 1.700 1.700 1.700 1.700 1.700 1.700 1.700 1.700 1.700 1.700 1.693 1.676 1.636 1.636 1.596 1.542 1.542 1.405 1.227 1.033 1.033 0.839 0.765 0.718 0.718 0.683 0.669 0.669 0.659 0.654 0.650 0.650 0.585 0.441 0.174 0.174 0.055 0.000 0.000 0.000 0.000 0.000 0.000 0.000 0.000 0.000 0.000 0.000 0.000 0.000 0.000 0.108 0.326 0.326 0.557 0.761 0.761 0.952 1.142 1.287 1.287 1.415 1.535 1.647 1.647 1.700 1.700 1.700 1.700 1.700 1.700 1.700 1.700 1.700 1.700 1.700 1.700 1.700 1.700 1.700 1.683 1.551 1.551 1.403 1.253 1.116 1.116 0.749 0.520 0.520 0.000 
0.000 0.366 0.366 0.298 0.198 0.098 0.098 0.034 0.000 0.000 0.000 0.000 0.000 0.000 0.000 0.000 0.002 0.002 0.043 0.184 0.184 0.331 0.498 0.691 0.691 0.979 1.267 1.499 1.499 1.396 1.052 1.052 0.616 0.179 0.048 0.048 0.000 0.001 0.034 0.034 0.307 0.740 0.740 1.177 1.504 1.700 1.700 1.700 1.700 1.700 1.700 1.700 1.700 1.700 1.700 1.458 0.265 0.265 0.928 1.700 1.700 1.700 1.700 1.700 1.700 1.624 0.667 0.961 0.961 1.700 1.700 1.700 1.700 1.700 1.700 1.700 1.700 1.700 1.700 1.700 1.700 1.700 1.700 1.700 1.700 1.700 1.700 1.689 1.663 1.609 1.609 1.554 1.493 1.493 1.395 1.283 1.166 1.166 1.049 0.889 0.722 0.722 0.559 0.473 0.473 0.502 0.613 0.724 0.724 0.706 0.590 0.361 0.361 0.126 0.000 0.000 0.000 0.000 0.000 0.000 0.000 0.000 0.000 0.000 0.000 0.000 0.000 0.000 0.014 0.060 0.060 0.371 0.629 0.629 0.857 1.087 1.250 1.250 1.392 1.527 1.644 1.644 1.700 1.700 1.700 1.700 1.700 1.700 1.700 1.700 1.700 1.700 1.700 1.700 1.700 1.700 1.700 1.682 1.539 1.539 1.388 1.241 1.112 1.112 1.068 1.054 1.054 0.000 
0.000 0.213 0.213 0.172 0.112 0.052 0.052 0.017 0.000 0.000 0.000 0.000 0.000 0.000 0.000 0.000 0.002 0.002 0.026 0.106 0.106 0.186 0.306 0.483 0.483 0.839 1.196 1.486 1.486 1.370 1.034 1.034 0.612 0.191 0.076 0.076 0.031 0.017 0.066 0.066 0.346 0.783 0.783 1.220 1.519 1.686 1.686 1.673 1.659 1.659 1.655 1.662 1.676 1.676 1.689 1.530 0.681 0.681 1.151 1.700 1.700 1.700 1.700 1.700 1.700 1.636 0.801 1.042 1.042 1.586 1.233 1.233 1.440 1.663 1.679 1.679 1.692 1.689 1.673 1.673 1.656 1.647 1.647 1.647 1.664 1.681 1.681 1.680 1.653 1.592 1.592 1.530 1.468 1.468 1.403 1.336 1.262 1.262 1.174 0.944 0.689 0.689 0.436 0.295 0.295 0.376 0.608 0.803 0.803 0.797 0.668 0.422 0.422 0.149 0.000 0.000 0.000 0.000 0.000 0.000 0.000 0.000 0.000 0.000 0.000 0.000 0.000 0.000 0.000 0.012 0.012 0.194 0.462 0.462 0.763 1.000 1.179 1.179 1.340 1.496 1.623 1.623 1.686 1.690 1.690 1.695 1.327 1.041 1.041 1.599 1.700 1.700 1.700 1.700 1.142 1.142 1.189 1.674 1.525 1.525 1.373 1.228 1.108 1.108 1.068 1.054 1.054 0.000 
0.000 0.154 0.154 0.125 0.079 0.035 0.035 0.011 0.000 0.000 0.000 0.000 0.000 0.000 0.000 0.000 0.001 0.001 0.009 0.038 0.038 0.066 0.160 0.348 0.348 0.754 1.163 1.496 1.496 1.363 1.044 1.044 0.652 0.261 0.151 0.151 0.093 0.050 0.107 0.107 0.389 0.826 0.826 1.262 1.530 1.660 1.660 1.622 1.583 1.583 1.572 1.594 1.632 1.632 1.670 1.651 1.406 1.406 1.542 1.700 1.700 1.700 1.700 1.700 1.700 1.682 1.436 1.471 1.471 1.404 0.487 0.487 1.024 1.605 1.645 1.645 1.679 1.672 1.631 1.631 1.589 1.568 1.568 1.569 1.611 1.653 1.653 1.668 1.644 1.579 1.579 1.514 1.452 1.452 1.418 1.386 1.343 1.343 1.268 0.974 0.644 0.644 0.313 0.123 0.123 0.259 0.615 0.883 0.883 0.880 0.725 0.449 0.449 0.158 0.000 0.000 0.000 0.000 0.000 0.000 0.000 0.000 0.000 0.000 0.000 0.000 0.000 0.000 0.000 0.001 0.001 0.020 0.291 0.291 0.668 0.910 1.103 1.103 1.283 1.463 1.600 1.600 1.670 1.680 1.680 1.690 0.925 0.325 0.325 1.486 1.700 1.700 1.700 1.700 0.560 0.560 0.652 1.666 1.512 1.512 1.358 1.215 1.105 1.105 1.066 1.051 1.051 0.000 
0.000 0.096 0.096 0.097 0.086 0.032 0.032 0.009 0.000 0.000 0.000 0.000 0.000 0.000 0.000 0.000 0.000 0.000 0.000 0.000 0.000 0.000 0.086 0.296 0.296 0.730 1.166 1.523 1.523 1.387 1.108 1.108 0.773 0.439 0.303 0.303 0.199 0.100 0.152 0.152 0.432 0.868 0.868 1.305 1.527 1.600 1.600 1.513 1.425 1.425 1.406 1.469 1.556 1.556 1.637 1.700 1.700 1.700 1.700 1.700 1.700 1.700 1.700 1.700 1.700 1.696 1.635 1.554 1.554 1.301 0.489 0.489 0.732 1.189 1.571 1.571 1.647 1.625 1.529 1.529 1.433 1.395 1.395 1.412 1.507 1.603 1.603 1.657 1.647 1.593 1.593 1.536 1.482 1.482 1.436 1.393 1.334 1.334 1.231 0.927 0.589 0.589 0.252 0.074 0.074 0.242 0.639 0.921 0.921 0.896 0.714 0.432 0.432 0.152 0.000 0.000 0.000 0.000 0.000 0.000 0.000 0.000 0.000 0.000 0.000 0.000 0.000 0.000 0.000 0.000 0.000 0.000 0.224 0.224 0.544 0.747 0.960 0.960 1.177 1.394 1.547 1.547 1.632 1.656 1.656 1.680 1.279 0.963 0.963 1.585 1.700 1.700 1.700 1.700 1.116 1.116 1.156 1.651 1.497 1.497 1.343 1.202 1.101 1.101 1.063 1.048 1.048 0.000 
0.000 0.036 0.036 0.101 0.154 0.052 0.052 0.014 0.000 0.000 0.000 0.000 0.000 0.000 0.000 0.000 0.000 0.000 0.000 0.000 0.000 0.000 0.098 0.339 0.339 0.772 1.209 1.569 1.569 1.445 1.229 1.229 0.975 0.722 0.529 0.529 0.346 0.165 0.203 0.203 0.475 0.911 0.911 1.348 1.513 1.512 1.512 1.357 1.202 1.202 1.176 1.301 1.456 1.456 1.595 1.700 1.700 1.700 1.700 1.700 1.700 1.700 1.700 1.700 1.700 1.692 1.581 1.438 1.438 1.237 0.898 0.898 0.512 0.584 1.474 1.474 1.605 1.562 1.399 1.399 1.235 1.180 1.180 1.219 1.382 1.545 1.545 1.648 1.656 1.616 1.616 1.574 1.528 1.528 1.456 1.385 1.294 1.294 1.152 0.855 0.532 0.532 0.208 0.062 0.062 0.252 0.666 0.949 0.949 0.896 0.686 0.404 0.404 0.142 0.000 0.000 0.000 0.000 0.000 0.000 0.000 0.000 0.000 0.000 0.000 0.000 0.000 0.000 0.000 0.000 0.000 0.000 0.170 0.170 0.416 0.576 0.810 0.810 1.065 1.321 1.492 1.492 1.593 1.631 1.631 1.669 1.676 1.678 1.678 1.697 1.700 1.700 1.700 1.700 1.698 1.698 1.682 1.636 1.482 1.482 1.322 1.178 1.095 1.095 1.061 1.046 1.046 0.000 
0.000 0.134 0.134 0.188 0.215 0.065 0.065 0.015 0.000 0.000 0.000 0.000 0.000 0.000 0.000 0.000 0.000 0.000 0.000 0.000 0.000 0.000 0.110 0.381 0.381 0.815 1.252 1.617 1.617 1.517 1.366 1.366 1.188 0.995 0.741 0.741 0.476 0.214 0.248 0.248 0.517 0.954 0.954 1.390 1.492 1.409 1.409 1.186 0.972 0.972 0.949 1.149 1.371 1.371 1.562 1.700 1.700 1.700 1.700 1.700 1.700 1.700 1.700 1.700 1.700 1.689 1.513 1.305 1.305 1.081 0.877 0.877 0.553 0.627 1.427 1.427 1.557 1.481 1.251 1.251 1.019 0.964 0.964 1.044 1.275 1.506 1.506 1.480 1.052 1.441 1.441 1.612 1.568 1.568 1.468 1.367 1.248 1.248 1.076 0.788 0.478 0.478 0.169 0.050 0.050 0.262 0.694 0.976 0.976 0.896 0.659 0.376 0.376 0.131 0.000 0.000 0.000 0.000 0.000 0.000 0.000 0.000 0.000 0.000 0.000 0.000 0.000 0.000 0.000 0.000 0.000 0.000 0.089 0.089 0.236 0.408 0.674 0.674 0.968 1.262 1.446 1.446 1.559 1.612 1.612 1.664 1.691 1.700 1.700 1.700 1.700 1.700 1.700 1.700 1.700 1.700 1.677 1.621 1.466 1.466 1.019 0.676 1.022 1.022 1.058 1.043 1.043 0.000 
0.000 0.471 0.471 0.398 0.265 0.066 0.066 0.012 0.000 0.000 0.000 0.000 0.000 0.000 0.000 0.000 0.000 0.000 0.000 0.000 0.000 0.000 0.122 0.424 0.424 0.858 1.294 1.666 1.666 1.601 1.518 1.518 1.410 1.256 0.938 0.938 0.592 0.247 0.288 0.288 0.560 0.996 0.996 1.433 1.464 1.295 1.295 1.005 0.738 0.738 0.724 1.007 1.297 1.297 1.534 1.700 1.700 1.700 1.700 1.700 1.700 1.700 1.700 1.700 1.700 1.685 1.440 1.162 1.162 0.879 0.643 0.643 0.718 0.979 1.406 1.406 1.507 1.392 1.094 1.094 0.796 0.747 0.747 0.877 1.175 1.474 1.474 1.257 0.234 1.195 1.195 1.649 1.606 1.606 1.477 1.348 1.200 1.200 1.001 0.721 0.426 0.426 0.132 0.039 0.039 0.272 0.721 1.004 1.004 0.897 0.631 0.349 0.349 0.121 0.000 0.000 0.000 0.000 0.000 0.000 0.000 0.000 0.000 0.000 0.000 0.000 0.000 0.000 0.000 0.000 0.000 0.000 0.006 0.006 0.050 0.239 0.539 0.539 0.871 1.204 1.399 1.399 1.525 1.592 1.592 1.660 1.691 1.700 1.700 1.700 1.700 1.700 1.700 1.700 1.700 1.700 1.671 1.606 1.451 1.451 0.742 0.217 0.954 0.954 1.056 1.041 1.041 0.000 
0.000 0.524 0.524 0.458 0.335 0.120 0.120 0.055 0.032 0.032 0.016 0.005 0.000 0.000 0.000 0.000 0.000 0.000 0.000 0.000 0.000 0.000 0.124 0.432 0.432 0.838 1.239 1.579 1.579 1.542 1.504 1.504 1.380 1.032 0.845 0.845 0.598 0.232 0.294 0.294 0.554 0.959 0.959 1.362 1.363 1.178 1.178 0.909 0.683 0.683 0.701 1.004 1.305 1.305 1.542 1.700 1.700 1.700 1.700 1.700 1.700 1.700 1.700 1.700 1.700 1.684 1.417 1.129 1.129 0.849 0.643 0.643 0.835 1.135 1.435 1.435 1.497 1.366 1.067 1.067 0.769 0.743 0.743 0.901 1.200 1.495 1.495 1.394 0.679 1.353 1.353 1.667 1.623 1.623 1.495 1.368 1.218 1.218 1.003 0.716 0.404 0.404 0.075 0.022 0.022 0.253 0.667 0.897 0.897 0.788 0.525 0.216 0.216 0.068 0.000 0.000 0.000 0.000 0.000 0.000 0.000 0.000 0.000 0.000 0.000 0.000 0.000 0.000 0.000 0.002 0.002 0.052 0.097 0.097 0.169 0.353 0.637 0.637 0.950 1.263 1.432 1.432 1.542 1.605 1.605 1.668 1.695 1.700 1.700 1.700 1.700 1.700 1.700 1.700 1.700 1.700 1.665 1.590 1.436 1.436 1.015 0.693 1.020 1.020 1.053 1.038 1.038 0.000 
0.000 0.187 0.187 0.315 0.431 0.240 0.240 0.158 0.104 0.104 0.052 0.017 0.000 0.000 0.000 0.000 0.000 0.000 0.000 0.000 0.000 0.000 0.116 0.407 0.407 0.758 1.092 1.369 1.369 1.357 1.344 1.344 1.135 0.405 0.514 0.514 0.518 0.179 0.272 0.272 0.513 0.862 0.862 1.210 1.209 1.060 1.060 0.870 0.744 0.744 0.808 1.086 1.364 1.364 1.570 1.700 1.700 1.700 1.700 1.700 1.700 1.700 1.700 1.700 1.700 1.685 1.419 1.146 1.146 0.896 0.747 0.747 0.931 1.208 1.484 1.484 1.504 1.365 1.090 1.090 0.815 0.817 0.817 0.993 1.268 1.534 1.534 1.645 1.518 1.639 1.639 1.678 1.634 1.634 1.516 1.399 1.253 1.253 1.025 0.726 0.388 0.388 0.014 0.003 0.003 0.227 0.596 0.765 0.765 0.658 0.406 0.065 0.065 0.007 0.000 0.000 0.000 0.000 0.000 0.000 0.000 0.000 0.000 0.000 0.000 0.000 0.000 0.000 0.000 0.005 0.005 0.107 0.201 0.201 0.307 0.484 0.749 0.749 1.038 1.328 1.468 1.468 1.561 1.619 1.619 1.677 1.698 1.700 1.700 1.700 1.700 1.700 1.700 1.700 1.700 1.700 1.646 1.535 1.381 1.381 1.245 1.138 1.082 1.082 1.051 1.035 1.035 0.000 
0.000 0.200 0.200 0.372 0.545 0.386 0.386 0.278 0.183 0.183 0.088 0.028 0.000 0.000 0.000 0.000 0.000 0.000 0.000 0.000 0.000 0.000 0.100 0.351 0.351 0.633 0.891 1.100 1.100 1.098 1.096 1.096 0.913 0.249 0.373 0.373 0.405 0.125 0.228 0.228 0.432 0.709 0.709 0.985 1.027 0.976 0.976 0.908 0.892 0.892 0.990 1.217 1.444 1.444 1.604 1.700 1.700 1.700 1.700 1.700 1.700 1.700 1.700 1.697 1.697 1.679 1.459 1.239 1.239 1.043 0.949 0.949 1.101 1.323 1.544 1.544 1.539 1.417 1.198 1.198 0.981 0.998 0.998 1.155 1.374 1.577 1.577 1.700 1.700 1.700 1.700 1.683 1.644 1.644 1.552 1.460 1.328 1.328 1.079 0.759 0.400 0.400 0.005 0.000 0.000 0.127 0.349 0.553 0.553 0.444 0.219 0.026 0.026 0.000 0.000 0.000 0.000 0.000 0.000 0.000 0.000 0.000 0.000 0.000 0.000 0.000 0.000 0.000 0.015 0.054 0.054 0.216 0.374 0.374 0.536 0.726 0.953 0.953 1.191 1.428 1.531 1.531 1.599 1.642 1.642 1.684 1.699 1.700 1.700 1.700 1.700 1.700 1.700 1.700 1.700 1.700 1.351 0.738 0.662 0.662 0.872 1.125 1.078 1.078 1.048 1.033 1.033 0.000 
0.000 0.650 0.650 0.677 0.682 0.562 0.562 0.420 0.272 0.272 0.124 0.039 0.000 0.000 0.000 0.000 0.000 0.000 0.000 0.000 0.000 0.001 0.077 0.268 0.268 0.469 0.645 0.781 0.781 0.779 0.777 0.777 0.706 0.449 0.376 0.376 0.268 0.070 0.169 0.169 0.324 0.519 0.519 0.712 0.827 0.912 0.912 0.994 1.090 1.090 1.217 1.377 1.536 1.536 1.642 1.700 1.700 1.700 1.700 1.700 1.700 1.700 1.700 1.693 1.693 1.671 1.517 1.363 1.363 1.232 1.189 1.189 1.300 1.454 1.608 1.608 1.583 1.488 1.336 1.336 1.186 1.213 1.213 1.340 1.491 1.622 1.622 1.700 1.700 1.700 1.700 1.686 1.654 1.654 1.591 1.528 1.412 1.412 1.140 0.796 0.416 0.416 0.007 0.000 0.000 0.015 0.071 0.328 0.328 0.216 0.022 0.003 0.003 0.000 0.000 0.000 0.000 0.000 0.000 0.000 0.000 0.000 0.000 0.000 0.000 0.000 0.000 0.000 0.031 0.105 0.105 0.327 0.550 0.550 0.769 0.971 1.160 1.160 1.345 1.529 1.594 1.594 1.636 1.665 1.665 1.691 1.700 1.700 1.700 1.700 1.678 1.667 1.667 1.698 1.700 1.700 1.099 0.057 0.055 0.055 0.557 1.112 1.074 1.074 1.046 1.030 1.030 0.000 
0.000 0.925 0.925 0.890 0.826 0.730 0.730 0.552 0.351 0.351 0.149 0.047 0.000 0.000 0.000 0.000 0.000 0.000 0.000 0.000 0.000 0.001 0.048 0.168 0.168 0.287 0.387 0.462 0.462 0.460 0.458 0.458 0.440 0.375 0.266 0.266 0.149 0.033 0.101 0.101 0.196 0.313 0.313 0.452 0.656 0.885 0.885 1.117 1.293 1.293 1.427 1.519 1.611 1.611 1.670 1.700 1.700 1.700 1.700 1.700 1.700 1.700 1.700 1.695 1.695 1.680 1.592 1.506 1.506 1.433 1.416 1.416 1.480 1.566 1.652 1.652 1.634 1.578 1.495 1.495 1.412 1.430 1.430 1.505 1.588 1.658 1.658 1.700 1.700 1.700 1.700 1.692 1.674 1.674 1.640 1.606 1.502 1.502 1.195 0.825 0.427 0.427 0.008 0.000 0.000 0.000 0.020 0.167 0.167 0.105 0.000 0.000 0.000 0.000 0.000 0.000 0.000 0.000 0.000 0.000 0.000 0.000 0.000 0.000 0.000 0.000 0.000 0.000 0.052 0.172 0.172 0.461 0.751 0.751 1.021 1.203 1.346 1.346 1.478 1.610 1.647 1.647 1.668 1.683 1.683 1.695 1.700 1.700 1.700 1.700 1.201 1.028 1.028 1.663 1.700 1.700 1.383 0.823 0.743 0.743 0.902 1.102 1.070 1.070 1.043 1.028 1.028 0.000 
0.000 0.999 0.999 0.997 0.977 0.891 0.891 0.673 0.419 0.419 0.165 0.051 0.000 0.000 0.000 0.000 0.000 0.000 0.000 0.000 0.000 0.000 0.016 0.053 0.053 0.090 0.121 0.143 0.143 0.141 0.139 0.139 0.133 0.112 0.078 0.078 0.043 0.009 0.029 0.029 0.056 0.098 0.098 0.201 0.500 0.880 0.880 1.260 1.497 1.497 1.628 1.653 1.677 1.677 1.692 1.700 1.700 1.700 1.700 1.700 1.700 1.700 1.700 1.699 1.699 1.695 1.675 1.656 1.656 1.640 1.638 1.638 1.653 1.672 1.690 1.690 1.686 1.675 1.659 1.659 1.644 1.648 1.648 1.664 1.680 1.693 1.693 1.700 1.700 1.700 1.700 1.699 1.696 1.696 1.690 1.685 1.595 1.595 1.249 0.853 0.438 0.438 0.009 0.000 0.000 0.000 0.002 0.015 0.015 0.009 0.000 0.000 0.000 0.000 0.000 0.000 0.000 0.000 0.000 0.000 0.000 0.000 0.000 0.000 0.000 0.000 0.000 0.000 0.073 0.239 0.239 0.596 0.953 0.953 1.274 1.433 1.531 1.531 1.610 1.688 1.697 1.697 1.698 1.698 1.698 1.698 1.698 1.699 1.699 1.699 0.793 0.481 0.481 1.629 1.700 1.700 1.614 1.447 1.349 1.349 1.220 1.103 1.075 1.075 1.047 1.030 1.030 0.000 
0.000 0.994 0.994 0.993 0.972 0.877 0.877 0.656 0.401 0.401 0.147 0.045 0.000 0.000 0.000 0.000 0.000 0.000 0.000 0.000 0.000 0.000 0.001 0.003 0.003 0.006 0.007 0.008 0.008 0.008 0.008 0.008 0.008 0.006 0.004 0.004 0.004 0.005 0.048 0.048 0.093 0.149 0.149 0.274 0.589 0.979 0.979 1.369 1.587 1.587 1.695 1.697 1.699 1.699 1.700 1.700 1.700 1.700 1.700 1.700 1.700 1.700 1.700 1.700 1.700 1.699 1.698 1.696 1.696 1.695 1.695 1.695 1.696 1.698 1.699 1.699 1.699 1.698 1.696 1.696 1.695 1.695 1.695 1.697 1.698 1.699 1.699 1.700 1.700 1.700 1.700 1.700 1.699 1.699 1.699 1.698 1.620 1.620 1.308 0.970 0.631 0.631 0.300 0.262 0.262 0.231 0.203 0.195 0.195 0.202 0.172 0.022 0.022 0.000 0.000 0.000 0.000 0.000 0.000 0.000 0.010 0.075 0.120 0.120 0.159 0.206 0.206 0.254 0.356 0.515 0.515 0.409 0.785 0.785 1.376 1.492 1.569 1.569 1.631 1.690 1.683 1.683 1.669 1.655 1.655 1.651 1.659 1.674 1.674 1.689 1.266 1.120 1.120 1.665 1.700 1.700 1.337 0.725 1.213 1.213 1.301 1.200 1.148 1.148 1.096 1.064 1.064 0.000 
0.000 0.908 0.908 0.875 0.808 0.691 0.691 0.505 0.301 0.301 0.098 0.029 0.000 0.000 0.000 0.000 0.000 0.000 0.000 0.000 0.000 0.000 0.000 0.001 0.001 0.002 0.002 0.002 0.002 0.002 0.002 0.002 0.002 0.002 0.001 0.001 0.004 0.012 0.119 0.119 0.229 0.347 0.347 0.523 0.807 1.133 1.133 1.460 1.622 1.622 1.699 1.699 1.700 1.700 1.700 1.700 1.700 1.700 1.700 1.700 1.700 1.700 1.700 1.700 1.700 1.700 1.700 1.699 1.699 1.699 1.699 1.699 1.699 1.700 1.700 1.700 1.700 1.700 1.699 1.699 1.699 1.699 1.699 1.700 1.700 1.700 1.700 1.700 1.700 1.700 1.700 1.700 1.700 1.700 1.700 1.700 1.634 1.634 1.369 1.100 0.851 0.851 0.629 0.558 0.558 0.490 0.428 0.411 0.411 0.425 0.360 0.047 0.047 0.000 0.000 0.000 0.000 0.000 0.000 0.000 0.020 0.153 0.244 0.244 0.324 0.418 0.418 0.513 0.643 0.790 0.790 0.224 0.620 0.620 1.477 1.552 1.607 1.607 1.652 1.691 1.669 1.669 1.640 1.612 1.612 1.605 1.621 1.650 1.650 1.679 1.694 1.679 1.679 1.617 1.668 1.668 1.127 0.176 1.121 1.121 1.382 1.295 1.220 1.220 1.144 1.098 1.098 0.000 
0.000 0.809 0.809 0.743 0.634 0.509 0.509 0.363 0.211 0.211 0.060 0.017 0.000 0.000 0.000 0.000 0.000 0.000 0.000 0.000 0.000 0.000 0.000 0.000 0.000 0.000 0.000 0.000 0.000 0.000 0.000 0.000 0.000 0.000 0.000 0.000 0.011 0.037 0.209 0.209 0.385 0.565 0.565 0.767 1.011 1.272 1.272 1.532 1.648 1.648 1.700 1.700 1.700 1.700 1.700 1.700 1.700 1.700 1.700 1.700 1.700 1.700 1.700 1.700 1.700 1.700 1.700 1.700 1.700 1.700 1.700 1.700 1.700 1.700 1.700 1.700 1.700 1.700 1.700 1.700 1.700 1.382 1.382 1.097 1.595 1.700 1.700 1.700 1.700 1.700 1.700 1.700 1.700 1.700 1.700 1.696 1.644 1.644 1.451 1.259 1.078 1.078 0.912 0.817 0.817 0.724 0.641 0.631 0.631 0.658 0.558 0.074 0.074 0.000 0.000 0.000 0.000 0.000 0.000 0.000 0.031 0.243 0.386 0.386 0.510 0.653 0.653 0.796 0.725 0.389 0.389 0.111 0.650 0.650 1.552 1.599 1.637 1.637 1.666 1.685 1.648 1.648 1.604 1.563 1.563 1.561 1.588 1.631 1.631 1.675 1.693 1.466 1.466 0.800 1.368 1.368 1.423 0.960 1.375 1.375 1.466 1.384 1.285 1.285 1.185 1.123 1.123 0.000 
0.000 0.698 0.698 0.600 0.449 0.331 0.331 0.227 0.128 0.128 0.030 0.008 0.000 0.000 0.000 0.000 0.000 0.000 0.000 0.000 0.000 0.000 0.000 0.000 0.000 0.000 0.000 0.000 0.000 0.000 0.000 0.000 0.000 0.000 0.000 0.000 0.020 0.071 0.309 0.309 0.552 0.793 0.793 1.009 1.210 1.403 1.403 1.595 1.669 1.669 1.700 1.700 1.700 1.700 1.700 1.700 1.700 1.700 1.700 1.700 1.700 1.700 1.700 1.700 1.700 1.700 1.700 1.700 1.700 1.700 1.700 1.700 1.700 1.700 1.700 1.700 1.700 1.700 1.700 1.700 1.700 0.999 0.999 0.364 1.466 1.700 1.700 1.700 1.700 1.700 1.700 1.700 1.700 1.700 1.700 1.691 1.652 1.652 1.536 1.421 1.306 1.306 1.190 1.074 1.074 0.957 0.853 0.851 0.851 0.890 0.757 0.102 0.102 0.000 0.000 0.000 0.000 0.000 0.000 0.000 0.042 0.332 0.528 0.528 0.696 0.886 0.886 1.077 0.819 0.028 0.028 0.032 0.701 0.701 1.624 1.645 1.665 1.665 1.678 1.678 1.626 1.626 1.569 1.514 1.514 1.518 1.555 1.613 1.613 1.670 1.692 1.306 1.306 0.188 1.143 1.143 1.678 1.640 1.603 1.603 1.546 1.468 1.345 1.345 1.222 1.146 1.146 0.000 
0.000 0.594 0.594 0.468 0.285 0.185 0.185 0.120 0.066 0.066 0.012 0.003 0.000 0.000 0.000 0.000 0.000 0.000 0.000 0.000 0.000 0.000 0.000 0.000 0.000 0.000 0.000 0.000 0.000 0.000 0.000 0.000 0.000 0.000 0.000 0.000 0.031 0.109 0.388 0.388 0.672 0.947 0.947 1.158 1.328 1.480 1.480 1.632 1.682 1.682 1.700 1.700 1.700 1.700 1.700 1.700 1.700 1.700 1.700 1.700 1.700 1.700 1.700 1.695 1.695 1.683 1.665 1.648 1.648 1.636 1.651 1.651 1.668 1.685 1.699 1.699 1.700 1.700 1.700 1.700 1.700 1.266 1.266 0.873 1.555 1.700 1.700 1.700 1.700 1.700 1.700 1.698 1.694 1.694 1.691 1.683 1.662 1.662 1.607 1.553 1.482 1.482 1.386 1.252 1.252 1.117 0.997 0.998 0.998 1.031 0.978 0.646 0.646 0.244 0.000 0.000 0.000 0.000 0.061 0.061 0.186 0.411 0.615 0.615 0.821 1.055 1.055 1.290 1.252 0.882 0.882 0.882 1.202 1.202 1.647 1.657 1.666 1.666 1.668 1.654 1.595 1.595 1.532 1.472 1.472 1.488 1.537 1.605 1.605 1.673 1.695 1.519 1.519 1.005 1.443 1.443 1.690 1.673 1.656 1.656 1.606 1.521 1.381 1.381 1.242 1.154 1.154 0.000 
0.000 0.494 0.494 0.346 0.137 0.065 0.065 0.036 0.020 0.020 0.004 0.001 0.000 0.000 0.000 0.000 0.000 0.000 0.000 0.000 0.000 0.000 0.000 0.000 0.000 0.000 0.000 0.000 0.000 0.000 0.000 0.000 0.000 0.000 0.000 0.000 0.042 0.149 0.457 0.457 0.770 1.068 1.068 1.265 1.411 1.535 1.535 1.658 1.690 1.690 1.700 1.700 1.700 1.700 1.700 1.700 1.700 1.700 1.700 1.700 1.700 1.700 1.700 1.688 1.688 1.661 1.621 1.581 1.581 1.555 1.590 1.590 1.629 1.666 1.697 1.697 1.700 1.700 1.700 1.700 1.700 1.649 1.649 1.606 1.684 1.700 1.700 1.700 1.700 1.700 1.700 1.696 1.688 1.688 1.680 1.675 1.673 1.673 1.677 1.681 1.654 1.654 1.574 1.425 1.425 1.273 1.137 1.140 1.140 1.168 1.199 1.208 1.208 0.499 0.000 0.000 0.000 0.000 0.120 0.120 0.326 0.486 0.697 0.697 0.940 1.217 1.217 1.494 1.661 1.689 1.689 1.679 1.671 1.671 1.664 1.664 1.664 1.664 1.655 1.627 1.564 1.564 1.496 1.433 1.433 1.462 1.521 1.598 1.598 1.675 1.697 1.700 1.700 1.700 1.700 1.700 1.700 1.700 1.700 1.700 1.653 1.563 1.408 1.408 1.254 1.158 1.158 0.000 
0.000 0.436 0.436 0.278 0.060 0.012 0.012 0.000 0.000 0.000 0.000 0.000 0.000 0.000 0.000 0.000 0.000 0.000 0.000 0.000 0.000 0.000 0.000 0.000 0.000 0.000 0.000 0.000 0.000 0.000 0.000 0.000 0.000 0.000 0.000 0.000 0.043 0.151 0.420 0.420 0.693 0.958 0.958 1.164 1.340 1.503 1.503 1.664 1.695 1.695 1.700 1.700 1.700 1.700 1.700 1.700 1.700 1.700 1.700 1.700 1.700 1.700 1.700 1.663 1.663 1.579 1.472 1.374 1.374 1.315 1.418 1.418 1.524 1.620 1.693 1.693 1.700 1.700 1.700 1.700 1.700 1.700 1.700 1.700 1.700 1.700 1.700 1.700 1.700 1.698 1.698 1.686 1.664 1.664 1.643 1.632 1.633 1.633 1.654 1.676 1.656 1.656 1.570 1.419 1.419 1.265 1.122 1.075 1.075 1.042 1.008 0.956 0.956 0.392 0.000 0.000 0.000 0.000 0.059 0.059 0.176 0.373 0.611 0.611 0.881 1.192 1.192 1.501 1.673 1.667 1.667 1.643 1.623 1.623 1.608 1.608 1.607 1.607 1.599 1.575 1.525 1.525 1.472 1.423 1.423 1.465 1.529 1.605 1.605 1.679 1.698 1.700 1.700 1.700 1.700 1.700 1.700 1.700 1.700 1.700 1.646 1.547 1.393 1.393 1.239 1.142 1.142 0.000 
0.000 0.410 0.410 0.253 0.038 0.007 0.007 0.000 0.000 0.000 0.000 0.000 0.000 0.000 0.000 0.000 0.000 0.000 0.000 0.000 0.000 0.000 0.000 0.000 0.000 0.000 0.000 0.000 0.000 0.000 0.000 0.000 0.000 0.000 0.000 0.000 0.038 0.135 0.338 0.338 0.544 0.752 0.752 0.979 1.209 1.438 1.438 1.663 1.699 1.699 1.700 1.700 1.700 1.700 1.700 1.700 1.700 1.700 1.700 1.700 1.700 1.700 1.700 1.633 1.633 1.482 1.299 1.134 1.134 1.040 1.222 1.222 1.405 1.568 1.688 1.688 1.700 1.700 1.700 1.700 1.700 1.700 1.700 1.700 1.700 1.700 1.700 1.700 1.700 1.695 1.695 1.674 1.639 1.639 1.603 1.586 1.589 1.589 1.625 1.661 1.648 1.648 1.555 1.404 1.404 1.250 1.102 1.004 1.004 0.909 0.808 0.692 0.692 0.279 0.000 0.000 0.000 0.000 0.000 0.000 0.031 0.258 0.523 0.523 0.823 1.167 1.167 1.507 1.683 1.645 1.645 1.607 1.575 1.575 1.552 1.551 1.551 1.551 1.544 1.523 1.486 1.486 1.448 1.413 1.413 1.468 1.536 1.612 1.612 1.683 1.700 1.700 1.700 1.700 1.700 1.700 1.700 1.700 1.700 1.700 1.640 1.532 1.378 1.378 1.159 1.006 1.006 0.000 
0.000 0.384 0.384 0.230 0.020 0.004 0.004 0.000 0.000 0.000 0.000 0.000 0.000 0.000 0.000 0.000 0.000 0.000 0.000 0.000 0.000 0.000 0.000 0.000 0.000 0.000 0.000 0.000 0.000 0.000 0.000 0.000 0.000 0.000 0.000 0.000 0.028 0.101 0.237 0.237 0.376 0.529 0.529 0.806 1.097 1.388 1.388 1.657 1.700 1.700 1.700 1.700 1.700 1.700 1.700 1.700 1.700 1.700 1.700 1.700 1.700 1.700 1.700 1.596 1.596 1.361 1.100 0.891 0.891 0.792 1.052 1.052 1.312 1.537 1.685 1.685 1.700 1.700 1.700 1.700 1.700 1.700 1.700 1.700 1.700 1.700 1.700 1.700 1.700 1.689 1.689 1.658 1.608 1.608 1.557 1.540 1.551 1.551 1.601 1.652 1.644 1.644 1.540 1.389 1.389 1.233 1.075 0.912 0.912 0.750 0.575 0.367 0.367 0.138 0.000 0.000 0.000 0.000 0.000 0.000 0.014 0.124 0.411 0.411 0.777 1.155 1.155 1.500 1.670 1.618 1.618 1.565 1.524 1.524 1.495 1.495 1.495 1.495 1.490 1.476 1.453 1.453 1.429 1.408 1.408 1.472 1.544 1.619 1.619 1.684 1.700 1.700 1.700 1.700 1.700 1.700 1.700 1.700 1.700 1.700 1.633 1.517 1.363 1.363 0.836 0.435 0.435 0.000 
0.000 0.358 0.358 0.209 0.006 0.001 0.001 0.000 0.000 0.000 0.000 0.000 0.000 0.000 0.000 0.000 0.000 0.000 0.000 0.000 0.000 0.000 0.000 0.000 0.000 0.000 0.000 0.000 0.000 0.000 0.000 0.000 0.000 0.000 0.000 0.000 0.017 0.059 0.130 0.130 0.201 0.301 0.301 0.636 0.992 1.342 1.342 1.650 1.700 1.700 1.700 1.700 1.700 1.700 1.700 1.700 1.700 1.700 1.700 1.700 1.700 1.700 1.700 1.558 1.558 1.235 0.897 0.648 0.648 0.549 0.886 0.886 1.223 1.509 1.682 1.682 1.700 1.700 1.700 1.700 1.700 1.700 1.700 1.700 1.700 1.700 1.700 1.700 1.700 1.683 1.683 1.641 1.577 1.577 1.512 1.493 1.513 1.513 1.578 1.643 1.640 1.640 1.526 1.374 1.374 1.216 1.049 0.821 0.821 0.591 0.344 0.051 0.051 0.000 0.000 0.000 0.000 0.000 0.000 0.000 0.000 0.000 0.305 0.305 0.732 1.141 1.141 1.488 1.652 1.588 1.588 1.523 1.475 1.475 1.444 1.445 1.446 1.446 1.444 1.437 1.427 1.427 1.416 1.409 1.409 1.478 1.551 1.622 1.622 1.681 1.696 1.697 1.697 1.699 1.700 1.700 1.700 1.700 1.700 1.700 1.626 1.502 1.348 1.348 0.661 0.132 0.132 0.000 
0.000 0.332 0.332 0.195 0.013 0.043 0.043 0.073 0.095 0.095 0.099 0.072 0.042 0.042 0.012 0.003 0.000 0.000 0.000 0.000 0.000 0.000 0.000 0.000 0.000 0.000 0.000 0.000 0.000 0.005 0.006 0.006 0.006 0.004 0.002 0.002 0.009 0.030 0.064 0.064 0.101 0.179 0.179 0.563 0.959 1.338 1.338 1.649 1.700 1.700 1.700 1.700 1.700 1.700 1.700 1.700 1.700 1.700 1.700 1.700 1.700 1.700 1.688 1.535 1.535 1.205 0.869 0.647 0.647 0.584 0.920 0.920 1.257 1.534 1.684 1.684 1.700 1.700 1.699 1.699 1.666 1.631 1.631 1.595 1.564 1.556 1.556 1.555 1.554 1.548 1.548 1.532 1.506 1.506 1.481 1.490 1.525 1.525 1.588 1.650 1.648 1.648 1.534 1.398 1.398 1.248 1.075 0.802 0.802 0.473 0.169 0.025 0.025 0.000 0.000 0.000 0.000 0.000 0.000 0.000 0.000 0.000 0.296 0.296 0.713 1.118 1.118 1.437 1.589 1.535 1.535 1.482 1.447 1.447 1.429 1.438 1.448 1.448 1.454 1.453 1.448 1.448 1.444 1.443 1.443 1.499 1.555 1.610 1.610 1.655 1.673 1.683 1.683 1.693 1.698 1.698 1.700 1.700 1.700 1.700 1.620 1.487 1.333 1.333 0.960 0.686 0.686 0.000 
0.000 0.307 0.307 0.186 0.035 0.113 0.113 0.192 0.248 0.248 0.256 0.186 0.107 0.107 0.031 0.008 0.000 0.000 0.000 0.000 0.000 0.000 0.000 0.000 0.000 0.001 0.001 0.001 0.001 0.012 0.016 0.016 0.014 0.009 0.005 0.005 0.003 0.006 0.012 0.012 0.027 0.093 0.093 0.520 0.949 1.346 1.346 1.650 1.700 1.700 1.700 1.700 1.700 1.700 1.700 1.700 1.700 1.700 1.700 1.700 1.700 1.700 1.673 1.515 1.515 1.193 0.871 0.685 0.685 0.663 0.985 0.985 1.308 1.567 1.687 1.687 1.700 1.700 1.697 1.697 1.629 1.556 1.556 1.481 1.417 1.401 1.401 1.400 1.399 1.405 1.405 1.417 1.434 1.434 1.452 1.488 1.538 1.538 1.599 1.659 1.655 1.655 1.542 1.423 1.423 1.281 1.102 0.785 0.785 0.361 0.000 0.000 0.000 0.000 0.000 0.000 0.000 0.000 0.000 0.000 0.000 0.000 0.286 0.286 0.694 1.093 1.093 1.384 1.522 1.482 1.482 1.442 1.421 1.421 1.418 1.437 1.457 1.457 1.471 1.474 1.475 1.475 1.477 1.481 1.481 1.519 1.557 1.594 1.594 1.626 1.648 1.668 1.668 1.688 1.696 1.696 1.700 1.700 1.700 1.700 1.613 1.472 1.318 1.318 1.180 1.094 1.094 0.000 
0.000 0.281 0.281 0.186 0.081 0.229 0.229 0.378 0.477 0.477 0.469 0.335 0.186 0.186 0.042 0.011 0.000 0.000 0.000 0.000 0.000 0.000 0.000 0.000 0.000 0.003 0.007 0.012 0.012 0.026 0.029 0.029 0.026 0.017 0.008 0.008 0.001 0.000 0.000 0.000 0.023 0.107 0.107 0.544 0.980 1.376 1.376 1.653 1.700 1.700 1.700 1.700 1.700 1.700 1.700 1.700 1.700 1.700 1.700 1.700 1.700 1.700 1.668 1.537 1.537 1.284 1.031 0.901 0.901 0.834 0.643 0.643 1.103 1.610 1.691 1.691 1.700 1.698 1.689 1.689 1.552 1.412 1.412 1.276 1.170 1.144 1.144 1.142 1.141 1.189 1.189 1.264 1.362 1.362 1.460 1.529 1.580 1.580 1.626 1.668 1.662 1.662 1.574 1.484 1.484 1.352 1.166 0.820 0.820 0.375 0.000 0.000 0.000 0.000 0.000 0.000 0.000 0.000 0.000 0.000 0.000 0.000 0.282 0.282 0.678 1.048 1.048 1.304 1.435 1.424 1.424 1.413 1.418 1.418 1.436 1.470 1.503 1.503 1.528 1.531 1.531 1.531 1.531 1.532 1.532 1.541 1.550 1.561 1.561 1.584 1.615 1.649 1.649 1.683 1.695 1.695 1.700 1.700 1.698 1.698 1.606 1.457 1.303 1.303 1.172 1.092 1.092 0.000 
0.000 0.255 0.255 0.192 0.143 0.373 0.373 0.603 0.749 0.749 0.712 0.502 0.271 0.271 0.048 0.013 0.000 0.000 0.000 0.000 0.000 0.000 0.000 0.000 0.000 0.005 0.014 0.027 0.027 0.042 0.045 0.045 0.039 0.025 0.011 0.011 0.001 0.000 0.000 0.000 0.039 0.150 0.150 0.586 1.023 1.411 1.411 1.658 1.700 1.700 1.700 1.700 1.700 1.700 1.700 1.700 1.700 1.700 1.700 1.700 1.700 1.700 1.665 1.566 1.566 1.389 1.214 1.140 1.140 1.021 0.254 0.254 0.866 1.654 1.695 1.695 1.700 1.696 1.681 1.681 1.473 1.263 1.263 1.065 0.918 0.881 0.881 0.880 0.878 0.970 0.970 1.109 1.289 1.289 1.469 1.571 1.622 1.622 1.653 1.677 1.669 1.669 1.607 1.545 1.545 1.424 1.229 0.855 0.855 0.389 0.000 0.000 0.000 0.000 0.000 0.000 0.000 0.000 0.000 0.000 0.000 0.000 0.276 0.276 0.660 1.002 1.002 1.225 1.350 1.367 1.367 1.385 1.415 1.415 1.455 1.503 1.551 1.551 1.585 1.587 1.588 1.588 1.586 1.580 1.580 1.561 1.541 1.527 1.527 1.542 1.582 1.586 1.586 1.494 1.619 1.619 1.700 1.693 1.536 1.536 1.473 1.442 1.288 1.288 1.081 0.934 0.934 0.000 
0.000 0.229 0.229 0.206 0.225 0.537 0.537 0.850 1.033 1.033 0.937 0.648 0.335 0.335 0.033 0.009 0.000 0.000 0.000 0.000 0.000 0.000 0.000 0.000 0.000 0.008 0.021 0.040 0.040 0.059 0.060 0.060 0.050 0.031 0.013 0.013 0.001 0.000 0.000 0.000 0.055 0.192 0.192 0.629 1.065 1.447 1.447 1.662 1.700 1.700 1.700 1.700 1.700 1.700 1.700 1.700 1.700 1.700 1.700 1.700 1.700 1.700 1.678 1.621 1.621 1.522 1.423 1.385 1.385 1.322 0.890 0.890 1.234 1.677 1.698 1.698 1.700 1.685 1.643 1.643 1.367 1.090 1.090 0.831 0.661 0.618 0.618 0.617 0.616 0.771 0.771 0.986 1.248 1.248 1.510 1.628 1.658 1.658 1.675 1.688 1.683 1.683 1.650 1.617 1.617 1.499 1.282 0.879 0.879 0.398 0.000 0.000 0.000 0.000 0.000 0.000 0.000 0.000 0.000 0.000 0.000 0.000 0.266 0.266 0.633 0.946 0.946 1.148 1.274 1.320 1.320 1.367 1.420 1.420 1.479 1.541 1.601 1.601 1.642 1.643 1.644 1.644 1.637 1.620 1.620 1.571 1.523 1.485 1.485 1.503 1.554 1.382 1.382 0.704 1.302 1.302 1.700 1.666 0.907 0.907 0.982 1.427 1.273 1.273 0.776 0.383 0.383 0.000 
0.000 0.203 0.203 0.224 0.318 0.712 0.712 1.106 1.324 1.324 1.153 0.783 0.388 0.388 0.009 0.002 0.000 0.000 0.000 0.000 0.000 0.000 0.000 0.000 0.000 0.011 0.029 0.053 0.053 0.076 0.076 0.076 0.061 0.037 0.014 0.014 0.000 0.000 0.000 0.000 0.070 0.235 0.235 0.672 1.108 1.483 1.483 1.667 1.700 1.700 1.700 1.700 1.700 1.700 1.700 1.700 1.700 1.700 1.700 1.700 1.700 1.700 1.693 1.679 1.679 1.657 1.635 1.630 1.630 1.633 1.623 1.623 1.661 1.697 1.700 1.700 1.700 1.672 1.603 1.603 1.260 0.915 0.915 0.597 0.404 0.356 0.356 0.354 0.355 0.575 0.575 0.867 1.209 1.209 1.550 1.682 1.692 1.692 1.696 1.697 1.695 1.695 1.687 1.680 1.680 1.563 1.323 0.894 0.894 0.402 0.000 0.000 0.000 0.000 0.000 0.000 0.000 0.000 0.000 0.000 0.000 0.000 0.259 0.259 0.613 0.901 0.901 1.083 1.207 1.276 1.276 1.345 1.418 1.418 1.494 1.571 1.641 1.641 1.690 1.690 1.690 1.690 1.678 1.652 1.652 1.583 1.515 1.461 1.461 1.482 1.540 1.284 1.284 0.324 1.148 1.148 1.700 1.656 0.624 0.624 0.758 1.412 1.258 1.258 0.651 0.166 0.166 0.000 
0.000 0.178 0.178 0.216 0.330 0.706 0.706 1.080 1.285 1.285 1.118 0.805 0.478 0.478 0.169 0.169 0.170 0.170 0.172 0.173 0.173 0.174 0.175 0.177 0.177 0.189 0.208 0.231 0.231 0.254 0.225 0.225 0.165 0.097 0.037 0.037 0.000 0.000 0.000 0.000 0.086 0.278 0.278 0.714 1.151 1.518 1.518 1.672 1.700 1.700 1.700 1.700 1.700 1.700 1.700 1.700 1.700 1.700 1.700 1.700 1.700 1.700 1.697 1.692 1.692 1.683 1.675 1.642 1.642 1.590 1.529 1.529 1.473 1.455 1.524 1.524 1.593 1.622 1.594 1.594 1.301 1.007 1.007 0.741 0.596 0.561 0.561 0.562 0.563 0.755 0.755 0.999 1.275 1.275 1.540 1.651 1.669 1.669 1.683 1.685 1.674 1.674 1.643 1.613 1.613 1.474 1.215 0.809 0.809 0.361 0.000 0.000 0.000 0.000 0.000 0.000 0.000 0.000 0.000 0.000 0.000 0.000 0.269 0.269 0.634 0.919 0.919 1.082 1.188 1.247 1.247 1.307 1.383 1.383 1.473 1.564 1.643 1.643 1.695 1.695 1.696 1.696 1.684 1.658 1.658 1.599 1.541 1.496 1.496 1.520 1.571 1.494 1.494 1.121 1.469 1.469 1.700 1.682 1.230 1.230 1.219 1.397 1.243 1.243 0.939 0.712 0.712 0.000 
0.000 0.152 0.152 0.194 0.305 0.616 0.616 0.925 1.100 1.100 0.975 0.777 0.581 0.581 0.403 0.405 0.406 0.406 0.407 0.408 0.408 0.410 0.411 0.412 0.412 0.424 0.440 0.459 0.459 0.478 0.413 0.413 0.296 0.171 0.065 0.065 0.000 0.000 0.000 0.000 0.101 0.320 0.320 0.757 1.193 1.554 1.554 1.677 1.700 1.700 1.700 1.700 1.700 1.700 1.700 1.700 1.700 1.700 1.700 1.700 1.700 1.700 1.700 1.699 1.699 1.699 1.699 1.635 1.635 1.519 1.377 1.377 1.246 1.197 1.339 1.339 1.482 1.570 1.586 1.586 1.346 1.106 1.106 0.891 0.793 0.769 0.769 0.771 0.772 0.935 0.935 1.131 1.342 1.342 1.531 1.618 1.645 1.645 1.671 1.673 1.652 1.652 1.598 1.544 1.544 1.382 1.106 0.723 0.723 0.320 0.000 0.000 0.000 0.000 0.000 0.000 0.000 0.000 0.000 0.000 0.000 0.000 0.279 0.279 0.656 0.939 0.939 1.082 1.169 1.218 1.218 1.267 1.347 1.347 1.451 1.557 1.644 1.644 1.700 1.700 1.700 1.700 1.689 1.665 1.665 1.617 1.569 1.534 1.534 1.560 1.602 1.598 1.598 1.475 1.608 1.608 1.700 1.698 1.649 1.649 1.536 1.382 1.228 1.228 1.131 1.079 1.079 0.000 
0.000 0.126 0.126 0.161 0.248 0.481 0.481 0.714 0.865 0.865 0.837 0.778 0.599 0.599 0.301 0.559 0.661 0.661 0.663 0.664 0.664 0.666 0.667 0.669 0.669 0.678 0.691 0.705 0.705 0.712 0.601 0.601 0.420 0.233 0.087 0.087 0.000 0.000 0.000 0.000 0.117 0.363 0.363 0.799 1.236 1.591 1.591 1.683 1.700 1.700 1.700 1.700 1.700 1.700 1.700 1.700 1.700 1.700 1.700 1.700 1.700 1.700 1.700 1.466 1.466 0.902 1.455 1.589 1.589 1.388 1.164 1.164 0.987 0.939 1.162 1.162 1.387 1.542 1.607 1.607 1.435 1.263 1.263 1.110 1.047 1.032 1.032 1.034 1.035 1.139 1.139 1.261 1.390 1.390 1.509 1.579 1.619 1.619 1.660 1.656 1.615 1.615 1.533 1.450 1.450 1.271 0.990 0.636 0.636 0.278 0.000 0.000 0.000 0.000 0.000 0.000 0.000 0.000 0.000 0.000 0.000 0.000 0.291 0.291 0.684 0.966 0.966 1.086 1.151 1.185 1.185 1.226 1.311 1.311 1.430 1.550 1.642 1.642 1.700 1.700 1.700 1.700 1.692 1.673 1.673 1.640 1.607 1.582 1.582 1.604 1.634 1.430 1.430 0.688 1.281 1.281 1.700 1.698 1.638 1.638 1.521 1.367 1.213 1.213 1.123 1.076 1.076 0.000 
0.000 0.100 0.100 0.122 0.177 0.328 0.328 0.479 0.611 0.611 0.702 0.788 0.587 0.587 0.075 0.683 0.924 0.924 0.926 0.927 0.927 0.928 0.930 0.931 0.931 0.939 0.948 0.957 0.957 0.949 0.790 0.790 0.542 0.292 0.107 0.107 0.000 0.000 0.000 0.000 0.132 0.406 0.406 0.842 1.279 1.627 1.627 1.688 1.700 1.700 1.700 1.700 1.700 1.700 1.700 1.700 1.700 1.700 1.700 1.700 1.700 1.700 1.700 1.218 1.218 0.050 1.191 1.541 1.541 1.255 0.949 0.949 0.726 0.681 0.986 0.986 1.292 1.515 1.629 1.629 1.524 1.419 1.419 1.327 1.299 1.293 1.293 1.286 1.257 1.322 1.322 1.388 1.437 1.437 1.488 1.540 1.595 1.595 1.650 1.638 1.578 1.578 1.468 1.358 1.358 1.163 0.879 0.553 0.553 0.239 0.000 0.000 0.000 0.000 0.000 0.000 0.000 0.000 0.000 0.000 0.000 0.000 0.273 0.273 0.656 0.979 0.979 1.084 1.128 1.151 1.151 1.187 1.277 1.277 1.411 1.545 1.641 1.641 1.700 1.700 1.700 1.700 1.694 1.681 1.681 1.661 1.640 1.626 1.626 1.643 1.662 1.372 1.372 0.377 1.151 1.151 1.700 1.698 1.627 1.627 1.506 1.352 1.198 1.198 1.114 1.073 1.073 0.000 
0.000 0.075 0.075 0.085 0.114 0.205 0.205 0.308 0.445 0.445 0.648 0.853 0.828 0.828 0.548 0.965 1.122 1.122 1.112 1.109 1.109 1.109 1.111 1.113 1.113 1.126 1.140 1.154 1.154 1.127 0.935 0.935 0.645 0.355 0.152 0.152 0.033 0.021 0.007 0.007 0.141 0.432 0.432 0.854 1.275 1.608 1.608 1.652 1.670 1.670 1.681 1.690 1.693 1.693 1.696 1.698 1.700 1.700 1.700 1.700 1.700 1.700 1.700 1.445 1.445 0.830 1.417 1.478 1.478 1.118 0.747 0.747 0.521 0.508 0.878 0.878 1.249 1.521 1.665 1.665 1.614 1.563 1.563 1.518 1.505 1.503 1.503 1.305 0.673 1.150 1.150 1.474 1.461 1.461 1.476 1.519 1.579 1.579 1.639 1.614 1.538 1.538 1.414 1.289 1.289 1.088 0.805 0.497 0.497 0.212 0.000 0.000 0.000 0.000 0.000 0.000 0.000 0.000 0.000 0.000 0.000 0.000 0.121 0.121 0.387 0.926 0.926 1.055 1.087 1.109 1.109 1.155 1.255 1.255 1.401 1.546 1.644 1.644 1.700 1.700 1.700 1.700 1.697 1.688 1.688 1.677 1.665 1.657 1.657 1.667 1.679 1.565 1.565 1.167 1.478 1.478 1.700 1.698 1.616 1.616 1.491 1.337 1.183 1.183 1.106 1.071 1.071 0.000 
0.000 0.049 0.049 0.048 0.053 0.093 0.093 0.162 0.311 0.311 0.622 0.935 1.151 1.151 1.248 1.298 1.300 1.300 1.275 1.268 1.268 1.268 1.271 1.273 1.273 1.294 1.318 1.339 1.339 1.292 1.070 1.070 0.744 0.417 0.200 0.200 0.072 0.047 0.016 0.016 0.150 0.456 0.456 0.862 1.265 1.582 1.582 1.610 1.636 1.636 1.660 1.680 1.686 1.686 1.691 1.697 1.699 1.699 1.700 1.700 1.700 1.700 1.700 1.693 1.693 1.682 1.667 1.416 1.416 0.982 0.546 0.546 0.317 0.338 0.773 0.773 1.207 1.528 1.700 1.700 1.700 1.700 1.700 1.700 1.700 1.700 1.700 1.339 0.188 1.013 1.013 1.555 1.487 1.487 1.470 1.502 1.564 1.564 1.627 1.591 1.502 1.502 1.371 1.239 1.239 1.032 0.748 0.452 0.452 0.191 0.000 0.000 0.000 0.000 0.000 0.000 0.000 0.000 0.000 0.000 0.000 0.000 0.000 0.000 0.167 0.848 0.848 0.999 1.034 1.066 1.066 1.129 1.243 1.243 1.397 1.551 1.648 1.648 1.700 1.700 1.700 1.700 1.696 1.688 1.688 1.678 1.669 1.664 1.664 1.674 1.684 1.693 1.693 1.699 1.700 1.700 1.700 1.698 1.605 1.605 1.476 1.322 1.168 1.168 0.993 0.869 0.869 0.000 
0.000 0.028 0.028 0.060 0.120 0.198 0.198 0.303 0.474 0.474 0.773 1.071 1.286 1.286 1.392 1.295 1.197 1.197 1.113 1.096 1.096 1.095 1.023 0.788 0.788 1.049 1.253 1.325 1.325 1.307 1.128 1.128 0.853 0.579 0.377 0.377 0.230 0.146 0.057 0.057 0.139 0.397 0.397 0.727 1.052 1.320 1.320 1.407 1.494 1.494 1.572 1.633 1.654 1.654 1.673 1.691 1.698 1.698 1.700 1.700 1.700 1.700 1.700 1.700 1.700 1.700 1.643 1.377 1.377 0.948 0.518 0.518 0.333 0.395 0.824 0.824 1.254 1.559 1.700 1.700 1.700 1.700 1.700 1.700 1.700 1.700 1.700 1.527 0.974 1.344 1.344 1.580 1.526 1.526 1.510 1.525 1.558 1.558 1.592 1.560 1.496 1.496 1.408 1.311 1.311 1.108 0.794 0.474 0.474 0.198 0.000 0.000 0.000 0.000 0.000 0.000 0.000 0.000 0.000 0.000 0.000 0.000 0.000 0.000 0.132 0.678 0.678 0.849 0.935 1.021 1.021 1.126 1.258 1.258 1.412 1.566 1.655 1.655 1.700 1.700 1.700 1.700 1.691 1.669 1.669 1.644 1.624 1.614 1.614 1.638 1.663 1.684 1.684 1.698 1.700 1.700 1.700 1.698 1.594 1.594 1.461 1.307 1.153 1.153 0.703 0.328 0.328 0.000 
0.000 0.010 0.010 0.089 0.231 0.376 0.376 0.539 0.732 0.732 0.978 1.224 1.367 1.367 1.379 1.200 1.020 1.020 0.866 0.841 0.841 0.841 0.681 0.160 0.160 0.713 1.138 1.271 1.271 1.292 1.171 1.171 0.963 0.756 0.574 0.574 0.408 0.256 0.103 0.103 0.125 0.328 0.328 0.576 0.816 1.033 1.033 1.187 1.342 1.342 1.478 1.584 1.621 1.621 1.654 1.686 1.696 1.696 1.700 1.700 1.700 1.700 1.700 1.700 1.700 1.700 1.614 1.339 1.339 0.914 0.489 0.489 0.348 0.451 0.876 0.876 1.301 1.591 1.700 1.700 1.700 1.700 1.700 1.700 1.700 1.700 1.700 1.697 1.685 1.648 1.648 1.607 1.566 1.566 1.550 1.547 1.551 1.551 1.556 1.531 1.493 1.493 1.448 1.383 1.383 1.181 0.838 0.495 0.495 0.205 0.000 0.000 0.000 0.000 0.000 0.000 0.000 0.000 0.000 0.000 0.000 0.000 0.000 0.000 0.093 0.484 0.484 0.688 0.841 0.980 0.980 1.123 1.273 1.273 1.427 1.581 1.663 1.663 1.700 1.700 1.700 1.700 1.684 1.648 1.648 1.609 1.579 1.566 1.566 1.605 1.644 1.677 1.677 1.697 1.700 1.700 1.700 1.698 1.584 1.584 1.446 1.292 1.141 1.141 0.634 0.210 0.210 0.000 
0.000 0.030 0.030 0.149 0.327 0.292 0.292 0.600 0.974 0.974 1.167 1.360 1.430 1.430 1.340 1.079 0.818 0.818 0.597 0.583 0.583 0.590 0.505 0.212 0.212 0.663 1.043 1.239 1.239 1.300 1.237 1.237 1.097 0.957 0.770 0.770 0.562 0.342 0.125 0.125 0.086 0.229 0.229 0.396 0.576 0.770 0.770 0.992 1.214 1.214 1.404 1.540 1.592 1.592 1.640 1.685 1.696 1.696 1.700 1.700 1.700 1.700 1.700 1.700 1.700 1.700 1.586 1.303 1.303 0.882 0.462 0.462 0.363 0.506 0.926 0.926 1.346 1.621 1.700 1.700 1.700 1.700 1.700 1.700 1.700 1.700 1.700 1.697 1.689 1.665 1.665 1.638 1.611 1.611 1.584 1.558 1.534 1.534 1.510 1.504 1.504 1.504 1.502 1.449 1.449 1.242 0.875 0.508 0.508 0.207 0.000 0.000 0.000 0.000 0.000 0.000 0.000 0.000 0.000 0.000 0.000 0.000 0.000 0.000 0.039 0.205 0.205 0.493 0.763 0.954 0.954 1.126 1.288 1.288 1.442 1.596 1.671 1.671 1.700 1.700 1.698 1.698 1.675 1.623 1.623 1.569 1.533 1.522 1.522 1.575 1.628 1.673 1.673 1.697 1.700 1.700 1.700 1.698 1.573 1.573 1.431 1.278 1.135 1.135 0.913 0.746 0.746 0.000 
0.000 0.062 0.062 0.218 0.420 0.132 0.132 0.609 1.212 1.212 1.352 1.492 1.487 1.487 1.295 0.953 0.609 0.609 0.322 0.324 0.324 0.338 0.360 0.392 0.392 0.667 0.952 1.210 1.210 1.312 1.306 1.306 1.233 1.161 0.965 0.965 0.713 0.427 0.146 0.146 0.045 0.129 0.129 0.213 0.335 0.509 0.509 0.798 1.088 1.088 1.331 1.497 1.564 1.564 1.627 1.685 1.696 1.696 1.700 1.700 1.700 1.699 1.699 1.699 1.699 1.699 1.559 1.268 1.268 0.854 0.441 0.441 0.382 0.557 0.945 0.945 1.370 1.641 1.693 1.693 1.695 1.697 1.697 1.698 1.695 1.691 1.691 1.686 1.681 1.672 1.672 1.662 1.653 1.653 1.614 1.569 1.518 1.518 1.468 1.480 1.515 1.515 1.554 1.508 1.508 1.293 0.904 0.515 0.515 0.207 0.000 0.000 0.000 0.000 0.000 0.000 0.000 0.000 0.000 0.000 0.000 0.000 0.000 0.000 0.000 0.000 0.000 0.338 0.683 0.913 0.913 1.107 1.281 1.281 1.441 1.600 1.663 1.663 1.675 1.663 1.650 1.650 1.615 1.552 1.552 1.489 1.454 1.453 1.453 1.529 1.606 1.666 1.666 1.684 1.676 1.676 1.663 1.648 1.524 1.524 1.390 1.252 1.127 1.127 1.076 1.058 1.058 0.000 
0.000 0.157 0.157 0.310 0.533 0.426 0.426 0.801 1.237 1.237 1.339 1.440 1.392 1.392 1.150 0.793 0.446 0.446 0.162 0.174 0.174 0.192 0.235 0.327 0.327 0.578 0.849 1.114 1.114 1.217 1.234 1.234 1.198 1.162 0.963 0.963 0.699 0.406 0.137 0.137 0.022 0.064 0.064 0.106 0.216 0.405 0.405 0.737 1.069 1.069 1.339 1.502 1.570 1.570 1.633 1.687 1.655 1.655 1.616 1.579 1.579 1.555 1.584 1.626 1.626 1.668 1.541 1.278 1.278 0.906 0.534 0.534 0.492 0.551 0.490 0.490 1.088 1.532 1.597 1.597 1.639 1.668 1.668 1.680 1.642 1.604 1.604 1.577 1.578 1.605 1.605 1.637 1.668 1.668 1.623 1.567 1.503 1.503 1.444 1.473 1.531 1.531 1.590 1.530 1.530 1.300 0.899 0.497 0.497 0.195 0.000 0.000 0.000 0.000 0.000 0.000 0.000 0.000 0.000 0.000 0.000 0.000 0.000 0.000 0.000 0.000 0.000 0.291 0.603 0.832 0.832 1.032 1.221 1.221 1.399 1.579 1.620 1.620 1.592 1.547 1.501 1.501 1.449 1.389 1.389 1.329 1.310 1.339 1.339 1.454 1.569 1.652 1.652 1.652 1.611 1.611 1.564 1.515 1.415 1.415 1.311 1.206 1.116 1.116 1.073 1.055 1.055 0.000 
0.000 0.270 0.270 0.409 0.650 0.839 0.839 1.043 1.210 1.210 1.278 1.346 1.263 1.263 0.983 0.627 0.292 0.292 0.025 0.044 0.044 0.064 0.112 0.221 0.221 0.473 0.744 1.008 1.008 1.108 1.145 1.145 1.142 1.139 0.940 0.940 0.669 0.377 0.126 0.126 0.001 0.003 0.003 0.004 0.105 0.309 0.309 0.682 1.054 1.054 1.349 1.508 1.577 1.577 1.639 1.689 1.612 1.612 1.530 1.455 1.455 1.407 1.466 1.551 1.551 1.636 1.525 1.292 1.292 0.964 0.636 0.636 0.609 0.556 0.075 0.075 0.815 1.411 1.494 1.494 1.579 1.636 1.636 1.657 1.581 1.504 1.504 1.452 1.462 1.530 1.530 1.607 1.681 1.681 1.630 1.564 1.489 1.489 1.426 1.467 1.544 1.544 1.622 1.542 1.542 1.269 0.802 0.452 0.452 0.180 0.000 0.000 0.000 0.000 0.000 0.000 0.000 0.000 0.000 0.000 0.000 0.000 0.000 0.000 0.000 0.000 0.000 0.221 0.482 0.723 0.723 0.934 1.141 1.141 1.344 1.543 1.556 1.556 1.476 1.385 1.303 1.303 1.234 1.182 1.182 1.129 1.136 1.205 1.205 1.367 1.530 1.637 1.637 1.600 1.514 1.514 1.421 1.332 1.272 1.272 1.213 1.155 1.103 1.103 1.071 1.053 1.053 0.000 
0.000 0.175 0.175 0.347 0.639 0.788 0.788 0.898 0.978 0.978 1.028 1.076 0.999 0.999 0.754 0.468 0.208 0.208 0.006 0.023 0.023 0.039 0.081 0.178 0.178 0.379 0.594 0.803 0.803 0.872 0.898 0.898 0.896 0.892 0.728 0.728 0.509 0.279 0.093 0.093 0.000 0.000 0.000 0.000 0.122 0.356 0.356 0.744 1.132 1.132 1.427 1.555 1.608 1.608 1.650 1.667 1.505 1.505 1.340 1.199 1.199 1.141 1.264 1.430 1.430 1.597 1.537 1.370 1.370 1.119 0.868 0.868 0.803 0.664 0.091 0.091 0.650 1.167 1.328 1.328 1.489 1.584 1.584 1.600 1.457 1.313 1.313 1.223 1.268 1.398 1.398 1.542 1.683 1.683 1.625 1.556 1.483 1.483 1.431 1.475 1.552 1.552 1.629 1.520 1.520 1.090 0.354 0.299 0.299 0.157 0.000 0.000 0.000 0.000 0.000 0.000 0.000 0.000 0.000 0.000 0.000 0.000 0.000 0.000 0.000 0.000 0.000 0.090 0.266 0.552 0.552 0.782 1.018 1.018 1.258 1.478 1.447 1.447 1.293 1.135 1.011 1.011 0.927 0.894 0.894 0.860 0.908 1.036 1.036 1.261 1.486 1.621 1.621 1.519 1.366 1.366 1.214 1.075 1.082 1.082 1.090 1.096 1.089 1.089 1.068 1.050 1.050 0.000 
0.000 0.027 0.027 0.246 0.599 0.632 0.632 0.668 0.703 0.703 0.738 0.772 0.709 0.709 0.514 0.310 0.135 0.135 0.006 0.017 0.017 0.029 0.062 0.143 0.143 0.287 0.439 0.587 0.587 0.622 0.635 0.635 0.633 0.626 0.502 0.502 0.339 0.177 0.059 0.059 0.000 0.000 0.000 0.000 0.143 0.407 0.407 0.810 1.212 1.212 1.506 1.602 1.640 1.640 1.660 1.645 1.398 1.398 1.150 0.943 0.943 0.876 1.063 1.311 1.311 1.560 1.552 1.450 1.450 1.275 1.102 1.102 0.996 0.767 0.107 0.107 0.488 0.927 1.165 1.165 1.403 1.532 1.532 1.540 1.329 1.118 1.118 0.991 1.076 1.271 1.271 1.481 1.686 1.686 1.621 1.549 1.478 1.478 1.436 1.482 1.560 1.560 1.637 1.497 1.497 0.974 0.091 0.198 0.198 0.135 0.000 0.000 0.000 0.000 0.000 0.000 0.000 0.000 0.000 0.000 0.000 0.000 0.000 0.000 0.000 0.000 0.000 0.000 0.099 0.364 0.364 0.627 0.900 0.900 1.176 1.404 1.327 1.327 1.090 0.817 0.673 0.673 0.604 0.608 0.608 0.594 0.686 0.877 0.877 1.165 1.452 1.610 1.610 1.430 1.208 1.208 1.001 0.828 0.902 0.902 0.978 1.047 1.076 1.076 0.943 0.805 0.805 0.000 
0.000 0.312 0.312 0.397 0.521 0.439 0.439 0.416 0.424 0.424 0.444 0.462 0.412 0.412 0.271 0.171 0.077 0.077 0.004 0.011 0.011 0.018 0.038 0.088 0.088 0.173 0.262 0.349 0.349 0.366 0.373 0.373 0.370 0.364 0.290 0.290 0.195 0.100 0.033 0.033 0.000 0.000 0.000 0.000 0.167 0.464 0.464 0.881 1.298 1.298 1.587 1.644 1.666 1.666 1.654 1.587 1.258 1.258 0.928 0.666 0.666 0.633 0.893 1.222 1.222 1.553 1.595 1.557 1.557 1.459 1.358 1.358 1.174 0.825 0.117 0.117 0.343 0.713 1.028 1.028 1.344 1.488 1.488 1.457 1.179 0.900 0.900 0.746 0.903 1.165 1.165 1.434 1.688 1.688 1.616 1.541 1.472 1.472 1.441 1.490 1.567 1.567 1.644 1.475 1.475 1.073 0.459 0.270 0.270 0.112 0.000 0.000 0.000 0.000 0.000 0.000 0.000 0.000 0.000 0.000 0.000 0.000 0.000 0.000 0.000 0.000 0.000 0.000 0.039 0.144 0.144 0.465 0.792 0.792 1.101 1.312 1.185 1.185 0.849 0.379 0.257 0.257 0.256 0.325 0.325 0.333 0.471 0.733 0.733 1.083 1.431 1.607 1.607 1.328 1.034 1.034 0.783 0.596 0.738 0.738 0.881 1.011 1.066 1.066 0.673 0.275 0.275 0.000 
0.000 0.692 0.692 0.605 0.435 0.238 0.238 0.160 0.143 0.143 0.149 0.151 0.115 0.115 0.027 0.033 0.022 0.022 0.001 0.004 0.004 0.006 0.013 0.031 0.031 0.057 0.083 0.109 0.109 0.110 0.110 0.110 0.108 0.102 0.079 0.079 0.051 0.024 0.008 0.008 0.000 0.000 0.000 0.000 0.190 0.520 0.520 0.951 1.381 1.381 1.666 1.684 1.691 1.691 1.648 1.532 1.129 1.129 0.726 0.418 0.418 0.422 0.747 1.149 1.149 1.551 1.637 1.656 1.656 1.627 1.587 1.587 1.331 0.874 0.126 0.126 0.203 0.510 0.912 0.912 1.296 1.454 1.454 1.391 1.063 0.737 0.737 0.565 0.786 1.098 1.098 1.407 1.688 1.688 1.614 1.539 1.473 1.473 1.446 1.483 1.541 1.541 1.599 1.414 1.414 1.122 0.741 0.311 0.311 0.103 0.042 0.008 0.008 0.000 0.000 0.000 0.000 0.000 0.000 0.000 0.000 0.000 0.000 0.000 0.000 0.000 0.000 0.000 0.000 0.000 0.000 0.356 0.716 0.716 1.045 1.226 1.063 1.063 0.677 0.134 0.015 0.015 0.054 0.191 0.191 0.239 0.405 0.663 0.663 0.852 1.239 1.506 1.506 1.211 0.917 0.917 0.680 0.522 0.688 0.688 0.855 1.005 1.063 1.063 0.659 0.253 0.253 0.000 
0.000 0.746 0.746 0.620 0.388 0.155 0.155 0.071 0.059 0.059 0.062 0.063 0.045 0.045 0.000 0.010 0.009 0.009 0.001 0.002 0.002 0.003 0.006 0.014 0.014 0.026 0.038 0.050 0.050 0.051 0.051 0.051 0.050 0.048 0.037 0.037 0.024 0.011 0.004 0.004 0.000 0.000 0.000 0.000 0.204 0.550 0.550 0.971 1.376 1.376 1.643 1.664 1.679 1.679 1.638 1.523 1.171 1.171 0.820 0.559 0.559 0.606 0.897 1.249 1.249 1.600 1.663 1.679 1.679 1.662 1.606 1.606 1.327 0.854 0.124 0.124 0.093 0.378 0.919 0.919 1.321 1.477 1.477 1.405 1.120 0.835 0.835 0.695 0.923 1.200 1.200 1.460 1.685 1.685 1.622 1.559 1.499 1.499 1.450 1.423 1.404 1.404 1.384 1.230 1.230 1.022 0.763 0.258 0.258 0.134 0.202 0.039 0.039 0.000 0.000 0.000 0.000 0.000 0.000 0.000 0.000 0.000 0.000 0.000 0.000 0.000 0.000 0.000 0.000 0.000 0.000 0.348 0.702 0.702 1.022 1.153 0.973 0.973 0.618 0.204 0.055 0.055 0.079 0.282 0.282 0.397 0.557 0.701 0.701 0.415 0.812 1.274 1.274 1.072 0.870 0.870 0.720 0.640 0.775 0.775 0.912 1.033 1.067 1.067 0.924 0.778 0.778 0.000 
0.000 0.737 0.737 0.600 0.346 0.092 0.092 0.009 0.006 0.006 0.006 0.006 0.004 0.004 0.000 0.001 0.001 0.001 0.000 0.000 0.000 0.000 0.000 0.001 0.001 0.001 0.001 0.002 0.002 0.001 0.001 0.001 0.001 0.001 0.000 0.000 0.000 0.000 0.000 0.000 0.000 0.000 0.000 0.000 0.217 0.579 0.579 0.991 1.370 1.370 1.619 1.643 1.667 1.667 1.630 1.518 1.219 1.219 0.922 0.711 0.711 0.797 1.053 1.350 1.350 1.646 1.687 1.700 1.700 1.693 1.619 1.619 1.317 0.836 0.146 0.146 0.031 0.292 0.932 0.932 1.348 1.504 1.504 1.429 1.191 0.955 0.955 0.848 1.071 1.307 1.307 1.515 1.683 1.683 1.632 1.582 1.527 1.527 1.448 1.352 1.250 1.250 1.146 1.041 1.041 0.933 0.809 0.340 0.340 0.264 0.356 0.070 0.070 0.000 0.000 0.000 0.000 0.000 0.000 0.000 0.000 0.000 0.000 0.000 0.000 0.000 0.000 0.000 0.000 0.000 0.000 0.344 0.693 0.693 1.002 1.083 0.891 0.891 0.560 0.229 0.110 0.110 0.166 0.422 0.422 0.605 0.742 0.775 0.775 0.314 0.607 1.044 1.044 0.952 0.860 0.860 0.801 0.785 0.880 0.880 0.976 1.059 1.071 1.071 1.056 1.037 1.037 0.000 
0.000 0.714 0.714 0.576 0.321 0.078 0.078 0.001 0.000 0.000 0.000 0.000 0.000 0.000 0.000 0.000 0.000 0.000 0.000 0.000 0.000 0.000 0.000 0.000 0.000 0.000 0.000 0.000 0.000 0.000 0.000 0.000 0.000 0.000 0.000 0.000 0.000 0.000 0.000 0.000 0.000 0.000 0.000 0.000 0.225 0.596 0.596 0.994 1.343 1.343 1.575 1.613 1.652 1.652 1.636 1.553 1.337 1.337 1.121 0.973 0.973 1.056 1.246 1.460 1.460 1.671 1.694 1.700 1.700 1.690 1.587 1.587 1.277 0.835 0.297 0.297 0.233 0.461 0.975 0.975 1.388 1.551 1.551 1.493 1.323 1.163 1.163 1.097 1.261 1.431 1.431 1.576 1.685 1.685 1.649 1.613 1.562 1.562 1.425 1.244 1.045 1.045 0.845 0.841 0.841 0.875 0.915 0.771 0.771 0.652 0.495 0.097 0.097 0.000 0.000 0.000 0.000 0.000 0.000 0.000 0.000 0.000 0.000 0.000 0.000 0.000 0.000 0.000 0.000 0.000 0.000 0.349 0.693 0.693 0.986 1.019 0.821 0.821 0.505 0.189 0.187 0.187 0.342 0.627 0.627 0.882 0.970 0.891 0.891 0.638 0.680 0.817 0.817 0.854 0.892 0.892 0.929 0.962 1.005 1.005 1.047 1.082 1.074 1.074 1.053 1.035 1.035 0.000 
0.000 0.688 0.688 0.551 0.297 0.071 0.071 0.000 0.000 0.000 0.000 0.000 0.000 0.000 0.000 0.000 0.000 0.000 0.000 0.000 0.000 0.000 0.000 0.000 0.000 0.000 0.000 0.000 0.000 0.000 0.000 0.000 0.000 0.000 0.000 0.000 0.000 0.001 0.001 0.001 0.001 0.001 0.001 0.001 0.234 0.612 0.612 0.996 1.315 1.315 1.530 1.583 1.637 1.637 1.642 1.591 1.456 1.456 1.321 1.233 1.233 1.308 1.430 1.561 1.561 1.688 1.696 1.698 1.698 1.686 1.556 1.556 1.237 0.822 0.395 0.395 0.390 0.606 1.017 1.017 1.428 1.533 1.533 1.401 1.418 1.367 1.367 1.336 1.442 1.547 1.547 1.631 1.688 1.688 1.666 1.644 1.596 1.596 1.397 1.133 0.845 0.845 0.559 0.662 0.662 0.839 1.034 1.128 1.128 0.973 0.620 0.123 0.123 0.000 0.000 0.000 0.000 0.000 0.000 0.000 0.000 0.000 0.000 0.000 0.000 0.000 0.000 0.000 0.000 0.000 0.000 0.349 0.687 0.687 0.962 0.951 0.750 0.750 0.450 0.151 0.250 0.250 0.430 0.581 0.581 1.035 1.151 0.956 0.956 0.759 0.646 0.632 0.632 0.787 0.943 0.943 1.059 1.115 1.112 1.112 1.108 1.102 1.080 1.080 1.054 1.035 1.035 0.000 
0.000 0.662 0.662 0.526 0.274 0.066 0.066 0.000 0.000 0.000 0.000 0.004 0.010 0.010 0.019 0.028 0.030 0.030 0.024 0.015 0.015 0.006 0.000 0.000 0.000 0.000 0.000 0.000 0.000 0.000 0.000 0.000 0.001 0.007 0.015 0.015 0.025 0.035 0.030 0.030 0.022 0.013 0.013 0.027 0.253 0.613 0.613 0.976 1.269 1.269 1.473 1.547 1.621 1.621 1.657 1.649 1.586 1.586 1.524 1.481 1.481 1.507 1.554 1.606 1.606 1.658 1.671 1.682 1.682 1.677 1.523 1.523 1.197 0.759 0.237 0.237 0.339 0.647 1.057 1.057 1.468 1.258 1.258 0.692 1.371 1.556 1.556 1.543 1.589 1.634 1.634 1.671 1.695 1.695 1.686 1.677 1.629 1.629 1.356 1.016 0.655 0.655 0.309 0.538 0.538 0.859 1.184 1.318 1.318 1.138 0.717 0.144 0.144 0.000 0.000 0.000 0.000 0.000 0.000 0.000 0.000 0.000 0.000 0.000 0.000 0.000 0.000 0.000 0.000 0.000 0.000 0.345 0.671 0.671 0.926 0.877 0.677 0.677 0.396 0.116 0.296 0.296 0.406 0.214 0.214 1.032 1.274 0.960 0.960 0.644 0.488 0.495 0.495 0.753 1.013 1.013 1.190 1.244 1.203 1.203 1.160 1.118 1.089 1.089 1.059 1.038 1.038 0.000 
0.000 0.636 0.636 0.501 0.251 0.061 0.061 0.000 0.000 0.000 0.000 0.008 0.021 0.021 0.040 0.058 0.061 0.061 0.049 0.030 0.030 0.013 0.000 0.000 0.000 0.000 0.000 0.000 0.000 0.000 0.000 0.000 0.002 0.015 0.035 0.035 0.058 0.082 0.071 0.071 0.049 0.024 0.024 0.050 0.268 0.606 0.606 0.943 1.210 1.210 1.404 1.503 1.602 1.602 1.669 1.700 1.700 1.700 1.700 1.693 1.693 1.664 1.633 1.606 1.606 1.589 1.617 1.648 1.648 1.662 1.488 1.488 1.157 0.705 0.125 0.125 0.309 0.687 1.098 1.098 1.503 1.119 1.119 0.317 1.375 1.700 1.700 1.700 1.700 1.700 1.700 1.700 1.700 1.700 1.700 1.700 1.654 1.654 1.337 0.960 0.573 0.573 0.217 0.521 0.521 0.922 1.317 1.444 1.444 1.236 0.769 0.156 0.156 0.000 0.000 0.000 0.000 0.000 0.000 0.000 0.000 0.000 0.000 0.000 0.000 0.000 0.000 0.000 0.000 0.000 0.000 0.270 0.565 0.565 0.837 0.763 0.578 0.578 0.334 0.094 0.305 0.305 0.372 0.017 0.017 0.936 1.237 0.928 0.928 0.620 0.484 0.510 0.510 0.774 1.038 1.038 1.217 1.274 1.246 1.246 1.214 1.180 1.135 1.135 1.091 1.059 1.059 0.000 
0.000 0.611 0.611 0.476 0.227 0.056 0.056 0.000 0.000 0.000 0.000 0.004 0.070 0.070 0.226 0.326 0.325 0.325 0.242 0.144 0.144 0.058 0.000 0.000 0.000 0.000 0.000 0.000 0.000 0.000 0.000 0.000 0.011 0.086 0.182 0.182 0.287 0.393 0.317 0.317 0.182 0.012 0.012 0.054 0.235 0.506 0.506 0.776 1.016 1.016 1.224 1.390 1.556 1.556 1.662 1.700 1.700 1.700 1.696 1.668 1.668 1.557 1.444 1.355 1.355 1.311 1.414 1.527 1.527 1.617 1.446 1.446 1.117 0.688 0.203 0.203 0.372 0.727 1.138 1.138 1.520 1.451 1.451 1.105 1.560 1.700 1.700 1.700 1.700 1.700 1.700 1.700 1.700 1.700 1.700 1.700 1.660 1.660 1.375 1.055 0.745 0.745 0.492 0.749 0.749 1.082 1.410 1.440 1.440 1.193 0.732 0.149 0.149 0.000 0.000 0.000 0.000 0.000 0.000 0.000 0.000 0.000 0.000 0.000 0.000 0.000 0.000 0.000 0.000 0.000 0.000 0.097 0.334 0.334 0.674 0.595 0.446 0.446 0.262 0.087 0.268 0.268 0.323 0.016 0.016 0.737 1.019 0.854 0.854 0.690 0.639 0.683 0.683 0.851 1.018 1.018 1.144 1.210 1.243 1.243 1.271 1.282 1.214 1.214 1.146 1.097 1.097 0.000 
0.000 0.585 0.585 0.450 0.204 0.050 0.050 0.000 0.000 0.000 0.000 0.000 0.119 0.119 0.418 0.602 0.598 0.598 0.439 0.260 0.260 0.105 0.000 0.000 0.000 0.000 0.000 0.000 0.000 0.000 0.000 0.000 0.021 0.158 0.331 0.331 0.517 0.701 0.562 0.562 0.318 0.014 0.014 0.059 0.200 0.404 0.404 0.606 0.822 0.822 1.046 1.280 1.514 1.514 1.657 1.695 1.608 1.608 1.619 1.639 1.639 1.444 1.249 1.101 1.101 1.039 1.216 1.412 1.412 1.577 1.406 1.406 1.077 0.666 0.255 0.255 0.422 0.767 1.178 1.178 1.535 1.700 1.700 1.700 1.700 1.700 1.700 1.700 1.700 1.700 1.700 1.700 1.700 1.700 1.700 1.699 1.664 1.664 1.418 1.158 0.922 0.922 0.760 0.968 0.968 1.235 1.495 1.434 1.434 1.151 0.695 0.143 0.143 0.000 0.000 0.000 0.000 0.000 0.000 0.000 0.000 0.000 0.000 0.000 0.000 0.000 0.000 0.000 0.000 0.000 0.000 0.000 0.159 0.159 0.453 0.388 0.301 0.301 0.199 0.087 0.227 0.227 0.282 0.086 0.086 0.583 0.828 0.808 0.808 0.789 0.800 0.836 0.836 0.908 0.978 0.978 1.059 1.159 1.254 1.254 1.333 1.380 1.288 1.288 1.196 1.129 1.129 0.000 
0.000 0.559 0.559 0.425 0.180 0.045 0.045 0.000 0.000 0.000 0.000 0.000 0.182 0.182 0.642 0.885 0.856 0.856 0.605 0.344 0.344 0.135 0.000 0.000 0.000 0.000 0.000 0.000 0.000 0.000 0.000 0.000 0.033 0.254 0.509 0.509 0.763 0.982 0.776 0.776 0.481 0.159 0.159 0.088 0.142 0.278 0.278 0.413 0.629 0.629 0.892 1.193 1.494 1.494 1.668 1.663 0.972 0.972 1.120 1.581 1.581 1.305 1.028 0.834 0.834 0.791 1.045 1.322 1.322 1.562 1.372 1.372 1.037 0.626 0.215 0.215 0.427 0.807 1.218 1.218 1.548 1.700 1.700 1.700 1.700 1.700 1.700 1.700 1.700 1.700 1.700 1.700 1.700 1.700 1.700 1.697 1.666 1.666 1.475 1.279 1.109 1.109 1.012 1.170 1.170 1.369 1.563 1.423 1.423 1.108 0.658 0.137 0.137 0.000 0.000 0.000 0.000 0.000 0.000 0.000 0.000 0.000 0.000 0.000 0.000 0.000 0.000 0.000 0.000 0.000 0.000 0.000 0.055 0.055 0.157 0.134 0.141 0.141 0.148 0.097 0.179 0.179 0.246 0.231 0.231 0.477 0.666 0.790 0.790 0.916 0.967 0.971 0.971 0.947 0.921 0.921 0.965 1.119 1.276 1.276 1.401 1.474 1.358 1.358 1.242 1.157 1.157 0.000 
0.000 0.533 0.533 0.400 0.156 0.039 0.039 0.000 0.000 0.000 0.000 0.000 0.244 0.244 0.865 1.166 1.113 1.113 0.770 0.427 0.427 0.165 0.000 0.000 0.000 0.000 0.000 0.000 0.000 0.000 0.000 0.000 0.044 0.346 0.678 0.678 0.993 1.238 0.969 0.969 0.625 0.285 0.285 0.111 0.085 0.157 0.157 0.229 0.449 0.449 0.750 1.115 1.478 1.478 1.679 1.644 0.552 0.552 0.785 1.527 1.527 1.182 0.836 0.607 0.607 0.591 0.910 1.255 1.255 1.558 1.347 1.347 1.010 0.610 0.218 0.218 0.462 0.862 1.265 1.265 1.563 1.700 1.700 1.700 1.700 1.696 1.696 1.690 1.682 1.673 1.673 1.670 1.677 1.677 1.686 1.689 1.669 1.669 1.529 1.391 1.278 1.278 1.232 1.345 1.345 1.484 1.619 1.417 1.417 1.086 0.654 0.179 0.179 0.026 0.000 0.000 0.000 0.000 0.000 0.000 0.000 0.000 0.000 0.000 0.000 0.000 0.000 0.000 0.000 0.000 0.000 0.000 0.000 0.000 0.000 0.000 0.043 0.043 0.102 0.137 0.182 0.182 0.228 0.274 0.274 0.332 0.520 0.823 0.823 1.053 1.114 1.071 1.071 0.968 0.875 0.875 0.891 1.075 1.264 1.264 1.409 1.490 1.379 1.379 1.268 1.187 1.187 0.000 
0.000 0.550 0.550 0.430 0.206 0.099 0.099 0.034 0.000 0.000 0.000 0.000 0.283 0.283 1.008 1.291 1.205 1.205 0.821 0.436 0.436 0.163 0.000 0.000 0.000 0.000 0.000 0.000 0.000 0.000 0.000 0.000 0.049 0.387 0.739 0.739 1.051 1.254 0.970 0.970 0.613 0.260 0.260 0.088 0.039 0.072 0.072 0.105 0.348 0.348 0.691 1.094 1.482 1.482 1.690 1.676 1.187 1.187 1.248 1.485 1.485 1.127 0.768 0.547 0.547 0.583 0.916 1.275 1.275 1.588 1.355 1.355 1.032 0.674 0.361 0.361 0.595 0.964 1.335 1.335 1.585 1.700 1.700 1.700 1.700 1.684 1.684 1.656 1.619 1.582 1.582 1.572 1.604 1.604 1.641 1.668 1.672 1.672 1.578 1.484 1.411 1.411 1.390 1.468 1.468 1.561 1.653 1.422 1.422 1.099 0.707 0.299 0.299 0.093 0.000 0.000 0.000 0.000 0.000 0.000 0.000 0.000 0.000 0.000 0.000 0.000 0.000 0.000 0.000 0.000 0.000 0.000 0.000 0.000 0.000 0.000 0.014 0.014 0.062 0.210 0.236 0.236 0.228 0.220 0.220 0.151 0.387 0.901 0.901 1.199 1.243 1.140 1.140 0.975 0.838 0.838 0.834 1.029 1.226 1.226 1.371 1.449 1.365 1.365 1.281 1.219 1.219 0.000 
0.000 0.570 0.570 0.461 0.258 0.161 0.161 0.069 0.000 0.000 0.000 0.000 0.321 0.321 1.148 1.410 1.292 1.292 0.868 0.444 0.444 0.161 0.000 0.000 0.000 0.000 0.000 0.000 0.000 0.000 0.001 0.001 0.054 0.417 0.778 0.778 1.077 1.233 0.942 0.942 0.583 0.228 0.228 0.066 0.000 0.000 0.000 0.000 0.265 0.265 0.648 1.084 1.488 1.488 1.700 1.700 1.700 1.700 1.625 1.458 1.458 1.107 0.757 0.556 0.556 0.635 0.965 1.315 1.315 1.621 1.376 1.376 1.079 0.773 0.542 0.542 0.757 1.084 1.410 1.410 1.609 1.700 1.700 1.700 1.700 1.663 1.663 1.602 1.524 1.449 1.449 1.432 1.503 1.503 1.581 1.641 1.675 1.675 1.615 1.555 1.511 1.511 1.508 1.559 1.559 1.619 1.677 1.444 1.444 1.151 0.816 0.482 0.482 0.250 0.090 0.090 0.010 0.000 0.000 0.000 0.000 0.000 0.000 0.000 0.000 0.000 0.000 0.000 0.000 0.000 0.000 0.000 0.000 0.000 0.003 0.064 0.119 0.119 0.197 0.371 0.379 0.379 0.341 0.304 0.304 0.252 0.500 1.014 1.014 1.321 1.332 1.178 1.178 0.978 0.820 0.820 0.792 0.953 1.113 1.113 1.238 1.321 1.304 1.304 1.288 1.278 1.278 0.000 
0.000 0.664 0.664 0.583 0.427 0.308 0.308 0.189 0.082 0.082 0.013 0.000 0.319 0.319 1.146 1.347 1.209 1.209 0.799 0.390 0.390 0.135 0.000 0.000 0.000 0.000 0.000 0.000 0.000 0.000 0.010 0.010 0.063 0.343 0.621 0.621 0.844 0.934 0.706 0.706 0.429 0.155 0.155 0.045 0.000 0.000 0.000 0.000 0.287 0.287 0.690 1.127 1.503 1.503 1.700 1.700 1.700 1.700 1.633 1.494 1.494 1.224 0.956 0.812 0.812 0.903 1.158 1.426 1.426 1.658 1.443 1.443 1.205 0.978 0.830 0.830 1.000 1.249 1.499 1.499 1.637 1.700 1.700 1.700 1.700 1.624 1.624 1.503 1.358 1.226 1.226 1.204 1.346 1.346 1.492 1.605 1.677 1.677 1.631 1.586 1.554 1.554 1.558 1.597 1.597 1.642 1.687 1.492 1.492 1.263 1.010 0.757 0.757 0.537 0.309 0.309 0.034 0.000 0.000 0.000 0.000 0.000 0.000 0.000 0.000 0.000 0.000 0.000 0.000 0.000 0.000 0.000 0.000 0.000 0.010 0.191 0.356 0.356 0.502 0.617 0.606 0.606 0.559 0.511 0.511 0.601 0.822 1.155 1.155 1.423 1.389 1.192 1.192 0.978 0.817 0.817 0.762 0.855 0.948 0.948 1.041 1.132 1.212 1.212 1.292 1.353 1.353 0.000 
0.000 0.760 0.760 0.707 0.597 0.456 0.456 0.309 0.163 0.163 0.026 0.000 0.316 0.316 1.143 1.285 1.127 1.127 0.731 0.336 0.336 0.110 0.000 0.000 0.000 0.000 0.000 0.000 0.000 0.000 0.017 0.017 0.069 0.266 0.461 0.461 0.609 0.639 0.475 0.475 0.279 0.087 0.087 0.025 0.000 0.001 0.001 0.004 0.311 0.311 0.733 1.169 1.519 1.519 1.700 1.700 1.700 1.700 1.644 1.536 1.536 1.349 1.162 1.072 1.072 1.165 1.344 1.528 1.528 1.686 1.512 1.512 1.339 1.188 1.112 1.112 1.234 1.407 1.579 1.579 1.662 1.700 1.700 1.700 1.700 1.484 1.484 1.221 1.155 0.952 0.952 0.919 1.197 1.197 1.412 1.576 1.681 1.681 1.650 1.619 1.599 1.599 1.606 1.633 1.633 1.664 1.694 1.548 1.548 1.388 1.214 1.024 1.024 0.792 0.503 0.503 0.123 0.029 0.000 0.000 0.000 0.000 0.000 0.000 0.000 0.000 0.000 0.000 0.000 0.000 0.000 0.000 0.000 0.000 0.009 0.186 0.470 0.470 0.767 0.855 0.831 0.831 0.774 0.717 0.717 0.861 1.057 1.286 1.286 1.500 1.428 1.203 1.203 0.974 0.803 0.803 0.716 0.742 0.767 0.767 0.842 0.966 1.143 1.143 1.320 1.452 1.452 0.000 
0.000 0.878 0.878 0.851 0.786 0.593 0.593 0.394 0.199 0.199 0.033 0.000 0.312 0.312 1.134 1.225 1.050 1.050 0.669 0.288 0.288 0.087 0.000 0.000 0.000 0.000 0.000 0.000 0.000 0.000 0.012 0.012 0.045 0.159 0.273 0.273 0.356 0.367 0.271 0.271 0.157 0.045 0.045 0.013 0.000 0.004 0.004 0.026 0.345 0.345 0.775 1.212 1.534 1.534 1.700 1.700 1.700 1.700 1.667 1.603 1.603 1.497 1.393 1.344 1.344 1.404 1.505 1.605 1.605 1.688 1.591 1.591 1.495 1.413 1.378 1.378 1.447 1.543 1.638 1.638 1.681 1.700 1.700 1.700 1.700 1.134 1.134 0.563 0.880 0.581 0.581 0.524 1.060 1.060 1.349 1.558 1.689 1.689 1.673 1.656 1.646 1.646 1.651 1.665 1.665 1.682 1.698 1.617 1.617 1.531 1.433 1.281 1.281 1.005 0.665 0.665 0.292 0.095 0.000 0.000 0.000 0.000 0.000 0.000 0.000 0.000 0.000 0.000 0.000 0.000 0.000 0.000 0.000 0.000 0.003 0.059 0.472 0.472 0.995 1.085 1.054 1.054 0.987 0.921 0.921 1.052 1.221 1.410 1.410 1.559 1.453 1.211 1.211 0.968 0.782 0.782 0.660 0.618 0.576 0.576 0.642 0.815 1.087 1.087 1.361 1.566 1.566 0.000 
0.000 0.993 0.993 0.992 0.971 0.726 0.726 0.475 0.235 0.235 0.042 0.002 0.306 0.306 1.117 1.157 0.965 0.965 0.602 0.239 0.239 0.064 0.000 0.000 0.000 0.000 0.000 0.000 0.000 0.000 0.007 0.007 0.022 0.063 0.104 0.104 0.132 0.127 0.091 0.091 0.051 0.010 0.010 0.003 0.000 0.007 0.007 0.050 0.381 0.381 0.818 1.255 1.550 1.550 1.700 1.700 1.700 1.700 1.685 1.659 1.659 1.620 1.582 1.567 1.567 1.596 1.634 1.586 1.586 1.458 1.592 1.592 1.619 1.590 1.585 1.585 1.611 1.647 1.682 1.682 1.695 1.700 1.700 1.700 1.696 1.011 1.011 0.330 0.750 0.439 0.439 0.391 1.010 1.010 1.333 1.559 1.695 1.695 1.689 1.683 1.679 1.679 1.682 1.688 1.688 1.694 1.700 1.666 1.666 1.631 1.582 1.443 1.443 1.132 0.753 0.753 0.375 0.139 0.014 0.014 0.000 0.000 0.000 0.000 0.000 0.000 0.000 0.000 0.000 0.000 0.000 0.000 0.000 0.000 0.000 0.000 0.455 0.455 1.062 1.157 1.151 1.151 1.115 1.080 1.080 1.200 1.345 1.497 1.497 1.593 1.477 1.247 1.247 1.017 0.842 0.842 0.716 0.647 0.579 0.579 0.643 0.838 1.131 1.131 1.421 1.636 1.636 0.000 
0.000 1.031 1.031 1.029 1.006 0.742 0.742 0.475 0.236 0.236 0.100 0.032 0.267 0.267 0.979 0.980 0.799 0.799 0.488 0.178 0.178 0.041 0.000 0.000 0.000 0.000 0.000 0.000 0.000 0.000 0.003 0.003 0.010 0.029 0.047 0.047 0.060 0.057 0.041 0.041 0.023 0.005 0.005 0.001 0.000 0.011 0.011 0.085 0.424 0.424 0.861 1.297 1.566 1.566 1.700 1.700 1.700 1.700 1.694 1.683 1.683 1.666 1.651 1.644 1.644 1.657 1.673 1.314 1.314 0.639 1.397 1.397 1.667 1.656 1.654 1.654 1.664 1.679 1.693 1.693 1.698 1.700 1.700 1.699 1.684 1.310 1.310 0.885 0.886 0.698 0.698 0.712 1.110 1.110 1.395 1.591 1.698 1.698 1.696 1.694 1.692 1.692 1.693 1.696 1.696 1.698 1.700 1.688 1.688 1.676 1.644 1.486 1.486 1.156 0.756 0.756 0.356 0.156 0.042 0.042 0.000 0.000 0.000 0.000 0.000 0.000 0.000 0.000 0.000 0.000 0.000 0.000 0.000 0.000 0.000 0.000 0.424 0.424 0.997 1.103 1.149 1.149 1.177 1.206 1.206 1.318 1.440 1.560 1.560 1.611 1.500 1.301 1.301 1.102 0.953 0.953 0.841 0.768 0.695 0.695 0.760 0.959 1.230 1.230 1.491 1.685 1.685 0.000 
0.000 1.067 1.067 1.064 1.037 0.755 0.755 0.473 0.234 0.234 0.152 0.066 0.235 0.235 0.834 0.799 0.631 0.631 0.375 0.119 0.119 0.019 0.000 0.000 0.000 0.000 0.000 0.000 0.000 0.000 0.000 0.000 0.000 0.000 0.000 0.000 0.000 0.000 0.000 0.000 0.000 0.000 0.000 0.000 0.000 0.016 0.016 0.121 0.467 0.467 0.903 1.340 1.582 1.582 1.700 1.700 1.700 1.700 1.700 1.700 1.700 1.700 1.700 1.700 1.700 1.700 1.700 1.214 1.214 0.317 1.328 1.328 1.700 1.700 1.700 1.700 1.700 1.700 1.700 1.700 1.700 1.700 1.700 1.698 1.675 1.511 1.511 1.274 1.038 0.941 0.941 0.992 1.229 1.229 1.465 1.622 1.700 1.700 1.700 1.700 1.700 1.700 1.700 1.700 1.700 1.700 1.700 1.700 1.700 1.700 1.675 1.494 1.494 1.149 0.739 0.739 0.328 0.158 0.064 0.064 0.019 0.017 0.009 0.009 0.000 0.000 0.000 0.000 0.000 0.000 0.000 0.000 0.000 0.000 0.000 0.000 0.359 0.359 0.857 1.001 1.116 1.116 1.222 1.323 1.323 1.420 1.515 1.605 1.605 1.627 1.534 1.376 1.376 1.220 1.105 1.105 1.017 0.956 0.895 0.895 0.954 1.128 1.346 1.346 1.551 1.700 1.700 0.000 
0.000 1.070 1.070 1.056 1.010 0.727 0.727 0.445 0.207 0.207 0.129 0.134 0.282 0.282 0.632 0.584 0.452 0.452 0.263 0.078 0.078 0.009 0.000 0.000 0.000 0.000 0.000 0.000 0.000 0.000 0.000 0.000 0.000 0.000 0.000 0.000 0.000 0.000 0.000 0.000 0.000 0.000 0.000 0.000 0.000 0.020 0.020 0.156 0.509 0.509 0.946 1.382 1.599 1.599 1.700 1.700 1.700 1.700 1.700 1.700 1.700 1.700 1.700 1.700 1.700 1.700 1.700 1.504 1.504 1.142 1.550 1.550 1.700 1.700 1.700 1.700 1.700 1.700 1.700 1.700 1.700 1.700 1.700 1.698 1.672 1.551 1.551 1.381 1.213 1.159 1.159 1.208 1.378 1.378 1.547 1.653 1.700 1.700 1.700 1.700 1.700 1.700 1.700 1.700 1.700 1.700 1.700 1.700 1.700 1.700 1.672 1.462 1.462 1.109 0.698 0.698 0.288 0.144 0.078 0.078 0.058 0.051 0.028 0.028 0.000 0.000 0.000 0.000 0.000 0.000 0.000 0.000 0.000 0.000 0.000 0.000 0.269 0.269 0.662 0.862 1.061 1.061 1.254 1.435 1.435 1.511 1.578 1.640 1.640 1.643 1.574 1.465 1.465 1.356 1.281 1.281 1.223 1.181 1.139 1.139 1.187 1.320 1.471 1.471 1.605 1.700 1.700 0.000 
0.000 1.072 1.072 1.048 0.982 0.700 0.700 0.417 0.180 0.180 0.104 0.185 0.307 0.307 0.428 0.372 0.276 0.276 0.155 0.039 0.039 0.000 0.000 0.000 0.000 0.000 0.000 0.000 0.000 0.000 0.000 0.000 0.000 0.000 0.000 0.000 0.000 0.000 0.000 0.000 0.000 0.000 0.000 0.000 0.000 0.024 0.024 0.190 0.552 0.552 0.988 1.425 1.615 1.615 1.700 1.696 1.529 1.529 1.559 1.700 1.700 1.700 1.700 1.700 1.700 1.700 1.700 1.700 1.700 1.700 1.700 1.700 1.700 1.700 1.700 1.700 1.700 1.700 1.700 1.700 1.700 1.700 1.700 1.698 1.675 1.600 1.600 1.497 1.395 1.373 1.373 1.411 1.514 1.514 1.616 1.677 1.700 1.700 1.700 1.700 1.700 1.700 1.700 1.700 1.700 1.700 1.700 1.700 1.700 1.700 1.669 1.430 1.430 1.069 0.658 0.658 0.247 0.131 0.089 0.089 0.082 0.074 0.048 0.048 0.013 0.003 0.003 0.000 0.000 0.000 0.000 0.000 0.000 0.000 0.000 0.000 0.163 0.163 0.434 0.737 1.029 1.029 1.301 1.538 1.538 1.594 1.632 1.668 1.668 1.665 1.625 1.563 1.563 1.502 1.460 1.460 1.429 1.406 1.383 1.383 1.412 1.491 1.576 1.576 1.649 1.700 1.700 0.000 
0.000 1.075 1.075 1.040 0.955 0.672 0.672 0.390 0.149 0.149 0.060 0.087 0.143 0.143 0.199 0.172 0.128 0.128 0.071 0.018 0.018 0.000 0.000 0.000 0.000 0.000 0.000 0.000 0.000 0.000 0.000 0.000 0.000 0.000 0.000 0.000 0.000 0.000 0.000 0.000 0.000 0.000 0.000 0.000 0.000 0.028 0.028 0.225 0.594 0.594 1.031 1.467 1.632 1.632 1.700 1.685 0.914 0.914 1.058 1.700 1.700 1.700 1.700 1.700 1.700 1.700 1.700 1.700 1.700 1.700 1.700 1.700 1.700 1.700 1.700 1.700 1.700 1.700 1.700 1.700 1.700 1.700 1.700 1.699 1.691 1.663 1.663 1.625 1.588 1.581 1.581 1.596 1.633 1.633 1.670 1.692 1.700 1.700 1.700 1.700 1.700 1.700 1.700 1.700 1.700 1.700 1.700 1.700 1.700 1.700 1.666 1.398 1.398 1.029 0.618 0.618 0.207 0.117 0.097 0.097 0.095 0.088 0.068 0.068 0.039 0.008 0.008 0.000 0.000 0.000 0.000 0.000 0.000 0.000 0.000 0.000 0.045 0.045 0.184 0.619 1.010 1.010 1.356 1.637 1.637 1.672 1.682 1.692 1.692 1.691 1.681 1.666 1.666 1.651 1.642 1.642 1.635 1.631 1.626 1.626 1.634 1.653 1.672 1.672 1.689 1.700 1.700 0.000 
0.000 1.078 1.078 1.032 0.927 0.645 0.645 0.362 0.119 0.119 0.021 0.000 0.000 0.000 0.000 0.000 0.000 0.000 0.000 0.000 0.000 0.000 0.000 0.000 0.000 0.000 0.000 0.000 0.000 0.000 0.000 0.000 0.000 0.000 0.000 0.000 0.000 0.000 0.000 0.000 0.000 0.000 0.000 0.000 0.000 0.032 0.032 0.260 0.637 0.637 1.073 1.510 1.648 1.648 1.700 1.683 0.670 0.670 0.860 1.700 1.700 1.700 1.700 1.700 1.700 1.700 1.700 1.700 1.700 1.700 1.700 1.700 1.700 1.700 1.700 1.700 1.700 1.700 1.700 1.700 1.700 1.700 1.700 1.700 1.700 1.700 1.700 1.700 1.700 1.700 1.700 1.602 1.336 1.336 1.572 1.700 1.673 1.673 1.395 1.489 1.700 1.700 1.700 1.700 1.700 1.700 1.700 1.700 1.700 1.700 1.663 1.366 1.366 0.989 0.581 0.581 0.180 0.108 0.100 0.100 0.100 0.093 0.076 0.076 0.048 0.010 0.010 0.000 0.000 0.000 0.000 0.000 0.000 0.000 0.000 0.000 0.000 0.000 0.090 0.595 1.029 1.029 1.396 1.674 1.674 1.700 1.700 1.700 1.700 1.700 1.700 1.700 1.700 1.700 1.700 1.700 1.700 1.700 1.700 1.700 1.700 1.700 1.700 1.700 1.700 1.700 1.700 0.000 
0.000 1.080 1.080 1.025 0.900 0.617 0.617 0.335 0.095 0.095 0.017 0.000 0.000 0.000 0.000 0.000 0.000 0.000 0.000 0.000 0.000 0.000 0.000 0.000 0.000 0.000 0.000 0.000 0.000 0.000 0.000 0.000 0.000 0.000 0.000 0.000 0.000 0.000 0.000 0.000 0.000 0.000 0.000 0.000 0.000 0.036 0.036 0.294 0.679 0.679 1.116 1.553 1.665 1.665 1.700 1.694 1.285 1.285 1.361 1.700 1.700 1.700 1.700 1.700 1.700 1.700 1.700 1.700 1.700 1.700 1.700 1.700 1.700 1.700 1.700 1.700 1.700 1.700 1.700 1.700 1.700 1.700 1.700 1.700 1.700 1.700 1.700 1.700 1.700 1.700 1.700 1.380 0.511 0.511 1.282 1.700 1.616 1.616 0.735 1.033 1.700 1.700 1.700 1.700 1.700 1.700 1.700 1.700 1.700 1.700 1.660 1.334 1.334 0.949 0.546 0.546 0.164 0.103 0.100 0.100 0.100 0.092 0.073 0.073 0.046 0.010 0.010 0.000 0.000 0.000 0.000 0.000 0.000 0.000 0.000 0.000 0.000 0.000 0.094 0.627 1.069 1.069 1.427 1.676 1.676 1.700 1.700 1.700 1.700 1.700 1.700 1.700 1.700 1.700 1.700 1.700 1.700 1.700 1.700 1.700 1.700 1.700 1.700 1.700 1.700 1.700 1.700 0.000 
0.000 1.024 1.024 0.960 0.823 0.556 0.556 0.291 0.069 0.069 0.012 0.000 0.000 0.000 0.000 0.000 0.000 0.000 0.000 0.000 0.000 0.000 0.000 0.000 0.000 0.000 0.000 0.000 0.000 0.000 0.000 0.000 0.000 0.000 0.000 0.000 0.000 0.000 0.000 0.000 0.000 0.000 0.000 0.000 0.000 0.033 0.033 0.272 0.605 0.605 0.975 1.342 1.418 1.418 1.432 1.428 1.423 1.423 1.419 1.414 1.414 1.409 1.405 1.400 1.400 1.396 1.391 1.386 1.386 1.382 1.377 1.377 1.372 1.368 1.363 1.363 1.359 1.354 1.349 1.349 1.345 1.340 1.340 1.336 1.331 1.326 1.326 1.322 1.317 1.312 1.312 0.971 0.053 0.053 0.859 1.294 1.206 1.206 0.300 0.600 1.276 1.276 1.271 1.266 1.266 1.262 1.257 1.252 1.252 1.248 1.214 0.962 0.962 0.676 0.384 0.384 0.114 0.072 0.072 0.072 0.071 0.064 0.051 0.051 0.032 0.007 0.007 0.000 0.000 0.000 0.000 0.000 0.000 0.000 0.000 0.000 0.000 0.000 0.064 0.430 0.727 0.727 0.961 1.116 1.116 1.128 1.123 1.119 1.119 1.114 1.109 1.105 1.105 1.100 1.096 1.096 1.091 1.086 1.082 1.082 1.077 1.072 1.068 1.068 1.063 1.059 1.059 0.000 
0.000 0.477 0.477 0.446 0.381 0.257 0.257 0.134 0.032 0.032 0.006 0.000 0.000 0.000 0.000 0.000 0.000 0.000 0.000 0.000 0.000 0.000 0.000 0.000 0.000 0.000 0.000 0.000 0.000 0.000 0.000 0.000 0.000 0.000 0.000 0.000 0.000 0.000 0.000 0.000 0.000 0.000 0.000 0.000 0.000 0.013 0.013 0.111 0.246 0.246 0.395 0.541 0.570 0.570 0.573 0.568 0.564 0.564 0.559 0.555 0.555 0.550 0.545 0.541 0.541 0.536 0.531 0.527 0.527 0.522 0.518 0.518 0.513 0.508 0.504 0.504 0.499 0.495 0.490 0.490 0.485 0.481 0.481 0.476 0.471 0.467 0.467 0.462 0.458 0.453 0.453 0.334 0.019 0.019 0.289 0.435 0.403 0.403 0.100 0.196 0.416 0.416 0.411 0.407 0.407 0.402 0.398 0.393 0.393 0.388 0.375 0.295 0.295 0.205 0.116 0.116 0.034 0.021 0.021 0.021 0.021 0.019 0.015 0.015 0.009 0.002 0.002 0.000 0.000 0.000 0.000 0.000 0.000 0.000 0.000 0.000 0.000 0.000 0.016 0.107 0.179 0.179 0.234 0.269 0.269 0.268 0.264 0.259 0.259 0.254 0.250 0.245 0.245 0.241 0.236 0.236 0.231 0.227 0.222 0.222 0.218 0.213 0.208 0.208 0.204 0.199 0.199 0.000 
0.000 0.000 0.000 0.000 0.000 0.000 0.000 0.000 0.000 0.000 0.000 0.000 0.000 0.000 0.000 0.000 0.000 0.000 0.000 0.000 0.000 0.000 0.000 0.000 0.000 0.000 0.000 0.000 0.000 0.000 0.000 0.000 0.000 0.000 0.000 0.000 0.000 0.000 0.000 0.000 0.000 0.000 0.000 0.000 0.000 0.000 0.000 0.000 0.000 0.000 0.000 0.000 0.000 0.000 0.000 0.000 0.000 0.000 0.000 0.000 0.000 0.000 0.000 0.000 0.000 0.000 0.000 0.000 0.000 0.000 0.000 0.000 0.000 0.000 0.000 0.000 0.000 0.000 0.000 0.000 0.000 0.000 0.000 0.000 0.000 0.000 0.000 0.000 0.000 0.000 0.000 0.000 0.000 0.000 0.000 0.000 0.000 0.000 0.000 0.000 0.000 0.000 0.000 0.000 0.000 0.000 0.000 0.000 0.000 0.000 0.000 0.000 0.000 0.000 0.000 0.000 0.000 0.000 0.000 0.000 0.000 0.000 0.000 0.000 0.000 0.000 0.000 0.000 0.000 0.000 0.000 0.000 0.000 0.000 0.000 0.000 0.000 0.000 0.000 0.000 0.000 0.000 0.000 0.000 0.000 0.000 0.000 0.000 0.000 0.000 0.000 0.000 0.000 0.000 0.000 0.000 0.000 0.000 0.000 0.000 0.000 0.000 0.000 0.000 0.000 0.000 0.000 0.000 
0.000 0.000 0.000 0.000 0.000 0.000 0.000 0.000 0.000 0.000 0.000 0.000 0.000 0.000 0.000 0.000 0.000 0.000 0.000 0.000 0.000 0.000 0.000 0.000 0.000 0.000 0.000 0.000 0.000 0.000 0.000 0.000 0.000 0.000 0.000 0.000 0.000 0.000 0.000 0.000 0.000 0.000 0.000 0.000 0.000 0.000 0.000 0.000 0.000 0.000 0.000 0.000 0.000 0.000 0.000 0.000 0.000 0.000 0.000 0.000 0.000 0.000 0.000 0.000 0.000 0.000 0.000 0.000 0.000 0.000 0.000 0.000 0.000 0.000 0.000 0.000 0.000 0.000 0.000 0.000 0.000 0.000 0.000 0.000 0.000 0.000 0.000 0.000 0.000 0.000 0.000 0.000 0.000 0.000 0.000 0.000 0.000 0.000 0.000 0.000 0.000 0.000 0.000 0.000 0.000 0.000 0.000 0.000 0.000 0.000 0.000 0.000 0.000 0.000 0.000 0.000 0.000 0.000 0.000 0.000 0.000 0.000 0.000 0.000 0.000 0.000 0.000 0.000 0.000 0.000 0.000 0.000 0.000 0.000 0.000 0.000 0.000 0.000 0.000 0.000 0.000 0.000 0.000 0.000 0.000 0.000 0.000 0.000 0.000 0.000 0.000 0.000 0.000 0.000 0.000 0.000 0.000 0.000 0.000 0.000 0.000 0.000 0.000 0.000 0.000 0.000 0.000 0.000 
0.000 0.000 0.000 0.000 0.000 0.000 0.000 0.000 0.000 0.000 0.000 0.000 0.000 0.000 0.000 0.000 0.000 0.000 0.000 0.000 0.000 0.000 0.000 0.000 0.000 0.000 0.000 0.000 0.000 0.000 0.000 0.000 0.000 0.000 0.000 0.000 0.000 0.000 0.000 0.000 0.000 0.000 0.000 0.000 0.000 0.000 0.000 0.000 0.000 0.000 0.000 0.000 0.000 0.000 0.000 0.000 0.000 0.000 0.000 0.000 0.000 0.000 0.000 0.000 0.000 0.000 0.000 0.000 0.000 0.000 0.000 0.000 0.000 0.000 0.000 0.000 0.000 0.000 0.000 0.000 0.000 0.000 0.000 0.000 0.000 0.000 0.000 0.000 0.000 0.000 0.000 0.000 0.000 0.000 0.000 0.000 0.000 0.000 0.000 0.000 0.000 0.000 0.000 0.000 0.000 0.000 0.000 0.000 0.000 0.000 0.000 0.000 0.000 0.000 0.000 0.000 0.000 0.000 0.000 0.000 0.000 0.000 0.000 0.000 0.000 0.000 0.000 0.000 0.000 0.000 0.000 0.000 0.000 0.000 0.000 0.000 0.000 0.000 0.000 0.000 0.000 0.000 0.000 0.000 0.000 0.000 0.000 0.000 0.000 0.000 0.000 0.000 0.000 0.000 0.000 0.000 0.000 0.000 0.000 0.000 0.000 0.000 0.000 0.000 0.000 0.000 0.000 0.000 
0.000 0.000 0.000 0.000 0.000 0.000 0.000 0.000 0.000 0.000 0.000 0.000 0.000 0.000 0.000 0.000 0.000 0.000 0.000 0.000 0.000 0.000 0.000 0.000 0.000 0.000 0.000 0.000 0.000 0.000 0.000 0.000 0.000 0.000 0.000 0.000 0.000 0.000 0.000 0.000 0.000 0.000 0.000 0.000 0.000 0.000 0.000 0.000 0.000 0.000 0.000 0.000 0.000 0.000 0.000 0.000 0.000 0.000 0.000 0.000 0.000 0.000 0.000 0.000 0.000 0.000 0.000 0.000 0.000 0.000 0.000 0.000 0.000 0.000 0.000 0.000 0.000 0.000 0.000 0.000 0.000 0.000 0.000 0.000 0.000 0.000 0.000 0.000 0.000 0.000 0.000 0.000 0.000 0.000 0.000 0.000 0.000 0.000 0.000 0.000 0.000 0.000 0.000 0.000 0.000 0.000 0.000 0.000 0.000 0.000 0.000 0.000 0.000 0.000 0.000 0.000 0.000 0.000 0.000 0.000 0.000 0.000 0.000 0.000 0.000 0.000 0.000 0.000 0.000 0.000 0.000 0.000 0.000 0.000 0.000 0.000 0.000 0.000 0.000 0.000 0.000 0.000 0.000 0.000 0.000 0.000 0.000 0.000 0.000 0.000 0.000 0.000 0.000 0.000 0.000 0.000 0.000 0.000 0.000 0.000 0.000 0.000 0.000 0.000 0.000 0.000 0.000 0.000 
0.000 0.000 0.000 0.000 0.000 0.000 0.000 0.000 0.000 0.000 0.000 0.000 0.000 0.000 0.000 0.000 0.000 0.000 0.000 0.000 0.000 0.000 0.000 0.000 0.000 0.000 0.000 0.000 0.000 0.000 0.000 0.000 0.000 0.000 0.000 0.000 0.000 0.000 0.000 0.000 0.000 0.000 0.000 0.000 0.000 0.000 0.000 0.000 0.000 0.000 0.000 0.000 0.000 0.000 0.000 0.000 0.000 0.000 0.000 0.000 0.000 0.000 0.000 0.000 0.000 0.000 0.000 0.000 0.000 0.000 0.000 0.000 0.000 0.000 0.000 0.000 0.000 0.000 0.000 0.000 0.000 0.000 0.000 0.000 0.000 0.000 0.000 0.000 0.000 0.000 0.000 0.000 0.000 0.000 0.000 0.000 0.000 0.000 0.000 0.000 0.000 0.000 0.000 0.000 0.000 0.000 0.000 0.000 0.000 0.000 0.000 0.000 0.000 0.000 0.000 0.000 0.000 0.000 0.000 0.000 0.000 0.000 0.000 0.000 0.000 0.000 0.000 0.000 0.000 0.000 0.000 0.000 0.000 0.000 0.000 0.000 0.000 0.000 0.000 0.000 0.000 0.000 0.000 0.000 0.000 0.000 0.000 0.000 0.000 0.000 0.000 0.000 0.000 0.000 0.000 0.000 0.000 0.000 0.000 0.000 0.000 0.000 0.000 0.000 0.000 0.000 0.000 0.000 
0.000 0.089 0.089 0.077 0.065 0.049 0.049 0.029 0.010 0.010 0.001 0.003 0.005 0.005 0.005 0.005 0.005 0.005 0.004 0.002 0.002 0.001 0.000 0.001 0.001 0.001 0.001 0.001 0.001 0.001 0.001 0.001 0.001 0.001 0.001 0.001 0.001 0.001 0.001 0.001 0.000 0.000 0.000 0.001 0.004 0.008 0.008 0.021 0.046 0.046 0.070 0.087 0.098 0.098 0.108 0.116 0.122 0.122 0.127 0.122 0.122 0.106 0.089 0.081 0.081 0.081 0.080 0.079 0.079 0.078 0.077 0.077 0.076 0.077 0.077 0.077 0.077 0.076 0.074 0.074 0.073 0.071 0.071 0.069 0.069 0.073 0.073 0.076 0.062 0.031 0.031 0.001 0.000 0.000 0.007 0.022 0.025 0.025 0.018 0.011 0.017 0.017 0.035 0.053 0.053 0.059 0.055 0.051 0.051 0.046 0.039 0.033 0.033 0.025 0.015 0.015 0.006 0.001 0.002 0.002 0.002 0.002 0.002 0.002 0.001 0.001 0.001 0.001 0.001 0.001 0.001 0.001 0.000 0.000 0.001 0.003 0.004 0.004 0.007 0.012 0.016 0.016 0.018 0.017 0.017 0.016 0.015 0.014 0.014 0.013 0.011 0.009 0.009 0.007 0.005 0.005 0.003 0.002 0.000 0.000 0.000 0.000 0.000 0.000 0.007 0.014 0.014 0.000 
0.000 0.000 0.000 0.000 0.000 0.000 0.000 0.000 0.000 0.000 0.000 0.000 0.000 0.000 0.000 0.000 0.000 0.000 0.000 0.000 0.000 0.000 0.000 0.000 0.000 0.000 0.000 0.000 0.000 0.000 0.000 0.000 0.000 0.000 0.000 0.000 0.000 0.000 0.000 0.000 0.000 0.000 0.000 0.000 0.000 0.000 0.000 0.000 0.000 0.000 0.000 0.000 0.000 0.000 0.000 0.000 0.000 0.000 0.000 0.000 0.000 0.000 0.000 0.000 0.000 0.000 0.000 0.000 0.000 0.000 0.000 0.000 0.000 0.000 0.000 0.000 0.000 0.000 0.000 0.000 0.000 0.000 0.000 0.000 0.000 0.000 0.000 0.000 0.000 0.000 0.000 0.000 0.000 0.000 0.000 0.000 0.000 0.000 0.000 0.000 0.000 0.000 0.000 0.000 0.000 0.000 0.000 0.000 0.000 0.000 0.000 0.000 0.000 0.000 0.000 0.000 0.000 0.000 0.000 0.000 0.000 0.000 0.000 0.000 0.000 0.000 0.000 0.000 0.000 0.000 0.000 0.000 0.000 0.000 0.000 0.000 0.000 0.000 0.000 0.000 0.000 0.000 0.000 0.000 0.000 0.000 0.000 0.000 0.000 0.000 0.000 0.000 0.000 0.000 0.000 0.000 0.000 0.000 0.000 0.000 0.000 0.000 0.000 0.000 0.000 0.000 0.000 0.000 
