ncols 168
nrows 121
xllcenter 640304.69
yllcenter 1081277.12
cellsize 46.59
NODATA_value -9999.000
0.000 0.000 0.000 0.000 0.000 0.000 0.000 0.000 0.000 0.000 0.000 0.000 0.000 0.000 0.000 0.000 0.000 0.000 0.000 0.000 0.000 0.000 0.000 0.000 0.000 0.000 0.000 0.000 0.000 0.000 0.000 0.000 0.000 0.000 0.000 0.000 0.000 0.000 0.000 0.000 0.000 0.000 0.000 0.000 0.000 0.000 0.000 0.000 0.000 0.000 0.000 0.000 0.000 0.000 0.000 0.000 0.000 0.000 0.000 0.000 0.000 0.000 0.000 0.000 0.000 0.000 0.000 0.000 0.000 0.000 0.000 0.000 0.000 0.000 0.000 0.000 0.000 0.000 0.000 0.000 0.000 0.000 0.000 0.000 0.000 0.000 0.000 0.000 0.000 0.000 0.000 0.000 0.000 0.000 0.000 0.000 0.000 0.000 0.000 0.000 0.000 0.000 0.000 0.000 0.000 0.000 0.000 0.000 0.000 0.000 0.000 0.000 0.000 0.000 0.000 0.000 0.000 0.000 0.000 0.000 0.000 0.000 0.000 0.000 0.000 0.000 0.000 0.000 0.000 0.000 0.000 0.000 0.000 0.000 0.000 0.000 0.000 0.000 0.000 0.000 0.000 0.000 0.000 0.000 0.000 0.000 0.000 0.000 0.000 0.000 0.000 0.000 0.000 0.000 0.000 0.000 0.000 0.000 0.000 0.000 0.000 0.000 0.000 0.000 0.000 0.000 0.000 0.000 
0.000 0.397 0.397 0.397 0.296 0.018 0.018 0.000 0.000 0.000 0.024 0.303 0.397 0.397 0.397 0.397 0.397 0.397 0.397 0.397 0.397 0.397 0.397 0.397 0.397 0.397 0.397 0.397 0.397 0.397 0.397 0.397 0.397 0.397 0.481 0.481 0.614 0.784 0.955 0.955 1.032 1.061 1.061 1.061 1.061 1.054 1.054 1.036 1.033 1.033 1.012 0.958 0.784 0.784 0.609 0.498 0.519 0.519 0.678 0.853 0.853 0.986 0.311 0.501 0.501 1.060 1.047 0.944 0.944 0.815 0.686 0.686 0.644 0.691 0.821 0.821 0.950 0.580 0.251 0.251 0.931 1.064 1.064 1.064 1.064 1.064 1.064 1.068 1.081 1.131 1.131 1.181 1.199 1.199 1.127 0.921 0.684 0.684 0.439 0.472 0.334 0.334 0.188 0.856 0.856 0.930 0.757 0.571 0.571 0.460 0.485 0.671 0.671 0.857 1.018 1.018 1.156 1.258 0.760 0.760 0.516 1.272 1.263 1.263 1.162 1.067 1.067 1.067 1.067 1.067 1.067 1.067 1.067 1.067 1.068 1.068 1.068 1.068 1.068 1.068 1.068 1.068 1.068 1.068 1.068 1.068 1.068 1.069 1.069 1.069 1.069 1.069 1.069 1.013 0.445 0.445 0.644 1.038 0.914 0.914 0.730 0.531 0.328 0.328 0.101 0.000 0.000 0.000 
0.000 0.234 0.234 0.233 0.174 0.011 0.011 0.000 0.000 0.000 0.013 0.164 0.220 0.220 0.225 0.224 0.223 0.223 0.222 0.221 0.221 0.220 0.219 0.218 0.218 0.217 0.216 0.212 0.212 0.202 0.200 0.200 0.203 0.211 0.339 0.339 0.521 0.744 0.968 0.968 1.056 1.080 1.080 1.080 1.080 0.900 0.900 0.500 0.497 0.497 0.687 0.918 0.691 0.691 0.464 0.330 0.397 0.397 0.608 0.835 0.835 1.038 0.730 0.820 0.820 1.075 1.045 0.909 0.909 0.741 0.573 0.573 0.543 0.618 0.786 0.786 0.954 0.845 0.718 0.718 1.023 1.082 1.082 1.083 1.083 1.083 1.083 1.091 1.112 1.176 1.176 1.240 1.257 1.257 1.136 0.866 0.544 0.544 0.191 0.199 0.308 0.308 0.525 0.939 0.939 0.896 0.663 0.424 0.424 0.312 0.363 0.602 0.602 0.841 1.044 1.044 1.214 1.345 1.240 1.240 1.186 1.415 1.324 1.324 1.199 1.086 1.086 1.086 1.086 1.086 1.086 1.086 1.086 1.086 1.086 1.086 1.087 1.087 1.087 1.087 1.087 1.087 1.087 1.087 1.087 1.087 1.087 1.087 1.087 1.087 1.088 1.088 1.088 1.069 0.877 0.877 0.945 1.045 0.869 0.869 0.633 0.377 0.112 0.112 0.033 0.000 0.000 0.000 
0.000 0.046 0.046 0.140 0.146 0.075 0.021 0.011 0.007 0.007 0.017 0.083 0.178 0.207 0.217 0.222 0.223 0.223 0.223 0.222 0.222 0.221 0.221 0.220 0.219 0.219 0.218 0.216 0.215 0.211 0.206 0.206 0.208 0.218 0.276 0.344 0.430 0.629 0.851 0.945 0.998 1.051 1.062 1.062 1.057 0.982 0.870 0.688 0.542 0.534 0.596 0.771 0.768 0.688 0.583 0.423 0.398 0.422 0.502 0.719 0.824 0.901 0.881 0.818 0.845 0.946 1.022 0.967 0.901 0.826 0.663 0.598 0.583 0.597 0.700 0.784 0.859 0.888 0.811 0.792 0.888 1.032 1.069 1.076 1.079 1.080 1.081 1.085 1.099 1.137 1.167 1.195 1.228 1.231 1.182 1.007 0.708 0.546 0.378 0.249 0.283 0.334 0.435 0.733 0.880 0.875 0.778 0.551 0.452 0.399 0.376 0.482 0.597 0.712 0.934 1.037 1.126 1.262 1.272 1.241 1.232 1.297 1.342 1.314 1.263 1.146 1.103 1.094 1.090 1.088 1.087 1.086 1.086 1.086 1.086 1.086 1.086 1.086 1.086 1.086 1.086 1.086 1.086 1.087 1.087 1.087 1.087 1.087 1.086 1.086 1.086 1.085 1.082 1.067 0.986 0.917 0.923 0.975 0.944 0.864 0.761 0.529 0.278 0.182 0.158 0.171 0.171 0.000 
0.000 0.014 0.014 0.047 0.072 0.064 0.043 0.033 0.031 0.035 0.055 0.103 0.163 0.197 0.213 0.221 0.224 0.225 0.226 0.226 0.226 0.225 0.225 0.225 0.225 0.225 0.225 0.225 0.224 0.224 0.225 0.228 0.238 0.261 0.305 0.378 0.483 0.639 0.793 0.889 0.949 0.983 0.996 0.996 0.979 0.936 0.846 0.720 0.650 0.636 0.658 0.705 0.714 0.684 0.603 0.533 0.509 0.517 0.574 0.692 0.798 0.842 0.850 0.852 0.868 0.912 0.932 0.927 0.886 0.812 0.725 0.678 0.667 0.675 0.714 0.785 0.835 0.852 0.854 0.864 0.910 0.987 1.032 1.054 1.065 1.070 1.075 1.081 1.092 1.112 1.134 1.148 1.151 1.137 1.085 0.962 0.760 0.583 0.466 0.416 0.404 0.438 0.535 0.683 0.756 0.764 0.724 0.620 0.537 0.505 0.506 0.532 0.614 0.734 0.884 1.013 1.116 1.187 1.221 1.231 1.236 1.258 1.275 1.269 1.228 1.163 1.122 1.104 1.095 1.090 1.087 1.086 1.085 1.085 1.085 1.085 1.085 1.085 1.085 1.085 1.085 1.085 1.085 1.085 1.084 1.084 1.084 1.084 1.083 1.082 1.079 1.074 1.063 1.039 0.992 0.955 0.941 0.933 0.914 0.860 0.760 0.606 0.480 0.433 0.441 0.493 0.493 0.000 
0.000 0.001 0.001 0.017 0.046 0.059 0.061 0.061 0.064 0.074 0.094 0.127 0.168 0.196 0.213 0.221 0.226 0.229 0.230 0.231 0.232 0.232 0.233 0.233 0.234 0.235 0.236 0.238 0.240 0.245 0.251 0.263 0.283 0.315 0.362 0.432 0.531 0.656 0.767 0.843 0.890 0.915 0.923 0.923 0.913 0.885 0.827 0.752 0.708 0.692 0.691 0.699 0.698 0.680 0.637 0.606 0.599 0.605 0.636 0.706 0.779 0.819 0.840 0.856 0.872 0.888 0.893 0.889 0.868 0.820 0.769 0.742 0.735 0.737 0.751 0.788 0.825 0.848 0.867 0.890 0.925 0.973 1.007 1.029 1.044 1.054 1.062 1.069 1.076 1.083 1.088 1.088 1.080 1.057 1.008 0.918 0.777 0.647 0.573 0.541 0.536 0.549 0.599 0.674 0.709 0.714 0.700 0.653 0.610 0.596 0.597 0.611 0.657 0.744 0.865 0.982 1.069 1.128 1.169 1.196 1.210 1.215 1.215 1.210 1.192 1.157 1.126 1.107 1.097 1.091 1.087 1.085 1.084 1.084 1.083 1.083 1.083 1.082 1.082 1.082 1.082 1.082 1.082 1.081 1.081 1.080 1.080 1.078 1.077 1.074 1.069 1.060 1.046 1.024 0.993 0.965 0.944 0.925 0.900 0.856 0.783 0.706 0.665 0.655 0.670 0.707 0.707 0.000 
0.000 0.000 0.000 0.009 0.039 0.064 0.079 0.091 0.101 0.114 0.131 0.153 0.180 0.201 0.215 0.225 0.231 0.235 0.237 0.239 0.241 0.242 0.244 0.245 0.247 0.249 0.252 0.257 0.263 0.272 0.285 0.306 0.333 0.370 0.418 0.483 0.567 0.669 0.753 0.812 0.850 0.870 0.877 0.877 0.872 0.855 0.821 0.774 0.741 0.723 0.713 0.706 0.699 0.687 0.667 0.656 0.655 0.661 0.682 0.723 0.776 0.814 0.838 0.856 0.869 0.875 0.876 0.873 0.860 0.831 0.800 0.784 0.779 0.779 0.785 0.800 0.825 0.850 0.875 0.902 0.934 0.967 0.993 1.011 1.025 1.035 1.043 1.048 1.050 1.051 1.050 1.045 1.032 1.008 0.964 0.892 0.790 0.701 0.647 0.623 0.617 0.621 0.642 0.679 0.698 0.701 0.695 0.675 0.657 0.652 0.656 0.670 0.705 0.764 0.853 0.949 1.022 1.077 1.118 1.147 1.162 1.167 1.168 1.166 1.159 1.144 1.123 1.107 1.097 1.090 1.086 1.084 1.082 1.081 1.080 1.080 1.079 1.079 1.079 1.078 1.078 1.078 1.077 1.077 1.076 1.075 1.074 1.072 1.069 1.064 1.057 1.046 1.033 1.014 0.991 0.967 0.945 0.924 0.899 0.865 0.827 0.801 0.792 0.797 0.817 0.833 0.833 0.000 
0.000 0.000 0.000 0.009 0.042 0.077 0.103 0.123 0.139 0.153 0.167 0.182 0.198 0.212 0.224 0.232 0.239 0.243 0.247 0.250 0.252 0.255 0.257 0.260 0.263 0.267 0.273 0.280 0.290 0.304 0.323 0.347 0.377 0.414 0.461 0.521 0.596 0.678 0.744 0.792 0.823 0.841 0.848 0.849 0.847 0.838 0.820 0.790 0.763 0.744 0.730 0.719 0.709 0.702 0.696 0.695 0.696 0.703 0.718 0.744 0.780 0.814 0.839 0.855 0.865 0.870 0.870 0.868 0.860 0.842 0.824 0.814 0.811 0.811 0.813 0.819 0.833 0.855 0.881 0.909 0.939 0.964 0.984 0.999 1.010 1.018 1.023 1.025 1.026 1.025 1.022 1.014 1.000 0.975 0.937 0.879 0.802 0.738 0.698 0.677 0.669 0.668 0.674 0.688 0.698 0.701 0.699 0.692 0.688 0.689 0.696 0.711 0.739 0.784 0.849 0.924 0.988 1.036 1.073 1.098 1.114 1.124 1.129 1.131 1.129 1.125 1.115 1.104 1.095 1.089 1.084 1.081 1.079 1.078 1.077 1.076 1.075 1.075 1.074 1.074 1.073 1.073 1.072 1.071 1.070 1.068 1.066 1.063 1.059 1.053 1.045 1.034 1.021 1.005 0.987 0.966 0.945 0.925 0.905 0.887 0.874 0.869 0.873 0.889 0.922 0.934 0.934 0.000 
0.000 0.034 0.034 0.022 0.056 0.101 0.134 0.159 0.177 0.191 0.203 0.212 0.221 0.230 0.238 0.245 0.251 0.255 0.259 0.263 0.267 0.270 0.274 0.278 0.283 0.289 0.296 0.307 0.320 0.337 0.358 0.383 0.413 0.451 0.496 0.551 0.618 0.685 0.739 0.779 0.807 0.823 0.831 0.834 0.834 0.830 0.819 0.802 0.781 0.763 0.748 0.737 0.729 0.726 0.726 0.728 0.732 0.739 0.750 0.766 0.791 0.818 0.840 0.856 0.865 0.868 0.869 0.868 0.863 0.853 0.843 0.838 0.836 0.836 0.838 0.842 0.850 0.865 0.888 0.916 0.942 0.963 0.979 0.991 0.999 1.004 1.007 1.008 1.008 1.006 1.002 0.993 0.978 0.954 0.920 0.872 0.813 0.766 0.734 0.715 0.705 0.701 0.700 0.703 0.705 0.707 0.708 0.709 0.711 0.716 0.725 0.739 0.763 0.798 0.846 0.906 0.960 1.003 1.035 1.059 1.076 1.088 1.096 1.101 1.103 1.104 1.102 1.097 1.090 1.085 1.080 1.077 1.075 1.073 1.072 1.071 1.070 1.069 1.069 1.068 1.067 1.066 1.065 1.064 1.062 1.060 1.058 1.054 1.049 1.042 1.033 1.023 1.011 0.997 0.981 0.964 0.946 0.931 0.920 0.914 0.912 0.914 0.923 0.946 0.988 1.015 1.015 0.000 
0.000 0.071 0.071 0.060 0.094 0.141 0.176 0.202 0.220 0.232 0.240 0.245 0.249 0.253 0.258 0.263 0.267 0.271 0.276 0.280 0.284 0.288 0.293 0.298 0.305 0.313 0.323 0.335 0.350 0.368 0.389 0.414 0.445 0.481 0.524 0.575 0.635 0.691 0.737 0.772 0.797 0.813 0.822 0.826 0.827 0.826 0.821 0.811 0.796 0.781 0.769 0.760 0.756 0.756 0.757 0.760 0.765 0.771 0.779 0.790 0.806 0.826 0.845 0.857 0.865 0.869 0.870 0.870 0.868 0.864 0.860 0.858 0.858 0.859 0.861 0.865 0.871 0.882 0.899 0.922 0.946 0.964 0.977 0.985 0.991 0.995 0.996 0.996 0.996 0.993 0.987 0.977 0.962 0.940 0.910 0.869 0.822 0.786 0.760 0.743 0.733 0.727 0.723 0.720 0.719 0.720 0.722 0.726 0.731 0.737 0.746 0.760 0.780 0.808 0.845 0.892 0.938 0.975 1.004 1.027 1.044 1.056 1.066 1.074 1.080 1.084 1.086 1.085 1.082 1.078 1.075 1.072 1.069 1.068 1.066 1.065 1.064 1.063 1.062 1.061 1.060 1.059 1.058 1.056 1.054 1.052 1.048 1.044 1.038 1.031 1.022 1.013 1.001 0.989 0.975 0.961 0.949 0.941 0.937 0.936 0.937 0.942 0.954 0.978 1.018 1.047 1.047 0.000 
0.000 0.210 0.210 0.137 0.165 0.202 0.232 0.253 0.267 0.275 0.280 0.281 0.282 0.282 0.283 0.285 0.288 0.292 0.295 0.299 0.304 0.309 0.314 0.321 0.329 0.338 0.349 0.362 0.377 0.395 0.416 0.442 0.471 0.506 0.547 0.594 0.648 0.697 0.737 0.768 0.791 0.807 0.817 0.823 0.825 0.826 0.824 0.818 0.810 0.799 0.792 0.788 0.787 0.787 0.789 0.792 0.796 0.801 0.807 0.815 0.825 0.838 0.852 0.861 0.868 0.871 0.873 0.875 0.876 0.876 0.876 0.876 0.877 0.879 0.882 0.887 0.893 0.901 0.913 0.931 0.950 0.965 0.976 0.983 0.986 0.988 0.989 0.989 0.987 0.983 0.977 0.966 0.951 0.931 0.903 0.868 0.830 0.801 0.779 0.764 0.754 0.747 0.743 0.740 0.739 0.738 0.740 0.743 0.748 0.754 0.763 0.775 0.791 0.814 0.844 0.881 0.919 0.952 0.978 1.000 1.016 1.030 1.041 1.050 1.057 1.063 1.068 1.070 1.070 1.069 1.067 1.064 1.062 1.060 1.059 1.058 1.056 1.055 1.054 1.053 1.052 1.051 1.049 1.047 1.045 1.042 1.038 1.033 1.027 1.020 1.012 1.003 0.993 0.981 0.970 0.961 0.954 0.950 0.949 0.949 0.951 0.958 0.972 0.996 1.027 1.044 1.044 0.000 
0.000 0.354 0.354 0.278 0.274 0.289 0.304 0.314 0.320 0.321 0.320 0.318 0.316 0.315 0.314 0.314 0.314 0.316 0.318 0.322 0.326 0.331 0.337 0.344 0.352 0.362 0.373 0.386 0.401 0.420 0.441 0.466 0.495 0.528 0.567 0.611 0.659 0.702 0.738 0.766 0.788 0.804 0.815 0.822 0.826 0.827 0.828 0.827 0.824 0.819 0.816 0.815 0.816 0.817 0.819 0.822 0.826 0.829 0.834 0.839 0.845 0.853 0.862 0.869 0.874 0.877 0.880 0.883 0.886 0.889 0.892 0.894 0.896 0.899 0.902 0.907 0.912 0.919 0.929 0.941 0.956 0.968 0.976 0.981 0.984 0.985 0.985 0.984 0.981 0.977 0.969 0.959 0.944 0.924 0.899 0.868 0.837 0.812 0.794 0.780 0.771 0.764 0.760 0.758 0.757 0.757 0.757 0.759 0.763 0.768 0.776 0.786 0.800 0.818 0.842 0.871 0.904 0.933 0.957 0.977 0.993 1.007 1.018 1.028 1.036 1.043 1.049 1.053 1.056 1.056 1.056 1.054 1.053 1.052 1.050 1.049 1.048 1.047 1.045 1.044 1.043 1.041 1.040 1.037 1.035 1.032 1.028 1.023 1.017 1.011 1.003 0.995 0.985 0.976 0.967 0.961 0.957 0.955 0.955 0.956 0.960 0.968 0.982 1.004 1.029 1.042 1.042 0.000 
0.000 0.479 0.479 0.414 0.402 0.388 0.380 0.373 0.367 0.361 0.356 0.351 0.347 0.345 0.343 0.343 0.343 0.343 0.344 0.347 0.350 0.354 0.360 0.366 0.374 0.383 0.395 0.408 0.424 0.442 0.463 0.488 0.516 0.548 0.584 0.625 0.668 0.706 0.739 0.765 0.786 0.802 0.814 0.822 0.827 0.831 0.834 0.837 0.838 0.839 0.840 0.841 0.843 0.846 0.848 0.851 0.854 0.857 0.860 0.863 0.867 0.871 0.875 0.880 0.883 0.887 0.891 0.895 0.899 0.904 0.908 0.911 0.915 0.918 0.922 0.926 0.931 0.937 0.944 0.953 0.963 0.971 0.978 0.981 0.983 0.983 0.983 0.981 0.978 0.972 0.964 0.953 0.938 0.920 0.896 0.869 0.843 0.822 0.805 0.793 0.784 0.778 0.775 0.772 0.772 0.771 0.772 0.773 0.776 0.780 0.786 0.795 0.806 0.821 0.840 0.864 0.891 0.916 0.938 0.957 0.973 0.986 0.998 1.008 1.016 1.024 1.030 1.035 1.039 1.042 1.043 1.043 1.042 1.041 1.040 1.039 1.038 1.037 1.036 1.034 1.033 1.031 1.029 1.027 1.024 1.021 1.017 1.012 1.007 1.001 0.995 0.987 0.979 0.971 0.965 0.961 0.958 0.958 0.958 0.960 0.964 0.972 0.986 1.008 1.028 1.039 1.039 0.000 
0.000 0.603 0.603 0.537 0.496 0.462 0.438 0.420 0.406 0.395 0.386 0.379 0.374 0.371 0.369 0.368 0.367 0.367 0.368 0.369 0.372 0.375 0.380 0.386 0.394 0.403 0.415 0.429 0.445 0.463 0.484 0.508 0.534 0.565 0.599 0.637 0.676 0.711 0.741 0.766 0.786 0.802 0.814 0.823 0.831 0.837 0.843 0.849 0.854 0.858 0.862 0.865 0.869 0.873 0.876 0.879 0.881 0.884 0.885 0.887 0.889 0.890 0.892 0.894 0.897 0.900 0.904 0.909 0.914 0.920 0.925 0.929 0.933 0.936 0.940 0.944 0.948 0.953 0.959 0.965 0.971 0.976 0.980 0.982 0.983 0.983 0.982 0.980 0.975 0.969 0.961 0.949 0.935 0.917 0.895 0.870 0.847 0.829 0.815 0.804 0.796 0.790 0.786 0.784 0.784 0.783 0.784 0.784 0.786 0.790 0.795 0.802 0.811 0.824 0.839 0.858 0.880 0.902 0.923 0.940 0.955 0.968 0.980 0.990 0.998 1.006 1.012 1.017 1.022 1.025 1.027 1.029 1.029 1.029 1.028 1.028 1.027 1.026 1.025 1.024 1.022 1.021 1.019 1.016 1.014 1.010 1.007 1.002 0.998 0.992 0.986 0.980 0.973 0.967 0.963 0.960 0.959 0.958 0.959 0.961 0.965 0.974 0.988 1.008 1.027 1.036 1.036 0.000 
0.000 0.640 0.640 0.609 0.560 0.512 0.478 0.454 0.435 0.421 0.410 0.402 0.396 0.392 0.390 0.389 0.388 0.388 0.388 0.389 0.391 0.394 0.398 0.404 0.412 0.422 0.434 0.448 0.464 0.482 0.503 0.526 0.551 0.580 0.612 0.648 0.683 0.715 0.743 0.767 0.786 0.802 0.815 0.826 0.837 0.846 0.855 0.863 0.871 0.877 0.884 0.889 0.894 0.898 0.902 0.905 0.907 0.909 0.910 0.911 0.912 0.912 0.912 0.913 0.915 0.917 0.921 0.925 0.931 0.937 0.943 0.947 0.951 0.955 0.958 0.962 0.965 0.969 0.973 0.977 0.980 0.983 0.984 0.984 0.984 0.984 0.982 0.979 0.974 0.967 0.958 0.947 0.932 0.915 0.894 0.871 0.851 0.835 0.822 0.812 0.805 0.800 0.796 0.794 0.794 0.793 0.793 0.794 0.795 0.798 0.802 0.807 0.815 0.825 0.838 0.853 0.871 0.890 0.909 0.925 0.940 0.952 0.963 0.973 0.982 0.989 0.995 1.001 1.005 1.009 1.011 1.013 1.015 1.015 1.015 1.015 1.015 1.014 1.013 1.012 1.011 1.009 1.007 1.005 1.003 1.000 0.996 0.993 0.989 0.984 0.979 0.973 0.968 0.964 0.961 0.959 0.958 0.958 0.959 0.961 0.965 0.973 0.987 1.008 1.025 1.034 1.034 0.000 
0.000 0.675 0.675 0.647 0.595 0.542 0.505 0.477 0.456 0.441 0.429 0.421 0.415 0.410 0.408 0.406 0.406 0.406 0.406 0.406 0.408 0.411 0.415 0.422 0.430 0.440 0.452 0.466 0.482 0.500 0.520 0.542 0.567 0.594 0.624 0.657 0.690 0.719 0.745 0.768 0.787 0.804 0.819 0.832 0.845 0.857 0.868 0.879 0.888 0.897 0.905 0.912 0.917 0.922 0.926 0.930 0.932 0.934 0.935 0.935 0.935 0.935 0.935 0.935 0.936 0.937 0.940 0.945 0.950 0.956 0.962 0.966 0.970 0.973 0.976 0.979 0.982 0.984 0.987 0.988 0.989 0.990 0.989 0.988 0.987 0.985 0.982 0.979 0.973 0.966 0.957 0.945 0.930 0.913 0.894 0.873 0.855 0.840 0.828 0.819 0.812 0.808 0.804 0.802 0.802 0.801 0.801 0.802 0.803 0.805 0.808 0.812 0.818 0.827 0.837 0.849 0.864 0.880 0.897 0.912 0.926 0.938 0.949 0.958 0.967 0.974 0.980 0.986 0.990 0.993 0.996 0.998 1.000 1.000 1.001 1.001 1.001 1.001 1.000 0.999 0.998 0.997 0.996 0.994 0.992 0.989 0.987 0.983 0.980 0.976 0.971 0.967 0.963 0.960 0.958 0.957 0.957 0.957 0.957 0.959 0.964 0.972 0.985 1.005 1.022 1.031 1.031 0.000 
0.000 0.650 0.650 0.652 0.608 0.558 0.519 0.491 0.470 0.455 0.443 0.435 0.429 0.425 0.422 0.421 0.420 0.420 0.420 0.421 0.423 0.426 0.431 0.438 0.446 0.457 0.469 0.483 0.499 0.516 0.536 0.558 0.581 0.607 0.635 0.666 0.696 0.724 0.749 0.770 0.790 0.808 0.824 0.840 0.855 0.869 0.883 0.896 0.907 0.917 0.926 0.933 0.939 0.945 0.949 0.953 0.956 0.958 0.959 0.960 0.960 0.959 0.959 0.959 0.960 0.961 0.963 0.966 0.971 0.977 0.982 0.986 0.989 0.992 0.994 0.996 0.998 0.999 1.000 1.000 1.000 0.998 0.996 0.994 0.991 0.988 0.984 0.979 0.973 0.965 0.956 0.944 0.929 0.913 0.894 0.875 0.858 0.845 0.834 0.825 0.819 0.814 0.811 0.809 0.808 0.808 0.808 0.808 0.809 0.810 0.812 0.816 0.821 0.828 0.836 0.846 0.858 0.871 0.886 0.900 0.913 0.925 0.936 0.945 0.953 0.960 0.966 0.972 0.976 0.979 0.982 0.984 0.986 0.987 0.987 0.988 0.988 0.988 0.987 0.987 0.986 0.985 0.984 0.983 0.981 0.979 0.977 0.974 0.972 0.968 0.964 0.961 0.958 0.956 0.955 0.954 0.954 0.954 0.955 0.956 0.960 0.967 0.980 0.999 1.018 1.029 1.029 0.000 
0.000 0.624 0.624 0.632 0.607 0.564 0.526 0.499 0.479 0.464 0.453 0.446 0.440 0.437 0.434 0.433 0.433 0.432 0.433 0.434 0.436 0.440 0.445 0.453 0.461 0.472 0.485 0.499 0.514 0.532 0.551 0.572 0.595 0.619 0.646 0.674 0.703 0.729 0.753 0.775 0.795 0.814 0.833 0.851 0.868 0.884 0.900 0.914 0.926 0.936 0.946 0.954 0.960 0.966 0.971 0.975 0.978 0.981 0.982 0.983 0.984 0.984 0.985 0.985 0.986 0.986 0.988 0.990 0.994 0.999 1.003 1.006 1.009 1.011 1.012 1.013 1.014 1.014 1.014 1.012 1.011 1.008 1.005 1.001 0.996 0.991 0.986 0.980 0.973 0.965 0.955 0.943 0.929 0.912 0.894 0.876 0.861 0.849 0.839 0.830 0.824 0.820 0.817 0.815 0.814 0.813 0.813 0.813 0.814 0.815 0.817 0.819 0.823 0.829 0.835 0.844 0.853 0.864 0.877 0.890 0.902 0.913 0.924 0.933 0.941 0.948 0.954 0.959 0.963 0.967 0.969 0.972 0.973 0.974 0.975 0.975 0.975 0.975 0.975 0.975 0.975 0.974 0.973 0.972 0.971 0.969 0.968 0.966 0.963 0.961 0.958 0.955 0.953 0.952 0.951 0.950 0.950 0.949 0.949 0.950 0.952 0.958 0.969 0.988 1.012 1.026 1.026 0.000 
0.000 0.598 0.598 0.608 0.594 0.564 0.528 0.502 0.483 0.470 0.460 0.453 0.448 0.445 0.444 0.443 0.442 0.442 0.443 0.445 0.448 0.453 0.459 0.467 0.476 0.487 0.499 0.513 0.529 0.546 0.565 0.585 0.607 0.631 0.656 0.682 0.709 0.734 0.758 0.781 0.802 0.823 0.844 0.864 0.883 0.900 0.917 0.931 0.944 0.955 0.965 0.973 0.980 0.987 0.992 0.996 1.000 1.002 1.004 1.006 1.007 1.008 1.009 1.010 1.010 1.012 1.013 1.015 1.018 1.021 1.024 1.026 1.028 1.029 1.030 1.030 1.030 1.029 1.028 1.025 1.022 1.019 1.014 1.009 1.003 0.997 0.990 0.983 0.975 0.966 0.955 0.943 0.929 0.912 0.895 0.878 0.864 0.853 0.843 0.835 0.829 0.825 0.821 0.819 0.818 0.818 0.818 0.818 0.818 0.819 0.820 0.822 0.825 0.829 0.835 0.842 0.850 0.859 0.869 0.881 0.892 0.903 0.913 0.921 0.929 0.936 0.942 0.947 0.951 0.955 0.958 0.960 0.962 0.963 0.964 0.964 0.964 0.964 0.964 0.964 0.964 0.964 0.963 0.962 0.961 0.960 0.959 0.957 0.955 0.953 0.951 0.949 0.948 0.947 0.946 0.945 0.944 0.942 0.940 0.939 0.939 0.942 0.950 0.970 1.004 1.023 1.023 0.000 
0.000 0.572 0.572 0.583 0.575 0.556 0.528 0.502 0.484 0.472 0.464 0.458 0.454 0.452 0.451 0.450 0.450 0.451 0.452 0.455 0.459 0.464 0.471 0.479 0.489 0.500 0.513 0.527 0.543 0.560 0.578 0.598 0.619 0.641 0.665 0.690 0.716 0.741 0.765 0.789 0.812 0.835 0.857 0.878 0.898 0.917 0.933 0.948 0.961 0.972 0.983 0.991 0.999 1.006 1.011 1.016 1.020 1.023 1.025 1.027 1.029 1.030 1.031 1.032 1.033 1.035 1.036 1.038 1.040 1.042 1.044 1.045 1.046 1.047 1.047 1.047 1.046 1.045 1.042 1.039 1.035 1.030 1.025 1.018 1.011 1.003 0.995 0.986 0.977 0.966 0.955 0.943 0.928 0.912 0.896 0.880 0.867 0.856 0.847 0.839 0.833 0.829 0.826 0.823 0.822 0.821 0.821 0.821 0.821 0.822 0.823 0.824 0.827 0.830 0.835 0.840 0.847 0.854 0.863 0.873 0.883 0.893 0.903 0.911 0.919 0.926 0.931 0.936 0.941 0.944 0.947 0.949 0.951 0.952 0.953 0.954 0.954 0.954 0.954 0.954 0.954 0.954 0.953 0.953 0.952 0.951 0.950 0.949 0.947 0.946 0.944 0.943 0.942 0.941 0.940 0.938 0.936 0.933 0.928 0.923 0.918 0.915 0.919 0.935 0.984 1.042 1.042 0.000 
0.000 0.546 0.546 0.558 0.553 0.542 0.523 0.501 0.484 0.473 0.465 0.461 0.458 0.457 0.456 0.456 0.457 0.458 0.460 0.464 0.469 0.475 0.483 0.492 0.502 0.513 0.526 0.540 0.555 0.572 0.590 0.609 0.630 0.652 0.675 0.699 0.723 0.748 0.773 0.799 0.824 0.848 0.871 0.893 0.913 0.932 0.948 0.963 0.977 0.989 0.999 1.009 1.017 1.024 1.030 1.035 1.039 1.042 1.045 1.047 1.049 1.051 1.052 1.053 1.055 1.056 1.057 1.059 1.060 1.062 1.063 1.063 1.064 1.064 1.064 1.063 1.062 1.060 1.057 1.054 1.049 1.043 1.036 1.029 1.020 1.011 1.001 0.991 0.980 0.968 0.956 0.943 0.929 0.913 0.897 0.883 0.870 0.860 0.850 0.843 0.837 0.833 0.829 0.827 0.825 0.825 0.824 0.824 0.824 0.825 0.825 0.826 0.828 0.831 0.834 0.839 0.844 0.851 0.858 0.866 0.875 0.885 0.894 0.902 0.910 0.916 0.922 0.927 0.931 0.934 0.937 0.940 0.941 0.943 0.944 0.944 0.945 0.945 0.945 0.945 0.945 0.945 0.944 0.944 0.943 0.943 0.942 0.940 0.939 0.938 0.937 0.936 0.935 0.934 0.933 0.931 0.928 0.923 0.917 0.909 0.898 0.884 0.870 0.862 0.908 1.069 1.069 0.000 
0.000 0.520 0.520 0.533 0.530 0.523 0.512 0.496 0.482 0.472 0.466 0.462 0.461 0.460 0.460 0.461 0.462 0.464 0.468 0.473 0.478 0.485 0.493 0.503 0.513 0.525 0.537 0.551 0.567 0.583 0.601 0.620 0.640 0.661 0.684 0.707 0.732 0.757 0.783 0.810 0.836 0.861 0.885 0.907 0.927 0.946 0.963 0.978 0.992 1.004 1.015 1.025 1.033 1.041 1.047 1.052 1.057 1.061 1.064 1.066 1.068 1.070 1.072 1.073 1.074 1.076 1.077 1.078 1.079 1.080 1.080 1.081 1.081 1.081 1.080 1.079 1.078 1.075 1.072 1.068 1.063 1.056 1.048 1.040 1.030 1.020 1.009 0.997 0.984 0.971 0.958 0.944 0.929 0.913 0.899 0.885 0.873 0.863 0.854 0.847 0.841 0.836 0.833 0.830 0.828 0.827 0.827 0.827 0.827 0.827 0.827 0.828 0.830 0.832 0.834 0.838 0.842 0.848 0.854 0.861 0.869 0.877 0.886 0.894 0.901 0.908 0.913 0.918 0.922 0.926 0.929 0.931 0.933 0.934 0.935 0.936 0.936 0.936 0.936 0.936 0.936 0.936 0.936 0.936 0.935 0.934 0.933 0.932 0.932 0.931 0.930 0.929 0.928 0.927 0.926 0.923 0.920 0.916 0.909 0.901 0.888 0.868 0.835 0.770 0.680 0.679 0.679 0.000 
0.000 0.495 0.495 0.507 0.506 0.503 0.497 0.488 0.477 0.470 0.465 0.463 0.462 0.462 0.463 0.464 0.467 0.470 0.475 0.480 0.487 0.494 0.503 0.513 0.523 0.535 0.548 0.562 0.577 0.593 0.611 0.629 0.649 0.670 0.692 0.716 0.741 0.766 0.793 0.821 0.848 0.873 0.897 0.919 0.940 0.959 0.976 0.992 1.006 1.019 1.030 1.040 1.049 1.057 1.063 1.069 1.074 1.078 1.081 1.084 1.086 1.088 1.090 1.091 1.093 1.094 1.095 1.095 1.096 1.097 1.097 1.097 1.097 1.097 1.096 1.095 1.093 1.090 1.087 1.082 1.076 1.069 1.061 1.052 1.041 1.030 1.017 1.004 0.990 0.976 0.961 0.945 0.930 0.915 0.901 0.888 0.876 0.866 0.858 0.850 0.844 0.839 0.836 0.833 0.831 0.830 0.829 0.829 0.829 0.829 0.829 0.830 0.831 0.832 0.834 0.837 0.841 0.845 0.851 0.857 0.863 0.871 0.879 0.886 0.894 0.900 0.905 0.910 0.914 0.918 0.921 0.923 0.925 0.926 0.927 0.928 0.928 0.929 0.929 0.929 0.929 0.929 0.928 0.928 0.928 0.927 0.926 0.925 0.924 0.923 0.923 0.922 0.921 0.920 0.918 0.916 0.913 0.909 0.904 0.896 0.885 0.865 0.828 0.749 0.556 0.134 0.134 0.000 
0.000 0.469 0.469 0.482 0.481 0.480 0.479 0.475 0.469 0.465 0.463 0.462 0.462 0.463 0.465 0.468 0.471 0.476 0.481 0.488 0.495 0.503 0.512 0.522 0.533 0.545 0.557 0.571 0.586 0.602 0.619 0.638 0.657 0.678 0.700 0.724 0.749 0.775 0.802 0.831 0.858 0.884 0.908 0.930 0.951 0.971 0.988 1.004 1.019 1.032 1.044 1.054 1.063 1.071 1.078 1.084 1.090 1.094 1.097 1.101 1.103 1.105 1.107 1.108 1.109 1.110 1.111 1.112 1.112 1.112 1.113 1.112 1.112 1.112 1.111 1.109 1.107 1.104 1.100 1.096 1.090 1.082 1.074 1.064 1.053 1.040 1.026 1.012 0.997 0.981 0.964 0.948 0.932 0.917 0.903 0.891 0.880 0.870 0.861 0.854 0.848 0.843 0.839 0.836 0.833 0.832 0.831 0.831 0.830 0.830 0.831 0.831 0.832 0.833 0.834 0.837 0.840 0.843 0.848 0.853 0.859 0.865 0.872 0.880 0.887 0.893 0.898 0.903 0.907 0.911 0.914 0.916 0.918 0.919 0.920 0.921 0.921 0.922 0.922 0.922 0.922 0.922 0.921 0.921 0.920 0.920 0.919 0.917 0.916 0.916 0.915 0.914 0.913 0.912 0.911 0.909 0.907 0.904 0.900 0.894 0.885 0.868 0.837 0.775 0.641 0.435 0.435 0.000 
0.000 0.443 0.443 0.456 0.456 0.457 0.458 0.458 0.458 0.458 0.458 0.460 0.461 0.463 0.467 0.471 0.475 0.481 0.487 0.494 0.502 0.510 0.520 0.530 0.541 0.553 0.566 0.580 0.594 0.610 0.627 0.645 0.665 0.686 0.708 0.731 0.756 0.783 0.811 0.839 0.867 0.893 0.918 0.940 0.962 0.981 0.999 1.016 1.031 1.044 1.056 1.067 1.077 1.085 1.093 1.099 1.104 1.109 1.113 1.116 1.119 1.121 1.123 1.124 1.125 1.126 1.127 1.127 1.127 1.127 1.127 1.127 1.127 1.126 1.125 1.123 1.121 1.118 1.114 1.109 1.102 1.095 1.086 1.076 1.064 1.051 1.036 1.021 1.004 0.986 0.968 0.951 0.935 0.920 0.907 0.895 0.884 0.874 0.865 0.857 0.851 0.846 0.842 0.838 0.836 0.834 0.833 0.832 0.832 0.832 0.832 0.832 0.833 0.833 0.835 0.836 0.839 0.842 0.845 0.850 0.855 0.860 0.867 0.874 0.880 0.887 0.892 0.897 0.901 0.904 0.907 0.910 0.911 0.913 0.914 0.915 0.915 0.915 0.915 0.915 0.915 0.915 0.915 0.915 0.914 0.913 0.912 0.911 0.909 0.908 0.907 0.906 0.906 0.905 0.904 0.902 0.901 0.899 0.897 0.894 0.890 0.883 0.876 0.873 0.903 1.014 1.014 0.000 
0.000 0.417 0.417 0.430 0.432 0.434 0.436 0.439 0.443 0.447 0.451 0.455 0.459 0.464 0.468 0.473 0.479 0.485 0.492 0.500 0.508 0.517 0.527 0.537 0.548 0.560 0.573 0.587 0.601 0.617 0.634 0.652 0.671 0.692 0.714 0.738 0.763 0.790 0.818 0.847 0.875 0.901 0.926 0.950 0.971 0.991 1.010 1.026 1.042 1.056 1.068 1.079 1.089 1.098 1.106 1.112 1.118 1.123 1.127 1.130 1.133 1.135 1.137 1.138 1.139 1.140 1.141 1.141 1.141 1.141 1.141 1.141 1.140 1.140 1.138 1.136 1.134 1.130 1.126 1.121 1.115 1.107 1.098 1.087 1.075 1.062 1.047 1.030 1.012 0.993 0.974 0.956 0.939 0.924 0.911 0.899 0.887 0.878 0.869 0.861 0.855 0.849 0.844 0.841 0.838 0.836 0.835 0.834 0.833 0.833 0.833 0.833 0.833 0.834 0.835 0.836 0.838 0.841 0.844 0.847 0.852 0.856 0.862 0.868 0.875 0.881 0.886 0.891 0.895 0.899 0.902 0.904 0.906 0.907 0.908 0.909 0.909 0.910 0.910 0.910 0.910 0.910 0.909 0.909 0.908 0.907 0.906 0.904 0.902 0.901 0.899 0.899 0.898 0.897 0.896 0.896 0.895 0.894 0.894 0.895 0.898 0.906 0.921 0.955 1.033 1.132 1.132 0.000 
0.000 0.391 0.391 0.405 0.408 0.412 0.416 0.422 0.429 0.437 0.444 0.451 0.457 0.463 0.469 0.476 0.482 0.489 0.497 0.505 0.514 0.523 0.533 0.544 0.555 0.567 0.580 0.593 0.608 0.623 0.640 0.658 0.677 0.698 0.720 0.744 0.769 0.796 0.824 0.853 0.882 0.909 0.934 0.958 0.980 1.000 1.019 1.036 1.052 1.066 1.079 1.091 1.101 1.110 1.118 1.125 1.131 1.136 1.140 1.143 1.146 1.149 1.150 1.152 1.153 1.153 1.154 1.154 1.154 1.154 1.154 1.154 1.153 1.152 1.151 1.149 1.146 1.143 1.138 1.133 1.126 1.118 1.109 1.099 1.087 1.073 1.057 1.040 1.021 1.001 0.980 0.962 0.945 0.930 0.916 0.903 0.892 0.882 0.873 0.865 0.858 0.852 0.847 0.843 0.840 0.838 0.836 0.835 0.834 0.834 0.834 0.834 0.834 0.835 0.835 0.836 0.838 0.840 0.842 0.845 0.849 0.853 0.858 0.864 0.870 0.876 0.881 0.886 0.890 0.894 0.896 0.899 0.901 0.902 0.903 0.904 0.904 0.904 0.905 0.905 0.905 0.904 0.904 0.904 0.903 0.902 0.901 0.899 0.897 0.894 0.892 0.891 0.890 0.889 0.889 0.889 0.889 0.889 0.891 0.895 0.902 0.916 0.943 0.990 1.064 1.116 1.116 0.000 
0.000 0.365 0.365 0.380 0.385 0.391 0.398 0.407 0.418 0.429 0.439 0.447 0.455 0.463 0.470 0.478 0.485 0.493 0.501 0.510 0.519 0.528 0.538 0.549 0.560 0.572 0.585 0.598 0.613 0.628 0.645 0.663 0.683 0.703 0.726 0.749 0.775 0.801 0.829 0.859 0.888 0.915 0.941 0.965 0.987 1.008 1.027 1.045 1.061 1.076 1.089 1.101 1.111 1.121 1.129 1.136 1.142 1.147 1.152 1.155 1.158 1.161 1.163 1.164 1.165 1.166 1.166 1.166 1.166 1.166 1.166 1.166 1.165 1.164 1.163 1.161 1.158 1.154 1.150 1.144 1.137 1.130 1.120 1.110 1.097 1.083 1.068 1.050 1.031 1.009 0.988 0.969 0.951 0.936 0.921 0.908 0.896 0.886 0.877 0.868 0.861 0.855 0.850 0.846 0.843 0.840 0.838 0.837 0.836 0.835 0.835 0.835 0.835 0.835 0.836 0.836 0.837 0.839 0.841 0.844 0.847 0.850 0.855 0.860 0.865 0.871 0.877 0.881 0.885 0.889 0.892 0.894 0.896 0.898 0.899 0.899 0.900 0.900 0.900 0.900 0.900 0.900 0.900 0.899 0.898 0.897 0.896 0.894 0.891 0.889 0.886 0.884 0.882 0.882 0.881 0.882 0.882 0.883 0.886 0.892 0.902 0.919 0.950 1.001 1.068 1.107 1.107 0.000 
0.000 0.339 0.339 0.355 0.362 0.371 0.382 0.395 0.410 0.424 0.435 0.445 0.454 0.463 0.471 0.479 0.488 0.496 0.505 0.514 0.523 0.533 0.543 0.554 0.565 0.577 0.589 0.603 0.617 0.633 0.650 0.668 0.687 0.708 0.730 0.754 0.779 0.806 0.834 0.864 0.893 0.921 0.947 0.971 0.994 1.015 1.035 1.053 1.069 1.084 1.098 1.110 1.121 1.131 1.139 1.146 1.153 1.158 1.163 1.167 1.170 1.172 1.174 1.175 1.176 1.177 1.177 1.178 1.178 1.178 1.177 1.177 1.176 1.175 1.174 1.171 1.169 1.165 1.160 1.155 1.148 1.140 1.131 1.120 1.108 1.094 1.078 1.060 1.041 1.019 0.997 0.977 0.959 0.942 0.927 0.914 0.901 0.891 0.881 0.872 0.865 0.858 0.853 0.848 0.845 0.842 0.840 0.838 0.837 0.836 0.836 0.836 0.836 0.836 0.836 0.836 0.837 0.839 0.840 0.842 0.845 0.848 0.852 0.856 0.861 0.867 0.872 0.877 0.881 0.885 0.888 0.890 0.892 0.894 0.895 0.895 0.896 0.896 0.896 0.896 0.896 0.896 0.896 0.895 0.894 0.893 0.891 0.889 0.887 0.884 0.880 0.877 0.875 0.874 0.874 0.874 0.874 0.876 0.880 0.886 0.898 0.917 0.949 1.003 1.066 1.099 1.099 0.000 
0.000 0.314 0.314 0.330 0.340 0.353 0.369 0.388 0.405 0.420 0.433 0.444 0.454 0.463 0.472 0.481 0.490 0.499 0.508 0.517 0.527 0.537 0.547 0.558 0.569 0.581 0.593 0.607 0.621 0.637 0.654 0.672 0.691 0.712 0.735 0.758 0.784 0.810 0.838 0.868 0.897 0.925 0.952 0.977 1.000 1.021 1.041 1.060 1.077 1.092 1.106 1.119 1.130 1.140 1.148 1.156 1.163 1.168 1.173 1.177 1.180 1.183 1.184 1.186 1.187 1.187 1.188 1.188 1.188 1.188 1.188 1.187 1.187 1.186 1.184 1.182 1.179 1.175 1.171 1.165 1.158 1.150 1.141 1.130 1.118 1.104 1.089 1.071 1.051 1.029 1.007 0.986 0.967 0.949 0.934 0.920 0.907 0.895 0.885 0.876 0.868 0.862 0.856 0.851 0.847 0.844 0.841 0.839 0.838 0.837 0.836 0.836 0.836 0.836 0.836 0.837 0.837 0.838 0.840 0.841 0.844 0.846 0.850 0.854 0.858 0.863 0.869 0.873 0.878 0.881 0.884 0.887 0.889 0.890 0.891 0.892 0.892 0.893 0.893 0.893 0.893 0.893 0.892 0.892 0.891 0.889 0.888 0.886 0.883 0.879 0.875 0.871 0.868 0.866 0.865 0.864 0.865 0.866 0.869 0.876 0.888 0.908 0.941 0.994 1.060 1.095 1.095 0.000 
0.000 0.288 0.288 0.305 0.319 0.337 0.360 0.383 0.403 0.419 0.433 0.444 0.454 0.464 0.474 0.483 0.492 0.501 0.511 0.520 0.530 0.540 0.550 0.561 0.572 0.583 0.596 0.610 0.624 0.640 0.657 0.676 0.695 0.716 0.738 0.762 0.787 0.814 0.842 0.871 0.901 0.929 0.956 0.981 1.005 1.027 1.047 1.066 1.083 1.099 1.113 1.126 1.138 1.148 1.157 1.165 1.172 1.177 1.182 1.186 1.189 1.192 1.194 1.195 1.196 1.197 1.197 1.197 1.198 1.197 1.197 1.197 1.196 1.195 1.193 1.191 1.188 1.185 1.180 1.174 1.168 1.160 1.151 1.140 1.128 1.114 1.099 1.081 1.062 1.040 1.017 0.995 0.975 0.957 0.941 0.926 0.913 0.901 0.890 0.880 0.872 0.865 0.859 0.854 0.849 0.846 0.843 0.841 0.839 0.838 0.837 0.837 0.837 0.837 0.837 0.837 0.837 0.838 0.839 0.841 0.843 0.845 0.848 0.851 0.855 0.860 0.865 0.870 0.874 0.878 0.881 0.884 0.886 0.887 0.888 0.889 0.890 0.890 0.890 0.890 0.890 0.890 0.889 0.889 0.888 0.886 0.885 0.882 0.879 0.876 0.872 0.867 0.862 0.858 0.855 0.853 0.852 0.852 0.854 0.858 0.868 0.885 0.916 0.968 1.044 1.092 1.092 0.000 
0.000 0.262 0.262 0.280 0.299 0.324 0.355 0.381 0.402 0.419 0.433 0.444 0.455 0.465 0.475 0.485 0.494 0.504 0.513 0.523 0.532 0.542 0.552 0.563 0.574 0.586 0.599 0.612 0.627 0.643 0.660 0.679 0.698 0.719 0.742 0.765 0.790 0.817 0.844 0.874 0.904 0.933 0.960 0.986 1.010 1.032 1.053 1.072 1.089 1.105 1.120 1.133 1.145 1.155 1.165 1.173 1.180 1.185 1.190 1.195 1.198 1.201 1.203 1.204 1.205 1.206 1.206 1.206 1.206 1.206 1.206 1.206 1.205 1.204 1.202 1.200 1.197 1.194 1.189 1.183 1.177 1.169 1.160 1.149 1.137 1.124 1.108 1.091 1.072 1.051 1.029 1.006 0.985 0.966 0.948 0.933 0.919 0.906 0.895 0.885 0.876 0.868 0.862 0.856 0.851 0.848 0.844 0.842 0.840 0.839 0.838 0.837 0.837 0.837 0.837 0.837 0.837 0.838 0.839 0.840 0.842 0.844 0.846 0.850 0.853 0.857 0.862 0.867 0.872 0.875 0.879 0.881 0.883 0.885 0.886 0.887 0.887 0.887 0.887 0.887 0.887 0.887 0.887 0.886 0.885 0.884 0.882 0.880 0.876 0.873 0.868 0.863 0.857 0.851 0.845 0.840 0.836 0.833 0.832 0.831 0.835 0.845 0.867 0.912 1.003 1.090 1.090 0.000 
0.000 0.236 0.236 0.256 0.281 0.317 0.353 0.381 0.402 0.419 0.433 0.446 0.457 0.467 0.477 0.487 0.496 0.506 0.515 0.525 0.534 0.544 0.554 0.565 0.576 0.588 0.601 0.615 0.630 0.646 0.663 0.681 0.701 0.722 0.744 0.768 0.793 0.819 0.847 0.876 0.906 0.935 0.963 0.989 1.013 1.036 1.057 1.077 1.095 1.111 1.126 1.139 1.151 1.162 1.171 1.180 1.187 1.193 1.198 1.202 1.206 1.208 1.211 1.212 1.213 1.214 1.214 1.214 1.214 1.214 1.214 1.214 1.213 1.212 1.210 1.208 1.205 1.202 1.197 1.192 1.185 1.177 1.168 1.158 1.146 1.133 1.118 1.101 1.082 1.062 1.040 1.016 0.994 0.974 0.956 0.940 0.925 0.912 0.900 0.889 0.880 0.872 0.865 0.859 0.854 0.850 0.846 0.843 0.841 0.840 0.839 0.838 0.838 0.837 0.837 0.837 0.838 0.838 0.839 0.840 0.841 0.843 0.845 0.848 0.851 0.855 0.860 0.864 0.869 0.873 0.876 0.879 0.881 0.883 0.884 0.885 0.885 0.885 0.885 0.885 0.885 0.885 0.885 0.884 0.883 0.882 0.880 0.878 0.874 0.870 0.865 0.859 0.853 0.845 0.837 0.828 0.819 0.810 0.802 0.793 0.785 0.779 0.781 0.804 0.884 1.087 1.087 0.000 
0.000 0.210 0.210 0.232 0.267 0.315 0.354 0.383 0.404 0.422 0.436 0.448 0.459 0.470 0.480 0.489 0.499 0.508 0.517 0.527 0.536 0.545 0.555 0.566 0.577 0.590 0.603 0.617 0.632 0.648 0.665 0.684 0.703 0.724 0.746 0.770 0.795 0.821 0.848 0.878 0.908 0.938 0.966 0.992 1.017 1.040 1.061 1.081 1.099 1.116 1.131 1.145 1.157 1.168 1.178 1.186 1.193 1.200 1.205 1.209 1.213 1.216 1.218 1.219 1.220 1.221 1.222 1.222 1.222 1.222 1.222 1.221 1.221 1.219 1.218 1.216 1.213 1.209 1.205 1.199 1.193 1.185 1.176 1.166 1.155 1.141 1.127 1.110 1.092 1.072 1.050 1.027 1.004 0.983 0.964 0.947 0.931 0.917 0.905 0.894 0.884 0.875 0.868 0.861 0.856 0.852 0.848 0.845 0.843 0.841 0.840 0.839 0.838 0.838 0.838 0.838 0.838 0.838 0.839 0.840 0.841 0.842 0.844 0.847 0.850 0.853 0.857 0.862 0.866 0.871 0.874 0.877 0.879 0.881 0.882 0.883 0.883 0.884 0.884 0.884 0.884 0.884 0.883 0.883 0.882 0.880 0.879 0.876 0.873 0.868 0.863 0.857 0.849 0.840 0.830 0.819 0.805 0.791 0.774 0.754 0.730 0.699 0.660 0.616 0.576 0.612 0.612 0.000 
0.000 0.184 0.184 0.210 0.263 0.319 0.359 0.388 0.410 0.427 0.441 0.453 0.464 0.474 0.483 0.492 0.501 0.510 0.519 0.528 0.537 0.546 0.556 0.567 0.579 0.591 0.604 0.618 0.634 0.650 0.667 0.686 0.705 0.726 0.748 0.771 0.796 0.822 0.850 0.879 0.909 0.939 0.968 0.994 1.019 1.043 1.065 1.085 1.103 1.120 1.135 1.149 1.162 1.173 1.183 1.192 1.199 1.206 1.211 1.215 1.219 1.222 1.224 1.226 1.227 1.228 1.228 1.228 1.228 1.228 1.228 1.228 1.227 1.226 1.225 1.223 1.220 1.216 1.212 1.207 1.200 1.193 1.184 1.174 1.162 1.149 1.135 1.119 1.101 1.081 1.060 1.037 1.014 0.992 0.972 0.954 0.938 0.923 0.910 0.898 0.888 0.879 0.871 0.864 0.858 0.854 0.850 0.846 0.844 0.842 0.840 0.839 0.839 0.838 0.838 0.838 0.838 0.838 0.839 0.839 0.840 0.842 0.844 0.846 0.848 0.852 0.855 0.860 0.864 0.868 0.872 0.875 0.877 0.879 0.881 0.881 0.882 0.882 0.883 0.883 0.883 0.882 0.882 0.882 0.881 0.879 0.877 0.875 0.872 0.867 0.862 0.855 0.847 0.837 0.825 0.812 0.795 0.776 0.753 0.725 0.690 0.644 0.578 0.473 0.283 0.063 0.063 0.000 
0.000 0.193 0.193 0.206 0.272 0.331 0.371 0.399 0.420 0.436 0.449 0.460 0.469 0.478 0.487 0.496 0.504 0.512 0.520 0.529 0.538 0.547 0.557 0.568 0.580 0.592 0.606 0.620 0.635 0.651 0.669 0.687 0.707 0.728 0.749 0.773 0.797 0.823 0.851 0.880 0.910 0.941 0.969 0.996 1.022 1.045 1.067 1.088 1.107 1.124 1.139 1.154 1.166 1.178 1.188 1.197 1.204 1.211 1.216 1.221 1.225 1.228 1.230 1.232 1.233 1.234 1.234 1.234 1.234 1.234 1.234 1.234 1.233 1.232 1.231 1.229 1.226 1.223 1.219 1.213 1.207 1.200 1.191 1.181 1.170 1.157 1.143 1.127 1.110 1.090 1.070 1.047 1.023 1.001 0.981 0.962 0.945 0.929 0.916 0.903 0.892 0.883 0.874 0.867 0.861 0.856 0.851 0.848 0.845 0.843 0.841 0.840 0.839 0.839 0.839 0.839 0.839 0.839 0.839 0.839 0.840 0.841 0.843 0.845 0.847 0.850 0.854 0.858 0.862 0.867 0.870 0.873 0.876 0.878 0.879 0.880 0.881 0.881 0.882 0.882 0.882 0.882 0.881 0.881 0.880 0.879 0.877 0.874 0.871 0.866 0.861 0.854 0.845 0.835 0.823 0.807 0.789 0.767 0.740 0.706 0.665 0.613 0.542 0.432 0.217 0.000 0.000 0.000 
0.000 0.306 0.306 0.251 0.303 0.359 0.395 0.420 0.437 0.450 0.460 0.469 0.477 0.485 0.492 0.499 0.506 0.513 0.521 0.529 0.538 0.548 0.558 0.569 0.581 0.593 0.607 0.621 0.636 0.653 0.670 0.689 0.708 0.729 0.750 0.773 0.798 0.824 0.851 0.881 0.911 0.942 0.971 0.998 1.024 1.048 1.070 1.090 1.109 1.127 1.143 1.157 1.170 1.182 1.192 1.201 1.209 1.215 1.221 1.226 1.230 1.233 1.235 1.237 1.238 1.239 1.240 1.240 1.240 1.240 1.240 1.239 1.239 1.238 1.237 1.235 1.232 1.229 1.224 1.219 1.213 1.206 1.198 1.188 1.177 1.164 1.150 1.135 1.118 1.099 1.078 1.056 1.033 1.010 0.989 0.969 0.952 0.936 0.921 0.908 0.897 0.887 0.878 0.870 0.863 0.858 0.853 0.849 0.846 0.844 0.842 0.841 0.840 0.839 0.839 0.839 0.839 0.839 0.839 0.840 0.840 0.841 0.843 0.844 0.847 0.849 0.852 0.856 0.860 0.865 0.869 0.872 0.874 0.877 0.878 0.879 0.880 0.881 0.881 0.881 0.881 0.881 0.881 0.880 0.879 0.878 0.876 0.874 0.871 0.866 0.861 0.853 0.845 0.834 0.821 0.805 0.785 0.761 0.732 0.695 0.650 0.595 0.533 0.445 0.277 0.000 0.000 0.000 
0.000 0.436 0.436 0.368 0.380 0.412 0.437 0.452 0.463 0.470 0.476 0.482 0.487 0.492 0.497 0.502 0.508 0.515 0.522 0.530 0.539 0.548 0.559 0.570 0.582 0.594 0.608 0.622 0.638 0.654 0.671 0.689 0.709 0.729 0.751 0.774 0.798 0.824 0.852 0.881 0.912 0.942 0.972 0.999 1.025 1.049 1.072 1.093 1.112 1.129 1.146 1.160 1.173 1.185 1.195 1.205 1.213 1.220 1.225 1.230 1.234 1.237 1.240 1.242 1.243 1.244 1.244 1.245 1.245 1.245 1.245 1.244 1.244 1.243 1.242 1.240 1.237 1.234 1.230 1.225 1.219 1.212 1.203 1.194 1.183 1.171 1.157 1.142 1.125 1.106 1.086 1.065 1.041 1.018 0.997 0.977 0.958 0.942 0.927 0.913 0.901 0.890 0.881 0.873 0.866 0.860 0.855 0.851 0.848 0.845 0.843 0.842 0.841 0.840 0.840 0.839 0.839 0.839 0.839 0.840 0.840 0.841 0.842 0.844 0.846 0.848 0.851 0.855 0.859 0.863 0.867 0.870 0.873 0.875 0.877 0.879 0.879 0.880 0.880 0.880 0.880 0.880 0.880 0.880 0.879 0.878 0.876 0.874 0.870 0.866 0.860 0.853 0.845 0.834 0.820 0.804 0.784 0.759 0.729 0.690 0.641 0.585 0.540 0.515 0.518 0.492 0.492 0.000 
0.000 0.611 0.611 0.516 0.507 0.500 0.497 0.493 0.491 0.490 0.491 0.493 0.495 0.497 0.501 0.505 0.510 0.516 0.523 0.531 0.539 0.549 0.559 0.571 0.582 0.595 0.609 0.623 0.639 0.655 0.672 0.690 0.709 0.730 0.751 0.774 0.799 0.825 0.852 0.881 0.912 0.943 0.972 1.000 1.026 1.051 1.073 1.094 1.114 1.132 1.148 1.163 1.176 1.188 1.199 1.208 1.216 1.223 1.229 1.234 1.238 1.241 1.244 1.246 1.247 1.248 1.249 1.249 1.249 1.249 1.249 1.249 1.248 1.247 1.246 1.244 1.242 1.239 1.235 1.230 1.224 1.217 1.209 1.200 1.189 1.177 1.163 1.148 1.132 1.114 1.094 1.072 1.049 1.026 1.004 0.984 0.965 0.948 0.932 0.918 0.906 0.894 0.885 0.876 0.869 0.863 0.857 0.853 0.849 0.846 0.844 0.843 0.841 0.841 0.840 0.840 0.840 0.840 0.840 0.840 0.840 0.841 0.842 0.844 0.846 0.848 0.850 0.854 0.857 0.862 0.866 0.869 0.872 0.875 0.876 0.878 0.879 0.880 0.880 0.880 0.880 0.880 0.880 0.880 0.879 0.878 0.876 0.874 0.870 0.866 0.860 0.853 0.845 0.834 0.820 0.804 0.784 0.759 0.728 0.689 0.639 0.581 0.544 0.541 0.627 1.033 1.033 0.000 
0.000 0.785 0.785 0.688 0.639 0.583 0.545 0.522 0.509 0.503 0.500 0.500 0.500 0.501 0.503 0.507 0.511 0.517 0.523 0.531 0.540 0.550 0.560 0.571 0.583 0.596 0.610 0.624 0.639 0.655 0.672 0.690 0.709 0.730 0.751 0.774 0.799 0.825 0.852 0.881 0.912 0.943 0.973 1.001 1.027 1.052 1.074 1.096 1.115 1.133 1.150 1.165 1.178 1.190 1.201 1.211 1.219 1.226 1.232 1.237 1.241 1.245 1.247 1.249 1.251 1.252 1.252 1.253 1.253 1.253 1.253 1.253 1.252 1.251 1.250 1.248 1.246 1.243 1.239 1.234 1.229 1.222 1.214 1.205 1.194 1.183 1.169 1.155 1.138 1.120 1.101 1.080 1.057 1.034 1.011 0.990 0.971 0.954 0.938 0.923 0.910 0.899 0.888 0.879 0.872 0.865 0.859 0.855 0.851 0.848 0.845 0.844 0.842 0.841 0.841 0.840 0.840 0.840 0.840 0.840 0.841 0.841 0.842 0.844 0.845 0.847 0.850 0.853 0.856 0.860 0.864 0.868 0.871 0.874 0.876 0.877 0.878 0.879 0.880 0.880 0.880 0.880 0.880 0.880 0.879 0.878 0.876 0.874 0.871 0.866 0.861 0.854 0.845 0.834 0.821 0.804 0.784 0.759 0.729 0.690 0.641 0.584 0.538 0.509 0.502 0.568 0.568 0.000 
0.000 0.955 0.955 0.846 0.722 0.625 0.568 0.536 0.518 0.509 0.505 0.504 0.503 0.504 0.505 0.508 0.512 0.518 0.524 0.532 0.541 0.551 0.561 0.572 0.584 0.597 0.610 0.625 0.640 0.656 0.673 0.690 0.709 0.730 0.751 0.774 0.799 0.825 0.852 0.882 0.912 0.943 0.973 1.001 1.028 1.052 1.075 1.097 1.117 1.135 1.151 1.167 1.180 1.192 1.203 1.213 1.221 1.229 1.235 1.240 1.244 1.248 1.250 1.252 1.254 1.255 1.256 1.256 1.256 1.256 1.256 1.256 1.255 1.255 1.254 1.252 1.250 1.247 1.243 1.238 1.233 1.226 1.218 1.209 1.199 1.188 1.175 1.160 1.144 1.127 1.108 1.087 1.064 1.041 1.018 0.997 0.977 0.960 0.943 0.928 0.915 0.903 0.892 0.883 0.875 0.868 0.862 0.857 0.853 0.849 0.847 0.845 0.843 0.842 0.841 0.841 0.841 0.841 0.841 0.841 0.841 0.842 0.842 0.843 0.845 0.847 0.849 0.852 0.855 0.859 0.863 0.867 0.870 0.873 0.875 0.877 0.878 0.879 0.880 0.880 0.880 0.880 0.880 0.880 0.879 0.878 0.876 0.874 0.871 0.867 0.861 0.854 0.846 0.835 0.822 0.806 0.786 0.762 0.732 0.694 0.648 0.593 0.529 0.438 0.265 0.026 0.026 0.000 
0.000 1.004 1.004 0.925 0.748 0.637 0.574 0.539 0.520 0.511 0.507 0.505 0.505 0.505 0.507 0.510 0.514 0.519 0.526 0.533 0.542 0.552 0.562 0.573 0.585 0.598 0.611 0.625 0.640 0.656 0.673 0.690 0.709 0.730 0.751 0.774 0.799 0.825 0.852 0.882 0.912 0.944 0.973 1.001 1.028 1.053 1.076 1.098 1.117 1.136 1.153 1.168 1.182 1.194 1.205 1.215 1.223 1.231 1.237 1.242 1.247 1.250 1.253 1.255 1.257 1.258 1.258 1.259 1.259 1.259 1.259 1.259 1.258 1.258 1.257 1.255 1.253 1.250 1.246 1.242 1.236 1.230 1.222 1.214 1.204 1.192 1.180 1.165 1.150 1.132 1.114 1.093 1.071 1.048 1.025 1.003 0.983 0.965 0.948 0.933 0.919 0.907 0.896 0.886 0.878 0.870 0.864 0.859 0.854 0.851 0.848 0.846 0.844 0.843 0.842 0.842 0.841 0.841 0.841 0.841 0.841 0.842 0.843 0.844 0.845 0.847 0.849 0.851 0.854 0.858 0.862 0.866 0.869 0.872 0.874 0.876 0.878 0.879 0.880 0.880 0.880 0.880 0.880 0.880 0.879 0.878 0.877 0.875 0.872 0.868 0.862 0.856 0.848 0.837 0.825 0.809 0.791 0.768 0.739 0.705 0.662 0.609 0.537 0.427 0.214 0.000 0.000 0.000 
0.000 0.785 0.785 0.875 0.741 0.632 0.572 0.538 0.520 0.510 0.507 0.505 0.505 0.506 0.508 0.511 0.516 0.521 0.528 0.535 0.543 0.553 0.563 0.574 0.586 0.599 0.612 0.626 0.640 0.656 0.673 0.690 0.709 0.730 0.751 0.774 0.799 0.825 0.852 0.882 0.912 0.944 0.973 1.002 1.028 1.053 1.076 1.098 1.118 1.137 1.153 1.169 1.183 1.195 1.206 1.216 1.225 1.232 1.239 1.244 1.249 1.252 1.255 1.257 1.259 1.260 1.261 1.261 1.261 1.261 1.261 1.261 1.261 1.260 1.259 1.258 1.256 1.253 1.249 1.245 1.240 1.233 1.226 1.217 1.208 1.197 1.184 1.170 1.155 1.138 1.119 1.099 1.077 1.054 1.031 1.009 0.989 0.970 0.953 0.938 0.924 0.911 0.900 0.890 0.881 0.873 0.867 0.861 0.856 0.853 0.849 0.847 0.845 0.844 0.843 0.842 0.842 0.842 0.842 0.842 0.842 0.842 0.843 0.844 0.845 0.847 0.848 0.851 0.854 0.857 0.861 0.865 0.868 0.871 0.874 0.876 0.877 0.879 0.879 0.880 0.880 0.880 0.880 0.880 0.880 0.879 0.878 0.876 0.873 0.869 0.864 0.858 0.851 0.841 0.830 0.815 0.798 0.777 0.752 0.722 0.685 0.638 0.572 0.469 0.284 0.000 0.000 0.000 
0.000 0.571 0.571 0.683 0.662 0.601 0.554 0.528 0.514 0.507 0.505 0.504 0.505 0.507 0.509 0.513 0.518 0.523 0.530 0.537 0.545 0.555 0.565 0.575 0.587 0.599 0.612 0.626 0.640 0.656 0.672 0.690 0.709 0.730 0.751 0.774 0.799 0.825 0.852 0.882 0.912 0.943 0.973 1.002 1.028 1.053 1.077 1.098 1.119 1.137 1.154 1.170 1.184 1.196 1.208 1.217 1.226 1.234 1.240 1.246 1.250 1.254 1.257 1.259 1.261 1.262 1.263 1.263 1.263 1.264 1.263 1.263 1.263 1.262 1.261 1.260 1.258 1.255 1.252 1.248 1.243 1.236 1.229 1.221 1.211 1.200 1.188 1.174 1.159 1.142 1.124 1.104 1.083 1.060 1.036 1.014 0.994 0.975 0.958 0.942 0.928 0.915 0.903 0.893 0.884 0.876 0.869 0.863 0.858 0.854 0.851 0.848 0.846 0.845 0.844 0.843 0.843 0.843 0.843 0.843 0.843 0.843 0.843 0.844 0.845 0.846 0.848 0.850 0.853 0.856 0.860 0.863 0.867 0.870 0.873 0.875 0.877 0.879 0.880 0.880 0.881 0.881 0.881 0.881 0.880 0.880 0.879 0.877 0.875 0.871 0.867 0.862 0.855 0.847 0.837 0.824 0.810 0.792 0.772 0.749 0.721 0.689 0.651 0.611 0.570 0.520 0.520 0.000 
0.000 0.366 0.366 0.474 0.507 0.520 0.511 0.503 0.500 0.499 0.500 0.502 0.504 0.507 0.510 0.515 0.520 0.526 0.532 0.540 0.548 0.557 0.566 0.577 0.588 0.600 0.612 0.626 0.640 0.656 0.672 0.690 0.709 0.729 0.751 0.774 0.799 0.825 0.852 0.881 0.912 0.943 0.973 1.002 1.028 1.053 1.077 1.099 1.119 1.137 1.155 1.170 1.184 1.197 1.208 1.218 1.227 1.235 1.241 1.247 1.252 1.255 1.258 1.261 1.262 1.264 1.264 1.265 1.265 1.265 1.265 1.265 1.265 1.264 1.263 1.262 1.260 1.257 1.254 1.250 1.245 1.239 1.232 1.224 1.214 1.204 1.192 1.178 1.163 1.147 1.129 1.109 1.088 1.065 1.042 1.020 0.999 0.980 0.962 0.946 0.932 0.919 0.907 0.896 0.887 0.879 0.872 0.866 0.861 0.856 0.853 0.850 0.848 0.846 0.845 0.844 0.844 0.843 0.843 0.843 0.843 0.843 0.844 0.844 0.845 0.847 0.848 0.850 0.853 0.855 0.859 0.862 0.866 0.870 0.872 0.875 0.877 0.878 0.880 0.880 0.881 0.881 0.881 0.881 0.881 0.881 0.880 0.879 0.877 0.875 0.871 0.867 0.861 0.854 0.846 0.836 0.825 0.812 0.799 0.786 0.774 0.766 0.767 0.789 0.868 1.054 1.054 0.000 
0.000 0.213 0.213 0.304 0.377 0.422 0.449 0.466 0.477 0.486 0.492 0.497 0.502 0.507 0.512 0.517 0.522 0.529 0.535 0.542 0.550 0.559 0.568 0.578 0.589 0.600 0.612 0.626 0.640 0.655 0.672 0.690 0.709 0.729 0.751 0.774 0.798 0.824 0.852 0.881 0.912 0.943 0.973 1.002 1.028 1.053 1.077 1.099 1.119 1.138 1.155 1.170 1.185 1.197 1.209 1.219 1.228 1.236 1.242 1.248 1.253 1.257 1.260 1.262 1.264 1.265 1.266 1.266 1.267 1.267 1.267 1.267 1.266 1.266 1.265 1.263 1.262 1.259 1.256 1.252 1.247 1.241 1.234 1.226 1.217 1.207 1.195 1.181 1.167 1.151 1.133 1.114 1.093 1.070 1.047 1.024 1.004 0.984 0.967 0.950 0.936 0.922 0.910 0.900 0.890 0.882 0.874 0.868 0.863 0.858 0.855 0.852 0.849 0.848 0.846 0.845 0.845 0.844 0.844 0.844 0.844 0.844 0.844 0.845 0.846 0.847 0.848 0.850 0.852 0.855 0.858 0.861 0.865 0.869 0.872 0.874 0.877 0.878 0.880 0.881 0.882 0.882 0.883 0.883 0.883 0.883 0.882 0.882 0.880 0.879 0.876 0.873 0.869 0.864 0.858 0.852 0.845 0.838 0.833 0.830 0.830 0.836 0.853 0.892 0.974 1.054 1.054 0.000 
0.000 0.154 0.154 0.208 0.289 0.360 0.408 0.439 0.460 0.475 0.486 0.494 0.501 0.507 0.513 0.519 0.525 0.531 0.538 0.545 0.553 0.561 0.570 0.579 0.589 0.600 0.612 0.625 0.639 0.655 0.671 0.689 0.708 0.728 0.750 0.773 0.798 0.824 0.852 0.881 0.912 0.943 0.973 1.001 1.028 1.053 1.077 1.099 1.119 1.138 1.155 1.171 1.185 1.198 1.209 1.219 1.228 1.236 1.243 1.249 1.253 1.257 1.260 1.263 1.265 1.266 1.267 1.267 1.268 1.268 1.268 1.268 1.267 1.267 1.266 1.265 1.263 1.261 1.257 1.254 1.249 1.243 1.236 1.228 1.219 1.209 1.197 1.184 1.170 1.154 1.137 1.118 1.097 1.075 1.051 1.029 1.008 0.988 0.970 0.954 0.939 0.926 0.913 0.902 0.893 0.884 0.877 0.870 0.865 0.860 0.856 0.853 0.851 0.849 0.847 0.846 0.846 0.845 0.845 0.845 0.845 0.845 0.845 0.845 0.846 0.847 0.848 0.850 0.852 0.854 0.857 0.861 0.864 0.868 0.871 0.874 0.876 0.878 0.880 0.881 0.883 0.883 0.884 0.885 0.885 0.885 0.885 0.885 0.885 0.884 0.882 0.881 0.879 0.876 0.873 0.870 0.867 0.866 0.866 0.868 0.874 0.886 0.908 0.949 1.011 1.051 1.051 0.000 
0.000 0.096 0.096 0.148 0.239 0.330 0.388 0.426 0.452 0.470 0.483 0.493 0.501 0.508 0.514 0.521 0.527 0.533 0.540 0.547 0.555 0.563 0.571 0.580 0.589 0.600 0.612 0.625 0.639 0.654 0.671 0.688 0.707 0.728 0.750 0.773 0.797 0.823 0.851 0.880 0.911 0.943 0.973 1.001 1.028 1.053 1.077 1.099 1.119 1.138 1.155 1.171 1.185 1.198 1.209 1.220 1.229 1.237 1.243 1.249 1.254 1.258 1.261 1.264 1.265 1.267 1.268 1.268 1.268 1.269 1.269 1.268 1.268 1.268 1.267 1.266 1.264 1.262 1.259 1.255 1.250 1.245 1.238 1.230 1.221 1.211 1.200 1.187 1.173 1.157 1.140 1.121 1.101 1.079 1.055 1.033 1.012 0.992 0.974 0.957 0.942 0.929 0.916 0.905 0.895 0.887 0.879 0.872 0.867 0.862 0.858 0.855 0.852 0.850 0.849 0.847 0.847 0.846 0.846 0.846 0.846 0.846 0.846 0.846 0.847 0.847 0.848 0.850 0.852 0.854 0.857 0.860 0.863 0.867 0.870 0.873 0.876 0.878 0.880 0.882 0.883 0.885 0.886 0.887 0.887 0.888 0.889 0.889 0.890 0.890 0.890 0.890 0.889 0.888 0.888 0.887 0.887 0.889 0.891 0.897 0.906 0.921 0.945 0.982 1.025 1.048 1.048 0.000 
0.000 0.036 0.036 0.100 0.227 0.322 0.382 0.422 0.449 0.468 0.482 0.493 0.501 0.509 0.516 0.522 0.529 0.535 0.542 0.549 0.556 0.563 0.571 0.580 0.589 0.600 0.611 0.624 0.638 0.653 0.670 0.687 0.706 0.727 0.749 0.772 0.796 0.823 0.850 0.880 0.910 0.942 0.972 1.001 1.028 1.053 1.077 1.099 1.119 1.138 1.155 1.171 1.185 1.198 1.210 1.220 1.229 1.237 1.244 1.249 1.254 1.258 1.262 1.264 1.266 1.267 1.268 1.269 1.269 1.269 1.269 1.269 1.269 1.268 1.268 1.266 1.265 1.263 1.260 1.256 1.251 1.246 1.239 1.232 1.223 1.213 1.202 1.189 1.175 1.160 1.143 1.124 1.104 1.082 1.059 1.036 1.015 0.995 0.977 0.960 0.945 0.931 0.919 0.908 0.898 0.889 0.881 0.874 0.869 0.864 0.860 0.856 0.853 0.851 0.850 0.848 0.848 0.847 0.847 0.847 0.847 0.847 0.847 0.847 0.847 0.848 0.849 0.850 0.852 0.854 0.856 0.859 0.863 0.866 0.870 0.873 0.876 0.878 0.880 0.882 0.884 0.886 0.887 0.889 0.890 0.891 0.892 0.894 0.895 0.895 0.896 0.897 0.898 0.899 0.900 0.901 0.903 0.907 0.912 0.919 0.930 0.946 0.969 1.001 1.031 1.046 1.046 0.000 
0.000 0.134 0.134 0.118 0.244 0.326 0.382 0.422 0.449 0.469 0.483 0.493 0.502 0.510 0.517 0.524 0.531 0.537 0.544 0.550 0.557 0.564 0.571 0.580 0.589 0.599 0.611 0.623 0.637 0.652 0.669 0.686 0.705 0.726 0.747 0.771 0.795 0.822 0.849 0.879 0.910 0.941 0.972 1.000 1.027 1.053 1.076 1.098 1.119 1.138 1.155 1.171 1.185 1.198 1.210 1.220 1.229 1.237 1.244 1.250 1.255 1.259 1.262 1.264 1.266 1.268 1.269 1.269 1.269 1.270 1.270 1.270 1.269 1.269 1.268 1.267 1.265 1.263 1.260 1.257 1.252 1.247 1.240 1.233 1.224 1.215 1.203 1.191 1.177 1.162 1.145 1.127 1.107 1.086 1.063 1.040 1.018 0.998 0.980 0.963 0.948 0.934 0.921 0.910 0.900 0.891 0.883 0.876 0.870 0.865 0.861 0.857 0.855 0.852 0.851 0.849 0.848 0.848 0.847 0.847 0.847 0.847 0.847 0.847 0.848 0.848 0.849 0.850 0.852 0.854 0.856 0.859 0.862 0.865 0.869 0.872 0.875 0.878 0.880 0.883 0.885 0.887 0.889 0.890 0.892 0.894 0.895 0.897 0.899 0.900 0.902 0.903 0.905 0.907 0.910 0.913 0.916 0.921 0.928 0.936 0.948 0.964 0.986 1.012 1.033 1.043 1.043 0.000 
0.000 0.471 0.471 0.301 0.318 0.349 0.388 0.425 0.452 0.471 0.485 0.496 0.505 0.513 0.520 0.527 0.533 0.539 0.545 0.551 0.557 0.564 0.571 0.579 0.589 0.599 0.610 0.622 0.636 0.651 0.667 0.685 0.704 0.724 0.746 0.769 0.794 0.820 0.848 0.877 0.908 0.940 0.971 1.000 1.027 1.052 1.076 1.098 1.119 1.137 1.155 1.171 1.185 1.198 1.210 1.220 1.229 1.237 1.244 1.250 1.255 1.259 1.262 1.264 1.266 1.268 1.269 1.269 1.270 1.270 1.270 1.270 1.270 1.269 1.268 1.267 1.266 1.264 1.261 1.257 1.253 1.247 1.241 1.234 1.225 1.216 1.205 1.193 1.179 1.164 1.147 1.129 1.110 1.088 1.066 1.043 1.021 1.001 0.983 0.966 0.950 0.936 0.923 0.912 0.901 0.892 0.884 0.877 0.871 0.866 0.862 0.858 0.855 0.853 0.851 0.850 0.849 0.848 0.848 0.848 0.848 0.848 0.848 0.848 0.848 0.848 0.849 0.850 0.852 0.854 0.856 0.858 0.861 0.865 0.868 0.872 0.875 0.878 0.880 0.883 0.885 0.888 0.890 0.892 0.894 0.896 0.898 0.900 0.902 0.904 0.906 0.908 0.911 0.914 0.917 0.921 0.926 0.932 0.940 0.950 0.962 0.978 0.997 1.018 1.033 1.041 1.041 0.000 
0.000 0.524 0.524 0.446 0.380 0.381 0.404 0.436 0.460 0.477 0.490 0.501 0.509 0.517 0.523 0.529 0.535 0.541 0.546 0.552 0.557 0.564 0.571 0.579 0.588 0.598 0.609 0.621 0.635 0.650 0.666 0.683 0.702 0.723 0.744 0.768 0.792 0.819 0.846 0.876 0.907 0.939 0.970 0.999 1.026 1.051 1.075 1.097 1.118 1.137 1.154 1.170 1.185 1.198 1.209 1.220 1.229 1.237 1.244 1.250 1.255 1.259 1.262 1.265 1.267 1.268 1.269 1.270 1.270 1.270 1.270 1.270 1.270 1.269 1.269 1.268 1.266 1.264 1.261 1.258 1.253 1.248 1.242 1.235 1.226 1.217 1.206 1.194 1.180 1.165 1.149 1.131 1.112 1.091 1.068 1.045 1.024 1.003 0.985 0.968 0.952 0.938 0.925 0.913 0.903 0.894 0.886 0.879 0.873 0.867 0.863 0.859 0.856 0.854 0.852 0.850 0.849 0.849 0.848 0.848 0.848 0.848 0.848 0.848 0.848 0.849 0.849 0.850 0.852 0.853 0.856 0.858 0.861 0.864 0.868 0.871 0.875 0.878 0.880 0.883 0.886 0.888 0.890 0.893 0.895 0.897 0.900 0.902 0.904 0.907 0.909 0.912 0.915 0.919 0.923 0.928 0.934 0.941 0.950 0.960 0.973 0.988 1.005 1.021 1.032 1.038 1.038 0.000 
0.000 0.187 0.187 0.362 0.393 0.415 0.434 0.457 0.475 0.489 0.500 0.509 0.516 0.522 0.528 0.533 0.538 0.542 0.547 0.552 0.557 0.563 0.570 0.578 0.587 0.597 0.608 0.620 0.633 0.648 0.664 0.681 0.700 0.721 0.742 0.766 0.790 0.817 0.845 0.874 0.905 0.937 0.968 0.997 1.025 1.050 1.074 1.097 1.117 1.137 1.154 1.170 1.185 1.198 1.209 1.220 1.229 1.237 1.244 1.250 1.255 1.259 1.262 1.265 1.267 1.268 1.269 1.270 1.270 1.270 1.270 1.270 1.270 1.269 1.269 1.268 1.266 1.264 1.261 1.258 1.254 1.248 1.242 1.235 1.227 1.217 1.207 1.195 1.181 1.167 1.150 1.133 1.113 1.093 1.070 1.047 1.026 1.006 0.987 0.970 0.954 0.940 0.927 0.915 0.904 0.895 0.887 0.880 0.873 0.868 0.864 0.860 0.857 0.854 0.852 0.851 0.850 0.849 0.849 0.848 0.848 0.848 0.848 0.848 0.848 0.849 0.850 0.850 0.852 0.853 0.855 0.858 0.861 0.864 0.867 0.871 0.874 0.877 0.880 0.883 0.886 0.888 0.891 0.893 0.896 0.899 0.901 0.904 0.906 0.909 0.912 0.915 0.918 0.922 0.927 0.932 0.939 0.947 0.957 0.969 0.982 0.997 1.011 1.023 1.031 1.035 1.035 0.000 
0.000 0.200 0.200 0.269 0.409 0.457 0.477 0.491 0.501 0.509 0.515 0.520 0.525 0.529 0.533 0.536 0.540 0.543 0.547 0.552 0.557 0.563 0.570 0.577 0.586 0.596 0.606 0.618 0.632 0.646 0.662 0.680 0.698 0.718 0.740 0.763 0.788 0.815 0.842 0.872 0.903 0.935 0.966 0.996 1.023 1.049 1.073 1.096 1.117 1.136 1.153 1.170 1.184 1.197 1.209 1.220 1.229 1.237 1.244 1.250 1.255 1.259 1.262 1.265 1.267 1.268 1.269 1.270 1.270 1.270 1.270 1.270 1.270 1.269 1.269 1.268 1.266 1.264 1.261 1.258 1.254 1.249 1.242 1.235 1.227 1.218 1.207 1.195 1.182 1.168 1.152 1.134 1.115 1.094 1.072 1.049 1.028 1.007 0.989 0.971 0.955 0.941 0.928 0.916 0.905 0.896 0.888 0.881 0.874 0.869 0.864 0.860 0.857 0.855 0.853 0.851 0.850 0.849 0.849 0.848 0.848 0.848 0.848 0.848 0.849 0.849 0.850 0.850 0.852 0.853 0.855 0.857 0.860 0.863 0.867 0.870 0.874 0.877 0.880 0.883 0.886 0.889 0.891 0.894 0.897 0.899 0.902 0.905 0.907 0.910 0.913 0.917 0.920 0.925 0.930 0.935 0.942 0.951 0.962 0.974 0.989 1.003 1.015 1.024 1.030 1.033 1.033 0.000 
0.000 0.650 0.650 0.420 0.490 0.524 0.535 0.537 0.535 0.533 0.533 0.533 0.534 0.536 0.537 0.539 0.541 0.544 0.547 0.551 0.556 0.562 0.568 0.576 0.584 0.594 0.605 0.617 0.630 0.644 0.660 0.677 0.696 0.716 0.738 0.761 0.786 0.812 0.840 0.870 0.901 0.933 0.964 0.994 1.022 1.048 1.072 1.095 1.116 1.135 1.153 1.169 1.184 1.197 1.209 1.219 1.228 1.237 1.244 1.249 1.254 1.259 1.262 1.265 1.267 1.268 1.269 1.270 1.270 1.270 1.270 1.270 1.270 1.269 1.269 1.268 1.266 1.264 1.261 1.258 1.254 1.249 1.243 1.236 1.227 1.218 1.208 1.196 1.183 1.168 1.152 1.135 1.116 1.096 1.074 1.051 1.029 1.009 0.990 0.973 0.957 0.942 0.929 0.917 0.906 0.897 0.889 0.881 0.875 0.869 0.865 0.861 0.858 0.855 0.853 0.851 0.850 0.849 0.849 0.849 0.848 0.848 0.848 0.848 0.849 0.849 0.850 0.850 0.852 0.853 0.855 0.857 0.860 0.863 0.866 0.870 0.873 0.877 0.880 0.883 0.886 0.889 0.891 0.894 0.897 0.900 0.903 0.905 0.908 0.911 0.914 0.918 0.922 0.926 0.931 0.937 0.944 0.953 0.964 0.978 0.994 1.009 1.019 1.025 1.029 1.030 1.030 0.000 
0.000 0.925 0.925 0.762 0.669 0.628 0.601 0.579 0.564 0.553 0.546 0.542 0.541 0.540 0.540 0.541 0.542 0.544 0.547 0.550 0.555 0.560 0.567 0.574 0.583 0.592 0.603 0.615 0.628 0.642 0.658 0.675 0.693 0.714 0.735 0.758 0.783 0.809 0.837 0.867 0.898 0.930 0.962 0.991 1.019 1.046 1.070 1.093 1.114 1.134 1.152 1.168 1.183 1.196 1.208 1.219 1.228 1.236 1.243 1.249 1.254 1.258 1.262 1.264 1.266 1.268 1.269 1.269 1.270 1.270 1.270 1.270 1.270 1.269 1.269 1.268 1.266 1.264 1.261 1.258 1.254 1.249 1.243 1.236 1.228 1.218 1.208 1.196 1.183 1.169 1.153 1.136 1.117 1.097 1.075 1.052 1.030 1.010 0.991 0.974 0.958 0.943 0.930 0.918 0.907 0.898 0.889 0.882 0.875 0.870 0.865 0.861 0.858 0.855 0.853 0.852 0.850 0.850 0.849 0.849 0.849 0.848 0.848 0.849 0.849 0.849 0.850 0.850 0.852 0.853 0.855 0.857 0.860 0.862 0.866 0.869 0.873 0.876 0.880 0.883 0.886 0.889 0.892 0.894 0.897 0.900 0.903 0.906 0.909 0.912 0.915 0.918 0.922 0.927 0.932 0.938 0.945 0.954 0.965 0.979 0.997 1.013 1.023 1.029 1.030 1.028 1.028 0.000 
0.000 0.999 0.999 0.924 0.789 0.700 0.644 0.607 0.582 0.565 0.554 0.548 0.544 0.542 0.542 0.542 0.542 0.544 0.546 0.549 0.553 0.559 0.565 0.572 0.580 0.590 0.600 0.612 0.625 0.640 0.655 0.672 0.691 0.711 0.732 0.755 0.780 0.806 0.834 0.864 0.895 0.927 0.959 0.989 1.017 1.043 1.068 1.091 1.112 1.132 1.150 1.167 1.182 1.195 1.207 1.218 1.227 1.236 1.243 1.249 1.254 1.258 1.261 1.264 1.266 1.268 1.269 1.269 1.270 1.270 1.270 1.270 1.270 1.269 1.269 1.268 1.266 1.264 1.261 1.258 1.254 1.249 1.243 1.236 1.228 1.218 1.208 1.196 1.183 1.169 1.154 1.136 1.118 1.098 1.076 1.053 1.031 1.011 0.992 0.974 0.958 0.944 0.930 0.918 0.908 0.898 0.890 0.882 0.876 0.870 0.865 0.861 0.858 0.855 0.853 0.852 0.850 0.850 0.849 0.849 0.849 0.848 0.848 0.849 0.849 0.849 0.850 0.850 0.851 0.853 0.855 0.857 0.859 0.862 0.865 0.869 0.873 0.876 0.880 0.883 0.886 0.889 0.892 0.894 0.897 0.900 0.903 0.906 0.909 0.912 0.915 0.919 0.923 0.927 0.932 0.938 0.945 0.954 0.965 0.979 0.997 1.016 1.029 1.036 1.037 1.030 1.030 0.000 
0.000 0.994 0.994 0.960 0.834 0.731 0.664 0.620 0.591 0.571 0.558 0.550 0.546 0.543 0.542 0.542 0.542 0.543 0.545 0.548 0.552 0.556 0.562 0.570 0.578 0.587 0.598 0.609 0.622 0.637 0.652 0.669 0.688 0.708 0.729 0.752 0.777 0.803 0.831 0.860 0.891 0.924 0.956 0.986 1.014 1.041 1.066 1.089 1.110 1.130 1.148 1.165 1.180 1.194 1.206 1.217 1.226 1.235 1.242 1.248 1.253 1.258 1.261 1.264 1.266 1.267 1.268 1.269 1.269 1.270 1.270 1.270 1.269 1.269 1.268 1.267 1.266 1.264 1.261 1.258 1.254 1.249 1.243 1.236 1.228 1.218 1.208 1.197 1.184 1.169 1.154 1.137 1.118 1.098 1.077 1.054 1.032 1.012 0.993 0.975 0.959 0.944 0.931 0.919 0.908 0.898 0.890 0.882 0.876 0.870 0.865 0.861 0.858 0.855 0.853 0.852 0.850 0.850 0.849 0.849 0.849 0.848 0.848 0.849 0.849 0.849 0.850 0.850 0.851 0.853 0.854 0.856 0.859 0.862 0.865 0.868 0.872 0.876 0.879 0.883 0.886 0.889 0.892 0.894 0.897 0.900 0.903 0.906 0.909 0.912 0.915 0.919 0.923 0.927 0.932 0.938 0.945 0.954 0.965 0.979 0.996 1.016 1.036 1.050 1.058 1.064 1.064 0.000 
0.000 0.908 0.908 0.935 0.841 0.738 0.670 0.625 0.594 0.573 0.560 0.551 0.546 0.543 0.542 0.542 0.542 0.542 0.544 0.546 0.550 0.554 0.560 0.567 0.575 0.584 0.595 0.606 0.619 0.634 0.649 0.666 0.685 0.705 0.726 0.749 0.773 0.799 0.827 0.856 0.887 0.920 0.952 0.982 1.011 1.038 1.063 1.086 1.108 1.128 1.146 1.163 1.178 1.192 1.205 1.216 1.225 1.234 1.241 1.247 1.252 1.257 1.260 1.263 1.265 1.267 1.268 1.269 1.269 1.269 1.269 1.269 1.269 1.269 1.268 1.267 1.266 1.264 1.261 1.258 1.253 1.248 1.243 1.236 1.228 1.218 1.208 1.197 1.184 1.170 1.154 1.137 1.119 1.099 1.077 1.055 1.033 1.012 0.993 0.976 0.959 0.945 0.931 0.919 0.908 0.899 0.890 0.883 0.876 0.870 0.866 0.862 0.858 0.855 0.853 0.852 0.850 0.850 0.849 0.849 0.849 0.848 0.848 0.849 0.849 0.849 0.849 0.850 0.851 0.852 0.854 0.856 0.859 0.861 0.864 0.868 0.872 0.875 0.879 0.882 0.886 0.889 0.892 0.894 0.897 0.900 0.903 0.906 0.909 0.912 0.915 0.919 0.922 0.927 0.932 0.938 0.945 0.953 0.964 0.977 0.994 1.015 1.040 1.068 1.089 1.098 1.098 0.000 
0.000 0.809 0.809 0.854 0.813 0.735 0.669 0.625 0.594 0.573 0.560 0.551 0.546 0.543 0.541 0.541 0.541 0.541 0.542 0.544 0.547 0.551 0.557 0.564 0.572 0.581 0.591 0.603 0.616 0.630 0.646 0.663 0.681 0.701 0.722 0.745 0.770 0.795 0.823 0.852 0.883 0.916 0.948 0.978 1.007 1.034 1.060 1.083 1.105 1.125 1.144 1.161 1.176 1.190 1.203 1.214 1.224 1.232 1.240 1.246 1.251 1.256 1.259 1.262 1.264 1.266 1.267 1.268 1.268 1.268 1.269 1.268 1.268 1.268 1.267 1.266 1.265 1.263 1.260 1.257 1.253 1.248 1.242 1.235 1.227 1.218 1.208 1.197 1.184 1.170 1.154 1.137 1.119 1.099 1.078 1.055 1.033 1.013 0.994 0.976 0.960 0.945 0.932 0.919 0.908 0.899 0.890 0.883 0.876 0.870 0.866 0.862 0.858 0.855 0.853 0.852 0.850 0.850 0.849 0.849 0.848 0.848 0.848 0.848 0.849 0.849 0.849 0.850 0.851 0.852 0.854 0.856 0.858 0.861 0.864 0.867 0.871 0.875 0.879 0.882 0.885 0.888 0.891 0.894 0.897 0.900 0.903 0.906 0.909 0.912 0.915 0.918 0.922 0.926 0.931 0.936 0.943 0.951 0.961 0.974 0.990 1.011 1.038 1.076 1.110 1.123 1.123 0.000 
0.000 0.698 0.698 0.754 0.743 0.709 0.661 0.621 0.592 0.572 0.558 0.550 0.544 0.541 0.540 0.539 0.539 0.539 0.540 0.542 0.544 0.548 0.554 0.560 0.568 0.577 0.588 0.600 0.613 0.627 0.642 0.659 0.678 0.697 0.719 0.741 0.766 0.791 0.819 0.848 0.878 0.911 0.943 0.974 1.003 1.030 1.056 1.080 1.102 1.122 1.141 1.158 1.174 1.188 1.201 1.212 1.222 1.231 1.238 1.245 1.250 1.255 1.258 1.261 1.263 1.265 1.266 1.267 1.267 1.268 1.268 1.268 1.268 1.267 1.267 1.266 1.264 1.262 1.260 1.257 1.253 1.248 1.242 1.235 1.227 1.218 1.208 1.196 1.184 1.170 1.154 1.137 1.119 1.099 1.078 1.055 1.033 1.013 0.994 0.976 0.960 0.945 0.932 0.919 0.909 0.899 0.890 0.883 0.876 0.870 0.866 0.862 0.858 0.855 0.853 0.852 0.850 0.850 0.849 0.849 0.848 0.848 0.848 0.848 0.848 0.849 0.849 0.850 0.851 0.852 0.854 0.855 0.858 0.860 0.863 0.867 0.871 0.875 0.878 0.882 0.885 0.888 0.891 0.894 0.897 0.900 0.903 0.905 0.908 0.911 0.914 0.917 0.921 0.925 0.929 0.934 0.940 0.947 0.956 0.968 0.983 1.004 1.032 1.074 1.121 1.146 1.146 0.000 
0.000 0.594 0.594 0.647 0.653 0.652 0.636 0.609 0.585 0.567 0.554 0.546 0.541 0.538 0.536 0.536 0.536 0.536 0.537 0.538 0.541 0.545 0.550 0.557 0.564 0.574 0.584 0.596 0.609 0.623 0.639 0.656 0.674 0.694 0.715 0.737 0.761 0.787 0.814 0.843 0.874 0.906 0.938 0.969 0.999 1.026 1.052 1.076 1.098 1.119 1.138 1.155 1.171 1.185 1.198 1.210 1.220 1.229 1.236 1.243 1.248 1.253 1.257 1.260 1.262 1.264 1.265 1.266 1.266 1.266 1.267 1.267 1.266 1.266 1.266 1.265 1.263 1.262 1.259 1.256 1.252 1.247 1.241 1.235 1.227 1.218 1.208 1.196 1.184 1.170 1.154 1.137 1.119 1.099 1.078 1.056 1.034 1.013 0.994 0.976 0.960 0.945 0.932 0.920 0.909 0.899 0.890 0.883 0.876 0.870 0.866 0.861 0.858 0.855 0.853 0.852 0.850 0.849 0.849 0.848 0.848 0.848 0.848 0.848 0.848 0.848 0.849 0.850 0.850 0.852 0.853 0.855 0.857 0.860 0.863 0.866 0.870 0.874 0.878 0.881 0.885 0.888 0.891 0.894 0.897 0.899 0.902 0.905 0.907 0.910 0.913 0.916 0.919 0.922 0.926 0.930 0.935 0.941 0.948 0.958 0.971 0.990 1.018 1.061 1.119 1.154 1.154 0.000 
0.000 0.494 0.494 0.548 0.573 0.588 0.593 0.586 0.571 0.556 0.546 0.539 0.534 0.532 0.531 0.530 0.531 0.531 0.532 0.534 0.537 0.541 0.546 0.553 0.561 0.570 0.580 0.592 0.605 0.619 0.635 0.652 0.670 0.690 0.711 0.733 0.757 0.782 0.809 0.838 0.868 0.900 0.933 0.964 0.994 1.021 1.047 1.072 1.094 1.115 1.134 1.152 1.168 1.182 1.195 1.207 1.217 1.226 1.234 1.241 1.246 1.251 1.255 1.258 1.260 1.262 1.263 1.264 1.265 1.265 1.265 1.265 1.265 1.265 1.264 1.263 1.262 1.260 1.258 1.255 1.251 1.246 1.241 1.234 1.226 1.217 1.207 1.196 1.183 1.169 1.154 1.137 1.119 1.099 1.078 1.056 1.034 1.013 0.994 0.976 0.960 0.945 0.932 0.920 0.909 0.899 0.890 0.883 0.876 0.870 0.865 0.861 0.858 0.855 0.853 0.851 0.850 0.849 0.849 0.848 0.848 0.848 0.848 0.848 0.848 0.848 0.849 0.849 0.850 0.851 0.853 0.855 0.857 0.859 0.862 0.866 0.869 0.873 0.877 0.881 0.884 0.887 0.890 0.893 0.896 0.899 0.901 0.904 0.906 0.909 0.911 0.914 0.916 0.919 0.922 0.925 0.928 0.932 0.937 0.943 0.952 0.965 0.988 1.029 1.099 1.158 1.158 0.000 
0.000 0.436 0.436 0.475 0.511 0.533 0.545 0.550 0.548 0.540 0.533 0.528 0.525 0.523 0.523 0.523 0.524 0.525 0.527 0.529 0.532 0.537 0.542 0.549 0.557 0.566 0.576 0.588 0.601 0.615 0.631 0.648 0.666 0.686 0.707 0.729 0.753 0.778 0.804 0.833 0.863 0.894 0.927 0.958 0.988 1.016 1.042 1.067 1.090 1.111 1.130 1.148 1.164 1.179 1.192 1.204 1.214 1.223 1.231 1.238 1.244 1.249 1.253 1.256 1.258 1.260 1.262 1.263 1.263 1.263 1.263 1.263 1.263 1.263 1.263 1.262 1.261 1.259 1.256 1.253 1.250 1.245 1.239 1.233 1.225 1.217 1.207 1.195 1.183 1.169 1.154 1.137 1.119 1.099 1.078 1.056 1.034 1.013 0.994 0.976 0.960 0.945 0.932 0.919 0.909 0.899 0.890 0.883 0.876 0.870 0.865 0.861 0.858 0.855 0.853 0.851 0.850 0.849 0.848 0.848 0.848 0.847 0.847 0.847 0.848 0.848 0.848 0.849 0.850 0.851 0.852 0.854 0.856 0.859 0.862 0.865 0.869 0.873 0.877 0.880 0.884 0.887 0.890 0.892 0.895 0.898 0.900 0.902 0.905 0.907 0.909 0.911 0.912 0.914 0.916 0.917 0.918 0.919 0.920 0.921 0.922 0.925 0.935 0.962 1.032 1.142 1.142 0.000 
0.000 0.410 0.410 0.433 0.464 0.486 0.501 0.511 0.516 0.517 0.514 0.512 0.511 0.511 0.512 0.513 0.515 0.517 0.519 0.523 0.527 0.532 0.538 0.545 0.553 0.562 0.573 0.585 0.598 0.612 0.627 0.644 0.662 0.681 0.702 0.724 0.748 0.773 0.799 0.827 0.857 0.888 0.920 0.952 0.982 1.010 1.037 1.061 1.084 1.106 1.125 1.143 1.160 1.175 1.188 1.200 1.211 1.220 1.228 1.235 1.241 1.246 1.250 1.253 1.256 1.258 1.259 1.260 1.261 1.261 1.261 1.261 1.261 1.261 1.261 1.260 1.259 1.257 1.255 1.252 1.248 1.244 1.238 1.232 1.224 1.216 1.206 1.195 1.182 1.169 1.153 1.137 1.119 1.099 1.078 1.056 1.034 1.013 0.994 0.976 0.960 0.945 0.932 0.919 0.908 0.899 0.890 0.882 0.876 0.870 0.865 0.861 0.858 0.855 0.852 0.851 0.849 0.848 0.848 0.847 0.847 0.847 0.847 0.847 0.847 0.847 0.848 0.848 0.849 0.850 0.851 0.853 0.855 0.858 0.861 0.864 0.868 0.872 0.876 0.879 0.883 0.886 0.889 0.891 0.894 0.896 0.898 0.900 0.902 0.904 0.905 0.907 0.908 0.908 0.908 0.908 0.906 0.904 0.900 0.894 0.885 0.872 0.856 0.839 0.864 1.006 1.006 0.000 
0.000 0.384 0.384 0.404 0.425 0.444 0.459 0.471 0.481 0.487 0.490 0.492 0.494 0.496 0.498 0.500 0.503 0.507 0.511 0.515 0.521 0.526 0.533 0.541 0.549 0.559 0.569 0.581 0.594 0.608 0.624 0.640 0.658 0.677 0.698 0.720 0.743 0.767 0.794 0.821 0.850 0.881 0.914 0.945 0.976 1.004 1.031 1.056 1.079 1.100 1.120 1.138 1.155 1.170 1.184 1.196 1.207 1.216 1.225 1.232 1.238 1.243 1.247 1.251 1.253 1.255 1.257 1.258 1.258 1.259 1.259 1.259 1.259 1.259 1.258 1.257 1.256 1.255 1.253 1.250 1.246 1.242 1.236 1.230 1.223 1.214 1.205 1.194 1.181 1.168 1.153 1.136 1.118 1.099 1.078 1.056 1.034 1.013 0.994 0.976 0.960 0.945 0.932 0.919 0.908 0.898 0.890 0.882 0.875 0.870 0.865 0.861 0.857 0.854 0.852 0.850 0.849 0.848 0.847 0.847 0.846 0.846 0.846 0.846 0.846 0.847 0.847 0.847 0.848 0.849 0.851 0.852 0.855 0.857 0.860 0.863 0.867 0.871 0.875 0.878 0.882 0.885 0.888 0.890 0.892 0.894 0.896 0.898 0.899 0.900 0.901 0.902 0.902 0.901 0.899 0.897 0.892 0.887 0.880 0.871 0.858 0.838 0.804 0.740 0.594 0.435 0.435 0.000 
0.000 0.358 0.358 0.376 0.391 0.407 0.421 0.433 0.444 0.453 0.460 0.466 0.471 0.476 0.480 0.485 0.490 0.495 0.501 0.507 0.513 0.520 0.528 0.536 0.545 0.555 0.566 0.578 0.591 0.605 0.620 0.637 0.654 0.673 0.693 0.715 0.738 0.762 0.788 0.815 0.844 0.874 0.906 0.938 0.969 0.997 1.024 1.049 1.073 1.095 1.115 1.133 1.150 1.165 1.179 1.191 1.202 1.212 1.221 1.228 1.234 1.239 1.244 1.247 1.250 1.252 1.254 1.255 1.255 1.256 1.256 1.256 1.256 1.256 1.255 1.255 1.254 1.252 1.250 1.247 1.244 1.239 1.234 1.228 1.221 1.213 1.203 1.192 1.180 1.167 1.152 1.136 1.118 1.099 1.078 1.056 1.034 1.013 0.994 0.976 0.960 0.945 0.931 0.919 0.908 0.898 0.889 0.882 0.875 0.869 0.864 0.860 0.857 0.854 0.851 0.849 0.848 0.847 0.846 0.846 0.846 0.845 0.845 0.845 0.846 0.846 0.846 0.847 0.847 0.848 0.850 0.851 0.854 0.856 0.859 0.862 0.866 0.870 0.874 0.877 0.881 0.883 0.886 0.888 0.890 0.892 0.894 0.895 0.896 0.896 0.896 0.896 0.895 0.893 0.890 0.886 0.880 0.873 0.864 0.853 0.839 0.820 0.789 0.723 0.541 0.132 0.132 0.000 
0.000 0.332 0.332 0.349 0.360 0.373 0.386 0.397 0.408 0.418 0.427 0.436 0.445 0.452 0.460 0.467 0.474 0.482 0.489 0.497 0.505 0.513 0.522 0.531 0.541 0.551 0.563 0.575 0.588 0.602 0.617 0.633 0.650 0.669 0.689 0.710 0.732 0.756 0.782 0.809 0.837 0.867 0.899 0.931 0.961 0.990 1.017 1.043 1.066 1.088 1.108 1.127 1.144 1.160 1.174 1.186 1.198 1.207 1.216 1.224 1.230 1.235 1.240 1.243 1.246 1.248 1.250 1.251 1.252 1.252 1.253 1.253 1.253 1.252 1.252 1.251 1.250 1.249 1.247 1.244 1.241 1.237 1.232 1.226 1.219 1.210 1.201 1.191 1.179 1.165 1.151 1.135 1.117 1.098 1.078 1.056 1.033 1.013 0.994 0.976 0.959 0.945 0.931 0.919 0.908 0.898 0.889 0.881 0.874 0.869 0.864 0.859 0.856 0.853 0.850 0.849 0.847 0.846 0.845 0.845 0.845 0.844 0.844 0.844 0.844 0.845 0.845 0.845 0.846 0.847 0.849 0.850 0.852 0.855 0.858 0.861 0.865 0.869 0.872 0.876 0.879 0.882 0.884 0.886 0.888 0.889 0.890 0.891 0.891 0.891 0.891 0.890 0.888 0.885 0.881 0.876 0.870 0.862 0.852 0.840 0.826 0.812 0.792 0.762 0.714 0.686 0.686 0.000 
0.000 0.307 0.307 0.322 0.332 0.342 0.353 0.364 0.375 0.385 0.396 0.407 0.418 0.428 0.438 0.448 0.457 0.467 0.476 0.486 0.496 0.506 0.516 0.526 0.536 0.547 0.559 0.571 0.585 0.599 0.614 0.630 0.647 0.665 0.684 0.705 0.727 0.751 0.775 0.802 0.830 0.859 0.891 0.923 0.953 0.982 1.010 1.035 1.059 1.081 1.102 1.121 1.138 1.154 1.168 1.181 1.192 1.202 1.211 1.219 1.225 1.231 1.235 1.239 1.242 1.244 1.246 1.247 1.248 1.248 1.249 1.249 1.249 1.249 1.248 1.248 1.247 1.245 1.243 1.241 1.238 1.234 1.229 1.223 1.216 1.208 1.199 1.188 1.177 1.164 1.149 1.133 1.116 1.097 1.077 1.055 1.033 1.012 0.993 0.975 0.959 0.944 0.930 0.918 0.907 0.897 0.888 0.880 0.874 0.868 0.863 0.858 0.855 0.852 0.849 0.847 0.846 0.845 0.844 0.844 0.843 0.843 0.843 0.843 0.843 0.843 0.844 0.844 0.845 0.846 0.847 0.849 0.851 0.853 0.856 0.860 0.863 0.867 0.871 0.874 0.877 0.880 0.882 0.884 0.885 0.886 0.886 0.887 0.886 0.886 0.885 0.883 0.881 0.877 0.873 0.868 0.861 0.853 0.843 0.830 0.817 0.807 0.803 0.817 0.897 1.094 1.094 0.000 
0.000 0.281 0.281 0.296 0.304 0.313 0.323 0.334 0.345 0.356 0.368 0.381 0.395 0.407 0.419 0.431 0.442 0.453 0.464 0.475 0.486 0.497 0.509 0.520 0.532 0.543 0.556 0.568 0.581 0.595 0.610 0.626 0.643 0.661 0.680 0.700 0.722 0.745 0.769 0.795 0.823 0.852 0.882 0.914 0.945 0.974 1.002 1.027 1.051 1.074 1.095 1.114 1.131 1.147 1.161 1.174 1.186 1.196 1.205 1.213 1.220 1.226 1.230 1.234 1.237 1.240 1.241 1.243 1.244 1.244 1.244 1.244 1.244 1.244 1.244 1.243 1.243 1.241 1.239 1.237 1.234 1.230 1.225 1.219 1.213 1.205 1.196 1.186 1.174 1.162 1.147 1.132 1.115 1.096 1.076 1.055 1.033 1.012 0.993 0.975 0.958 0.943 0.930 0.917 0.906 0.896 0.887 0.879 0.873 0.867 0.861 0.857 0.853 0.850 0.848 0.846 0.845 0.843 0.843 0.842 0.842 0.842 0.842 0.842 0.842 0.842 0.842 0.843 0.843 0.844 0.846 0.847 0.849 0.852 0.855 0.858 0.862 0.865 0.869 0.872 0.875 0.877 0.879 0.880 0.881 0.882 0.882 0.882 0.881 0.880 0.879 0.877 0.874 0.870 0.866 0.861 0.854 0.846 0.836 0.824 0.811 0.803 0.803 0.820 0.908 1.092 1.092 0.000 
0.000 0.255 0.255 0.270 0.277 0.286 0.296 0.306 0.318 0.330 0.345 0.360 0.376 0.390 0.404 0.417 0.429 0.441 0.454 0.466 0.478 0.490 0.502 0.514 0.527 0.539 0.552 0.565 0.578 0.592 0.607 0.622 0.639 0.656 0.675 0.695 0.716 0.738 0.762 0.788 0.815 0.843 0.874 0.905 0.936 0.965 0.993 1.019 1.043 1.066 1.087 1.106 1.124 1.140 1.155 1.168 1.179 1.190 1.199 1.207 1.214 1.220 1.225 1.229 1.232 1.234 1.236 1.238 1.238 1.239 1.239 1.239 1.239 1.239 1.239 1.239 1.238 1.237 1.235 1.233 1.230 1.226 1.221 1.216 1.209 1.201 1.193 1.183 1.172 1.159 1.145 1.130 1.113 1.095 1.075 1.054 1.032 1.011 0.992 0.974 0.957 0.942 0.929 0.916 0.905 0.895 0.886 0.878 0.871 0.865 0.860 0.856 0.852 0.849 0.846 0.844 0.843 0.842 0.841 0.840 0.840 0.840 0.840 0.840 0.840 0.840 0.840 0.841 0.841 0.842 0.844 0.845 0.847 0.850 0.853 0.856 0.860 0.863 0.867 0.870 0.872 0.874 0.875 0.876 0.877 0.877 0.877 0.877 0.876 0.875 0.873 0.870 0.868 0.864 0.860 0.855 0.849 0.841 0.832 0.820 0.808 0.796 0.786 0.777 0.798 0.934 0.934 0.000 
0.000 0.229 0.229 0.244 0.252 0.260 0.270 0.281 0.294 0.308 0.325 0.343 0.360 0.376 0.391 0.405 0.418 0.431 0.444 0.457 0.470 0.483 0.496 0.508 0.521 0.535 0.548 0.561 0.575 0.589 0.603 0.619 0.635 0.652 0.670 0.690 0.710 0.732 0.756 0.781 0.807 0.835 0.864 0.896 0.927 0.956 0.984 1.010 1.035 1.057 1.078 1.098 1.116 1.132 1.147 1.160 1.172 1.183 1.192 1.200 1.207 1.213 1.218 1.223 1.226 1.228 1.230 1.232 1.233 1.233 1.234 1.234 1.234 1.234 1.234 1.233 1.233 1.231 1.230 1.228 1.225 1.221 1.217 1.211 1.205 1.197 1.189 1.179 1.168 1.156 1.142 1.127 1.111 1.093 1.073 1.053 1.031 1.010 0.991 0.973 0.956 0.941 0.927 0.915 0.904 0.894 0.885 0.877 0.870 0.864 0.858 0.854 0.850 0.847 0.844 0.842 0.841 0.840 0.839 0.838 0.838 0.838 0.838 0.838 0.838 0.838 0.838 0.838 0.839 0.840 0.841 0.843 0.845 0.847 0.850 0.854 0.857 0.861 0.864 0.867 0.869 0.870 0.871 0.872 0.872 0.872 0.872 0.871 0.870 0.869 0.867 0.865 0.862 0.858 0.854 0.849 0.844 0.837 0.829 0.819 0.807 0.792 0.766 0.712 0.565 0.383 0.383 0.000 
0.000 0.203 0.203 0.219 0.227 0.236 0.246 0.259 0.273 0.291 0.310 0.330 0.348 0.364 0.380 0.395 0.409 0.423 0.436 0.450 0.463 0.476 0.490 0.503 0.516 0.530 0.543 0.557 0.571 0.585 0.600 0.615 0.631 0.647 0.665 0.684 0.704 0.726 0.749 0.773 0.799 0.826 0.855 0.886 0.917 0.946 0.974 1.001 1.025 1.048 1.069 1.089 1.107 1.124 1.139 1.152 1.164 1.175 1.185 1.193 1.200 1.206 1.212 1.216 1.219 1.222 1.224 1.226 1.227 1.227 1.228 1.228 1.228 1.228 1.228 1.227 1.227 1.225 1.224 1.222 1.219 1.216 1.211 1.206 1.200 1.193 1.185 1.175 1.164 1.152 1.139 1.124 1.108 1.091 1.071 1.051 1.029 1.009 0.989 0.971 0.955 0.940 0.926 0.913 0.902 0.892 0.883 0.875 0.868 0.862 0.856 0.852 0.848 0.845 0.842 0.840 0.838 0.837 0.836 0.836 0.835 0.835 0.835 0.835 0.835 0.835 0.835 0.836 0.837 0.837 0.839 0.840 0.842 0.845 0.848 0.851 0.855 0.858 0.861 0.863 0.865 0.866 0.867 0.867 0.867 0.867 0.866 0.866 0.865 0.863 0.861 0.859 0.856 0.853 0.849 0.845 0.839 0.833 0.826 0.818 0.808 0.793 0.766 0.704 0.534 0.166 0.166 0.000 
0.000 0.178 0.178 0.193 0.202 0.212 0.224 0.239 0.256 0.278 0.300 0.320 0.339 0.356 0.372 0.387 0.402 0.416 0.430 0.444 0.457 0.471 0.484 0.498 0.511 0.525 0.539 0.553 0.567 0.581 0.596 0.611 0.626 0.643 0.660 0.679 0.698 0.719 0.742 0.765 0.790 0.817 0.845 0.875 0.906 0.936 0.964 0.991 1.015 1.038 1.060 1.080 1.098 1.115 1.130 1.144 1.156 1.167 1.177 1.185 1.192 1.199 1.204 1.208 1.212 1.215 1.217 1.219 1.220 1.220 1.221 1.221 1.221 1.221 1.221 1.221 1.220 1.219 1.218 1.216 1.213 1.210 1.205 1.200 1.195 1.188 1.180 1.170 1.160 1.148 1.135 1.121 1.105 1.088 1.069 1.049 1.028 1.007 0.987 0.969 0.953 0.938 0.924 0.911 0.900 0.890 0.881 0.872 0.865 0.859 0.854 0.849 0.845 0.842 0.839 0.837 0.836 0.834 0.833 0.833 0.832 0.832 0.832 0.832 0.832 0.832 0.833 0.833 0.834 0.834 0.836 0.837 0.839 0.842 0.844 0.848 0.851 0.854 0.857 0.859 0.860 0.861 0.862 0.862 0.862 0.861 0.861 0.860 0.859 0.858 0.856 0.854 0.851 0.848 0.845 0.840 0.835 0.830 0.825 0.819 0.811 0.801 0.785 0.757 0.719 0.712 0.712 0.000 
0.000 0.152 0.152 0.168 0.178 0.190 0.204 0.222 0.244 0.269 0.292 0.313 0.332 0.349 0.366 0.381 0.396 0.410 0.424 0.438 0.452 0.466 0.479 0.493 0.507 0.520 0.534 0.548 0.562 0.577 0.591 0.606 0.622 0.638 0.655 0.673 0.692 0.713 0.734 0.757 0.782 0.808 0.836 0.865 0.895 0.925 0.953 0.980 1.005 1.028 1.050 1.070 1.088 1.105 1.120 1.134 1.147 1.158 1.168 1.176 1.184 1.190 1.196 1.200 1.204 1.207 1.209 1.211 1.212 1.213 1.213 1.213 1.214 1.214 1.213 1.213 1.213 1.212 1.210 1.208 1.206 1.203 1.199 1.194 1.188 1.182 1.174 1.165 1.155 1.143 1.131 1.117 1.101 1.084 1.066 1.046 1.025 1.005 0.985 0.967 0.951 0.935 0.922 0.909 0.897 0.887 0.878 0.870 0.863 0.856 0.851 0.846 0.842 0.839 0.836 0.834 0.832 0.831 0.830 0.830 0.829 0.829 0.829 0.829 0.829 0.829 0.829 0.830 0.830 0.831 0.832 0.834 0.836 0.838 0.841 0.844 0.847 0.850 0.853 0.854 0.855 0.856 0.856 0.856 0.856 0.856 0.856 0.855 0.854 0.853 0.851 0.849 0.847 0.844 0.841 0.837 0.832 0.828 0.824 0.821 0.819 0.818 0.824 0.848 0.925 1.079 1.079 0.000 
0.000 0.126 0.126 0.143 0.154 0.168 0.186 0.209 0.236 0.264 0.287 0.309 0.328 0.345 0.361 0.377 0.391 0.406 0.420 0.434 0.447 0.461 0.475 0.488 0.502 0.516 0.530 0.544 0.558 0.572 0.587 0.601 0.617 0.633 0.650 0.667 0.686 0.706 0.727 0.749 0.773 0.799 0.825 0.854 0.884 0.914 0.942 0.969 0.994 1.017 1.039 1.059 1.078 1.095 1.110 1.124 1.137 1.148 1.158 1.167 1.175 1.181 1.187 1.191 1.195 1.198 1.201 1.202 1.204 1.204 1.205 1.205 1.205 1.205 1.205 1.205 1.205 1.204 1.202 1.201 1.198 1.195 1.192 1.187 1.182 1.175 1.168 1.159 1.149 1.138 1.126 1.112 1.097 1.080 1.063 1.043 1.023 1.002 0.982 0.965 0.948 0.933 0.919 0.906 0.894 0.884 0.875 0.867 0.859 0.853 0.847 0.843 0.839 0.835 0.833 0.830 0.829 0.827 0.826 0.826 0.825 0.825 0.825 0.825 0.825 0.825 0.825 0.826 0.826 0.827 0.828 0.830 0.831 0.834 0.837 0.840 0.843 0.845 0.847 0.849 0.850 0.850 0.851 0.851 0.851 0.851 0.850 0.850 0.849 0.848 0.847 0.845 0.843 0.840 0.837 0.834 0.829 0.826 0.823 0.822 0.822 0.826 0.841 0.882 0.979 1.076 1.076 0.000 
0.000 0.100 0.100 0.117 0.131 0.148 0.171 0.201 0.232 0.260 0.285 0.306 0.325 0.342 0.358 0.373 0.388 0.402 0.416 0.430 0.443 0.457 0.471 0.484 0.498 0.511 0.525 0.539 0.553 0.567 0.581 0.596 0.612 0.627 0.644 0.661 0.679 0.699 0.719 0.741 0.764 0.789 0.815 0.843 0.872 0.902 0.930 0.957 0.982 1.006 1.028 1.048 1.067 1.084 1.099 1.114 1.126 1.138 1.148 1.157 1.165 1.171 1.177 1.182 1.186 1.189 1.191 1.193 1.194 1.195 1.196 1.196 1.196 1.196 1.196 1.196 1.196 1.195 1.194 1.192 1.190 1.187 1.184 1.179 1.174 1.168 1.160 1.152 1.143 1.132 1.120 1.106 1.092 1.076 1.058 1.040 1.019 0.999 0.979 0.961 0.945 0.929 0.915 0.903 0.891 0.881 0.871 0.863 0.856 0.849 0.844 0.839 0.835 0.831 0.829 0.826 0.825 0.823 0.822 0.821 0.821 0.821 0.821 0.821 0.821 0.821 0.821 0.821 0.822 0.822 0.824 0.825 0.827 0.829 0.832 0.835 0.838 0.840 0.842 0.843 0.844 0.844 0.845 0.845 0.845 0.845 0.845 0.845 0.844 0.843 0.842 0.841 0.839 0.837 0.834 0.831 0.827 0.824 0.822 0.822 0.822 0.827 0.842 0.883 0.980 1.073 1.073 0.000 
0.000 0.075 0.075 0.092 0.108 0.131 0.162 0.198 0.231 0.259 0.284 0.305 0.324 0.341 0.357 0.372 0.386 0.399 0.413 0.427 0.440 0.453 0.467 0.480 0.493 0.507 0.520 0.534 0.547 0.562 0.576 0.591 0.606 0.621 0.637 0.654 0.672 0.691 0.711 0.732 0.755 0.779 0.804 0.831 0.860 0.890 0.918 0.945 0.970 0.994 1.016 1.036 1.055 1.072 1.088 1.102 1.115 1.127 1.137 1.146 1.154 1.161 1.166 1.171 1.175 1.179 1.181 1.183 1.185 1.185 1.186 1.186 1.187 1.187 1.187 1.186 1.186 1.185 1.184 1.183 1.181 1.178 1.175 1.170 1.165 1.159 1.152 1.144 1.135 1.125 1.113 1.100 1.086 1.070 1.053 1.035 1.015 0.995 0.976 0.958 0.941 0.926 0.911 0.899 0.887 0.876 0.867 0.859 0.851 0.845 0.839 0.834 0.830 0.827 0.824 0.822 0.820 0.818 0.817 0.817 0.816 0.816 0.816 0.816 0.816 0.816 0.816 0.816 0.817 0.817 0.818 0.820 0.821 0.824 0.826 0.829 0.832 0.834 0.835 0.836 0.837 0.838 0.839 0.840 0.840 0.840 0.840 0.840 0.840 0.839 0.838 0.837 0.836 0.834 0.832 0.829 0.826 0.823 0.821 0.820 0.819 0.821 0.829 0.857 0.934 1.071 1.071 0.000 
0.000 0.049 0.049 0.067 0.088 0.119 0.159 0.197 0.230 0.259 0.283 0.305 0.324 0.341 0.356 0.371 0.384 0.398 0.411 0.424 0.437 0.450 0.463 0.476 0.489 0.502 0.515 0.528 0.542 0.556 0.570 0.584 0.599 0.615 0.631 0.647 0.665 0.683 0.703 0.723 0.745 0.769 0.793 0.820 0.848 0.877 0.905 0.932 0.957 0.981 1.003 1.023 1.042 1.059 1.075 1.090 1.103 1.114 1.125 1.134 1.142 1.149 1.155 1.160 1.164 1.167 1.170 1.172 1.174 1.175 1.175 1.176 1.176 1.176 1.176 1.176 1.175 1.175 1.174 1.173 1.171 1.168 1.165 1.161 1.156 1.150 1.144 1.136 1.127 1.117 1.106 1.093 1.079 1.064 1.048 1.030 1.011 0.990 0.971 0.953 0.936 0.921 0.907 0.894 0.882 0.872 0.862 0.854 0.846 0.840 0.834 0.829 0.825 0.821 0.819 0.816 0.814 0.813 0.812 0.811 0.810 0.810 0.810 0.810 0.810 0.810 0.810 0.810 0.811 0.812 0.813 0.814 0.815 0.817 0.820 0.822 0.825 0.827 0.828 0.830 0.831 0.832 0.833 0.834 0.835 0.835 0.836 0.836 0.836 0.835 0.835 0.834 0.833 0.831 0.829 0.827 0.825 0.822 0.819 0.816 0.812 0.805 0.794 0.776 0.767 0.869 0.869 0.000 
0.000 0.028 0.028 0.045 0.072 0.113 0.159 0.198 0.231 0.259 0.284 0.305 0.324 0.341 0.356 0.370 0.383 0.396 0.409 0.422 0.434 0.447 0.459 0.472 0.485 0.497 0.510 0.523 0.536 0.550 0.563 0.578 0.592 0.608 0.623 0.640 0.657 0.675 0.694 0.714 0.735 0.758 0.782 0.808 0.835 0.863 0.892 0.919 0.944 0.967 0.989 1.010 1.029 1.046 1.062 1.077 1.090 1.102 1.112 1.121 1.130 1.137 1.143 1.148 1.152 1.156 1.158 1.160 1.162 1.163 1.164 1.164 1.164 1.164 1.164 1.164 1.164 1.164 1.163 1.161 1.160 1.157 1.154 1.150 1.146 1.140 1.134 1.127 1.118 1.108 1.097 1.085 1.072 1.057 1.041 1.024 1.005 0.985 0.966 0.948 0.931 0.916 0.902 0.889 0.877 0.866 0.857 0.848 0.841 0.834 0.828 0.823 0.819 0.816 0.813 0.810 0.808 0.807 0.806 0.805 0.804 0.804 0.804 0.804 0.804 0.804 0.804 0.804 0.804 0.805 0.806 0.807 0.809 0.811 0.813 0.815 0.817 0.819 0.821 0.822 0.824 0.825 0.826 0.828 0.829 0.830 0.831 0.831 0.832 0.832 0.831 0.831 0.830 0.829 0.828 0.826 0.824 0.822 0.819 0.815 0.809 0.797 0.772 0.713 0.558 0.328 0.328 0.000 
0.000 0.010 0.010 0.028 0.066 0.114 0.160 0.199 0.232 0.260 0.285 0.306 0.324 0.341 0.356 0.370 0.383 0.396 0.408 0.420 0.432 0.444 0.456 0.468 0.480 0.493 0.505 0.517 0.530 0.543 0.557 0.571 0.585 0.600 0.615 0.632 0.648 0.666 0.685 0.704 0.725 0.747 0.771 0.795 0.822 0.850 0.878 0.905 0.930 0.953 0.975 0.996 1.015 1.032 1.048 1.063 1.076 1.088 1.098 1.108 1.116 1.123 1.129 1.135 1.139 1.143 1.145 1.148 1.149 1.150 1.151 1.152 1.152 1.152 1.152 1.152 1.152 1.151 1.150 1.149 1.148 1.145 1.143 1.139 1.135 1.129 1.123 1.116 1.108 1.099 1.088 1.077 1.064 1.049 1.034 1.017 0.999 0.979 0.960 0.942 0.925 0.910 0.896 0.883 0.871 0.860 0.851 0.842 0.835 0.828 0.822 0.817 0.813 0.809 0.806 0.803 0.801 0.800 0.799 0.798 0.797 0.797 0.797 0.797 0.797 0.797 0.797 0.797 0.797 0.798 0.799 0.800 0.801 0.803 0.805 0.807 0.809 0.811 0.812 0.814 0.816 0.818 0.820 0.821 0.823 0.825 0.826 0.827 0.828 0.828 0.828 0.828 0.828 0.827 0.826 0.825 0.824 0.822 0.819 0.815 0.808 0.797 0.771 0.710 0.547 0.210 0.210 0.000 
0.000 0.030 0.030 0.029 0.068 0.119 0.165 0.203 0.236 0.263 0.287 0.308 0.326 0.342 0.357 0.371 0.383 0.395 0.407 0.419 0.430 0.442 0.453 0.465 0.476 0.488 0.499 0.511 0.524 0.536 0.549 0.563 0.577 0.592 0.607 0.623 0.639 0.657 0.675 0.694 0.714 0.736 0.759 0.783 0.808 0.835 0.863 0.890 0.915 0.938 0.960 0.981 1.000 1.017 1.033 1.048 1.061 1.073 1.084 1.093 1.102 1.109 1.115 1.121 1.125 1.129 1.132 1.134 1.136 1.137 1.138 1.138 1.138 1.139 1.139 1.139 1.138 1.138 1.137 1.136 1.135 1.133 1.130 1.127 1.122 1.118 1.112 1.105 1.097 1.088 1.078 1.067 1.054 1.041 1.026 1.009 0.992 0.973 0.953 0.935 0.919 0.903 0.889 0.876 0.864 0.854 0.844 0.835 0.828 0.821 0.815 0.810 0.805 0.802 0.798 0.796 0.794 0.792 0.791 0.790 0.790 0.789 0.789 0.789 0.789 0.789 0.789 0.789 0.789 0.790 0.791 0.792 0.793 0.794 0.796 0.798 0.800 0.802 0.804 0.806 0.808 0.810 0.812 0.815 0.817 0.819 0.821 0.823 0.825 0.825 0.826 0.826 0.826 0.826 0.825 0.824 0.823 0.822 0.819 0.816 0.811 0.803 0.789 0.764 0.733 0.746 0.746 0.000 
0.000 0.062 0.062 0.052 0.085 0.132 0.174 0.211 0.242 0.269 0.292 0.312 0.329 0.345 0.359 0.372 0.384 0.396 0.407 0.418 0.428 0.439 0.450 0.461 0.472 0.483 0.494 0.505 0.517 0.529 0.542 0.555 0.569 0.583 0.598 0.613 0.630 0.647 0.664 0.683 0.703 0.724 0.746 0.769 0.794 0.821 0.848 0.874 0.899 0.923 0.945 0.965 0.984 1.002 1.018 1.032 1.046 1.058 1.068 1.078 1.086 1.094 1.100 1.105 1.110 1.114 1.117 1.119 1.121 1.122 1.123 1.124 1.124 1.124 1.124 1.124 1.124 1.124 1.123 1.122 1.121 1.119 1.116 1.113 1.109 1.104 1.099 1.092 1.085 1.076 1.067 1.056 1.044 1.031 1.016 1.000 0.983 0.965 0.946 0.928 0.911 0.896 0.882 0.868 0.857 0.846 0.836 0.827 0.820 0.813 0.807 0.802 0.797 0.793 0.790 0.788 0.785 0.784 0.783 0.782 0.781 0.781 0.780 0.780 0.780 0.780 0.780 0.780 0.781 0.781 0.782 0.782 0.784 0.785 0.786 0.788 0.790 0.792 0.794 0.797 0.799 0.802 0.804 0.807 0.810 0.814 0.816 0.819 0.821 0.823 0.824 0.824 0.825 0.825 0.825 0.824 0.823 0.822 0.820 0.819 0.818 0.818 0.824 0.847 0.920 1.058 1.058 0.000 
0.000 0.157 0.157 0.111 0.133 0.158 0.189 0.224 0.253 0.278 0.299 0.318 0.334 0.348 0.362 0.374 0.385 0.396 0.407 0.417 0.427 0.437 0.447 0.457 0.467 0.477 0.488 0.499 0.510 0.522 0.534 0.547 0.560 0.574 0.588 0.603 0.619 0.636 0.653 0.672 0.691 0.711 0.733 0.756 0.780 0.805 0.832 0.858 0.883 0.907 0.928 0.949 0.968 0.985 1.001 1.016 1.029 1.041 1.052 1.061 1.070 1.077 1.084 1.089 1.094 1.098 1.101 1.103 1.105 1.106 1.107 1.108 1.108 1.109 1.109 1.109 1.108 1.108 1.108 1.107 1.105 1.104 1.101 1.098 1.095 1.090 1.085 1.079 1.072 1.064 1.054 1.044 1.032 1.020 1.006 0.990 0.974 0.956 0.937 0.919 0.903 0.887 0.873 0.860 0.848 0.837 0.827 0.819 0.811 0.804 0.798 0.793 0.788 0.784 0.781 0.778 0.776 0.775 0.773 0.772 0.771 0.771 0.771 0.771 0.771 0.771 0.771 0.771 0.771 0.771 0.772 0.773 0.774 0.775 0.776 0.778 0.780 0.782 0.784 0.787 0.790 0.793 0.796 0.799 0.803 0.807 0.811 0.814 0.817 0.820 0.822 0.823 0.824 0.824 0.824 0.824 0.823 0.822 0.821 0.821 0.821 0.825 0.838 0.875 0.964 1.055 1.055 0.000 
0.000 0.270 0.270 0.208 0.189 0.193 0.213 0.242 0.269 0.292 0.310 0.327 0.341 0.354 0.366 0.377 0.387 0.397 0.407 0.416 0.426 0.435 0.444 0.453 0.462 0.472 0.482 0.492 0.503 0.514 0.526 0.538 0.550 0.564 0.578 0.593 0.608 0.624 0.642 0.660 0.678 0.698 0.719 0.741 0.765 0.790 0.816 0.842 0.866 0.889 0.911 0.931 0.950 0.967 0.983 0.998 1.011 1.023 1.034 1.044 1.052 1.060 1.066 1.072 1.077 1.081 1.084 1.086 1.088 1.090 1.091 1.091 1.092 1.092 1.092 1.092 1.092 1.092 1.091 1.090 1.089 1.088 1.085 1.083 1.079 1.075 1.070 1.064 1.057 1.050 1.041 1.031 1.020 1.007 0.994 0.979 0.963 0.946 0.928 0.910 0.893 0.878 0.864 0.851 0.839 0.828 0.818 0.809 0.801 0.794 0.788 0.783 0.778 0.774 0.771 0.768 0.766 0.764 0.763 0.762 0.761 0.761 0.760 0.760 0.760 0.760 0.760 0.760 0.760 0.761 0.761 0.762 0.763 0.764 0.765 0.767 0.769 0.771 0.774 0.776 0.780 0.783 0.787 0.791 0.795 0.800 0.805 0.809 0.813 0.817 0.819 0.822 0.823 0.824 0.824 0.824 0.824 0.823 0.822 0.822 0.822 0.826 0.838 0.874 0.963 1.053 1.053 0.000 
0.000 0.175 0.175 0.219 0.215 0.230 0.248 0.270 0.292 0.310 0.326 0.339 0.351 0.362 0.372 0.382 0.391 0.399 0.408 0.416 0.424 0.433 0.441 0.449 0.458 0.466 0.476 0.485 0.495 0.506 0.517 0.528 0.541 0.553 0.567 0.581 0.596 0.612 0.629 0.647 0.665 0.684 0.705 0.726 0.749 0.773 0.799 0.824 0.849 0.871 0.893 0.913 0.932 0.949 0.965 0.979 0.993 1.005 1.016 1.025 1.034 1.041 1.048 1.053 1.058 1.062 1.065 1.068 1.070 1.071 1.073 1.073 1.074 1.074 1.074 1.074 1.074 1.074 1.073 1.073 1.072 1.070 1.068 1.066 1.062 1.058 1.054 1.048 1.042 1.034 1.026 1.016 1.006 0.994 0.981 0.967 0.952 0.935 0.917 0.899 0.883 0.867 0.853 0.840 0.828 0.817 0.807 0.798 0.790 0.783 0.777 0.772 0.767 0.763 0.760 0.757 0.755 0.753 0.752 0.750 0.750 0.749 0.749 0.749 0.749 0.748 0.748 0.749 0.749 0.749 0.749 0.750 0.751 0.752 0.753 0.755 0.757 0.759 0.762 0.765 0.769 0.773 0.777 0.782 0.787 0.792 0.798 0.804 0.809 0.813 0.817 0.820 0.822 0.824 0.824 0.825 0.825 0.824 0.823 0.822 0.821 0.820 0.824 0.845 0.911 1.050 1.050 0.000 
0.000 0.027 0.027 0.143 0.238 0.273 0.293 0.309 0.323 0.335 0.346 0.355 0.364 0.372 0.380 0.387 0.395 0.402 0.409 0.416 0.423 0.430 0.438 0.445 0.453 0.461 0.469 0.478 0.487 0.497 0.507 0.519 0.530 0.543 0.556 0.569 0.584 0.599 0.616 0.633 0.651 0.670 0.690 0.711 0.733 0.756 0.781 0.806 0.830 0.853 0.874 0.894 0.912 0.929 0.945 0.960 0.973 0.985 0.996 1.005 1.014 1.021 1.028 1.034 1.038 1.042 1.046 1.048 1.051 1.052 1.053 1.054 1.054 1.055 1.055 1.055 1.055 1.055 1.054 1.054 1.053 1.051 1.050 1.047 1.044 1.040 1.036 1.031 1.025 1.018 1.010 1.001 0.990 0.979 0.967 0.953 0.938 0.922 0.905 0.888 0.871 0.856 0.841 0.828 0.816 0.805 0.796 0.787 0.779 0.772 0.765 0.760 0.755 0.751 0.748 0.745 0.743 0.741 0.739 0.738 0.737 0.737 0.736 0.736 0.736 0.736 0.736 0.736 0.736 0.736 0.737 0.737 0.738 0.739 0.741 0.742 0.744 0.747 0.750 0.753 0.757 0.762 0.766 0.772 0.777 0.784 0.790 0.797 0.804 0.810 0.815 0.819 0.822 0.824 0.825 0.826 0.826 0.826 0.825 0.822 0.818 0.808 0.791 0.762 0.728 0.805 0.805 0.000 
0.000 0.312 0.312 0.191 0.294 0.335 0.350 0.358 0.363 0.367 0.371 0.375 0.380 0.385 0.390 0.395 0.400 0.406 0.411 0.417 0.422 0.428 0.434 0.441 0.447 0.454 0.462 0.470 0.479 0.488 0.498 0.508 0.519 0.531 0.544 0.557 0.571 0.586 0.602 0.618 0.636 0.654 0.674 0.694 0.716 0.738 0.762 0.787 0.811 0.833 0.854 0.873 0.892 0.909 0.924 0.939 0.952 0.964 0.975 0.984 0.993 1.000 1.007 1.013 1.017 1.022 1.025 1.028 1.030 1.031 1.033 1.033 1.034 1.034 1.034 1.034 1.034 1.034 1.034 1.033 1.032 1.031 1.030 1.027 1.025 1.021 1.017 1.012 1.006 1.000 0.992 0.983 0.974 0.963 0.951 0.938 0.924 0.909 0.892 0.875 0.858 0.843 0.829 0.816 0.804 0.793 0.783 0.774 0.766 0.759 0.752 0.747 0.742 0.738 0.734 0.731 0.729 0.727 0.726 0.725 0.724 0.723 0.723 0.722 0.722 0.722 0.722 0.722 0.722 0.723 0.723 0.724 0.724 0.726 0.727 0.729 0.731 0.734 0.737 0.741 0.745 0.750 0.755 0.761 0.767 0.774 0.782 0.790 0.798 0.806 0.812 0.818 0.822 0.825 0.827 0.828 0.828 0.828 0.827 0.824 0.817 0.803 0.774 0.709 0.547 0.275 0.275 0.000 
0.000 0.692 0.692 0.493 0.441 0.431 0.423 0.415 0.408 0.403 0.400 0.399 0.399 0.400 0.401 0.404 0.407 0.410 0.413 0.417 0.421 0.426 0.431 0.436 0.442 0.448 0.455 0.462 0.470 0.479 0.488 0.497 0.508 0.519 0.531 0.544 0.557 0.572 0.587 0.603 0.620 0.638 0.657 0.677 0.698 0.720 0.743 0.767 0.790 0.812 0.833 0.852 0.870 0.887 0.902 0.917 0.930 0.942 0.952 0.962 0.970 0.978 0.984 0.990 0.995 0.999 1.003 1.005 1.008 1.009 1.010 1.011 1.012 1.012 1.012 1.012 1.012 1.012 1.012 1.012 1.011 1.010 1.008 1.006 1.004 1.000 0.996 0.992 0.986 0.980 0.973 0.965 0.956 0.945 0.934 0.922 0.908 0.893 0.877 0.860 0.844 0.829 0.815 0.801 0.789 0.778 0.769 0.760 0.751 0.744 0.738 0.732 0.728 0.723 0.720 0.717 0.715 0.713 0.711 0.710 0.709 0.708 0.708 0.708 0.708 0.707 0.707 0.707 0.708 0.708 0.708 0.709 0.710 0.711 0.712 0.714 0.717 0.720 0.723 0.727 0.732 0.737 0.743 0.749 0.756 0.764 0.773 0.782 0.792 0.801 0.809 0.816 0.822 0.826 0.829 0.831 0.832 0.831 0.830 0.827 0.820 0.805 0.775 0.711 0.556 0.253 0.253 0.000 
0.000 0.746 0.746 0.682 0.580 0.523 0.488 0.464 0.447 0.434 0.425 0.419 0.415 0.413 0.412 0.412 0.412 0.414 0.415 0.417 0.420 0.423 0.427 0.431 0.436 0.441 0.447 0.454 0.461 0.469 0.477 0.486 0.496 0.507 0.518 0.530 0.543 0.557 0.571 0.587 0.603 0.621 0.639 0.658 0.679 0.700 0.723 0.746 0.769 0.790 0.810 0.829 0.847 0.864 0.879 0.893 0.906 0.918 0.928 0.938 0.946 0.954 0.961 0.966 0.971 0.975 0.979 0.982 0.984 0.986 0.987 0.988 0.988 0.989 0.989 0.989 0.989 0.989 0.989 0.988 0.988 0.987 0.985 0.983 0.981 0.978 0.974 0.970 0.965 0.959 0.952 0.944 0.936 0.926 0.915 0.903 0.890 0.876 0.861 0.845 0.828 0.813 0.799 0.786 0.774 0.763 0.753 0.744 0.736 0.729 0.722 0.717 0.712 0.708 0.704 0.701 0.699 0.697 0.695 0.694 0.693 0.692 0.692 0.692 0.692 0.691 0.691 0.692 0.692 0.692 0.692 0.693 0.694 0.695 0.697 0.699 0.701 0.704 0.708 0.712 0.717 0.723 0.729 0.737 0.745 0.753 0.763 0.773 0.784 0.795 0.805 0.814 0.822 0.828 0.832 0.836 0.837 0.838 0.837 0.835 0.829 0.817 0.795 0.766 0.743 0.778 0.778 0.000 
0.000 0.737 0.737 0.720 0.643 0.578 0.533 0.500 0.477 0.459 0.446 0.436 0.429 0.424 0.421 0.418 0.417 0.416 0.416 0.417 0.418 0.420 0.423 0.426 0.430 0.434 0.439 0.445 0.451 0.458 0.466 0.474 0.484 0.493 0.504 0.516 0.528 0.541 0.555 0.570 0.586 0.603 0.620 0.639 0.659 0.679 0.701 0.724 0.746 0.767 0.787 0.806 0.823 0.839 0.854 0.868 0.881 0.893 0.903 0.913 0.921 0.929 0.935 0.941 0.946 0.950 0.953 0.956 0.959 0.960 0.962 0.963 0.963 0.964 0.964 0.964 0.964 0.964 0.964 0.963 0.963 0.962 0.961 0.959 0.957 0.954 0.951 0.947 0.942 0.936 0.930 0.923 0.914 0.905 0.895 0.884 0.871 0.858 0.843 0.827 0.811 0.796 0.782 0.769 0.757 0.746 0.736 0.727 0.719 0.712 0.705 0.700 0.695 0.691 0.687 0.684 0.682 0.680 0.678 0.677 0.676 0.675 0.675 0.674 0.674 0.674 0.674 0.674 0.674 0.675 0.675 0.676 0.677 0.678 0.680 0.682 0.685 0.688 0.692 0.697 0.702 0.708 0.715 0.723 0.732 0.741 0.752 0.763 0.775 0.788 0.800 0.812 0.822 0.830 0.837 0.842 0.845 0.848 0.849 0.848 0.847 0.843 0.844 0.864 0.924 1.037 1.037 0.000 
0.000 0.714 0.714 0.714 0.666 0.607 0.561 0.526 0.499 0.479 0.463 0.451 0.441 0.433 0.428 0.423 0.420 0.418 0.417 0.416 0.417 0.417 0.419 0.421 0.424 0.427 0.431 0.436 0.442 0.448 0.455 0.462 0.471 0.480 0.490 0.500 0.512 0.524 0.538 0.552 0.567 0.583 0.600 0.618 0.637 0.657 0.678 0.700 0.722 0.743 0.762 0.781 0.798 0.814 0.828 0.842 0.855 0.866 0.876 0.886 0.894 0.902 0.908 0.914 0.919 0.923 0.926 0.929 0.932 0.933 0.935 0.936 0.937 0.937 0.937 0.937 0.937 0.937 0.937 0.937 0.936 0.936 0.934 0.933 0.931 0.928 0.925 0.921 0.917 0.912 0.906 0.899 0.891 0.882 0.873 0.862 0.850 0.837 0.823 0.808 0.793 0.778 0.764 0.751 0.739 0.728 0.718 0.709 0.701 0.694 0.687 0.681 0.677 0.672 0.669 0.666 0.663 0.661 0.659 0.658 0.657 0.657 0.656 0.656 0.656 0.656 0.656 0.656 0.656 0.656 0.657 0.658 0.659 0.660 0.662 0.665 0.667 0.671 0.675 0.680 0.686 0.693 0.700 0.709 0.718 0.728 0.740 0.752 0.765 0.780 0.794 0.808 0.822 0.833 0.843 0.850 0.857 0.862 0.866 0.870 0.875 0.883 0.901 0.933 0.988 1.035 1.035 0.000 
0.000 0.688 0.688 0.695 0.668 0.620 0.578 0.544 0.517 0.495 0.477 0.463 0.451 0.441 0.433 0.427 0.422 0.419 0.416 0.415 0.414 0.414 0.415 0.416 0.417 0.420 0.423 0.427 0.431 0.437 0.443 0.449 0.457 0.465 0.475 0.485 0.495 0.507 0.520 0.533 0.548 0.563 0.580 0.597 0.615 0.634 0.655 0.676 0.697 0.717 0.736 0.754 0.771 0.786 0.801 0.814 0.827 0.838 0.848 0.857 0.866 0.873 0.879 0.885 0.890 0.894 0.898 0.901 0.903 0.905 0.906 0.907 0.908 0.908 0.909 0.909 0.909 0.909 0.909 0.908 0.908 0.907 0.906 0.905 0.903 0.901 0.898 0.894 0.890 0.885 0.880 0.873 0.866 0.858 0.849 0.839 0.827 0.815 0.802 0.788 0.772 0.758 0.744 0.731 0.719 0.708 0.698 0.689 0.681 0.674 0.667 0.662 0.657 0.652 0.649 0.646 0.643 0.641 0.639 0.638 0.637 0.637 0.636 0.636 0.636 0.636 0.636 0.636 0.636 0.636 0.637 0.638 0.639 0.641 0.643 0.646 0.649 0.653 0.657 0.663 0.669 0.676 0.684 0.693 0.703 0.714 0.727 0.740 0.754 0.770 0.787 0.804 0.820 0.836 0.850 0.861 0.871 0.880 0.889 0.899 0.911 0.927 0.951 0.981 1.015 1.035 1.035 0.000 
0.000 0.662 0.662 0.672 0.656 0.624 0.586 0.556 0.530 0.508 0.489 0.473 0.459 0.448 0.438 0.430 0.423 0.419 0.415 0.413 0.411 0.410 0.410 0.410 0.411 0.412 0.414 0.417 0.421 0.425 0.430 0.436 0.443 0.450 0.459 0.468 0.478 0.489 0.501 0.514 0.528 0.542 0.558 0.574 0.592 0.610 0.629 0.650 0.670 0.690 0.708 0.726 0.742 0.758 0.772 0.785 0.797 0.808 0.818 0.827 0.835 0.843 0.849 0.855 0.860 0.864 0.867 0.870 0.872 0.874 0.876 0.877 0.878 0.878 0.878 0.879 0.879 0.879 0.878 0.878 0.878 0.877 0.876 0.875 0.874 0.871 0.869 0.866 0.862 0.857 0.852 0.846 0.839 0.831 0.823 0.813 0.803 0.791 0.779 0.765 0.750 0.736 0.722 0.709 0.697 0.686 0.677 0.668 0.660 0.652 0.646 0.640 0.635 0.631 0.627 0.624 0.622 0.620 0.618 0.617 0.616 0.615 0.615 0.615 0.614 0.614 0.614 0.615 0.615 0.615 0.616 0.617 0.618 0.620 0.622 0.625 0.629 0.633 0.638 0.644 0.650 0.658 0.667 0.676 0.687 0.699 0.712 0.727 0.743 0.760 0.778 0.797 0.817 0.837 0.857 0.874 0.889 0.904 0.918 0.933 0.951 0.971 0.994 1.018 1.034 1.038 1.038 0.000 
0.000 0.636 0.636 0.647 0.638 0.618 0.589 0.563 0.540 0.520 0.500 0.482 0.467 0.453 0.441 0.431 0.424 0.418 0.414 0.410 0.408 0.406 0.404 0.404 0.404 0.404 0.405 0.407 0.410 0.413 0.417 0.422 0.428 0.435 0.442 0.451 0.460 0.470 0.481 0.493 0.506 0.520 0.535 0.550 0.567 0.584 0.603 0.622 0.642 0.661 0.679 0.696 0.712 0.727 0.741 0.754 0.766 0.776 0.786 0.795 0.803 0.810 0.817 0.822 0.827 0.831 0.835 0.838 0.840 0.842 0.843 0.845 0.845 0.846 0.846 0.846 0.846 0.846 0.846 0.846 0.846 0.845 0.845 0.843 0.842 0.840 0.838 0.835 0.831 0.827 0.822 0.816 0.810 0.803 0.795 0.786 0.776 0.765 0.753 0.740 0.726 0.712 0.698 0.686 0.674 0.663 0.653 0.644 0.636 0.629 0.623 0.617 0.612 0.608 0.604 0.601 0.599 0.597 0.595 0.594 0.593 0.592 0.592 0.592 0.592 0.592 0.592 0.592 0.592 0.593 0.593 0.595 0.596 0.598 0.601 0.604 0.607 0.612 0.617 0.623 0.631 0.639 0.648 0.658 0.670 0.683 0.697 0.712 0.729 0.748 0.768 0.789 0.812 0.836 0.861 0.886 0.911 0.932 0.952 0.972 0.992 1.013 1.033 1.049 1.057 1.059 1.059 0.000 
0.000 0.611 0.611 0.622 0.615 0.603 0.587 0.567 0.549 0.530 0.511 0.491 0.473 0.457 0.443 0.432 0.424 0.417 0.411 0.407 0.403 0.400 0.398 0.397 0.396 0.396 0.396 0.397 0.398 0.401 0.404 0.408 0.413 0.419 0.425 0.433 0.441 0.451 0.461 0.472 0.484 0.497 0.511 0.525 0.541 0.557 0.575 0.593 0.612 0.631 0.648 0.665 0.680 0.695 0.708 0.721 0.732 0.743 0.753 0.761 0.769 0.776 0.782 0.788 0.793 0.797 0.800 0.803 0.806 0.807 0.809 0.810 0.811 0.811 0.812 0.812 0.812 0.812 0.812 0.812 0.812 0.811 0.811 0.810 0.808 0.806 0.804 0.802 0.798 0.794 0.790 0.785 0.779 0.772 0.765 0.756 0.747 0.737 0.725 0.713 0.700 0.686 0.673 0.660 0.649 0.638 0.628 0.619 0.611 0.604 0.598 0.592 0.587 0.583 0.579 0.576 0.574 0.572 0.570 0.569 0.568 0.568 0.567 0.567 0.567 0.567 0.567 0.567 0.568 0.568 0.569 0.571 0.572 0.574 0.577 0.581 0.585 0.590 0.595 0.602 0.610 0.618 0.628 0.639 0.651 0.665 0.680 0.697 0.715 0.735 0.757 0.780 0.806 0.833 0.862 0.895 0.929 0.960 0.987 1.010 1.032 1.052 1.068 1.081 1.090 1.097 1.097 0.000 
0.000 0.585 0.585 0.597 0.593 0.588 0.581 0.570 0.556 0.539 0.520 0.499 0.478 0.460 0.445 0.433 0.423 0.415 0.408 0.402 0.397 0.394 0.391 0.388 0.387 0.386 0.386 0.386 0.386 0.388 0.390 0.393 0.397 0.402 0.408 0.414 0.422 0.430 0.439 0.449 0.460 0.472 0.485 0.499 0.514 0.529 0.545 0.563 0.581 0.599 0.615 0.631 0.647 0.661 0.674 0.686 0.697 0.707 0.717 0.725 0.733 0.740 0.746 0.751 0.756 0.760 0.764 0.766 0.769 0.771 0.772 0.773 0.774 0.775 0.775 0.776 0.776 0.776 0.776 0.776 0.775 0.775 0.774 0.773 0.772 0.771 0.769 0.766 0.763 0.760 0.756 0.751 0.745 0.739 0.732 0.724 0.716 0.706 0.696 0.684 0.672 0.659 0.645 0.633 0.622 0.611 0.601 0.593 0.585 0.578 0.571 0.566 0.561 0.557 0.553 0.550 0.548 0.546 0.544 0.543 0.542 0.542 0.541 0.541 0.541 0.541 0.541 0.541 0.542 0.543 0.544 0.545 0.547 0.549 0.552 0.556 0.560 0.566 0.572 0.579 0.587 0.596 0.607 0.618 0.632 0.646 0.662 0.680 0.700 0.721 0.744 0.770 0.798 0.829 0.862 0.898 0.941 0.983 1.018 1.047 1.070 1.089 1.104 1.115 1.124 1.129 1.129 0.000 
0.000 0.559 0.559 0.573 0.577 0.579 0.578 0.572 0.561 0.546 0.528 0.505 0.481 0.462 0.445 0.432 0.421 0.411 0.403 0.396 0.390 0.386 0.382 0.379 0.377 0.375 0.374 0.374 0.374 0.374 0.376 0.378 0.381 0.384 0.389 0.395 0.401 0.409 0.417 0.426 0.436 0.447 0.459 0.471 0.485 0.499 0.514 0.530 0.547 0.564 0.581 0.596 0.611 0.624 0.637 0.649 0.660 0.670 0.679 0.687 0.695 0.701 0.707 0.713 0.717 0.721 0.725 0.728 0.730 0.732 0.733 0.735 0.736 0.736 0.737 0.737 0.737 0.737 0.737 0.737 0.737 0.736 0.736 0.735 0.734 0.733 0.731 0.729 0.726 0.723 0.719 0.715 0.710 0.704 0.697 0.690 0.682 0.673 0.663 0.653 0.641 0.629 0.616 0.604 0.592 0.582 0.573 0.564 0.556 0.549 0.543 0.537 0.532 0.528 0.525 0.522 0.519 0.517 0.516 0.515 0.514 0.514 0.513 0.513 0.513 0.513 0.513 0.514 0.514 0.515 0.516 0.518 0.520 0.523 0.526 0.530 0.535 0.540 0.547 0.554 0.563 0.573 0.584 0.596 0.610 0.626 0.643 0.662 0.683 0.706 0.731 0.759 0.789 0.822 0.859 0.900 0.946 0.998 1.045 1.081 1.107 1.127 1.141 1.150 1.156 1.157 1.157 0.000 
0.000 0.533 0.533 0.552 0.570 0.577 0.578 0.575 0.567 0.553 0.533 0.509 0.483 0.462 0.445 0.430 0.418 0.407 0.397 0.389 0.383 0.377 0.372 0.369 0.366 0.363 0.362 0.361 0.360 0.360 0.361 0.362 0.363 0.366 0.370 0.374 0.380 0.386 0.393 0.402 0.411 0.420 0.431 0.442 0.455 0.468 0.482 0.496 0.512 0.528 0.544 0.559 0.573 0.586 0.598 0.610 0.620 0.630 0.639 0.647 0.654 0.661 0.667 0.672 0.676 0.680 0.683 0.686 0.689 0.691 0.692 0.693 0.694 0.695 0.695 0.696 0.696 0.696 0.696 0.696 0.696 0.695 0.695 0.694 0.693 0.692 0.691 0.689 0.686 0.683 0.680 0.676 0.671 0.666 0.660 0.654 0.646 0.638 0.629 0.619 0.608 0.597 0.584 0.572 0.561 0.551 0.542 0.533 0.525 0.518 0.512 0.507 0.502 0.498 0.495 0.492 0.489 0.488 0.486 0.485 0.484 0.484 0.484 0.484 0.484 0.484 0.484 0.484 0.485 0.486 0.487 0.489 0.491 0.494 0.498 0.502 0.507 0.513 0.520 0.528 0.537 0.548 0.559 0.573 0.587 0.604 0.622 0.642 0.664 0.688 0.715 0.745 0.778 0.814 0.854 0.898 0.948 1.005 1.064 1.111 1.144 1.166 1.180 1.187 1.188 1.187 1.187 0.000 
0.000 0.550 0.550 0.549 0.571 0.580 0.582 0.580 0.572 0.558 0.537 0.510 0.484 0.462 0.443 0.427 0.413 0.401 0.390 0.381 0.373 0.367 0.361 0.357 0.353 0.350 0.348 0.346 0.345 0.345 0.344 0.345 0.346 0.347 0.350 0.353 0.358 0.363 0.369 0.376 0.384 0.392 0.402 0.412 0.423 0.435 0.447 0.461 0.475 0.490 0.505 0.519 0.533 0.546 0.557 0.568 0.579 0.588 0.596 0.604 0.611 0.618 0.623 0.628 0.633 0.636 0.640 0.643 0.645 0.647 0.648 0.650 0.650 0.651 0.652 0.652 0.652 0.652 0.652 0.652 0.652 0.652 0.652 0.651 0.650 0.649 0.648 0.646 0.644 0.641 0.638 0.635 0.631 0.626 0.620 0.614 0.608 0.600 0.592 0.583 0.573 0.562 0.550 0.539 0.528 0.518 0.509 0.500 0.493 0.486 0.480 0.474 0.470 0.466 0.462 0.460 0.457 0.456 0.454 0.453 0.453 0.453 0.452 0.452 0.452 0.452 0.453 0.453 0.454 0.455 0.456 0.458 0.461 0.464 0.468 0.472 0.478 0.484 0.492 0.500 0.510 0.521 0.533 0.547 0.563 0.580 0.599 0.620 0.644 0.670 0.698 0.730 0.765 0.804 0.847 0.894 0.946 1.006 1.073 1.135 1.179 1.206 1.221 1.227 1.227 1.219 1.219 0.000 
0.000 0.570 0.570 0.566 0.584 0.592 0.593 0.589 0.580 0.563 0.539 0.510 0.483 0.460 0.440 0.422 0.407 0.393 0.382 0.371 0.363 0.355 0.349 0.344 0.339 0.336 0.333 0.331 0.329 0.328 0.327 0.327 0.327 0.328 0.329 0.332 0.335 0.339 0.344 0.350 0.356 0.363 0.371 0.380 0.389 0.400 0.411 0.423 0.436 0.449 0.464 0.478 0.491 0.503 0.514 0.525 0.534 0.543 0.552 0.559 0.566 0.572 0.577 0.582 0.586 0.590 0.593 0.596 0.598 0.600 0.602 0.603 0.604 0.605 0.605 0.606 0.606 0.606 0.606 0.606 0.606 0.606 0.605 0.605 0.604 0.603 0.602 0.601 0.599 0.597 0.594 0.591 0.587 0.583 0.578 0.573 0.566 0.560 0.552 0.544 0.534 0.525 0.514 0.503 0.492 0.482 0.473 0.465 0.458 0.451 0.445 0.440 0.435 0.432 0.428 0.426 0.424 0.422 0.421 0.420 0.419 0.419 0.419 0.419 0.419 0.419 0.419 0.420 0.421 0.422 0.424 0.426 0.428 0.432 0.436 0.441 0.447 0.454 0.462 0.471 0.481 0.492 0.505 0.520 0.536 0.554 0.574 0.596 0.621 0.648 0.679 0.712 0.749 0.790 0.836 0.886 0.942 1.004 1.074 1.148 1.209 1.248 1.269 1.278 1.279 1.278 1.278 0.000 
0.000 0.664 0.664 0.612 0.620 0.621 0.616 0.606 0.590 0.568 0.540 0.509 0.481 0.457 0.435 0.416 0.399 0.384 0.371 0.360 0.350 0.342 0.335 0.329 0.324 0.319 0.316 0.313 0.311 0.309 0.308 0.307 0.307 0.307 0.308 0.309 0.311 0.314 0.317 0.322 0.327 0.333 0.339 0.347 0.354 0.363 0.373 0.383 0.394 0.407 0.420 0.433 0.446 0.457 0.468 0.478 0.488 0.496 0.504 0.511 0.518 0.524 0.529 0.533 0.538 0.541 0.544 0.547 0.549 0.551 0.553 0.554 0.555 0.556 0.556 0.556 0.557 0.557 0.557 0.557 0.557 0.557 0.556 0.556 0.556 0.555 0.554 0.553 0.551 0.549 0.547 0.544 0.541 0.537 0.533 0.528 0.522 0.516 0.509 0.502 0.494 0.484 0.475 0.464 0.454 0.444 0.436 0.428 0.420 0.414 0.408 0.403 0.399 0.395 0.392 0.390 0.388 0.386 0.385 0.384 0.384 0.384 0.383 0.383 0.384 0.384 0.384 0.385 0.386 0.387 0.389 0.391 0.394 0.398 0.402 0.408 0.414 0.421 0.429 0.439 0.450 0.462 0.475 0.491 0.507 0.526 0.547 0.571 0.596 0.625 0.657 0.692 0.731 0.774 0.822 0.875 0.934 0.999 1.071 1.151 1.229 1.290 1.327 1.345 1.352 1.353 1.353 0.000 
0.000 0.760 0.760 0.704 0.687 0.672 0.653 0.630 0.603 0.571 0.538 0.506 0.477 0.451 0.428 0.408 0.389 0.373 0.359 0.347 0.337 0.327 0.319 0.312 0.307 0.302 0.297 0.294 0.291 0.289 0.287 0.286 0.285 0.285 0.285 0.285 0.286 0.288 0.290 0.293 0.297 0.301 0.306 0.311 0.318 0.325 0.333 0.342 0.352 0.362 0.374 0.387 0.399 0.410 0.420 0.430 0.438 0.447 0.454 0.461 0.467 0.473 0.477 0.482 0.486 0.489 0.492 0.495 0.497 0.499 0.501 0.502 0.503 0.503 0.504 0.504 0.505 0.505 0.505 0.505 0.505 0.505 0.505 0.504 0.504 0.503 0.503 0.502 0.500 0.499 0.497 0.494 0.492 0.488 0.485 0.480 0.476 0.470 0.464 0.457 0.450 0.442 0.433 0.423 0.413 0.404 0.396 0.388 0.381 0.375 0.369 0.364 0.360 0.357 0.354 0.351 0.350 0.348 0.347 0.347 0.346 0.346 0.346 0.346 0.346 0.346 0.347 0.347 0.349 0.350 0.352 0.355 0.358 0.362 0.367 0.372 0.379 0.387 0.395 0.405 0.417 0.429 0.443 0.459 0.477 0.496 0.518 0.542 0.569 0.599 0.632 0.668 0.709 0.754 0.804 0.859 0.920 0.988 1.063 1.146 1.235 1.319 1.385 1.428 1.449 1.452 1.452 0.000 
0.000 0.878 0.878 0.810 0.784 0.745 0.701 0.657 0.614 0.573 0.535 0.501 0.471 0.443 0.419 0.397 0.378 0.361 0.346 0.332 0.321 0.311 0.302 0.294 0.288 0.282 0.277 0.273 0.270 0.267 0.265 0.263 0.262 0.261 0.260 0.260 0.260 0.261 0.262 0.264 0.266 0.268 0.272 0.276 0.281 0.287 0.294 0.302 0.311 0.320 0.330 0.341 0.352 0.362 0.371 0.380 0.388 0.395 0.402 0.408 0.414 0.419 0.424 0.428 0.432 0.435 0.438 0.440 0.442 0.444 0.445 0.447 0.448 0.448 0.449 0.449 0.450 0.450 0.450 0.450 0.450 0.450 0.450 0.450 0.449 0.449 0.448 0.447 0.446 0.445 0.444 0.442 0.439 0.437 0.433 0.430 0.426 0.421 0.416 0.410 0.403 0.396 0.388 0.379 0.370 0.361 0.353 0.346 0.339 0.333 0.328 0.323 0.320 0.316 0.314 0.311 0.310 0.309 0.308 0.307 0.307 0.307 0.307 0.307 0.307 0.307 0.308 0.308 0.310 0.311 0.313 0.316 0.320 0.324 0.329 0.335 0.342 0.350 0.359 0.370 0.381 0.394 0.409 0.425 0.444 0.464 0.486 0.511 0.539 0.569 0.603 0.641 0.683 0.729 0.781 0.838 0.902 0.972 1.050 1.136 1.231 1.332 1.426 1.498 1.544 1.566 1.566 0.000 
0.000 0.993 0.993 0.927 0.872 0.810 0.739 0.676 0.620 0.573 0.531 0.495 0.462 0.433 0.407 0.384 0.363 0.345 0.329 0.315 0.303 0.292 0.283 0.274 0.267 0.261 0.256 0.251 0.247 0.244 0.241 0.239 0.237 0.235 0.234 0.233 0.233 0.233 0.233 0.234 0.235 0.237 0.239 0.243 0.247 0.252 0.258 0.264 0.272 0.280 0.289 0.299 0.308 0.317 0.326 0.333 0.340 0.347 0.353 0.358 0.363 0.368 0.372 0.375 0.379 0.382 0.384 0.386 0.388 0.390 0.391 0.392 0.393 0.393 0.394 0.394 0.394 0.395 0.395 0.395 0.395 0.395 0.395 0.395 0.394 0.394 0.393 0.393 0.392 0.391 0.389 0.388 0.386 0.383 0.381 0.378 0.374 0.370 0.365 0.360 0.354 0.348 0.341 0.333 0.325 0.317 0.310 0.303 0.297 0.292 0.287 0.283 0.280 0.277 0.275 0.273 0.272 0.271 0.270 0.269 0.269 0.269 0.269 0.269 0.269 0.269 0.270 0.271 0.272 0.273 0.275 0.278 0.281 0.285 0.290 0.296 0.303 0.311 0.321 0.332 0.344 0.358 0.373 0.389 0.408 0.429 0.452 0.477 0.505 0.536 0.571 0.610 0.653 0.700 0.753 0.812 0.877 0.950 1.031 1.120 1.220 1.331 1.446 1.542 1.609 1.636 1.636 0.000 
0.000 1.031 1.031 0.996 0.935 0.853 0.764 0.687 0.623 0.570 0.525 0.485 0.450 0.420 0.392 0.368 0.347 0.328 0.311 0.296 0.283 0.272 0.261 0.252 0.245 0.238 0.232 0.227 0.222 0.218 0.215 0.212 0.210 0.208 0.206 0.205 0.204 0.204 0.204 0.204 0.205 0.206 0.208 0.211 0.215 0.219 0.224 0.229 0.236 0.243 0.251 0.259 0.267 0.275 0.282 0.289 0.295 0.301 0.306 0.311 0.315 0.319 0.323 0.326 0.329 0.331 0.334 0.335 0.337 0.338 0.340 0.340 0.341 0.342 0.342 0.342 0.343 0.343 0.343 0.343 0.343 0.343 0.343 0.343 0.342 0.342 0.342 0.341 0.340 0.339 0.338 0.337 0.335 0.333 0.331 0.328 0.325 0.321 0.317 0.313 0.308 0.302 0.296 0.289 0.282 0.275 0.269 0.263 0.258 0.253 0.249 0.246 0.243 0.241 0.239 0.237 0.236 0.235 0.234 0.234 0.234 0.233 0.233 0.233 0.234 0.234 0.234 0.235 0.236 0.237 0.239 0.241 0.244 0.248 0.252 0.258 0.264 0.272 0.281 0.292 0.304 0.318 0.334 0.351 0.370 0.391 0.414 0.440 0.468 0.500 0.535 0.574 0.618 0.666 0.720 0.779 0.846 0.921 1.004 1.097 1.203 1.323 1.450 1.562 1.644 1.685 1.685 0.000 
0.000 1.067 1.067 1.036 0.971 0.879 0.776 0.691 0.622 0.564 0.515 0.473 0.436 0.403 0.375 0.350 0.327 0.307 0.290 0.275 0.261 0.249 0.238 0.228 0.220 0.213 0.206 0.200 0.195 0.191 0.187 0.184 0.181 0.179 0.178 0.177 0.176 0.176 0.176 0.176 0.177 0.178 0.179 0.181 0.184 0.188 0.192 0.197 0.202 0.208 0.215 0.222 0.229 0.236 0.242 0.248 0.253 0.258 0.263 0.267 0.271 0.274 0.277 0.280 0.282 0.284 0.286 0.288 0.289 0.291 0.291 0.292 0.293 0.293 0.294 0.294 0.294 0.294 0.294 0.294 0.294 0.294 0.294 0.294 0.294 0.294 0.293 0.293 0.292 0.291 0.290 0.289 0.288 0.286 0.284 0.281 0.279 0.276 0.272 0.268 0.264 0.259 0.254 0.248 0.242 0.236 0.231 0.226 0.221 0.217 0.214 0.211 0.209 0.206 0.205 0.203 0.202 0.201 0.201 0.201 0.200 0.200 0.200 0.200 0.200 0.201 0.201 0.202 0.202 0.204 0.205 0.207 0.210 0.213 0.217 0.222 0.228 0.234 0.242 0.252 0.263 0.277 0.292 0.309 0.328 0.350 0.373 0.399 0.427 0.459 0.494 0.534 0.577 0.626 0.680 0.740 0.808 0.883 0.969 1.065 1.176 1.303 1.444 1.565 1.654 1.700 1.700 0.000 
0.000 1.070 1.070 1.052 0.988 0.890 0.779 0.689 0.616 0.554 0.502 0.456 0.417 0.383 0.354 0.328 0.305 0.284 0.266 0.250 0.236 0.223 0.212 0.202 0.193 0.185 0.178 0.172 0.167 0.163 0.159 0.156 0.154 0.152 0.151 0.150 0.150 0.150 0.150 0.150 0.150 0.151 0.152 0.154 0.156 0.159 0.162 0.166 0.171 0.176 0.182 0.188 0.194 0.200 0.205 0.210 0.215 0.219 0.223 0.226 0.229 0.232 0.235 0.237 0.239 0.241 0.243 0.244 0.245 0.246 0.247 0.248 0.248 0.248 0.249 0.249 0.249 0.249 0.249 0.249 0.249 0.249 0.249 0.249 0.249 0.249 0.248 0.248 0.247 0.247 0.246 0.245 0.244 0.242 0.240 0.238 0.236 0.233 0.230 0.227 0.223 0.219 0.215 0.210 0.205 0.200 0.195 0.191 0.187 0.184 0.181 0.179 0.176 0.175 0.173 0.172 0.171 0.171 0.170 0.170 0.170 0.170 0.170 0.170 0.170 0.170 0.170 0.171 0.171 0.172 0.174 0.176 0.178 0.181 0.184 0.188 0.193 0.199 0.206 0.215 0.224 0.236 0.250 0.266 0.284 0.305 0.328 0.354 0.382 0.414 0.449 0.488 0.531 0.579 0.633 0.693 0.760 0.837 0.923 1.022 1.136 1.269 1.422 1.558 1.653 1.700 1.700 0.000 
0.000 1.072 1.072 1.056 0.993 0.891 0.776 0.681 0.603 0.538 0.482 0.435 0.394 0.359 0.329 0.302 0.278 0.258 0.239 0.223 0.209 0.196 0.184 0.174 0.164 0.156 0.150 0.144 0.140 0.136 0.133 0.131 0.129 0.127 0.126 0.126 0.125 0.125 0.125 0.125 0.126 0.126 0.127 0.128 0.130 0.133 0.135 0.139 0.142 0.146 0.151 0.156 0.161 0.166 0.171 0.175 0.179 0.182 0.185 0.188 0.191 0.193 0.196 0.198 0.199 0.201 0.202 0.203 0.204 0.205 0.206 0.206 0.207 0.207 0.207 0.208 0.208 0.208 0.208 0.208 0.208 0.208 0.208 0.208 0.208 0.207 0.207 0.207 0.206 0.206 0.205 0.204 0.203 0.202 0.200 0.199 0.197 0.194 0.192 0.189 0.186 0.183 0.179 0.175 0.171 0.167 0.163 0.159 0.156 0.153 0.151 0.149 0.147 0.146 0.144 0.143 0.143 0.142 0.142 0.141 0.141 0.141 0.141 0.141 0.141 0.142 0.142 0.142 0.143 0.144 0.145 0.146 0.148 0.151 0.154 0.157 0.161 0.166 0.172 0.180 0.188 0.198 0.210 0.223 0.239 0.258 0.280 0.305 0.333 0.364 0.398 0.436 0.478 0.525 0.577 0.637 0.703 0.779 0.865 0.965 1.080 1.216 1.376 1.532 1.645 1.700 1.700 0.000 
0.000 1.075 1.075 1.057 0.991 0.884 0.763 0.663 0.581 0.513 0.455 0.407 0.365 0.330 0.299 0.272 0.248 0.228 0.209 0.193 0.178 0.165 0.154 0.144 0.136 0.129 0.123 0.118 0.115 0.111 0.109 0.107 0.105 0.104 0.104 0.103 0.103 0.103 0.103 0.103 0.103 0.103 0.104 0.105 0.107 0.108 0.111 0.113 0.116 0.120 0.123 0.128 0.132 0.136 0.140 0.143 0.146 0.149 0.152 0.154 0.156 0.158 0.160 0.162 0.163 0.164 0.165 0.166 0.167 0.168 0.168 0.169 0.169 0.169 0.170 0.170 0.170 0.170 0.170 0.170 0.170 0.170 0.170 0.170 0.170 0.170 0.169 0.169 0.169 0.168 0.168 0.167 0.166 0.165 0.164 0.162 0.161 0.159 0.157 0.155 0.152 0.150 0.146 0.143 0.140 0.136 0.133 0.130 0.128 0.125 0.123 0.122 0.120 0.119 0.118 0.117 0.117 0.116 0.116 0.116 0.116 0.116 0.116 0.116 0.116 0.116 0.116 0.116 0.117 0.118 0.119 0.120 0.121 0.123 0.126 0.129 0.132 0.136 0.141 0.147 0.154 0.163 0.172 0.184 0.197 0.213 0.232 0.253 0.279 0.308 0.341 0.377 0.418 0.463 0.514 0.571 0.635 0.709 0.793 0.890 1.002 1.135 1.294 1.472 1.623 1.700 1.700 0.000 
0.000 1.078 1.078 1.057 0.978 0.856 0.731 0.630 0.546 0.477 0.420 0.371 0.330 0.294 0.264 0.237 0.214 0.193 0.175 0.159 0.145 0.134 0.124 0.116 0.109 0.103 0.099 0.095 0.092 0.089 0.087 0.086 0.084 0.084 0.083 0.083 0.082 0.082 0.082 0.082 0.083 0.083 0.083 0.084 0.085 0.087 0.088 0.090 0.093 0.095 0.098 0.102 0.105 0.108 0.111 0.114 0.117 0.119 0.121 0.123 0.125 0.126 0.128 0.129 0.130 0.131 0.132 0.133 0.133 0.134 0.134 0.135 0.135 0.135 0.136 0.136 0.136 0.136 0.136 0.136 0.136 0.136 0.136 0.136 0.136 0.135 0.135 0.135 0.135 0.134 0.134 0.133 0.133 0.132 0.131 0.130 0.128 0.127 0.125 0.124 0.122 0.119 0.117 0.114 0.112 0.109 0.106 0.104 0.102 0.100 0.099 0.097 0.096 0.095 0.094 0.094 0.093 0.093 0.093 0.092 0.092 0.092 0.092 0.092 0.092 0.092 0.093 0.093 0.093 0.094 0.095 0.096 0.097 0.099 0.101 0.103 0.106 0.109 0.113 0.118 0.124 0.130 0.138 0.148 0.158 0.171 0.186 0.204 0.225 0.250 0.278 0.312 0.350 0.392 0.440 0.494 0.555 0.624 0.703 0.794 0.899 1.022 1.170 1.353 1.563 1.700 1.700 0.000 
0.000 1.080 1.080 1.050 0.940 0.798 0.676 0.577 0.496 0.429 0.374 0.326 0.286 0.252 0.223 0.197 0.175 0.155 0.139 0.125 0.114 0.105 0.097 0.090 0.085 0.081 0.077 0.074 0.071 0.069 0.068 0.067 0.066 0.065 0.064 0.064 0.064 0.064 0.064 0.064 0.064 0.064 0.065 0.065 0.066 0.067 0.069 0.070 0.072 0.074 0.076 0.079 0.082 0.084 0.086 0.089 0.091 0.092 0.094 0.096 0.097 0.098 0.099 0.100 0.101 0.102 0.103 0.103 0.104 0.104 0.104 0.105 0.105 0.105 0.105 0.105 0.105 0.105 0.105 0.105 0.105 0.105 0.105 0.105 0.105 0.105 0.105 0.105 0.105 0.104 0.104 0.103 0.103 0.102 0.102 0.101 0.100 0.099 0.097 0.096 0.094 0.093 0.091 0.089 0.087 0.084 0.082 0.081 0.079 0.078 0.076 0.075 0.074 0.074 0.073 0.073 0.072 0.072 0.072 0.072 0.072 0.072 0.072 0.072 0.072 0.072 0.072 0.072 0.072 0.073 0.073 0.074 0.075 0.077 0.078 0.080 0.082 0.085 0.088 0.092 0.096 0.101 0.108 0.115 0.124 0.134 0.145 0.159 0.176 0.195 0.218 0.245 0.276 0.313 0.356 0.405 0.460 0.522 0.593 0.674 0.764 0.867 0.989 1.146 1.377 1.700 1.700 0.000 
0.000 1.024 1.024 1.008 0.843 0.698 0.588 0.500 0.427 0.366 0.315 0.271 0.234 0.202 0.175 0.152 0.133 0.118 0.105 0.094 0.086 0.079 0.073 0.068 0.064 0.060 0.058 0.055 0.053 0.052 0.051 0.050 0.049 0.049 0.048 0.048 0.048 0.048 0.048 0.048 0.048 0.048 0.048 0.049 0.049 0.050 0.051 0.052 0.054 0.055 0.057 0.059 0.061 0.063 0.065 0.066 0.068 0.069 0.070 0.071 0.072 0.073 0.074 0.075 0.076 0.076 0.077 0.077 0.077 0.078 0.078 0.078 0.078 0.078 0.079 0.079 0.079 0.079 0.079 0.079 0.079 0.079 0.079 0.079 0.079 0.079 0.078 0.078 0.078 0.078 0.078 0.077 0.077 0.076 0.076 0.075 0.074 0.074 0.073 0.072 0.071 0.069 0.068 0.066 0.065 0.063 0.062 0.060 0.059 0.058 0.057 0.056 0.056 0.055 0.055 0.054 0.054 0.054 0.054 0.054 0.054 0.053 0.053 0.053 0.054 0.054 0.054 0.054 0.054 0.054 0.055 0.056 0.056 0.057 0.058 0.060 0.061 0.063 0.066 0.069 0.072 0.076 0.081 0.086 0.093 0.100 0.109 0.120 0.132 0.147 0.164 0.184 0.208 0.236 0.269 0.307 0.352 0.405 0.463 0.529 0.596 0.663 0.732 0.811 0.918 1.059 1.059 0.000 
0.000 0.477 0.477 0.759 0.638 0.538 0.462 0.396 0.337 0.286 0.242 0.204 0.173 0.147 0.126 0.109 0.095 0.084 0.075 0.067 0.061 0.056 0.052 0.048 0.045 0.043 0.041 0.039 0.038 0.037 0.036 0.035 0.035 0.035 0.034 0.034 0.034 0.034 0.034 0.034 0.034 0.034 0.034 0.035 0.035 0.036 0.036 0.037 0.038 0.039 0.040 0.042 0.043 0.045 0.046 0.047 0.048 0.049 0.050 0.051 0.051 0.052 0.053 0.053 0.054 0.054 0.054 0.055 0.055 0.055 0.055 0.056 0.056 0.056 0.056 0.056 0.056 0.056 0.056 0.056 0.056 0.056 0.056 0.056 0.056 0.056 0.056 0.056 0.056 0.055 0.055 0.055 0.055 0.054 0.054 0.053 0.053 0.052 0.052 0.051 0.050 0.049 0.048 0.047 0.046 0.045 0.044 0.043 0.042 0.041 0.041 0.040 0.040 0.039 0.039 0.039 0.038 0.038 0.038 0.038 0.038 0.038 0.038 0.038 0.038 0.038 0.038 0.038 0.038 0.039 0.039 0.039 0.040 0.041 0.041 0.042 0.044 0.045 0.047 0.049 0.051 0.054 0.057 0.061 0.066 0.071 0.078 0.085 0.094 0.105 0.117 0.131 0.148 0.168 0.192 0.220 0.253 0.291 0.334 0.378 0.416 0.445 0.461 0.456 0.382 0.199 0.199 0.000 
0.000 0.000 0.000 0.245 0.331 0.323 0.301 0.269 0.231 0.194 0.163 0.137 0.115 0.098 0.084 0.073 0.063 0.056 0.050 0.045 0.041 0.037 0.034 0.032 0.030 0.028 0.027 0.026 0.025 0.024 0.024 0.023 0.023 0.023 0.023 0.023 0.023 0.023 0.023 0.023 0.023 0.023 0.023 0.023 0.023 0.024 0.024 0.025 0.025 0.026 0.027 0.028 0.029 0.030 0.030 0.031 0.032 0.032 0.033 0.034 0.034 0.034 0.035 0.035 0.036 0.036 0.036 0.036 0.036 0.037 0.037 0.037 0.037 0.037 0.037 0.037 0.037 0.037 0.037 0.037 0.037 0.037 0.037 0.037 0.037 0.037 0.037 0.037 0.037 0.037 0.037 0.036 0.036 0.036 0.036 0.035 0.035 0.035 0.034 0.034 0.033 0.033 0.032 0.031 0.030 0.030 0.029 0.028 0.028 0.027 0.027 0.026 0.026 0.026 0.026 0.025 0.025 0.025 0.025 0.025 0.025 0.025 0.025 0.025 0.025 0.025 0.025 0.025 0.025 0.026 0.026 0.026 0.026 0.027 0.027 0.028 0.029 0.030 0.031 0.032 0.034 0.036 0.038 0.041 0.044 0.047 0.052 0.057 0.062 0.069 0.077 0.087 0.098 0.112 0.128 0.146 0.168 0.195 0.224 0.250 0.268 0.276 0.272 0.243 0.143 0.000 0.000 0.000 
0.000 0.000 0.000 0.052 0.145 0.168 0.169 0.159 0.140 0.117 0.097 0.081 0.069 0.058 0.050 0.043 0.038 0.033 0.030 0.027 0.024 0.022 0.020 0.019 0.018 0.017 0.016 0.015 0.015 0.014 0.014 0.014 0.014 0.014 0.013 0.013 0.013 0.013 0.013 0.013 0.013 0.013 0.014 0.014 0.014 0.014 0.014 0.015 0.015 0.015 0.016 0.016 0.017 0.018 0.018 0.018 0.019 0.019 0.020 0.020 0.020 0.020 0.021 0.021 0.021 0.021 0.021 0.021 0.022 0.022 0.022 0.022 0.022 0.022 0.022 0.022 0.022 0.022 0.022 0.022 0.022 0.022 0.022 0.022 0.022 0.022 0.022 0.022 0.022 0.022 0.022 0.022 0.021 0.021 0.021 0.021 0.021 0.021 0.020 0.020 0.020 0.019 0.019 0.018 0.018 0.018 0.017 0.017 0.016 0.016 0.016 0.016 0.015 0.015 0.015 0.015 0.015 0.015 0.015 0.015 0.015 0.015 0.015 0.015 0.015 0.015 0.015 0.015 0.015 0.015 0.015 0.015 0.016 0.016 0.016 0.017 0.017 0.018 0.018 0.019 0.020 0.021 0.023 0.024 0.026 0.028 0.031 0.034 0.037 0.041 0.046 0.052 0.058 0.066 0.076 0.087 0.101 0.117 0.135 0.148 0.155 0.155 0.149 0.124 0.061 0.000 0.000 0.000 
0.000 0.000 0.000 0.016 0.059 0.076 0.079 0.077 0.070 0.058 0.048 0.040 0.034 0.029 0.025 0.021 0.019 0.016 0.015 0.013 0.012 0.011 0.010 0.009 0.009 0.008 0.008 0.008 0.007 0.007 0.007 0.007 0.007 0.007 0.007 0.007 0.007 0.007 0.007 0.007 0.007 0.007 0.007 0.007 0.007 0.007 0.007 0.007 0.007 0.008 0.008 0.008 0.008 0.009 0.009 0.009 0.009 0.009 0.010 0.010 0.010 0.010 0.010 0.010 0.010 0.010 0.010 0.011 0.011 0.011 0.011 0.011 0.011 0.011 0.011 0.011 0.011 0.011 0.011 0.011 0.011 0.011 0.011 0.011 0.011 0.011 0.011 0.011 0.011 0.011 0.011 0.011 0.011 0.010 0.010 0.010 0.010 0.010 0.010 0.010 0.010 0.009 0.009 0.009 0.009 0.009 0.008 0.008 0.008 0.008 0.008 0.008 0.008 0.008 0.007 0.007 0.007 0.007 0.007 0.007 0.007 0.007 0.007 0.007 0.007 0.007 0.007 0.007 0.007 0.007 0.008 0.008 0.008 0.008 0.008 0.008 0.008 0.009 0.009 0.009 0.010 0.010 0.011 0.012 0.013 0.014 0.015 0.016 0.018 0.020 0.023 0.025 0.029 0.033 0.037 0.043 0.050 0.058 0.067 0.072 0.074 0.074 0.070 0.056 0.025 0.000 0.000 0.000 
0.000 0.000 0.000 0.004 0.018 0.024 0.025 0.025 0.023 0.019 0.015 0.013 0.011 0.009 0.008 0.007 0.006 0.005 0.005 0.004 0.004 0.003 0.003 0.003 0.003 0.003 0.003 0.002 0.002 0.002 0.002 0.002 0.002 0.002 0.002 0.002 0.002 0.002 0.002 0.002 0.002 0.002 0.002 0.002 0.002 0.002 0.002 0.002 0.002 0.002 0.002 0.003 0.003 0.003 0.003 0.003 0.003 0.003 0.003 0.003 0.003 0.003 0.003 0.003 0.003 0.003 0.003 0.003 0.003 0.003 0.003 0.003 0.003 0.003 0.003 0.003 0.003 0.003 0.003 0.003 0.003 0.003 0.003 0.003 0.003 0.003 0.003 0.003 0.003 0.003 0.003 0.003 0.003 0.003 0.003 0.003 0.003 0.003 0.003 0.003 0.003 0.003 0.003 0.003 0.003 0.003 0.003 0.003 0.003 0.003 0.003 0.002 0.002 0.002 0.002 0.002 0.002 0.002 0.002 0.002 0.002 0.002 0.002 0.002 0.002 0.002 0.002 0.002 0.002 0.002 0.002 0.002 0.002 0.003 0.003 0.003 0.003 0.003 0.003 0.003 0.003 0.003 0.004 0.004 0.004 0.004 0.005 0.005 0.006 0.006 0.007 0.008 0.009 0.010 0.012 0.014 0.016 0.019 0.022 0.023 0.024 0.023 0.022 0.017 0.007 0.000 0.000 0.000 
0.000 0.000 0.000 0.000 0.000 0.000 0.000 0.000 0.000 0.000 0.000 0.000 0.000 0.000 0.000 0.000 0.000 0.000 0.000 0.000 0.000 0.000 0.000 0.000 0.000 0.000 0.000 0.000 0.000 0.000 0.000 0.000 0.000 0.000 0.000 0.000 0.000 0.000 0.000 0.000 0.000 0.000 0.000 0.000 0.000 0.000 0.000 0.000 0.000 0.000 0.000 0.000 0.000 0.000 0.000 0.000 0.000 0.000 0.000 0.000 0.000 0.000 0.000 0.000 0.000 0.000 0.000 0.000 0.000 0.000 0.000 0.000 0.000 0.000 0.000 0.000 0.000 0.000 0.000 0.000 0.000 0.000 0.000 0.000 0.000 0.000 0.000 0.000 0.000 0.000 0.000 0.000 0.000 0.000 0.000 0.000 0.000 0.000 0.000 0.000 0.000 0.000 0.000 0.000 0.000 0.000 0.000 0.000 0.000 0.000 0.000 0.000 0.000 0.000 0.000 0.000 0.000 0.000 0.000 0.000 0.000 0.000 0.000 0.000 0.000 0.000 0.000 0.000 0.000 0.000 0.000 0.000 0.000 0.000 0.000 0.000 0.000 0.000 0.000 0.000 0.000 0.000 0.000 0.000 0.000 0.000 0.000 0.000 0.000 0.000 0.000 0.000 0.000 0.000 0.000 0.000 0.000 0.000 0.000 0.000 0.000 0.000 0.000 0.000 0.000 0.000 0.000 0.000 
0.000 0.089 0.089 0.077 0.065 0.049 0.049 0.029 0.010 0.010 0.001 0.003 0.005 0.005 0.005 0.005 0.005 0.005 0.004 0.002 0.002 0.001 0.000 0.001 0.001 0.001 0.001 0.001 0.001 0.001 0.001 0.001 0.001 0.001 0.001 0.001 0.001 0.001 0.001 0.001 0.000 0.000 0.000 0.001 0.004 0.008 0.008 0.021 0.046 0.046 0.070 0.087 0.098 0.098 0.108 0.116 0.122 0.122 0.127 0.122 0.122 0.106 0.089 0.081 0.081 0.081 0.080 0.079 0.079 0.078 0.077 0.077 0.076 0.077 0.077 0.077 0.077 0.076 0.074 0.074 0.073 0.071 0.071 0.069 0.069 0.073 0.073 0.076 0.062 0.031 0.031 0.001 0.000 0.000 0.007 0.022 0.025 0.025 0.018 0.011 0.017 0.017 0.035 0.053 0.053 0.059 0.055 0.051 0.051 0.046 0.039 0.033 0.033 0.025 0.015 0.015 0.006 0.001 0.002 0.002 0.002 0.002 0.002 0.002 0.001 0.001 0.001 0.001 0.001 0.001 0.001 0.001 0.000 0.000 0.001 0.003 0.004 0.004 0.007 0.012 0.016 0.016 0.018 0.017 0.017 0.016 0.015 0.014 0.014 0.013 0.011 0.009 0.009 0.007 0.005 0.005 0.003 0.002 0.000 0.000 0.000 0.000 0.000 0.000 0.007 0.014 0.014 0.000 
0.000 0.000 0.000 0.000 0.000 0.000 0.000 0.000 0.000 0.000 0.000 0.000 0.000 0.000 0.000 0.000 0.000 0.000 0.000 0.000 0.000 0.000 0.000 0.000 0.000 0.000 0.000 0.000 0.000 0.000 0.000 0.000 0.000 0.000 0.000 0.000 0.000 0.000 0.000 0.000 0.000 0.000 0.000 0.000 0.000 0.000 0.000 0.000 0.000 0.000 0.000 0.000 0.000 0.000 0.000 0.000 0.000 0.000 0.000 0.000 0.000 0.000 0.000 0.000 0.000 0.000 0.000 0.000 0.000 0.000 0.000 0.000 0.000 0.000 0.000 0.000 0.000 0.000 0.000 0.000 0.000 0.000 0.000 0.000 0.000 0.000 0.000 0.000 0.000 0.000 0.000 0.000 0.000 0.000 0.000 0.000 0.000 0.000 0.000 0.000 0.000 0.000 0.000 0.000 0.000 0.000 0.000 0.000 0.000 0.000 0.000 0.000 0.000 0.000 0.000 0.000 0.000 0.000 0.000 0.000 0.000 0.000 0.000 0.000 0.000 0.000 0.000 0.000 0.000 0.000 0.000 0.000 0.000 0.000 0.000 0.000 0.000 0.000 0.000 0.000 0.000 0.000 0.000 0.000 0.000 0.000 0.000 0.000 0.000 0.000 0.000 0.000 0.000 0.000 0.000 0.000 0.000 0.000 0.000 0.000 0.000 0.000 0.000 0.000 0.000 0.000 0.000 0.000 
