ncols 168
nrows 121
xllcenter 640304.69
yllcenter 1081277.12
cellsize 46.59
NODATA_value -9999.000
-9999.000 -9999.000 -9999.000 -9999.000 -9999.000 -9999.000 -9999.000 -9999.000 -9999.000 -9999.000 -9999.000 -9999.000 -9999.000 -9999.000 -9999.000 -9999.000 -9999.000 -9999.000 -9999.000 -9999.000 -9999.000 -9999.000 -9999.000 -9999.000 -9999.000 -9999.000 -9999.000 -9999.000 -9999.000 -9999.000 -9999.000 -9999.000 -9999.000 -9999.000 -9999.000 -9999.000 -9999.000 -9999.000 -9999.000 -9999.000 -9999.000 -9999.000 -9999.000 -9999.000 -9999.000 -9999.000 -9999.000 -9999.000 -9999.000 -9999.000 -9999.000 -9999.000 -9999.000 -9999.000 -9999.000 -9999.000 -9999.000 -9999.000 -9999.000 -9999.000 -9999.000 -9999.000 -9999.000 -9999.000 -9999.000 -9999.000 -9999.000 -9999.000 -9999.000 -9999.000 -9999.000 -9999.000 -9999.000 -9999.000 -9999.000 -9999.000 -9999.000 -9999.000 -9999.000 -9999.000 -9999.000 -9999.000 -9999.000 -9999.000 -9999.000 -9999.000 -9999.000 -9999.000 -9999.000 -9999.000 -9999.000 -9999.000 -9999.000 -9999.000 -9999.000 -9999.000 -9999.000 -9999.000 -9999.000 -9999.000 -9999.000 -9999.000 -9999.000 -9999.000 -9999.000 -9999.000 -9999.000 -9999.000 -9999.000 -9999.000 -9999.000 -9999.000 -9999.000 -9999.000 -9999.000 -9999.000 -9999.000 -9999.000 -9999.000 -9999.000 -9999.000 -9999.000 -9999.000 -9999.000 -9999.000 -9999.000 -9999.000 -9999.000 -9999.000 -9999.000 -9999.000 -9999.000 -9999.000 -9999.000 -9999.000 -9999.000 -9999.000 -9999.000 -9999.000 -9999.000 -9999.000 -9999.000 -9999.000 -9999.000 -9999.000 -9999.000 -9999.000 -9999.000 -9999.000 -9999.000 -9999.000 -9999.000 -9999.000 -9999.000 -9999.000 -9999.000 -9999.000 -9999.000 -9999.000 -9999.000 -9999.000 -9999.000 -9999.000 -9999.000 -9999.000 -9999.000 -9999.000 -9999.000 
-9999.000 -9999.000 -9999.000 -9999.000 -9999.000 -9999.000 -9999.000 -9999.000 -9999.000 -9999.000 -9999.000 -9999.000 -9999.000 -9999.000 -9999.000 -9999.000 -9999.000 -9999.000 -9999.000 -9999.000 -9999.000 -9999.000 -9999.000 -9999.000 -9999.000 -9999.000 -9999.000 -9999.000 -9999.000 -9999.000 -9999.000 -9999.000 -9999.000 -9999.000 -9999.000 -9999.000 -9999.000 -9999.000 -9999.000 -9999.000 -9999.000 -9999.000 -9999.000 -9999.000 -9999.000 -9999.000 -9999.000 -9999.000 -9999.000 -9999.000 -9999.000 -9999.000 -9999.000 -9999.000 -9999.000 -9999.000 -9999.000 -9999.000 -9999.000 -9999.000 -9999.000 -9999.000 -9999.000 -9999.000 -9999.000 -9999.000 -9999.000 -9999.000 -9999.000 -9999.000 -9999.000 -9999.000 -9999.000 -9999.000 -9999.000 -9999.000 -9999.000 -9999.000 -9999.000 -9999.000 -9999.000 -9999.000 -9999.000 -9999.000 -9999.000 -9999.000 -9999.000 -9999.000 -9999.000 -9999.000 -9999.000 -9999.000 -9999.000 -9999.000 -9999.000 -9999.000 -9999.000 -9999.000 -9999.000 -9999.000 -9999.000 -9999.000 -9999.000 -9999.000 -9999.000 -9999.000 -9999.000 -9999.000 -9999.000 -9999.000 -9999.000 -9999.000 -9999.000 -9999.000 -9999.000 -9999.000 -9999.000 -9999.000 -9999.000 -9999.000 -9999.000 -9999.000 -9999.000 -9999.000 -9999.000 -9999.000 -9999.000 -9999.000 -9999.000 -9999.000 -9999.000 -9999.000 -9999.000 -9999.000 -9999.000 -9999.000 -9999.000 -9999.000 -9999.000 -9999.000 -9999.000 -9999.000 -9999.000 -9999.000 -9999.000 -9999.000 -9999.000 -9999.000 -9999.000 -9999.000 -9999.000 -9999.000 -9999.000 -9999.000 -9999.000 -9999.000 -9999.000 -9999.000 -9999.000 -9999.000 -9999.000 -9999.000 -9999.000 -9999.000 -9999.000 -9999.000 -9999.000 -9999.000 
-9999.000 -9999.000 -9999.000 -9999.000 -9999.000 -9999.000 -9999.000 -9999.000 -9999.000 -9999.000 -9999.000 -9999.000 -9999.000 -9999.000 -9999.000 -9999.000 -9999.000 -9999.000 -9999.000 -9999.000 -9999.000 -9999.000 -9999.000 -9999.000 -9999.000 -9999.000 -9999.000 -9999.000 -9999.000 -9999.000 -9999.000 -9999.000 -9999.000 -9999.000 -9999.000 -9999.000 -9999.000 -9999.000 -9999.000 -9999.000 -9999.000 -9999.000 -9999.000 -9999.000 -9999.000 -9999.000 -9999.000 -9999.000 -9999.000 -9999.000 -9999.000 -9999.000 -9999.000 -9999.000 -9999.000 -9999.000 -9999.000 -9999.000 -9999.000 -9999.000 -9999.000 -9999.000 -9999.000 -9999.000 -9999.000 -9999.000 -9999.000 -9999.000 -9999.000 -9999.000 -9999.000 -9999.000 -9999.000 -9999.000 -9999.000 -9999.000 -9999.000 -9999.000 -9999.000 -9999.000 -9999.000 -9999.000 -9999.000 -9999.000 -9999.000 -9999.000 -9999.000 -9999.000 -9999.000 -9999.000 -9999.000 -9999.000 -9999.000 -9999.000 -9999.000 -9999.000 -9999.000 -9999.000 -9999.000 -9999.000 -9999.000 -9999.000 -9999.000 -9999.000 -9999.000 -9999.000 -9999.000 -9999.000 -9999.000 -9999.000 -9999.000 -9999.000 -9999.000 -9999.000 -9999.000 -9999.000 -9999.000 -9999.000 -9999.000 -9999.000 -9999.000 -9999.000 -9999.000 -9999.000 -9999.000 -9999.000 -9999.000 -9999.000 -9999.000 -9999.000 -9999.000 -9999.000 -9999.000 -9999.000 -9999.000 -9999.000 -9999.000 -9999.000 -9999.000 -9999.000 -9999.000 -9999.000 -9999.000 -9999.000 -9999.000 -9999.000 -9999.000 -9999.000 -9999.000 -9999.000 -9999.000 -9999.000 -9999.000 -9999.000 -9999.000 -9999.000 -9999.000 -9999.000 -9999.000 -9999.000 -9999.000 -9999.000 -9999.000 -9999.000 -9999.000 -9999.000 -9999.000 -9999.000 
-9999.000 -9999.000 -9999.000 1.000 1.000 -9999.000 -9999.000 -9999.000 -9999.000 -9999.000 -9999.000 -9999.000 1.000 1.000 1.000 1.000 1.000 1.000 1.000 1.000 1.000 1.000 1.000 1.000 1.000 1.000 1.000 1.000 1.000 1.000 1.000 1.000 1.001 1.035 1.022 1.052 1.458 1.333 1.116 1.076 1.083 1.041 1.035 1.036 1.017 1.000 1.000 1.000 1.000 1.023 1.372 1.106 1.000 1.000 1.000 1.000 1.117 1.201 1.476 1.150 1.158 1.147 1.121 1.162 1.137 1.067 1.000 1.000 1.000 1.000 1.000 1.006 1.074 1.259 1.141 1.133 1.184 1.131 1.172 1.185 1.126 1.051 1.043 1.044 1.044 1.044 1.048 1.059 1.083 1.066 1.066 1.063 1.037 1.022 1.000 1.000 1.000 1.032 1.000 1.183 1.244 1.372 1.509 1.145 1.039 1.000 1.000 1.000 1.000 1.000 1.382 1.150 1.120 1.279 1.065 1.046 1.086 1.037 1.097 1.100 1.148 1.063 1.000 1.011 1.000 1.000 1.000 1.005 1.032 1.037 1.044 1.055 1.054 1.018 1.042 1.000 1.058 1.021 1.070 1.055 1.055 1.055 1.056 1.056 1.056 1.057 1.057 1.057 1.057 1.057 1.058 1.058 1.059 1.062 1.096 1.127 1.104 1.030 1.000 1.027 1.000 1.000 1.000 1.170 2.316 -9999.000 -9999.000 -9999.000 
-9999.000 -9999.000 -9999.000 -9999.000 -9999.000 -9999.000 -9999.000 -9999.000 -9999.000 -9999.000 -9999.000 1.365 1.017 1.000 1.000 1.000 1.000 1.000 1.000 1.000 1.000 1.000 1.000 1.000 1.000 1.000 1.000 1.000 1.000 1.000 1.000 1.000 1.001 1.234 1.415 1.292 1.518 1.248 1.111 1.083 1.072 1.054 1.053 1.054 1.061 1.132 1.211 1.491 1.652 1.598 1.323 1.115 1.068 1.119 1.137 1.400 1.429 1.359 1.327 1.149 1.132 1.085 1.046 1.044 1.043 1.038 1.031 1.055 1.068 1.038 1.164 1.214 1.244 1.250 1.158 1.137 1.124 1.062 1.046 1.044 1.045 1.048 1.050 1.051 1.050 1.050 1.052 1.057 1.061 1.047 1.044 1.033 1.019 1.024 1.000 1.055 1.000 1.293 1.000 1.000 1.351 1.130 1.044 1.000 1.000 1.000 1.043 1.000 1.058 1.041 1.417 1.145 1.119 1.159 1.031 1.000 1.004 1.000 1.000 1.000 1.000 1.000 1.000 1.000 1.000 1.000 1.000 1.046 1.061 1.044 1.046 1.057 1.048 1.026 1.084 1.000 1.157 1.096 1.097 1.047 1.047 1.046 1.047 1.046 1.046 1.046 1.046 1.046 1.046 1.046 1.046 1.046 1.045 1.044 1.043 1.043 1.034 1.033 1.019 1.062 1.000 1.162 1.000 1.882 1.806 -9999.000 -9999.000 -9999.000 
-9999.000 -9999.000 -9999.000 -9999.000 -9999.000 -9999.000 -9999.000 -9999.000 -9999.000 -9999.000 -9999.000 1.242 1.149 1.061 1.014 1.000 1.000 1.002 1.000 1.000 1.000 1.005 1.000 1.000 1.000 1.000 1.000 1.000 1.000 1.000 1.000 1.044 1.172 1.378 1.414 1.260 1.485 1.221 1.092 1.065 1.058 1.042 1.042 1.042 1.046 1.056 1.069 1.095 1.101 1.090 1.048 1.016 1.055 1.070 1.077 1.199 1.206 1.181 1.198 1.100 1.091 1.066 1.042 1.042 1.040 1.032 1.015 1.040 1.048 1.022 1.097 1.126 1.148 1.155 1.104 1.093 1.089 1.052 1.043 1.042 1.042 1.042 1.041 1.042 1.042 1.041 1.043 1.047 1.050 1.040 1.036 1.025 1.013 1.028 1.000 1.062 1.000 1.297 1.000 1.005 1.377 1.000 1.121 1.052 1.051 1.019 1.069 1.000 1.017 1.035 1.458 1.153 1.117 1.131 1.022 1.000 1.010 1.014 1.000 1.035 1.002 1.030 1.000 1.022 1.000 1.007 1.000 1.124 1.099 1.058 1.052 1.058 1.043 1.024 1.089 1.203 1.317 1.163 1.095 1.041 1.041 1.041 1.041 1.041 1.041 1.041 1.041 1.041 1.041 1.041 1.041 1.041 1.041 1.041 1.041 1.041 1.035 1.012 1.006 1.016 1.000 1.083 1.476 1.847 1.389 -9999.000 -9999.000 -9999.000 
-9999.000 -9999.000 -9999.000 -9999.000 -9999.000 -9999.000 -9999.000 -9999.000 1.252 1.230 1.207 1.185 1.176 1.145 1.099 1.067 1.048 1.036 1.027 1.021 1.019 1.007 1.000 1.000 1.000 1.000 1.000 1.000 1.000 1.000 1.048 1.147 1.278 1.636 1.433 1.268 1.475 1.204 1.083 1.058 1.051 1.038 1.038 1.038 1.037 1.036 1.036 1.037 1.037 1.032 1.021 1.028 1.068 1.079 1.092 1.153 1.147 1.127 1.132 1.076 1.068 1.052 1.038 1.038 1.037 1.033 1.027 1.047 1.054 1.045 1.091 1.107 1.114 1.106 1.075 1.067 1.061 1.039 1.035 1.035 1.037 1.037 1.037 1.037 1.037 1.037 1.038 1.040 1.040 1.033 1.030 1.016 1.007 1.032 1.000 1.067 1.000 1.295 1.000 1.000 1.000 1.000 1.139 1.082 1.087 1.055 1.133 1.000 1.000 1.356 1.618 1.166 1.107 1.094 1.014 1.009 1.000 1.050 1.000 1.109 1.000 1.108 1.001 1.008 1.000 1.034 1.017 1.207 1.129 1.065 1.050 1.054 1.037 1.037 1.091 1.196 1.183 1.105 1.056 1.036 1.036 1.035 1.036 1.035 1.035 1.036 1.035 1.035 1.035 1.035 1.035 1.035 1.035 1.035 1.035 1.035 1.019 1.035 1.011 1.085 1.006 1.047 1.192 1.251 1.155 -9999.000 -9999.000 -9999.000 
-9999.000 -9999.000 -9999.000 -9999.000 -9999.000 -9999.000 1.260 1.206 1.183 1.170 1.161 1.166 1.184 1.200 1.190 1.182 1.180 1.191 1.181 1.171 1.160 1.137 1.099 1.031 1.000 1.000 1.000 1.000 1.000 1.022 1.087 1.196 1.359 1.863 1.402 1.242 1.435 1.179 1.070 1.045 1.036 1.021 1.019 1.017 1.019 1.020 1.022 1.028 1.028 1.027 1.025 1.033 1.056 1.063 1.073 1.101 1.094 1.083 1.082 1.052 1.047 1.038 1.030 1.030 1.030 1.028 1.027 1.040 1.044 1.044 1.068 1.073 1.071 1.058 1.041 1.034 1.029 1.022 1.021 1.023 1.028 1.028 1.029 1.030 1.030 1.030 1.030 1.031 1.030 1.025 1.023 1.012 1.002 1.036 1.000 1.070 1.000 1.285 1.000 1.001 1.000 1.000 1.000 1.000 1.000 1.000 1.000 1.000 1.055 1.470 1.798 1.171 1.095 1.056 1.008 1.024 1.000 1.099 1.000 1.195 1.000 1.199 1.013 1.000 1.000 1.076 1.071 1.288 1.147 1.061 1.040 1.043 1.026 1.026 1.040 1.050 1.046 1.037 1.030 1.028 1.028 1.028 1.028 1.028 1.028 1.028 1.028 1.028 1.028 1.028 1.028 1.028 1.028 1.028 1.028 1.026 1.008 1.060 1.000 1.060 1.027 1.065 1.064 1.090 1.066 -9999.000 -9999.000 -9999.000 
-9999.000 -9999.000 -9999.000 -9999.000 -9999.000 1.375 1.232 1.182 1.156 1.143 1.146 1.171 1.224 1.305 1.383 1.426 1.453 1.472 1.465 1.456 1.460 1.424 1.363 1.216 1.022 1.000 1.000 1.000 1.005 1.034 1.099 1.219 1.411 2.077 1.385 1.227 1.401 1.155 1.055 1.030 1.018 1.005 1.003 1.001 1.008 1.009 1.012 1.024 1.020 1.021 1.026 1.032 1.042 1.047 1.054 1.061 1.056 1.050 1.044 1.032 1.029 1.024 1.021 1.021 1.021 1.021 1.024 1.030 1.033 1.036 1.045 1.041 1.026 1.013 1.009 1.007 1.006 1.012 1.010 1.013 1.023 1.019 1.020 1.021 1.020 1.020 1.020 1.019 1.018 1.015 1.014 1.009 1.000 1.037 1.000 1.073 1.000 1.260 1.000 1.000 1.000 1.000 1.000 1.000 1.000 1.000 1.000 1.000 1.104 1.487 1.804 1.178 1.059 1.067 1.000 1.041 1.000 1.013 1.000 1.000 1.000 1.022 1.050 1.000 1.269 1.139 1.134 1.343 1.144 1.046 1.021 1.028 1.012 1.012 1.019 1.017 1.016 1.016 1.016 1.016 1.016 1.016 1.016 1.016 1.016 1.016 1.015 1.015 1.015 1.015 1.015 1.015 1.015 1.015 1.015 1.012 1.019 1.082 1.000 1.010 1.209 1.078 1.010 1.029 1.018 -9999.000 -9999.000 -9999.000 
-9999.000 -9999.000 -9999.000 -9999.000 -9999.000 1.289 1.204 1.164 1.143 1.140 1.158 1.208 1.317 1.506 1.717 1.881 1.594 1.567 1.591 1.524 1.528 1.513 1.380 1.411 1.138 1.000 1.000 1.004 1.030 1.053 1.114 1.233 1.418 2.231 1.357 1.201 1.358 1.120 1.037 1.006 1.029 1.010 1.026 1.016 1.017 1.021 1.012 1.018 1.014 1.008 1.011 1.010 1.012 1.013 1.015 1.015 1.014 1.013 1.010 1.008 1.007 1.006 1.006 1.006 1.006 1.006 1.007 1.008 1.009 1.011 1.012 1.017 1.015 1.026 1.015 1.024 1.010 1.011 1.019 1.005 1.016 1.011 1.007 1.007 1.005 1.005 1.005 1.005 1.004 1.004 1.004 1.014 1.000 1.041 1.000 1.063 1.007 1.189 1.015 1.201 1.000 1.000 1.000 1.000 1.000 1.011 1.000 1.024 1.118 1.403 1.692 1.171 1.001 1.076 1.000 1.058 1.002 1.000 1.000 1.000 1.000 1.001 1.000 1.124 1.697 1.163 1.176 1.355 1.130 1.045 1.002 1.015 1.011 1.004 1.012 1.006 1.004 1.004 1.004 1.004 1.004 1.004 1.004 1.004 1.004 1.003 1.003 1.003 1.003 1.003 1.003 1.003 1.003 1.003 1.003 1.005 1.017 1.084 1.108 1.364 1.233 1.074 1.000 1.014 1.002 -9999.000 -9999.000 -9999.000 
-9999.000 -9999.000 -9999.000 1.350 1.141 1.171 1.159 1.152 1.149 1.158 1.195 1.289 1.516 1.874 2.288 1.702 1.514 1.495 1.514 1.454 1.455 1.437 1.301 1.336 1.242 1.000 1.000 1.011 1.053 1.076 1.128 1.236 1.408 2.322 1.345 1.191 1.330 1.092 1.018 1.000 1.003 1.000 1.000 1.000 1.000 1.000 1.000 1.018 1.007 1.001 1.005 1.003 1.009 1.010 1.006 1.001 1.000 1.000 1.000 1.000 1.000 1.000 1.000 1.000 1.000 1.000 1.000 1.000 1.000 1.000 1.000 1.007 1.000 1.000 1.000 1.000 1.000 1.000 1.006 1.000 1.018 1.005 1.002 1.003 1.000 1.000 1.000 1.000 1.000 1.000 1.001 1.008 1.000 1.031 1.000 1.061 1.078 1.135 1.051 1.149 1.188 1.337 1.000 1.000 1.000 1.000 1.016 1.075 1.157 1.218 1.545 1.150 1.000 1.049 1.000 1.041 1.011 1.000 1.000 1.000 1.000 1.000 1.000 1.225 1.858 1.203 1.177 1.331 1.105 1.030 1.000 1.003 1.002 1.000 1.012 1.004 1.000 1.000 1.000 1.000 1.000 1.000 1.000 1.000 1.000 1.000 1.000 1.000 1.000 1.000 1.000 1.000 1.000 1.000 1.000 1.002 1.005 1.042 1.106 1.140 1.034 1.022 1.000 1.005 1.000 -9999.000 -9999.000 -9999.000 
-9999.000 -9999.000 -9999.000 1.043 1.092 1.002 1.097 1.133 1.147 1.163 1.209 1.336 1.564 1.489 1.693 1.372 1.254 1.243 1.261 1.215 1.216 1.201 1.083 1.121 1.154 1.000 1.000 1.000 1.038 1.075 1.113 1.208 1.388 2.315 1.339 1.184 1.307 1.071 1.015 1.009 1.016 1.000 1.041 1.000 1.000 1.023 1.000 1.060 1.018 1.007 1.012 1.021 1.029 1.042 1.023 1.011 1.000 1.000 1.000 1.000 1.000 1.000 1.000 1.000 1.000 1.000 1.000 1.000 1.000 1.001 1.000 1.016 1.000 1.022 1.000 1.019 1.000 1.022 1.030 1.004 1.044 1.010 1.006 1.005 1.000 1.000 1.000 1.000 1.000 1.000 1.002 1.006 1.000 1.024 1.000 1.030 1.056 1.068 1.000 1.088 1.000 1.311 1.000 1.000 1.000 1.011 1.043 1.102 1.184 1.235 1.266 1.200 1.001 1.100 1.000 1.087 1.022 1.000 1.000 1.000 1.000 1.000 1.064 1.280 1.837 1.189 1.148 1.305 1.099 1.039 1.000 1.021 1.012 1.001 1.023 1.006 1.001 1.000 1.000 1.000 1.000 1.000 1.000 1.000 1.000 1.000 1.000 1.000 1.000 1.000 1.000 1.000 1.000 1.000 1.000 1.003 1.001 1.020 1.001 1.047 1.003 1.006 1.000 1.006 1.000 -9999.000 -9999.000 -9999.000 
-9999.000 -9999.000 -9999.000 1.000 1.065 1.000 1.000 1.029 1.072 1.097 1.164 1.812 1.439 1.371 1.551 1.280 1.177 1.165 1.182 1.143 1.144 1.129 1.014 1.053 1.080 1.000 1.045 1.000 1.000 1.013 1.057 1.166 1.366 2.318 1.322 1.162 1.283 1.045 1.006 1.013 1.014 1.000 1.074 1.000 1.033 1.054 1.008 1.096 1.026 1.010 1.024 1.073 1.000 1.000 1.141 1.050 1.000 1.000 1.000 1.000 1.000 1.000 1.000 1.000 1.000 1.000 1.000 1.000 1.001 1.002 1.000 1.020 1.000 1.032 1.000 1.020 1.000 1.074 1.049 1.026 1.064 1.012 1.007 1.006 1.000 1.000 1.000 1.000 1.000 1.000 1.002 1.005 1.000 1.019 1.000 1.023 1.035 1.035 1.000 1.068 1.000 1.300 1.000 1.000 1.043 1.067 1.101 1.168 1.243 1.261 1.179 1.129 1.001 1.156 1.000 1.130 1.000 1.000 1.000 1.000 1.000 1.000 1.119 1.320 1.841 1.191 1.139 1.293 1.100 1.035 1.000 1.039 1.014 1.008 1.031 1.008 1.001 1.000 1.000 1.000 1.000 1.000 1.000 1.000 1.000 1.000 1.000 1.000 1.000 1.000 1.000 1.000 1.000 1.007 1.028 1.036 1.023 1.014 1.000 1.020 1.000 1.002 1.000 1.006 1.000 -9999.000 -9999.000 -9999.000 
-9999.000 -9999.000 -9999.000 1.000 1.150 1.000 1.000 1.000 1.014 1.049 1.133 1.971 1.271 1.222 1.388 1.160 1.073 1.067 1.100 1.066 1.073 1.063 1.041 1.000 1.101 1.000 1.180 1.000 1.000 1.000 1.021 1.131 1.324 2.009 1.421 1.028 1.245 1.060 1.005 1.027 1.014 1.000 1.072 1.000 1.141 1.044 1.047 1.119 1.026 1.013 1.030 1.080 1.000 1.216 1.302 1.064 1.000 1.000 1.000 1.000 1.000 1.000 1.000 1.000 1.000 1.000 1.000 1.000 1.002 1.005 1.000 1.028 1.000 1.038 1.000 1.000 1.000 1.140 1.052 1.049 1.077 1.014 1.008 1.006 1.000 1.000 1.000 1.000 1.000 1.000 1.002 1.004 1.000 1.013 1.000 1.023 1.005 1.039 1.000 1.079 1.000 1.329 1.000 1.030 1.125 1.161 1.215 1.304 1.350 1.309 1.229 1.097 1.000 1.000 1.000 1.000 1.000 1.000 1.000 1.000 1.000 1.033 1.159 1.345 1.870 1.208 1.143 1.288 1.107 1.036 1.007 1.056 1.016 1.014 1.035 1.008 1.001 1.000 1.000 1.000 1.000 1.000 1.000 1.000 1.000 1.000 1.000 1.000 1.000 1.000 1.000 1.000 1.002 1.047 1.000 1.037 1.002 1.055 1.000 1.022 1.000 1.001 1.000 1.006 1.000 -9999.000 -9999.000 -9999.000 
-9999.000 -9999.000 -9999.000 1.000 1.134 1.000 1.000 1.000 1.000 1.020 1.109 1.826 1.200 1.162 1.322 1.120 1.038 1.034 1.084 1.039 1.047 1.038 1.018 1.000 1.075 1.000 1.113 1.000 1.000 1.000 1.000 1.088 1.256 1.391 1.312 1.000 1.280 1.072 1.000 1.015 1.013 1.000 1.081 1.000 1.215 1.088 1.081 1.127 1.031 1.016 1.021 1.055 1.238 1.327 1.209 1.035 1.000 1.000 1.000 1.000 1.000 1.000 1.000 1.000 1.000 1.000 1.000 1.000 1.003 1.007 1.000 1.033 1.000 1.057 1.000 1.002 1.076 1.187 1.061 1.065 1.085 1.017 1.009 1.005 1.000 1.000 1.000 1.000 1.000 1.000 1.002 1.004 1.000 1.012 1.000 1.022 1.000 1.040 1.000 1.076 1.000 1.323 1.000 1.078 1.218 1.319 1.489 1.518 1.486 1.452 1.427 1.327 1.191 1.086 1.000 1.000 1.000 1.000 1.000 1.000 1.000 1.062 1.181 1.360 1.892 1.216 1.143 1.281 1.113 1.033 1.018 1.068 1.019 1.019 1.036 1.008 1.001 1.000 1.000 1.000 1.000 1.000 1.000 1.000 1.000 1.000 1.000 1.000 1.000 1.000 1.000 1.000 1.004 1.094 1.000 1.000 1.174 1.105 1.000 1.023 1.000 1.000 1.000 1.006 1.000 -9999.000 -9999.000 -9999.000 
-9999.000 -9999.000 -9999.000 1.000 1.148 1.000 1.002 1.000 1.000 1.006 1.096 1.687 1.210 1.092 1.236 1.069 1.063 1.000 1.071 1.040 1.027 1.055 1.048 1.000 1.104 1.000 1.121 1.000 1.000 1.001 1.002 1.030 1.158 1.375 1.311 1.493 1.458 1.123 1.000 1.022 1.000 1.000 1.032 1.096 1.243 1.101 1.086 1.110 1.027 1.016 1.011 1.011 1.039 1.044 1.027 1.004 1.000 1.000 1.000 1.000 1.000 1.000 1.000 1.000 1.000 1.000 1.000 1.000 1.003 1.010 1.000 1.036 1.000 1.052 1.000 1.003 1.159 1.209 1.073 1.076 1.085 1.016 1.007 1.003 1.000 1.000 1.000 1.000 1.000 1.000 1.002 1.003 1.000 1.012 1.000 1.027 1.000 1.046 1.000 1.076 1.000 1.320 1.000 1.157 1.375 2.176 1.606 1.679 1.859 1.924 1.949 1.941 1.840 1.459 1.338 1.001 1.001 1.000 1.000 1.000 1.008 1.078 1.193 1.386 1.912 1.224 1.146 1.276 1.117 1.036 1.025 1.075 1.023 1.022 1.036 1.008 1.001 1.000 1.000 1.000 1.000 1.000 1.000 1.000 1.000 1.000 1.000 1.000 1.000 1.000 1.000 1.000 1.004 1.089 1.108 1.290 1.243 1.097 1.000 1.024 1.000 1.000 1.000 1.006 1.000 -9999.000 -9999.000 -9999.000 
-9999.000 -9999.000 -9999.000 1.000 1.105 1.000 1.000 1.000 1.000 1.000 1.058 1.460 1.110 1.001 1.069 1.000 1.017 1.000 1.056 1.021 1.002 1.036 1.032 1.000 1.083 1.000 1.083 1.000 1.000 1.000 1.006 1.006 1.028 2.070 1.642 1.520 1.301 1.055 1.000 1.001 1.021 1.065 1.112 1.202 1.213 1.106 1.087 1.087 1.024 1.014 1.007 1.000 1.000 1.000 1.000 1.000 1.000 1.000 1.000 1.000 1.000 1.000 1.000 1.000 1.000 1.000 1.000 1.000 1.004 1.012 1.000 1.039 1.000 1.065 1.000 1.050 1.233 1.222 1.082 1.082 1.078 1.012 1.004 1.001 1.000 1.000 1.000 1.000 1.000 1.000 1.003 1.003 1.000 1.010 1.000 1.015 1.000 1.032 1.000 1.064 1.000 1.310 1.000 1.279 1.829 2.077 1.475 1.369 1.363 1.369 1.361 1.359 1.310 1.111 1.230 1.373 1.000 1.000 1.000 1.000 1.016 1.087 1.209 1.425 1.915 1.221 1.139 1.261 1.117 1.041 1.032 1.078 1.026 1.024 1.033 1.007 1.001 1.000 1.000 1.000 1.000 1.000 1.000 1.000 1.000 1.000 1.000 1.000 1.000 1.000 1.000 1.000 1.001 1.029 1.100 1.124 1.064 1.038 1.000 1.023 1.000 1.014 1.037 1.048 1.017 -9999.000 -9999.000 -9999.000 
-9999.000 -9999.000 -9999.000 1.000 1.105 1.000 1.000 1.000 1.000 1.000 1.003 1.246 1.166 1.000 1.087 1.000 1.077 1.000 1.132 1.042 1.019 1.046 1.043 1.000 1.098 1.000 1.087 1.000 1.000 1.000 1.007 1.019 1.000 1.434 1.335 1.049 1.112 1.000 1.034 1.000 1.129 1.085 1.107 1.167 1.116 1.066 1.055 1.050 1.013 1.008 1.004 1.000 1.000 1.000 1.000 1.000 1.000 1.000 1.000 1.000 1.000 1.000 1.000 1.000 1.000 1.000 1.000 1.000 1.005 1.015 1.000 1.043 1.000 1.078 1.000 1.085 1.272 1.202 1.072 1.069 1.066 1.008 1.001 1.000 1.000 1.000 1.000 1.000 1.000 1.000 1.004 1.004 1.000 1.015 1.000 1.024 1.000 1.044 1.000 1.075 1.000 1.305 1.219 1.625 2.124 1.819 1.306 1.179 1.158 1.156 1.147 1.145 1.097 1.010 1.059 1.126 1.000 1.000 1.000 1.000 1.019 1.092 1.230 1.465 1.903 1.210 1.124 1.239 1.107 1.037 1.029 1.076 1.024 1.022 1.028 1.005 1.000 1.000 1.000 1.000 1.000 1.000 1.000 1.000 1.000 1.000 1.000 1.000 1.000 1.000 1.000 1.000 1.000 1.004 1.015 1.026 1.013 1.015 1.000 1.024 1.000 1.058 1.000 1.011 1.068 -9999.000 -9999.000 -9999.000 
-9999.000 -9999.000 -9999.000 1.000 1.088 1.002 1.000 1.000 1.000 1.000 1.000 1.010 1.150 1.000 1.151 1.005 1.187 1.000 1.218 1.062 1.026 1.050 1.043 1.000 1.104 1.000 1.073 1.000 1.000 1.000 1.000 1.000 1.000 1.048 1.037 1.000 1.030 1.028 1.132 1.036 1.233 1.102 1.108 1.124 1.055 1.031 1.023 1.018 1.010 1.002 1.005 1.001 1.001 1.000 1.000 1.000 1.000 1.000 1.000 1.000 1.000 1.000 1.000 1.000 1.000 1.000 1.000 1.000 1.005 1.016 1.000 1.043 1.000 1.055 1.000 1.139 1.305 1.179 1.061 1.053 1.053 1.012 1.005 1.003 1.001 1.001 1.000 1.000 1.000 1.000 1.005 1.006 1.000 1.018 1.000 1.030 1.000 1.054 1.000 1.083 1.000 1.297 1.367 1.594 1.389 1.449 1.172 1.083 1.062 1.056 1.044 1.044 1.042 1.039 1.000 1.169 1.010 1.000 1.000 1.000 1.021 1.095 1.239 1.483 1.889 1.197 1.111 1.221 1.099 1.033 1.026 1.070 1.021 1.018 1.022 1.004 1.002 1.002 1.019 1.030 1.021 1.009 1.002 1.000 1.000 1.000 1.000 1.000 1.000 1.000 1.003 1.012 1.025 1.031 1.021 1.017 1.000 1.005 1.000 1.015 1.000 1.036 1.000 1.195 1.250 -9999.000 -9999.000 -9999.000 
-9999.000 -9999.000 -9999.000 1.000 1.068 1.000 1.000 1.000 1.000 1.000 1.000 1.014 1.113 1.066 1.040 1.475 1.159 1.117 1.307 1.062 1.035 1.047 1.044 1.000 1.112 1.000 1.055 1.000 1.000 1.000 1.000 1.000 1.000 1.063 1.148 1.000 1.000 1.463 1.163 1.112 1.271 1.082 1.072 1.059 1.024 1.021 1.020 1.014 1.012 1.007 1.007 1.001 1.002 1.000 1.001 1.000 1.000 1.000 1.000 1.000 1.000 1.000 1.000 1.000 1.000 1.000 1.000 1.000 1.005 1.016 1.000 1.037 1.000 1.049 1.038 1.238 1.303 1.135 1.055 1.012 1.028 1.011 1.000 1.003 1.000 1.001 1.000 1.001 1.000 1.000 1.006 1.006 1.000 1.021 1.000 1.030 1.000 1.053 1.000 1.054 1.000 1.178 1.401 1.283 1.170 1.282 1.091 1.042 1.020 1.031 1.028 1.026 1.057 1.045 1.000 1.172 1.000 1.000 1.000 1.000 1.020 1.096 1.238 1.503 1.876 1.186 1.102 1.207 1.091 1.029 1.022 1.062 1.019 1.010 1.013 1.000 1.000 1.014 1.060 1.001 1.093 1.000 1.019 1.000 1.000 1.000 1.000 1.000 1.000 1.000 1.023 1.000 1.100 1.000 1.095 1.000 1.025 1.002 1.000 1.020 1.003 1.075 1.335 1.550 1.252 -9999.000 -9999.000 -9999.000 
-9999.000 -9999.000 -9999.000 1.000 1.043 1.000 1.000 1.000 1.000 1.000 1.000 1.032 1.147 1.220 1.250 1.955 1.270 1.186 1.350 1.080 1.037 1.049 1.041 1.000 1.120 1.000 1.032 1.000 1.000 1.000 1.000 1.000 1.007 1.098 1.189 1.203 1.221 1.956 1.256 1.160 1.280 1.070 1.048 1.028 1.001 1.000 1.000 1.000 1.000 1.000 1.000 1.005 1.005 1.000 1.003 1.000 1.000 1.000 1.000 1.000 1.000 1.000 1.000 1.000 1.000 1.000 1.000 1.000 1.005 1.017 1.000 1.038 1.000 1.064 1.128 1.228 1.209 1.062 1.028 1.000 1.003 1.013 1.000 1.012 1.008 1.003 1.001 1.002 1.000 1.000 1.009 1.008 1.000 1.027 1.000 1.027 1.000 1.045 1.000 1.000 1.000 1.000 1.572 1.186 1.119 1.227 1.039 1.009 1.000 1.000 1.000 1.000 1.014 1.008 1.000 1.145 1.001 1.002 1.000 1.000 1.014 1.093 1.235 1.499 1.873 1.183 1.100 1.197 1.083 1.026 1.018 1.052 1.016 1.004 1.010 1.000 1.001 1.031 1.060 1.000 1.169 1.049 1.040 1.000 1.000 1.000 1.000 1.000 1.000 1.000 1.046 1.000 1.141 1.000 1.175 1.035 1.048 1.000 1.007 1.015 1.000 1.035 1.131 1.100 1.065 -9999.000 -9999.000 -9999.000 
-9999.000 -9999.000 -9999.000 1.000 1.011 1.000 1.000 1.000 1.000 1.000 1.000 1.049 1.173 1.289 1.363 2.107 1.297 1.199 1.345 1.073 1.025 1.045 1.039 1.000 1.129 1.000 1.007 1.000 1.000 1.000 1.000 1.000 1.030 1.103 1.210 1.299 1.384 2.267 1.286 1.167 1.266 1.059 1.030 1.038 1.009 1.000 1.032 1.000 1.017 1.000 1.016 1.031 1.013 1.004 1.006 1.000 1.000 1.000 1.000 1.000 1.000 1.000 1.000 1.000 1.000 1.000 1.000 1.000 1.004 1.013 1.000 1.027 1.000 1.027 1.100 1.132 1.082 1.000 1.018 1.000 1.028 1.022 1.018 1.000 1.053 1.009 1.003 1.003 1.000 1.000 1.011 1.011 1.000 1.038 1.000 1.042 1.000 1.066 1.013 1.000 1.000 1.100 1.618 1.164 1.099 1.189 1.018 1.008 1.008 1.000 1.010 1.000 1.052 1.034 1.000 1.364 1.000 1.000 1.000 1.000 1.006 1.088 1.233 1.501 1.872 1.182 1.099 1.187 1.074 1.023 1.014 1.045 1.015 1.001 1.010 1.002 1.003 1.027 1.076 1.268 1.256 1.088 1.037 1.000 1.000 1.000 1.000 1.000 1.000 1.000 1.041 1.028 1.152 1.254 1.246 1.074 1.042 1.000 1.013 1.015 1.000 1.014 1.025 1.075 1.016 -9999.000 -9999.000 -9999.000 
-9999.000 -9999.000 -9999.000 1.000 1.000 1.000 1.000 1.000 1.000 1.000 1.000 1.064 1.193 1.324 1.413 2.112 1.305 1.206 1.339 1.072 1.018 1.039 1.037 1.000 1.143 1.000 1.000 1.000 1.000 1.000 1.000 1.000 1.026 1.102 1.219 1.339 1.458 2.400 1.307 1.172 1.252 1.051 1.009 1.030 1.000 1.000 1.043 1.000 1.033 1.000 1.059 1.053 1.019 1.007 1.007 1.000 1.000 1.000 1.000 1.000 1.000 1.000 1.000 1.000 1.000 1.000 1.000 1.000 1.003 1.011 1.001 1.021 1.000 1.029 1.081 1.072 1.000 1.001 1.000 1.000 1.076 1.000 1.000 1.183 1.144 1.014 1.006 1.004 1.000 1.001 1.015 1.014 1.000 1.048 1.000 1.039 1.000 1.058 1.012 1.000 1.000 1.183 1.586 1.142 1.086 1.161 1.029 1.000 1.010 1.000 1.012 1.000 1.090 1.000 1.000 1.000 1.000 1.000 1.000 1.000 1.000 1.077 1.220 1.486 1.863 1.176 1.092 1.172 1.063 1.022 1.009 1.037 1.014 1.000 1.013 1.007 1.004 1.005 1.064 1.128 1.094 1.039 1.011 1.000 1.000 1.000 1.000 1.000 1.000 1.000 1.011 1.030 1.068 1.099 1.078 1.029 1.012 1.000 1.016 1.015 1.000 1.013 1.003 1.093 1.000 -9999.000 -9999.000 -9999.000 
-9999.000 -9999.000 -9999.000 1.000 1.000 1.002 1.000 1.000 1.000 1.000 1.000 1.079 1.206 1.343 1.471 1.920 1.257 1.182 1.319 1.065 1.011 1.029 1.036 1.000 1.144 1.000 1.000 1.000 1.000 1.000 1.000 1.004 1.035 1.109 1.226 1.355 1.523 2.385 1.298 1.165 1.237 1.045 1.000 1.029 1.014 1.000 1.093 1.000 1.058 1.000 1.113 1.072 1.023 1.010 1.008 1.000 1.000 1.000 1.000 1.000 1.000 1.000 1.000 1.000 1.000 1.000 1.000 1.000 1.002 1.006 1.009 1.017 1.007 1.022 1.048 1.021 1.000 1.024 1.000 1.001 1.078 1.000 1.082 1.425 1.161 1.015 1.007 1.004 1.001 1.000 1.018 1.019 1.000 1.075 1.000 1.080 1.000 1.113 1.073 1.000 1.001 1.231 1.550 1.136 1.090 1.149 1.064 1.000 1.043 1.000 1.064 1.000 1.176 1.000 1.000 1.000 1.000 1.000 1.000 1.000 1.000 1.059 1.193 1.428 1.855 1.170 1.086 1.159 1.051 1.017 1.002 1.030 1.013 1.000 1.018 1.012 1.007 1.005 1.026 1.021 1.012 1.005 1.001 1.000 1.000 1.000 1.000 1.000 1.000 1.000 1.001 1.005 1.011 1.014 1.010 1.006 1.002 1.008 1.018 1.013 1.000 1.006 1.000 1.078 1.000 -9999.000 -9999.000 -9999.000 
-9999.000 -9999.000 -9999.000 1.000 1.000 1.002 1.002 1.000 1.000 1.000 1.000 1.080 1.218 1.377 1.568 1.831 1.231 1.169 1.305 1.062 1.007 1.020 1.030 1.000 1.132 1.000 1.000 1.000 1.000 1.000 1.000 1.023 1.055 1.127 1.247 1.393 1.636 2.388 1.298 1.163 1.225 1.042 1.004 1.014 1.015 1.000 1.105 1.000 1.102 1.000 1.168 1.088 1.024 1.012 1.009 1.000 1.000 1.000 1.000 1.000 1.000 1.000 1.000 1.000 1.000 1.000 1.000 1.000 1.001 1.002 1.010 1.014 1.011 1.007 1.015 1.033 1.000 1.034 1.000 1.000 1.087 1.169 1.257 1.398 1.109 1.015 1.006 1.004 1.003 1.000 1.021 1.017 1.000 1.070 1.000 1.000 1.001 1.000 1.001 1.000 1.028 1.335 1.560 1.142 1.112 1.157 1.058 1.000 1.036 1.000 1.059 1.000 1.151 1.000 1.000 1.000 1.000 1.000 1.000 1.000 1.000 1.034 1.145 1.301 1.705 1.225 1.026 1.125 1.028 1.024 1.000 1.026 1.014 1.000 1.025 1.018 1.009 1.005 1.017 1.003 1.000 1.000 1.000 1.000 1.000 1.000 1.000 1.000 1.000 1.000 1.000 1.000 1.000 1.000 1.000 1.001 1.002 1.006 1.008 1.008 1.001 1.017 1.000 1.042 1.000 -9999.000 -9999.000 -9999.000 
-9999.000 -9999.000 -9999.000 1.000 1.000 1.000 1.000 1.000 1.000 1.000 1.002 1.084 1.221 1.409 1.620 1.766 1.211 1.158 1.292 1.060 1.005 1.010 1.021 1.000 1.101 1.000 1.082 1.387 1.006 1.000 1.000 1.046 1.079 1.148 1.272 1.444 1.799 2.254 1.291 1.162 1.216 1.044 1.009 1.000 1.000 1.000 1.049 1.000 1.097 1.000 1.242 1.119 1.027 1.013 1.008 1.000 1.000 1.000 1.000 1.000 1.000 1.000 1.000 1.000 1.000 1.000 1.000 1.000 1.000 1.001 1.003 1.004 1.010 1.018 1.000 1.052 1.000 1.040 1.000 1.000 1.183 1.114 1.113 1.227 1.061 1.012 1.006 1.003 1.005 1.000 1.023 1.013 1.000 1.064 1.000 1.000 1.030 1.103 1.000 1.000 1.098 1.488 1.610 1.190 1.163 1.201 1.078 1.000 1.038 1.000 1.043 1.000 1.000 1.000 1.000 1.000 1.000 1.000 1.000 1.000 1.000 1.012 1.084 1.163 1.139 1.194 1.000 1.084 1.000 1.016 1.000 1.024 1.015 1.000 1.033 1.024 1.011 1.008 1.019 1.004 1.000 1.000 1.000 1.000 1.000 1.000 1.000 1.000 1.000 1.000 1.000 1.000 1.000 1.000 1.000 1.000 1.000 1.001 1.001 1.007 1.000 1.014 1.000 1.028 1.000 -9999.000 -9999.000 -9999.000 
-9999.000 -9999.000 -9999.000 1.000 1.003 1.000 1.000 1.000 1.000 1.002 1.004 1.086 1.223 1.401 1.714 1.718 1.193 1.149 1.280 1.058 1.009 1.014 1.035 1.044 1.104 1.005 1.112 1.252 1.265 1.000 1.000 1.065 1.101 1.169 1.298 1.503 2.161 1.809 1.224 1.144 1.204 1.046 1.012 1.005 1.032 1.071 1.110 1.052 1.000 1.076 1.384 1.144 1.025 1.012 1.007 1.000 1.000 1.000 1.000 1.000 1.000 1.000 1.000 1.000 1.000 1.000 1.000 1.000 1.000 1.000 1.000 1.000 1.005 1.008 1.000 1.036 1.000 1.044 1.000 1.045 1.230 1.101 1.088 1.193 1.050 1.009 1.000 1.016 1.033 1.007 1.030 1.017 1.000 1.074 1.000 1.083 1.145 1.170 1.083 1.000 1.160 1.547 1.600 1.192 1.168 1.195 1.096 1.000 1.074 1.000 1.088 1.000 1.000 1.000 1.000 1.000 1.000 1.000 1.000 1.000 1.000 1.006 1.055 1.097 1.065 1.038 1.033 1.222 1.017 1.025 1.000 1.048 1.020 1.001 1.044 1.030 1.012 1.010 1.020 1.003 1.000 1.000 1.000 1.000 1.000 1.000 1.000 1.000 1.000 1.000 1.000 1.000 1.000 1.000 1.000 1.000 1.000 1.000 1.000 1.006 1.000 1.011 1.000 1.023 1.000 -9999.000 -9999.000 -9999.000 
-9999.000 -9999.000 -9999.000 1.000 1.000 1.000 1.000 1.000 1.004 1.003 1.013 1.096 1.228 1.384 1.822 1.681 1.179 1.140 1.269 1.056 1.010 1.004 1.010 1.042 1.062 1.000 1.051 1.059 1.209 1.000 1.000 1.063 1.113 1.178 1.314 1.524 2.087 1.532 1.159 1.122 1.195 1.044 1.008 1.000 1.009 1.054 1.072 1.060 1.177 1.370 1.444 1.130 1.016 1.008 1.004 1.000 1.000 1.000 1.000 1.000 1.000 1.000 1.000 1.000 1.000 1.000 1.000 1.000 1.000 1.000 1.000 1.000 1.006 1.011 1.000 1.043 1.000 1.051 1.000 1.075 1.254 1.097 1.084 1.181 1.043 1.005 1.010 1.040 1.000 1.069 1.017 1.031 1.000 1.044 1.000 1.028 1.044 1.054 1.000 1.000 1.076 1.494 1.562 1.169 1.142 1.157 1.085 1.000 1.069 1.000 1.080 1.000 1.000 1.000 1.000 1.000 1.000 1.001 1.000 1.000 1.000 1.006 1.048 1.094 1.091 1.068 1.350 1.351 1.050 1.053 1.000 1.079 1.031 1.007 1.055 1.036 1.014 1.012 1.021 1.003 1.000 1.000 1.000 1.000 1.000 1.000 1.000 1.000 1.000 1.000 1.000 1.000 1.000 1.000 1.000 1.000 1.000 1.000 1.000 1.007 1.000 1.013 1.000 1.025 1.000 -9999.000 -9999.000 -9999.000 
-9999.000 -9999.000 -9999.000 1.000 1.000 1.000 1.000 1.006 1.000 1.000 1.005 1.086 1.217 1.376 1.887 1.629 1.153 1.119 1.246 1.045 1.007 1.006 1.003 1.044 1.051 1.000 1.039 1.000 1.199 1.000 1.000 1.000 1.084 1.149 1.297 1.535 2.008 1.468 1.140 1.112 1.187 1.041 1.006 1.000 1.017 1.050 1.059 1.093 1.226 1.275 1.240 1.065 1.010 1.000 1.016 1.018 1.008 1.003 1.001 1.000 1.000 1.000 1.000 1.000 1.000 1.000 1.000 1.000 1.000 1.000 1.000 1.000 1.008 1.023 1.000 1.077 1.000 1.032 1.000 1.122 1.283 1.099 1.086 1.166 1.029 1.021 1.056 1.089 1.000 1.127 1.008 1.065 1.000 1.037 1.000 1.044 1.000 1.077 1.011 1.000 1.048 1.474 1.529 1.148 1.121 1.130 1.080 1.000 1.067 1.000 1.035 1.000 1.000 1.000 1.000 1.000 1.000 1.000 1.000 1.000 1.000 1.007 1.046 1.095 1.124 1.120 1.195 1.402 1.111 1.058 1.013 1.116 1.031 1.017 1.068 1.042 1.016 1.015 1.020 1.003 1.000 1.000 1.000 1.000 1.000 1.000 1.000 1.000 1.000 1.000 1.000 1.000 1.000 1.000 1.000 1.000 1.000 1.000 1.000 1.008 1.000 1.013 1.000 1.024 1.000 -9999.000 -9999.000 -9999.000 
-9999.000 -9999.000 -9999.000 1.000 1.000 1.008 1.008 1.000 1.000 1.000 1.002 1.077 1.201 1.360 1.847 1.574 1.139 1.095 1.213 1.052 1.008 1.018 1.010 1.028 1.022 1.005 1.050 1.000 1.196 1.000 1.000 1.000 1.046 1.115 1.279 1.573 1.998 1.446 1.131 1.104 1.174 1.034 1.006 1.000 1.020 1.035 1.040 1.055 1.066 1.065 1.058 1.019 1.005 1.015 1.024 1.000 1.046 1.000 1.006 1.000 1.000 1.000 1.000 1.000 1.000 1.000 1.000 1.000 1.000 1.000 1.000 1.000 1.017 1.052 1.000 1.083 1.037 1.032 1.000 1.195 1.310 1.109 1.092 1.143 1.071 1.000 1.098 1.035 1.339 1.198 1.047 1.064 1.000 1.035 1.000 1.051 1.000 1.091 1.018 1.000 1.045 1.457 1.499 1.129 1.103 1.108 1.072 1.000 1.068 1.000 1.064 1.117 1.210 1.002 1.000 1.000 1.000 1.000 1.000 1.000 1.000 1.008 1.046 1.096 1.143 1.169 1.226 1.392 1.260 1.107 1.046 1.149 1.038 1.026 1.079 1.048 1.019 1.017 1.019 1.002 1.000 1.000 1.000 1.000 1.000 1.000 1.000 1.000 1.000 1.000 1.000 1.000 1.000 1.000 1.000 1.000 1.000 1.000 1.000 1.008 1.000 1.013 1.000 1.023 1.000 -9999.000 -9999.000 -9999.000 
-9999.000 -9999.000 -9999.000 1.000 1.000 1.000 1.000 1.000 1.000 1.000 1.000 1.061 1.168 1.320 1.809 1.513 1.115 1.049 1.154 1.033 1.000 1.005 1.012 1.018 1.007 1.002 1.033 1.000 1.151 1.000 1.000 1.000 1.024 1.102 1.278 1.602 1.991 1.427 1.122 1.097 1.162 1.029 1.002 1.005 1.016 1.022 1.024 1.025 1.023 1.019 1.016 1.006 1.002 1.048 1.000 1.052 1.117 1.015 1.016 1.000 1.000 1.000 1.000 1.000 1.000 1.000 1.000 1.000 1.000 1.000 1.000 1.000 1.031 1.048 1.000 1.047 1.095 1.038 1.055 1.232 1.292 1.106 1.088 1.117 1.125 1.000 1.000 1.285 1.357 1.082 1.021 1.029 1.000 1.038 1.000 1.057 1.000 1.102 1.028 1.000 1.078 1.437 1.467 1.110 1.085 1.093 1.061 1.000 1.051 1.000 1.027 1.146 1.175 1.001 1.000 1.000 1.000 1.000 1.000 1.000 1.000 1.008 1.045 1.097 1.154 1.205 1.283 1.518 1.549 1.123 1.078 1.171 1.038 1.032 1.085 1.051 1.021 1.018 1.017 1.002 1.000 1.000 1.000 1.000 1.000 1.000 1.000 1.000 1.000 1.000 1.000 1.000 1.000 1.000 1.000 1.000 1.000 1.000 1.000 1.010 1.000 1.013 1.000 1.022 1.000 -9999.000 -9999.000 -9999.000 
-9999.000 -9999.000 -9999.000 1.001 1.000 1.000 1.000 1.000 1.000 1.000 1.000 1.038 1.122 1.241 1.715 1.427 1.123 1.001 1.105 1.051 1.000 1.021 1.014 1.019 1.021 1.023 1.049 1.000 1.162 1.000 1.000 1.096 1.012 1.096 1.289 1.659 1.984 1.410 1.113 1.090 1.149 1.025 1.001 1.002 1.005 1.006 1.006 1.006 1.005 1.005 1.003 1.001 1.000 1.052 1.000 1.253 1.154 1.032 1.017 1.000 1.000 1.000 1.000 1.000 1.000 1.000 1.000 1.000 1.000 1.000 1.000 1.000 1.031 1.046 1.097 1.487 1.240 1.062 1.116 1.229 1.246 1.098 1.080 1.092 1.114 1.017 1.181 1.305 1.150 1.000 1.031 1.008 1.000 1.032 1.000 1.044 1.000 1.109 1.000 1.000 1.182 1.409 1.440 1.096 1.073 1.088 1.051 1.006 1.042 1.000 1.048 1.157 1.156 1.010 1.027 1.223 1.000 1.000 1.000 1.000 1.000 1.007 1.044 1.096 1.160 1.226 1.320 1.565 1.752 1.161 1.102 1.185 1.048 1.040 1.091 1.054 1.022 1.018 1.014 1.001 1.000 1.000 1.000 1.000 1.000 1.000 1.000 1.000 1.000 1.000 1.000 1.000 1.000 1.000 1.000 1.000 1.000 1.000 1.000 1.009 1.000 1.013 1.000 1.021 1.000 -9999.000 -9999.000 -9999.000 
-9999.000 -9999.000 -9999.000 1.000 1.000 1.000 1.000 1.000 1.000 1.000 1.000 1.022 1.070 1.131 1.380 1.300 1.082 1.000 1.024 1.030 1.000 1.015 1.021 1.010 1.003 1.006 1.027 1.000 1.132 1.000 1.000 1.000 1.012 1.100 1.304 1.700 1.980 1.395 1.106 1.084 1.137 1.023 1.000 1.000 1.000 1.000 1.000 1.000 1.000 1.000 1.000 1.000 1.000 1.024 1.093 1.193 1.090 1.026 1.008 1.000 1.000 1.000 1.000 1.000 1.000 1.000 1.000 1.000 1.000 1.000 1.000 1.000 1.016 1.049 1.216 1.260 1.114 1.068 1.122 1.173 1.174 1.077 1.063 1.064 1.050 1.095 1.139 1.124 1.057 1.000 1.021 1.002 1.000 1.041 1.000 1.047 1.000 1.165 1.000 1.000 1.327 1.387 1.422 1.090 1.068 1.091 1.036 1.027 1.052 1.032 1.040 1.093 1.079 1.013 1.001 1.324 1.000 1.000 1.000 1.000 1.000 1.006 1.042 1.095 1.162 1.239 1.338 1.577 1.817 1.178 1.109 1.181 1.048 1.039 1.090 1.052 1.020 1.016 1.011 1.006 1.032 1.038 1.029 1.005 1.000 1.000 1.000 1.000 1.000 1.000 1.000 1.000 1.000 1.000 1.000 1.000 1.000 1.001 1.000 1.014 1.022 1.050 1.000 1.027 1.029 -9999.000 -9999.000 -9999.000 
-9999.000 -9999.000 -9999.000 1.000 1.000 1.000 1.000 1.000 1.000 1.000 1.000 1.009 1.049 1.087 1.064 1.193 1.114 1.000 1.007 1.063 1.000 1.097 1.071 1.024 1.008 1.013 1.042 1.000 1.175 1.000 1.000 1.000 1.031 1.121 1.328 1.779 1.956 1.372 1.097 1.076 1.123 1.020 1.000 1.000 1.000 1.000 1.000 1.000 1.000 1.000 1.000 1.000 1.000 1.002 1.019 1.026 1.011 1.004 1.001 1.000 1.000 1.000 1.000 1.000 1.000 1.000 1.000 1.000 1.000 1.000 1.000 1.000 1.004 1.015 1.036 1.045 1.023 1.060 1.090 1.110 1.107 1.054 1.044 1.040 1.015 1.016 1.021 1.016 1.030 1.000 1.037 1.015 1.000 1.089 1.000 1.106 1.000 1.232 1.000 1.000 1.352 1.383 1.409 1.087 1.067 1.105 1.052 1.047 1.064 1.060 1.000 1.033 1.034 1.000 1.000 1.274 1.000 1.000 1.000 1.000 1.000 1.004 1.039 1.091 1.162 1.247 1.354 1.686 1.803 1.170 1.101 1.171 1.044 1.036 1.086 1.048 1.017 1.014 1.009 1.058 1.000 1.028 1.013 1.050 1.000 1.000 1.000 1.000 1.000 1.000 1.000 1.000 1.000 1.000 1.000 1.000 1.000 1.002 1.000 1.044 1.005 1.000 1.054 1.036 1.000 -9999.000 -9999.000 -9999.000 
-9999.000 -9999.000 -9999.000 1.000 1.000 1.000 1.000 1.000 1.000 1.000 1.002 1.004 1.039 1.080 1.098 1.001 1.131 1.000 1.000 1.111 1.000 1.217 1.122 1.033 1.009 1.009 1.035 1.000 1.152 1.000 1.000 1.000 1.075 1.161 1.366 1.774 1.804 1.323 1.086 1.058 1.103 1.025 1.006 1.004 1.002 1.001 1.000 1.000 1.000 1.000 1.000 1.000 1.000 1.000 1.000 1.000 1.000 1.000 1.000 1.000 1.000 1.000 1.000 1.000 1.000 1.000 1.000 1.000 1.000 1.000 1.000 1.003 1.022 1.028 1.017 1.014 1.017 1.042 1.054 1.060 1.055 1.030 1.024 1.020 1.004 1.000 1.000 1.000 1.028 1.000 1.036 1.000 1.000 1.059 1.000 1.000 1.000 1.082 1.000 1.077 1.342 1.401 1.406 1.090 1.070 1.102 1.034 1.019 1.022 1.036 1.062 1.000 1.113 1.052 1.000 1.436 1.000 1.002 1.000 1.000 1.000 1.002 1.035 1.087 1.160 1.250 1.394 1.890 1.780 1.164 1.097 1.161 1.040 1.031 1.079 1.042 1.018 1.009 1.011 1.109 1.000 1.000 1.242 1.092 1.000 1.000 1.000 1.000 1.000 1.000 1.000 1.000 1.000 1.000 1.000 1.003 1.028 1.045 1.017 1.084 1.000 1.000 1.203 1.141 1.000 -9999.000 -9999.000 -9999.000 
-9999.000 -9999.000 -9999.000 1.000 1.000 1.000 1.000 1.000 1.000 1.000 1.000 1.000 1.029 1.071 1.110 1.111 1.025 1.000 1.216 1.067 1.121 1.362 1.162 1.042 1.007 1.000 1.029 1.000 1.134 1.000 1.281 1.444 1.163 1.230 1.391 1.573 1.642 1.259 1.082 1.009 1.057 1.022 1.000 1.004 1.000 1.002 1.000 1.001 1.000 1.000 1.000 1.000 1.000 1.000 1.000 1.000 1.000 1.000 1.000 1.000 1.000 1.000 1.000 1.000 1.000 1.000 1.000 1.000 1.000 1.000 1.000 1.027 1.000 1.000 1.041 1.007 1.012 1.020 1.023 1.025 1.023 1.013 1.010 1.008 1.001 1.000 1.000 1.000 1.029 1.000 1.036 1.000 1.000 1.066 1.000 1.008 1.014 1.093 1.000 1.164 1.331 1.435 1.413 1.102 1.076 1.082 1.011 1.010 1.004 1.024 1.045 1.000 1.099 1.000 1.000 1.348 1.000 1.000 1.000 1.000 1.000 1.000 1.031 1.082 1.155 1.251 1.418 2.232 1.589 1.137 1.093 1.150 1.035 1.026 1.070 1.032 1.012 1.000 1.005 1.083 1.151 1.304 1.295 1.072 1.000 1.000 1.000 1.000 1.000 1.000 1.000 1.000 1.000 1.000 1.000 1.027 1.041 1.000 1.092 1.045 1.018 1.000 1.072 1.209 1.023 -9999.000 -9999.000 -9999.000 
-9999.000 -9999.000 -9999.000 1.071 1.036 1.152 1.000 1.000 1.000 1.000 1.000 1.000 1.018 1.058 1.107 1.147 1.158 1.153 1.607 1.178 1.217 1.431 1.185 1.055 1.014 1.004 1.039 1.014 1.128 1.000 1.295 1.342 1.054 1.162 1.208 1.342 1.452 1.176 1.056 1.000 1.022 1.012 1.000 1.002 1.010 1.005 1.001 1.002 1.000 1.000 1.000 1.000 1.000 1.000 1.000 1.000 1.000 1.000 1.000 1.000 1.000 1.000 1.000 1.000 1.000 1.000 1.000 1.000 1.000 1.000 1.000 1.085 1.000 1.141 1.121 1.005 1.008 1.008 1.009 1.009 1.007 1.004 1.003 1.002 1.000 1.000 1.000 1.000 1.028 1.000 1.035 1.003 1.019 1.069 1.000 1.068 1.069 1.128 1.000 1.403 1.401 1.449 1.398 1.099 1.069 1.049 1.013 1.000 1.003 1.004 1.031 1.000 1.118 1.000 1.000 1.000 1.000 1.000 1.000 1.000 1.000 1.000 1.026 1.076 1.150 1.250 1.404 1.922 1.384 1.114 1.087 1.137 1.030 1.021 1.061 1.026 1.012 1.000 1.005 1.019 1.063 1.086 1.076 1.016 1.000 1.000 1.000 1.000 1.000 1.006 1.032 1.044 1.037 1.007 1.000 1.047 1.000 1.095 1.160 1.022 1.088 1.112 1.000 1.000 1.093 -9999.000 -9999.000 -9999.000 
-9999.000 -9999.000 -9999.000 1.059 1.078 1.146 1.135 1.000 1.000 1.000 1.000 1.000 1.007 1.043 1.096 1.155 1.206 1.271 1.923 1.244 1.256 1.454 1.189 1.054 1.010 1.000 1.023 1.033 1.061 1.000 1.146 1.147 1.000 1.000 1.012 1.167 1.296 1.127 1.072 1.000 1.027 1.032 1.000 1.044 1.032 1.011 1.003 1.003 1.000 1.000 1.000 1.000 1.000 1.000 1.000 1.000 1.000 1.000 1.000 1.000 1.000 1.000 1.000 1.000 1.000 1.000 1.000 1.000 1.000 1.000 1.000 1.110 1.000 1.362 1.160 1.005 1.005 1.002 1.002 1.002 1.001 1.001 1.001 1.000 1.000 1.000 1.000 1.000 1.023 1.000 1.028 1.002 1.042 1.052 1.000 1.050 1.031 1.121 1.000 1.542 1.455 1.397 1.364 1.094 1.054 1.023 1.009 1.000 1.013 1.000 1.037 1.000 1.148 1.000 1.000 1.000 1.000 1.000 1.000 1.000 1.000 1.000 1.020 1.068 1.142 1.247 1.399 1.457 1.393 1.125 1.081 1.124 1.025 1.016 1.051 1.021 1.011 1.000 1.006 1.008 1.012 1.011 1.012 1.002 1.000 1.000 1.000 1.000 1.000 1.051 1.000 1.022 1.003 1.066 1.000 1.033 1.079 1.313 1.179 1.038 1.038 1.049 1.289 1.532 1.539 -9999.000 -9999.000 -9999.000 
-9999.000 -9999.000 -9999.000 1.000 1.000 1.211 1.081 1.000 1.000 1.000 1.000 1.000 1.000 1.026 1.077 1.145 1.218 1.313 2.117 1.316 1.273 1.448 1.183 1.051 1.009 1.000 1.022 1.057 1.073 1.010 1.091 1.078 1.000 1.000 1.000 1.001 1.082 1.032 1.055 1.000 1.033 1.043 1.000 1.093 1.053 1.017 1.004 1.006 1.018 1.022 1.019 1.004 1.000 1.000 1.000 1.000 1.000 1.000 1.000 1.000 1.000 1.000 1.000 1.000 1.000 1.000 1.000 1.000 1.000 1.000 1.000 1.109 1.000 1.432 1.159 1.005 1.003 1.001 1.003 1.010 1.025 1.026 1.018 1.004 1.000 1.000 1.000 1.000 1.015 1.000 1.019 1.003 1.051 1.049 1.000 1.050 1.000 1.142 1.000 1.368 1.251 1.236 1.309 1.082 1.034 1.032 1.009 1.000 1.035 1.000 1.027 1.000 1.132 1.000 1.000 1.000 1.000 1.000 1.000 1.000 1.000 1.000 1.012 1.057 1.129 1.236 1.387 1.698 1.635 1.145 1.071 1.112 1.025 1.012 1.043 1.017 1.010 1.000 1.013 1.009 1.004 1.002 1.006 1.001 1.000 1.000 1.000 1.000 1.000 1.089 1.000 1.000 1.291 1.117 1.001 1.006 1.037 1.050 1.025 1.024 1.000 1.032 1.042 1.096 1.140 -9999.000 -9999.000 -9999.000 
-9999.000 -9999.000 -9999.000 1.000 1.122 1.239 1.061 1.000 1.000 1.000 1.000 1.000 1.001 1.009 1.054 1.123 1.208 1.322 2.042 1.275 1.218 1.403 1.167 1.043 1.004 1.000 1.019 1.055 1.056 1.007 1.035 1.058 1.000 1.000 1.000 1.056 1.000 1.037 1.105 1.001 1.095 1.087 1.000 1.156 1.074 1.021 1.002 1.037 1.000 1.041 1.000 1.037 1.000 1.000 1.000 1.000 1.000 1.000 1.000 1.000 1.000 1.000 1.000 1.000 1.000 1.000 1.000 1.000 1.000 1.000 1.000 1.078 1.080 1.366 1.117 1.006 1.003 1.005 1.000 1.062 1.000 1.066 1.000 1.034 1.000 1.000 1.000 1.000 1.008 1.009 1.019 1.017 1.049 1.035 1.000 1.030 1.000 1.151 1.000 1.305 1.174 1.172 1.271 1.066 1.013 1.024 1.011 1.000 1.094 1.006 1.099 1.000 1.196 1.000 1.000 1.000 1.000 1.000 1.000 1.000 1.000 1.000 1.001 1.043 1.110 1.214 1.350 1.751 1.770 1.148 1.061 1.098 1.020 1.006 1.035 1.015 1.010 1.000 1.020 1.015 1.007 1.005 1.007 1.001 1.000 1.000 1.000 1.000 1.000 1.064 1.144 1.327 1.335 1.084 1.001 1.000 1.004 1.015 1.000 1.016 1.000 1.018 1.000 1.065 1.000 -9999.000 -9999.000 -9999.000 
-9999.000 -9999.000 -9999.000 1.000 1.003 1.000 1.144 1.000 1.000 1.000 1.000 1.000 1.000 1.000 1.030 1.092 1.183 1.307 1.984 1.237 1.173 1.362 1.140 1.049 1.013 1.010 1.017 1.031 1.021 1.023 1.000 1.070 1.000 1.010 1.000 1.157 1.000 1.000 1.099 1.000 1.327 1.117 1.057 1.225 1.090 1.022 1.001 1.088 1.000 1.000 1.159 1.092 1.000 1.000 1.001 1.009 1.028 1.031 1.017 1.002 1.000 1.000 1.000 1.000 1.000 1.000 1.000 1.000 1.000 1.000 1.000 1.022 1.071 1.114 1.035 1.003 1.001 1.011 1.000 1.118 1.000 1.045 1.116 1.073 1.000 1.000 1.000 1.000 1.004 1.004 1.007 1.010 1.015 1.028 1.002 1.043 1.000 1.143 1.000 1.275 1.141 1.123 1.198 1.067 1.033 1.044 1.010 1.000 1.060 1.000 1.000 1.000 1.047 1.000 1.000 1.000 1.000 1.000 1.000 1.000 1.000 1.000 1.000 1.023 1.082 1.177 1.288 1.676 1.723 1.165 1.021 1.066 1.033 1.000 1.026 1.013 1.012 1.000 1.027 1.021 1.008 1.006 1.007 1.001 1.000 1.000 1.000 1.000 1.000 1.011 1.048 1.071 1.064 1.015 1.000 1.000 1.001 1.009 1.000 1.015 1.000 1.016 1.000 1.103 1.000 -9999.000 -9999.000 -9999.000 
-9999.000 -9999.000 -9999.000 1.000 1.163 1.000 1.220 1.000 1.000 1.000 1.000 1.000 1.000 1.000 1.011 1.069 1.143 1.267 1.890 1.246 1.101 1.264 1.062 1.044 1.002 1.012 1.015 1.019 1.028 1.049 1.000 1.095 1.000 1.020 1.000 1.000 1.000 1.000 1.100 1.477 1.665 1.142 1.117 1.257 1.094 1.022 1.000 1.088 1.010 1.153 1.273 1.092 1.000 1.000 1.005 1.031 1.000 1.000 1.033 1.017 1.000 1.000 1.000 1.000 1.000 1.000 1.000 1.000 1.000 1.000 1.000 1.003 1.015 1.017 1.004 1.000 1.000 1.010 1.004 1.114 1.121 1.254 1.192 1.067 1.000 1.000 1.000 1.000 1.002 1.001 1.005 1.009 1.003 1.026 1.000 1.039 1.000 1.121 1.049 1.222 1.107 1.072 1.066 1.019 1.000 1.009 1.007 1.000 1.062 1.000 1.041 1.000 1.000 1.000 1.000 1.000 1.000 1.000 1.000 1.000 1.000 1.000 1.000 1.006 1.046 1.124 1.202 1.530 1.574 1.116 1.000 1.008 1.011 1.000 1.020 1.014 1.014 1.000 1.035 1.026 1.010 1.008 1.007 1.000 1.000 1.000 1.000 1.000 1.000 1.001 1.004 1.005 1.004 1.001 1.000 1.000 1.001 1.011 1.000 1.017 1.000 1.017 1.000 1.115 1.000 -9999.000 -9999.000 -9999.000 
-9999.000 -9999.000 -9999.000 1.000 1.014 1.000 1.109 1.000 1.000 1.000 1.000 1.000 1.000 1.000 1.001 1.051 1.110 1.200 1.740 1.197 1.004 1.157 1.000 1.020 1.000 1.000 1.000 1.000 1.002 1.026 1.000 1.069 1.000 1.000 1.000 1.000 1.000 1.010 1.213 1.614 1.825 1.205 1.160 1.265 1.092 1.020 1.000 1.036 1.111 1.160 1.149 1.037 1.000 1.000 1.016 1.096 1.000 1.000 1.257 1.054 1.000 1.000 1.000 1.000 1.000 1.008 1.024 1.026 1.018 1.004 1.000 1.000 1.000 1.000 1.000 1.000 1.000 1.003 1.008 1.039 1.096 1.114 1.079 1.021 1.000 1.000 1.000 1.000 1.002 1.000 1.001 1.000 1.000 1.012 1.000 1.024 1.005 1.074 1.042 1.092 1.045 1.013 1.004 1.002 1.000 1.000 1.002 1.005 1.045 1.000 1.160 1.000 1.000 1.000 1.000 1.000 1.000 1.000 1.000 1.000 1.000 1.000 1.000 1.009 1.037 1.066 1.104 1.171 1.461 1.165 1.000 1.036 1.031 1.000 1.057 1.031 1.017 1.003 1.044 1.030 1.011 1.008 1.006 1.000 1.000 1.000 1.000 1.000 1.000 1.000 1.000 1.000 1.000 1.000 1.000 1.000 1.001 1.012 1.000 1.018 1.000 1.017 1.000 1.106 1.000 -9999.000 -9999.000 -9999.000 
-9999.000 -9999.000 -9999.000 1.000 1.081 1.000 1.165 1.000 1.000 1.000 1.000 1.000 1.000 1.000 1.000 1.043 1.096 1.132 1.442 1.222 1.000 1.113 1.000 1.051 1.000 1.054 1.037 1.016 1.009 1.035 1.000 1.085 1.000 1.000 1.000 1.000 1.000 1.045 1.254 1.742 1.773 1.182 1.140 1.237 1.082 1.018 1.000 1.004 1.019 1.023 1.019 1.004 1.000 1.000 1.020 1.127 1.000 1.283 1.436 1.069 1.000 1.000 1.000 1.000 1.003 1.051 1.000 1.059 1.000 1.035 1.000 1.000 1.000 1.000 1.000 1.000 1.000 1.000 1.002 1.006 1.015 1.016 1.010 1.002 1.000 1.000 1.001 1.000 1.003 1.000 1.006 1.003 1.000 1.017 1.000 1.021 1.029 1.046 1.019 1.000 1.000 1.011 1.000 1.000 1.006 1.002 1.022 1.056 1.055 1.017 1.069 1.229 1.340 1.000 1.000 1.000 1.000 1.000 1.000 1.000 1.000 1.000 1.000 1.016 1.042 1.068 1.068 1.049 1.000 1.217 1.000 1.109 1.052 1.000 1.093 1.045 1.021 1.007 1.052 1.033 1.012 1.008 1.006 1.000 1.000 1.000 1.000 1.000 1.000 1.000 1.000 1.000 1.000 1.000 1.000 1.000 1.001 1.013 1.000 1.018 1.000 1.016 1.000 1.061 1.111 -9999.000 -9999.000 -9999.000 
-9999.000 -9999.000 -9999.000 1.000 1.099 1.000 1.000 1.000 1.000 1.000 1.000 1.000 1.000 1.000 1.000 1.038 1.097 1.129 1.087 1.195 1.000 1.064 1.000 1.061 1.000 1.139 1.075 1.022 1.010 1.034 1.000 1.083 1.000 1.000 1.000 1.000 1.023 1.109 1.335 1.912 1.719 1.173 1.135 1.218 1.073 1.018 1.001 1.002 1.003 1.004 1.004 1.003 1.002 1.002 1.021 1.126 1.000 1.564 1.457 1.069 1.000 1.000 1.000 1.000 1.006 1.102 1.000 1.016 1.112 1.100 1.032 1.038 1.022 1.005 1.002 1.002 1.001 1.001 1.002 1.003 1.004 1.004 1.004 1.004 1.003 1.002 1.002 1.001 1.004 1.000 1.006 1.000 1.000 1.010 1.000 1.014 1.027 1.035 1.000 1.028 1.000 1.056 1.000 1.000 1.000 1.000 1.136 1.077 1.053 1.020 1.061 1.000 1.214 1.000 1.000 1.000 1.000 1.000 1.000 1.000 1.000 1.000 1.004 1.025 1.050 1.077 1.092 1.058 1.025 1.000 1.000 1.215 1.091 1.000 1.128 1.051 1.029 1.003 1.056 1.033 1.014 1.006 1.007 1.001 1.001 1.004 1.031 1.055 1.050 1.015 1.001 1.000 1.000 1.008 1.040 1.048 1.036 1.028 1.000 1.019 1.000 1.014 1.000 1.016 1.028 -9999.000 -9999.000 -9999.000 
-9999.000 -9999.000 -9999.000 1.000 1.054 1.000 1.000 1.000 1.000 1.000 1.000 1.000 1.000 1.000 1.000 1.034 1.081 1.126 1.133 1.065 1.000 1.061 1.007 1.088 1.016 1.250 1.113 1.029 1.008 1.029 1.000 1.076 1.000 1.000 1.000 1.000 1.140 1.236 1.455 1.758 1.652 1.163 1.130 1.199 1.060 1.014 1.001 1.000 1.000 1.000 1.000 1.000 1.001 1.001 1.016 1.090 1.251 1.537 1.335 1.051 1.000 1.000 1.000 1.000 1.005 1.098 1.096 1.230 1.136 1.136 1.000 1.010 1.031 1.013 1.001 1.000 1.001 1.001 1.000 1.001 1.000 1.000 1.000 1.000 1.000 1.000 1.000 1.002 1.005 1.000 1.009 1.001 1.000 1.009 1.000 1.004 1.021 1.020 1.000 1.016 1.000 1.081 1.000 1.000 1.019 1.182 1.238 1.088 1.049 1.011 1.026 1.000 1.159 1.000 1.000 1.000 1.000 1.000 1.000 1.000 1.000 1.000 1.012 1.032 1.058 1.086 1.109 1.106 1.061 1.016 1.020 1.210 1.176 1.000 1.167 1.047 1.024 1.000 1.059 1.031 1.012 1.002 1.005 1.000 1.000 1.037 1.004 1.000 1.000 1.090 1.009 1.000 1.000 1.070 1.000 1.021 1.010 1.092 1.000 1.019 1.000 1.012 1.000 1.008 1.000 -9999.000 -9999.000 -9999.000 
-9999.000 -9999.000 -9999.000 1.000 1.000 1.000 1.000 1.000 1.000 1.000 1.000 1.000 1.000 1.000 1.000 1.030 1.073 1.121 1.151 1.141 1.105 1.039 1.248 1.132 1.136 1.360 1.142 1.039 1.012 1.023 1.000 1.069 1.000 1.000 1.253 1.318 1.239 1.318 1.466 1.569 1.589 1.154 1.127 1.176 1.043 1.013 1.005 1.003 1.000 1.006 1.000 1.001 1.006 1.000 1.009 1.030 1.117 1.151 1.097 1.014 1.000 1.000 1.000 1.000 1.002 1.035 1.063 1.083 1.028 1.130 1.000 1.000 1.136 1.064 1.010 1.000 1.006 1.006 1.000 1.010 1.003 1.004 1.006 1.002 1.003 1.006 1.000 1.005 1.003 1.000 1.005 1.000 1.000 1.000 1.000 1.011 1.002 1.021 1.030 1.034 1.000 1.118 1.000 1.000 1.000 1.483 1.283 1.074 1.023 1.032 1.048 1.000 1.181 1.000 1.000 1.000 1.000 1.000 1.000 1.000 1.000 1.003 1.017 1.038 1.064 1.093 1.122 1.135 1.119 1.085 1.047 1.273 1.210 1.075 1.190 1.043 1.043 1.000 1.069 1.034 1.018 1.000 1.009 1.002 1.000 1.063 1.000 1.000 1.368 1.182 1.015 1.000 1.000 1.114 1.000 1.016 1.263 1.136 1.000 1.020 1.000 1.011 1.000 1.008 1.000 -9999.000 -9999.000 -9999.000 
-9999.000 -9999.000 -9999.000 1.000 1.000 1.000 1.000 1.000 1.000 1.000 1.000 1.000 1.000 1.000 1.000 1.024 1.064 1.111 1.153 1.175 1.194 1.245 1.722 1.175 1.231 1.417 1.159 1.048 1.013 1.019 1.000 1.060 1.000 1.052 1.252 1.259 1.009 1.195 1.299 1.439 1.530 1.146 1.126 1.151 1.018 1.006 1.007 1.000 1.000 1.002 1.000 1.000 1.011 1.000 1.022 1.013 1.021 1.024 1.013 1.002 1.000 1.000 1.000 1.000 1.001 1.009 1.025 1.014 1.046 1.073 1.000 1.075 1.000 1.040 1.049 1.000 1.011 1.006 1.000 1.010 1.000 1.000 1.000 1.000 1.008 1.010 1.000 1.007 1.004 1.000 1.005 1.000 1.010 1.008 1.000 1.008 1.000 1.014 1.009 1.021 1.000 1.137 1.000 1.000 1.311 1.700 1.289 1.063 1.006 1.023 1.034 1.000 1.156 1.000 1.000 1.000 1.000 1.000 1.000 1.000 1.000 1.006 1.020 1.040 1.066 1.098 1.130 1.153 1.155 1.149 1.136 1.121 1.310 1.089 1.154 1.009 1.036 1.000 1.077 1.032 1.016 1.000 1.006 1.002 1.000 1.043 1.118 1.411 1.432 1.135 1.010 1.000 1.000 1.073 1.220 1.342 1.266 1.095 1.000 1.020 1.000 1.010 1.000 1.008 1.000 -9999.000 -9999.000 -9999.000 
-9999.000 -9999.000 -9999.000 -9999.000 1.278 1.000 1.000 1.000 1.000 1.000 1.000 1.000 1.000 1.000 1.000 1.017 1.052 1.097 1.146 1.184 1.229 1.320 2.015 1.297 1.292 1.441 1.167 1.051 1.013 1.015 1.020 1.046 1.000 1.053 1.151 1.139 1.023 1.040 1.189 1.348 1.481 1.138 1.125 1.122 1.016 1.000 1.014 1.000 1.000 1.000 1.000 1.021 1.018 1.000 1.040 1.008 1.000 1.000 1.000 1.000 1.000 1.000 1.000 1.000 1.001 1.007 1.000 1.000 1.015 1.040 1.010 1.212 1.000 1.271 1.112 1.001 1.022 1.013 1.000 1.027 1.000 1.000 1.000 1.000 1.042 1.016 1.000 1.033 1.043 1.023 1.020 1.007 1.008 1.009 1.000 1.010 1.000 1.016 1.000 1.028 1.000 1.148 1.000 1.000 1.373 1.769 1.278 1.059 1.008 1.015 1.030 1.000 1.160 1.000 1.000 1.000 1.000 1.000 1.000 1.000 1.002 1.009 1.023 1.044 1.071 1.102 1.134 1.161 1.174 1.181 1.196 1.217 1.372 1.000 1.140 1.031 1.059 1.000 1.119 1.048 1.019 1.000 1.014 1.004 1.000 1.013 1.039 1.067 1.062 1.019 1.001 1.000 1.000 1.008 1.043 1.052 1.039 1.028 1.000 1.025 1.022 1.045 1.008 1.014 1.000 -9999.000 -9999.000 -9999.000 
-9999.000 -9999.000 -9999.000 1.910 1.187 1.000 1.000 1.003 1.000 1.001 1.000 1.000 1.003 1.000 1.000 1.007 1.037 1.078 1.127 1.177 1.236 1.346 1.943 1.253 1.230 1.395 1.154 1.046 1.003 1.000 1.030 1.039 1.000 1.000 1.042 1.032 1.000 1.000 1.128 1.278 1.434 1.128 1.121 1.090 1.024 1.000 1.028 1.008 1.000 1.035 1.000 1.081 1.042 1.010 1.061 1.012 1.000 1.000 1.000 1.000 1.000 1.000 1.000 1.000 1.001 1.014 1.010 1.000 1.045 1.011 1.000 1.145 1.077 1.417 1.113 1.006 1.031 1.023 1.000 1.061 1.000 1.023 1.019 1.028 1.086 1.028 1.004 1.094 1.000 1.107 1.000 1.030 1.004 1.009 1.000 1.017 1.000 1.032 1.000 1.053 1.000 1.171 1.000 1.000 1.475 1.792 1.261 1.055 1.007 1.009 1.033 1.000 1.166 1.000 1.000 1.000 1.000 1.000 1.000 1.001 1.007 1.015 1.031 1.053 1.081 1.112 1.144 1.170 1.184 1.196 1.224 1.264 1.304 1.001 1.210 1.119 1.137 1.005 1.175 1.065 1.029 1.005 1.022 1.009 1.004 1.013 1.005 1.003 1.001 1.000 1.000 1.000 1.000 1.000 1.000 1.002 1.000 1.013 1.000 1.057 1.002 1.000 1.095 1.000 1.011 -9999.000 -9999.000 -9999.000 
-9999.000 -9999.000 -9999.000 1.217 1.056 1.000 1.019 1.025 1.000 1.000 1.000 1.000 1.000 1.000 1.000 1.000 1.020 1.055 1.102 1.156 1.223 1.348 1.886 1.214 1.181 1.352 1.131 1.047 1.021 1.018 1.006 1.032 1.024 1.108 1.000 1.130 1.039 1.000 1.079 1.205 1.379 1.118 1.101 1.067 1.034 1.000 1.041 1.000 1.000 1.000 1.042 1.158 1.034 1.030 1.073 1.014 1.000 1.000 1.000 1.000 1.000 1.000 1.000 1.000 1.001 1.018 1.003 1.000 1.040 1.000 1.000 1.021 1.230 1.292 1.066 1.010 1.027 1.017 1.000 1.053 1.000 1.000 1.003 1.118 1.128 1.027 1.010 1.101 1.000 1.200 1.065 1.055 1.000 1.014 1.000 1.012 1.000 1.020 1.000 1.037 1.000 1.173 1.000 1.000 1.442 1.782 1.214 1.064 1.037 1.026 1.053 1.002 1.219 1.001 1.001 1.000 1.000 1.000 1.000 1.010 1.016 1.026 1.043 1.067 1.096 1.130 1.164 1.190 1.203 1.215 1.250 1.311 1.374 1.311 1.559 1.410 1.108 1.088 1.236 1.086 1.023 1.017 1.032 1.007 1.009 1.016 1.004 1.001 1.000 1.000 1.000 1.000 1.000 1.000 1.000 1.002 1.000 1.013 1.000 1.076 1.000 1.127 1.162 1.017 1.018 -9999.000 -9999.000 -9999.000 
-9999.000 -9999.000 -9999.000 1.001 1.128 1.075 1.314 1.108 1.065 1.000 1.000 1.000 1.000 1.000 1.000 1.000 1.001 1.028 1.069 1.125 1.198 1.330 1.834 1.206 1.133 1.279 1.072 1.033 1.005 1.005 1.005 1.026 1.037 1.020 1.000 1.084 1.067 1.000 1.086 1.153 1.313 1.099 1.049 1.058 1.025 1.000 1.050 1.000 1.000 1.017 1.131 1.194 1.057 1.047 1.076 1.013 1.000 1.000 1.000 1.000 1.000 1.000 1.000 1.000 1.001 1.020 1.002 1.000 1.043 1.000 1.000 1.115 1.240 1.173 1.052 1.017 1.025 1.017 1.000 1.061 1.000 1.017 1.075 1.185 1.148 1.042 1.031 1.119 1.276 1.280 1.105 1.046 1.000 1.013 1.000 1.019 1.000 1.032 1.000 1.054 1.000 1.237 1.000 1.000 1.391 1.723 1.124 1.022 1.001 1.000 1.033 1.000 1.190 1.000 1.000 1.000 1.000 1.000 1.009 1.022 1.028 1.040 1.059 1.086 1.119 1.157 1.194 1.222 1.234 1.254 1.311 1.436 1.570 1.745 2.053 1.590 1.236 1.186 1.279 1.106 1.039 1.030 1.039 1.013 1.014 1.017 1.004 1.000 1.000 1.000 1.000 1.000 1.000 1.000 1.000 1.003 1.001 1.016 1.000 1.059 1.034 1.250 1.135 1.029 1.011 -9999.000 -9999.000 -9999.000 
-9999.000 -9999.000 -9999.000 1.099 1.167 1.117 1.254 1.079 1.310 1.112 1.001 1.000 1.000 1.000 1.000 1.000 1.000 1.001 1.032 1.081 1.157 1.282 1.742 1.192 1.066 1.199 1.015 1.023 1.000 1.000 1.000 1.013 1.069 1.000 1.008 1.000 1.140 1.000 1.110 1.081 1.242 1.091 1.001 1.056 1.022 1.000 1.035 1.000 1.056 1.115 1.210 1.198 1.071 1.055 1.067 1.011 1.000 1.000 1.000 1.000 1.000 1.000 1.000 1.000 1.002 1.020 1.000 1.000 1.042 1.000 1.089 1.164 1.216 1.139 1.047 1.017 1.016 1.013 1.000 1.057 1.015 1.090 1.134 1.205 1.134 1.044 1.038 1.065 1.085 1.074 1.031 1.014 1.000 1.012 1.000 1.015 1.000 1.030 1.000 1.060 1.000 1.263 1.000 1.000 1.155 1.580 1.060 1.047 1.032 1.021 1.102 1.000 1.000 1.000 1.000 1.000 1.000 1.001 1.024 1.037 1.044 1.059 1.082 1.114 1.153 1.197 1.239 1.265 1.279 1.318 1.438 2.054 1.449 1.426 1.587 1.388 1.187 1.153 1.226 1.087 1.034 1.026 1.034 1.012 1.012 1.013 1.002 1.000 1.000 1.000 1.000 1.000 1.000 1.000 1.000 1.007 1.025 1.079 1.050 1.095 1.076 1.053 1.011 1.013 1.000 -9999.000 -9999.000 -9999.000 
-9999.000 -9999.000 -9999.000 1.679 1.135 1.097 1.157 1.000 1.126 1.111 1.000 1.000 1.000 1.002 1.006 1.001 1.000 1.000 1.000 1.033 1.092 1.192 1.648 1.188 1.003 1.123 1.000 1.027 1.000 1.000 1.000 1.025 1.092 1.000 1.000 1.000 1.181 1.000 1.162 1.014 1.167 1.083 1.000 1.046 1.016 1.000 1.017 1.056 1.108 1.140 1.200 1.151 1.062 1.047 1.049 1.008 1.000 1.000 1.000 1.000 1.000 1.000 1.000 1.000 1.002 1.016 1.004 1.018 1.042 1.035 1.117 1.159 1.190 1.121 1.043 1.017 1.012 1.018 1.021 1.056 1.073 1.122 1.144 1.179 1.103 1.038 1.026 1.021 1.010 1.008 1.006 1.003 1.000 1.010 1.000 1.018 1.013 1.036 1.000 1.068 1.000 1.296 1.000 1.000 1.000 1.065 1.000 1.059 1.029 1.019 1.115 1.000 1.000 1.000 1.000 1.000 1.000 1.018 1.042 1.054 1.064 1.084 1.114 1.153 1.202 1.257 1.300 1.314 1.343 1.438 1.891 1.885 1.379 1.357 1.491 1.311 1.180 1.151 1.191 1.078 1.035 1.028 1.030 1.013 1.011 1.010 1.001 1.000 1.000 1.000 1.002 1.003 1.002 1.001 1.000 1.031 1.036 1.000 1.008 1.000 1.066 1.043 1.000 1.005 1.000 -9999.000 -9999.000 -9999.000 
-9999.000 -9999.000 -9999.000 1.463 1.074 1.100 1.105 1.011 1.048 1.133 1.000 1.000 1.000 1.001 1.000 1.000 1.000 1.000 1.000 1.000 1.033 1.079 1.479 1.181 1.000 1.052 1.000 1.016 1.000 1.000 1.000 1.004 1.070 1.039 1.047 1.103 1.104 1.000 1.213 1.000 1.070 1.077 1.000 1.032 1.000 1.014 1.030 1.141 1.117 1.123 1.156 1.098 1.046 1.034 1.032 1.005 1.000 1.000 1.000 1.000 1.000 1.000 1.001 1.000 1.001 1.008 1.002 1.029 1.040 1.055 1.095 1.114 1.127 1.081 1.030 1.013 1.005 1.009 1.033 1.044 1.072 1.099 1.106 1.122 1.067 1.027 1.018 1.009 1.000 1.000 1.001 1.002 1.000 1.006 1.000 1.013 1.013 1.033 1.000 1.068 1.000 1.299 1.000 1.000 1.005 1.114 1.083 1.107 1.015 1.001 1.000 1.000 1.000 1.000 1.000 1.000 1.000 1.038 1.063 1.074 1.090 1.118 1.158 1.214 1.283 1.343 1.352 1.376 1.456 1.767 1.620 1.666 1.264 1.251 1.341 1.197 1.119 1.103 1.131 1.054 1.025 1.020 1.020 1.009 1.008 1.006 1.001 1.000 1.000 1.008 1.034 1.051 1.041 1.013 1.000 1.044 1.000 1.000 1.070 1.316 1.357 1.074 1.000 1.006 1.000 -9999.000 -9999.000 -9999.000 
-9999.000 -9999.000 -9999.000 1.116 1.036 1.072 1.044 1.000 1.000 1.110 1.000 1.000 1.000 1.000 1.000 1.000 1.000 1.000 1.000 1.000 1.005 1.026 1.023 1.235 1.000 1.109 1.030 1.080 1.057 1.058 1.058 1.060 1.043 1.069 1.000 1.108 1.054 1.000 1.000 1.000 1.089 1.200 1.027 1.116 1.142 1.060 1.083 1.193 1.106 1.099 1.105 1.056 1.030 1.022 1.016 1.002 1.000 1.000 1.000 1.000 1.000 1.000 1.001 1.000 1.001 1.004 1.009 1.039 1.048 1.060 1.074 1.078 1.076 1.045 1.018 1.011 1.010 1.019 1.043 1.054 1.069 1.078 1.075 1.072 1.037 1.017 1.011 1.004 1.000 1.000 1.001 1.001 1.005 1.006 1.007 1.007 1.014 1.029 1.000 1.070 1.000 1.295 1.000 1.018 1.097 1.153 1.094 1.421 1.275 1.012 1.000 1.000 1.000 1.000 1.000 1.000 1.021 1.062 1.083 1.098 1.125 1.168 1.232 1.326 1.397 1.400 1.420 1.494 1.713 1.433 1.529 1.573 1.205 1.197 1.252 1.137 1.085 1.074 1.087 1.036 1.018 1.014 1.011 1.005 1.004 1.002 1.001 1.000 1.000 1.055 1.000 1.000 1.019 1.086 1.004 1.028 1.036 1.340 1.550 1.520 1.242 1.042 1.000 1.004 1.000 -9999.000 -9999.000 -9999.000 
-9999.000 -9999.000 -9999.000 1.027 1.037 1.006 1.074 1.043 1.000 1.191 1.000 1.000 1.000 1.000 1.000 1.000 1.000 1.000 1.000 1.000 1.000 1.000 1.008 1.000 1.000 1.000 1.000 1.000 1.000 1.000 1.000 1.000 1.000 1.000 1.000 1.000 1.000 1.000 1.103 1.199 1.117 1.001 1.000 1.368 1.333 1.110 1.123 1.186 1.069 1.058 1.050 1.021 1.013 1.009 1.005 1.001 1.000 1.000 1.000 1.000 1.000 1.000 1.000 1.001 1.001 1.002 1.009 1.019 1.022 1.027 1.031 1.031 1.028 1.015 1.007 1.005 1.006 1.011 1.019 1.023 1.028 1.030 1.028 1.025 1.012 1.006 1.004 1.001 1.000 1.000 1.000 1.001 1.002 1.003 1.004 1.016 1.000 1.040 1.000 1.053 1.000 1.191 1.000 1.392 1.384 1.370 1.309 1.166 1.078 1.000 1.000 1.000 1.000 1.003 1.000 1.000 1.052 1.088 1.106 1.133 1.180 1.259 1.406 1.497 1.506 1.543 1.627 1.912 2.178 1.500 1.308 1.318 1.170 1.126 1.167 1.071 1.039 1.033 1.044 1.013 1.007 1.006 1.006 1.006 1.005 1.004 1.003 1.002 1.001 1.083 1.000 1.000 1.348 1.137 1.005 1.014 1.079 1.158 1.115 1.104 1.028 1.000 1.012 1.010 1.000 -9999.000 -9999.000 -9999.000 
-9999.000 -9999.000 -9999.000 1.006 1.040 1.000 1.070 1.035 1.000 1.183 1.000 1.000 1.000 1.000 1.000 1.000 1.000 1.000 1.000 1.000 1.000 1.000 1.000 1.000 1.000 1.000 1.000 1.000 1.000 1.000 1.000 1.000 1.000 1.003 1.000 1.000 1.000 1.131 1.245 1.396 1.954 1.557 1.584 1.766 1.449 1.175 1.146 1.151 1.040 1.028 1.019 1.004 1.002 1.002 1.001 1.000 1.000 1.000 1.000 1.000 1.000 1.000 1.000 1.000 1.000 1.000 1.002 1.004 1.004 1.005 1.006 1.005 1.005 1.002 1.001 1.001 1.001 1.002 1.003 1.004 1.005 1.005 1.004 1.004 1.002 1.001 1.001 1.000 1.000 1.000 1.000 1.000 1.000 1.000 1.001 1.010 1.000 1.032 1.000 1.067 1.096 1.196 1.327 1.723 1.726 1.627 1.723 1.792 1.829 1.754 1.330 1.000 1.000 1.001 1.000 1.037 1.090 1.116 1.141 1.192 1.286 1.558 1.801 1.879 2.066 1.845 1.845 1.994 1.683 1.364 1.026 1.000 1.130 1.139 1.159 1.042 1.021 1.017 1.025 1.006 1.000 1.000 1.000 1.000 1.000 1.000 1.000 1.000 1.000 1.051 1.150 1.324 1.300 1.073 1.007 1.030 1.041 1.000 1.098 1.001 1.028 1.006 1.032 1.025 1.000 -9999.000 -9999.000 -9999.000 
-9999.000 -9999.000 -9999.000 1.000 1.000 1.000 1.013 1.000 1.000 1.134 1.000 1.000 1.000 1.000 1.000 1.000 1.011 1.005 1.000 1.000 1.000 1.000 1.000 1.000 1.000 1.000 1.000 1.000 1.000 1.000 1.000 1.000 1.000 1.004 1.000 1.000 1.096 1.255 1.599 1.619 1.819 1.480 1.474 1.572 1.322 1.135 1.112 1.110 1.026 1.016 1.009 1.000 1.000 1.000 1.000 1.000 1.000 1.000 1.000 1.000 1.000 1.000 1.000 1.000 1.000 1.000 1.000 1.000 1.000 1.000 1.001 1.000 1.000 1.000 1.000 1.000 1.000 1.000 1.000 1.000 1.005 1.021 1.036 1.037 1.017 1.001 1.000 1.000 1.000 1.000 1.000 1.000 1.000 1.000 1.000 1.008 1.000 1.026 1.000 1.031 1.073 1.099 1.107 1.221 1.222 1.156 1.227 1.266 1.285 1.239 1.143 1.000 1.000 1.000 1.012 1.072 1.107 1.125 1.172 1.266 1.489 1.792 1.358 1.339 1.473 1.320 1.327 1.315 1.093 1.192 1.405 1.000 1.220 1.287 1.169 1.032 1.017 1.014 1.016 1.008 1.000 1.004 1.001 1.000 1.002 1.000 1.001 1.003 1.000 1.012 1.042 1.073 1.104 1.047 1.041 1.067 1.028 1.088 1.244 1.073 1.055 1.000 1.016 1.013 1.000 -9999.000 -9999.000 -9999.000 
-9999.000 -9999.000 -9999.000 1.000 1.036 1.000 1.064 1.011 1.000 1.199 1.000 1.002 1.000 1.000 1.000 1.000 1.000 1.003 1.000 1.000 1.000 1.000 1.000 1.000 1.000 1.000 1.000 1.000 1.000 1.000 1.000 1.000 1.000 1.000 1.000 1.032 1.159 1.606 1.529 1.394 1.548 1.272 1.253 1.336 1.193 1.093 1.082 1.078 1.019 1.011 1.006 1.000 1.000 1.000 1.000 1.000 1.000 1.000 1.000 1.000 1.000 1.000 1.000 1.000 1.000 1.000 1.000 1.000 1.000 1.000 1.000 1.000 1.000 1.000 1.000 1.000 1.000 1.000 1.000 1.000 1.040 1.000 1.096 1.000 1.096 1.010 1.000 1.000 1.000 1.000 1.000 1.000 1.000 1.000 1.000 1.005 1.000 1.019 1.000 1.020 1.073 1.087 1.063 1.128 1.127 1.071 1.139 1.168 1.184 1.142 1.139 1.000 1.000 1.000 1.000 1.035 1.074 1.097 1.156 1.289 1.871 1.686 1.274 1.253 1.372 1.233 1.238 1.163 1.062 1.000 1.244 1.247 1.360 1.333 1.161 1.022 1.012 1.010 1.007 1.006 1.000 1.004 1.000 1.000 1.001 1.000 1.007 1.007 1.003 1.009 1.027 1.000 1.122 1.000 1.127 1.001 1.163 1.269 1.218 1.090 1.030 1.000 1.008 1.014 1.000 -9999.000 -9999.000 -9999.000 
-9999.000 -9999.000 -9999.000 1.000 1.022 1.000 1.059 1.000 1.000 1.199 1.000 1.000 1.000 1.000 1.002 1.000 1.000 1.000 1.000 1.000 1.000 1.003 1.006 1.008 1.006 1.000 1.000 1.000 1.000 1.000 1.000 1.000 1.001 1.000 1.000 1.070 1.206 2.101 1.383 1.280 1.421 1.179 1.159 1.221 1.121 1.061 1.057 1.053 1.012 1.007 1.003 1.000 1.000 1.000 1.000 1.000 1.000 1.000 1.000 1.000 1.000 1.000 1.000 1.000 1.001 1.001 1.003 1.004 1.005 1.005 1.004 1.004 1.003 1.001 1.000 1.000 1.000 1.000 1.000 1.000 1.069 1.000 1.047 1.091 1.213 1.017 1.000 1.000 1.000 1.000 1.000 1.000 1.000 1.001 1.001 1.004 1.000 1.011 1.000 1.024 1.057 1.064 1.030 1.074 1.073 1.021 1.081 1.102 1.112 1.092 1.126 1.071 1.515 1.000 1.000 1.000 1.029 1.060 1.128 1.329 2.207 1.532 1.179 1.166 1.287 1.158 1.159 1.127 1.031 1.021 1.647 2.084 1.471 1.318 1.128 1.010 1.005 1.003 1.003 1.007 1.000 1.007 1.000 1.000 1.000 1.000 1.013 1.007 1.006 1.012 1.040 1.000 1.153 1.016 1.238 1.098 1.095 1.037 1.039 1.023 1.002 1.011 1.000 1.021 1.000 -9999.000 -9999.000 -9999.000 
-9999.000 -9999.000 -9999.000 1.000 1.029 1.000 1.109 1.014 1.000 1.000 1.000 1.000 1.000 1.000 1.000 1.000 1.000 1.000 1.000 1.000 1.002 1.006 1.011 1.015 1.017 1.016 1.008 1.000 1.000 1.000 1.000 1.000 1.000 1.000 1.023 1.089 1.215 1.864 1.284 1.203 1.332 1.116 1.096 1.143 1.076 1.038 1.037 1.035 1.008 1.004 1.002 1.000 1.000 1.000 1.000 1.000 1.000 1.000 1.000 1.000 1.000 1.000 1.000 1.000 1.001 1.000 1.000 1.000 1.000 1.000 1.000 1.000 1.000 1.001 1.001 1.000 1.000 1.000 1.000 1.000 1.051 1.081 1.210 1.294 1.171 1.012 1.000 1.000 1.000 1.000 1.000 1.000 1.000 1.000 1.000 1.001 1.000 1.003 1.009 1.030 1.045 1.044 1.010 1.041 1.041 1.000 1.047 1.063 1.068 1.073 1.098 1.347 1.264 1.000 1.000 1.000 1.000 1.028 1.100 1.671 1.899 1.332 1.126 1.123 1.244 1.118 1.119 1.170 1.208 1.487 1.609 1.544 1.333 1.203 1.058 1.003 1.001 1.000 1.001 1.004 1.000 1.007 1.000 1.000 1.001 1.006 1.019 1.010 1.009 1.014 1.025 1.050 1.128 1.263 1.243 1.104 1.033 1.005 1.012 1.007 1.000 1.009 1.000 1.019 1.000 -9999.000 -9999.000 -9999.000 
-9999.000 -9999.000 -9999.000 1.000 1.000 1.000 1.000 1.003 1.000 1.000 1.000 1.000 1.000 1.000 1.000 1.000 1.000 1.000 1.002 1.006 1.007 1.009 1.013 1.018 1.023 1.026 1.025 1.020 1.013 1.005 1.001 1.001 1.007 1.021 1.047 1.098 1.215 1.666 1.222 1.123 1.249 1.096 1.039 1.093 1.050 1.027 1.025 1.027 1.005 1.002 1.001 1.000 1.000 1.000 1.000 1.000 1.000 1.000 1.000 1.000 1.000 1.000 1.002 1.000 1.005 1.003 1.012 1.007 1.018 1.003 1.017 1.004 1.009 1.006 1.003 1.000 1.001 1.000 1.000 1.000 1.010 1.033 1.061 1.068 1.034 1.002 1.000 1.000 1.000 1.000 1.001 1.001 1.000 1.003 1.002 1.003 1.004 1.006 1.008 1.016 1.011 1.023 1.026 1.000 1.040 1.015 1.006 1.031 1.029 1.044 1.077 1.117 1.250 1.053 1.000 1.000 1.000 1.010 1.203 1.276 1.422 1.194 1.117 1.069 1.195 1.073 1.068 1.111 1.063 1.070 1.077 1.072 1.055 1.040 1.014 1.006 1.004 1.005 1.004 1.007 1.000 1.009 1.000 1.000 1.000 1.017 1.024 1.010 1.012 1.014 1.006 1.011 1.027 1.040 1.033 1.016 1.005 1.002 1.003 1.008 1.004 1.018 1.000 1.029 1.000 -9999.000 -9999.000 -9999.000 
-9999.000 -9999.000 -9999.000 1.000 1.000 1.000 1.000 1.000 1.000 1.000 1.000 1.000 1.000 1.000 1.000 1.000 1.000 1.007 1.012 1.015 1.017 1.018 1.020 1.023 1.027 1.030 1.032 1.032 1.029 1.025 1.023 1.025 1.032 1.045 1.068 1.104 1.195 1.490 1.161 1.006 1.115 1.043 1.000 1.036 1.023 1.019 1.016 1.028 1.004 1.001 1.000 1.000 1.000 1.000 1.000 1.000 1.000 1.000 1.000 1.000 1.000 1.000 1.004 1.000 1.007 1.000 1.000 1.000 1.001 1.000 1.011 1.000 1.011 1.015 1.006 1.001 1.001 1.000 1.000 1.000 1.001 1.003 1.005 1.006 1.002 1.000 1.000 1.000 1.000 1.000 1.001 1.000 1.000 1.001 1.000 1.000 1.000 1.000 1.000 1.005 1.000 1.009 1.008 1.000 1.021 1.000 1.000 1.000 1.000 1.000 1.000 1.000 1.051 1.000 1.000 1.000 1.000 1.000 1.070 1.239 1.024 1.129 1.051 1.000 1.168 1.050 1.048 1.093 1.015 1.000 1.000 1.000 1.000 1.000 1.000 1.000 1.000 1.000 1.000 1.002 1.000 1.007 1.000 1.000 1.005 1.025 1.028 1.013 1.014 1.014 1.002 1.000 1.000 1.000 1.000 1.000 1.000 1.000 1.000 1.004 1.000 1.011 1.000 1.022 1.000 -9999.000 -9999.000 -9999.000 
-9999.000 -9999.000 -9999.000 1.000 1.000 1.000 1.000 1.000 1.000 1.000 1.000 1.000 1.000 1.000 1.000 1.000 1.014 1.022 1.027 1.030 1.031 1.032 1.032 1.034 1.035 1.037 1.037 1.036 1.035 1.034 1.035 1.038 1.048 1.061 1.082 1.112 1.165 1.337 1.136 1.000 1.040 1.040 1.000 1.068 1.050 1.027 1.026 1.035 1.004 1.000 1.000 1.000 1.000 1.000 1.000 1.000 1.000 1.000 1.000 1.000 1.000 1.000 1.007 1.000 1.016 1.000 1.017 1.000 1.023 1.000 1.036 1.000 1.054 1.033 1.010 1.001 1.001 1.000 1.000 1.000 1.000 1.000 1.000 1.000 1.000 1.000 1.000 1.000 1.001 1.000 1.002 1.002 1.000 1.005 1.000 1.000 1.000 1.000 1.008 1.005 1.000 1.008 1.006 1.000 1.020 1.000 1.008 1.000 1.022 1.000 1.031 1.000 1.131 1.000 1.000 1.000 1.000 1.000 1.042 1.161 1.096 1.293 1.127 1.031 1.228 1.059 1.057 1.092 1.024 1.000 1.005 1.000 1.000 1.004 1.000 1.000 1.000 1.001 1.001 1.003 1.000 1.005 1.000 1.000 1.008 1.029 1.026 1.011 1.012 1.013 1.001 1.000 1.000 1.000 1.000 1.000 1.000 1.000 1.000 1.005 1.000 1.012 1.000 1.034 1.023 -9999.000 -9999.000 -9999.000 
-9999.000 -9999.000 -9999.000 1.000 1.000 1.000 1.000 1.000 1.000 1.001 1.000 1.000 1.000 1.000 1.004 1.022 1.034 1.043 1.048 1.050 1.051 1.050 1.050 1.050 1.051 1.050 1.048 1.046 1.043 1.040 1.040 1.044 1.052 1.067 1.090 1.117 1.144 1.172 1.154 1.000 1.017 1.088 1.000 1.159 1.095 1.046 1.038 1.043 1.004 1.000 1.000 1.000 1.000 1.000 1.000 1.000 1.000 1.000 1.000 1.000 1.000 1.000 1.012 1.000 1.027 1.000 1.044 1.000 1.080 1.000 1.101 1.000 1.105 1.050 1.014 1.002 1.002 1.000 1.000 1.000 1.000 1.000 1.000 1.000 1.000 1.000 1.000 1.000 1.001 1.000 1.003 1.002 1.000 1.007 1.000 1.000 1.006 1.000 1.016 1.007 1.000 1.010 1.007 1.000 1.024 1.000 1.027 1.000 1.042 1.000 1.077 1.000 1.245 1.000 1.001 1.000 1.000 1.000 1.015 1.113 1.180 1.365 1.225 1.064 1.288 1.067 1.058 1.087 1.024 1.000 1.006 1.000 1.000 1.007 1.000 1.004 1.004 1.005 1.005 1.005 1.000 1.006 1.001 1.000 1.011 1.032 1.025 1.010 1.010 1.011 1.002 1.000 1.000 1.000 1.000 1.000 1.000 1.000 1.000 1.006 1.000 1.012 1.000 1.070 1.000 -9999.000 -9999.000 -9999.000 
-9999.000 -9999.000 -9999.000 1.000 1.000 1.000 1.034 1.140 1.175 1.181 1.143 1.059 1.006 1.015 1.034 1.051 1.063 1.071 1.076 1.077 1.077 1.078 1.074 1.072 1.071 1.068 1.065 1.061 1.057 1.054 1.052 1.053 1.060 1.073 1.094 1.119 1.141 1.086 1.089 1.000 1.000 1.034 1.018 1.313 1.145 1.047 1.049 1.049 1.004 1.000 1.000 1.000 1.000 1.000 1.000 1.000 1.000 1.000 1.000 1.000 1.000 1.000 1.016 1.000 1.034 1.000 1.002 1.000 1.000 1.073 1.077 1.051 1.152 1.060 1.015 1.003 1.002 1.000 1.000 1.000 1.003 1.005 1.006 1.009 1.011 1.012 1.012 1.012 1.014 1.009 1.015 1.010 1.000 1.012 1.000 1.000 1.001 1.007 1.024 1.005 1.000 1.009 1.002 1.000 1.017 1.000 1.027 1.000 1.043 1.000 1.089 1.000 1.000 1.001 1.000 1.000 1.000 1.000 1.000 1.107 1.236 1.495 1.248 1.161 1.333 1.072 1.053 1.078 1.030 1.000 1.010 1.000 1.000 1.003 1.000 1.000 1.000 1.000 1.000 1.000 1.000 1.000 1.000 1.005 1.017 1.034 1.021 1.010 1.005 1.007 1.002 1.001 1.000 1.000 1.000 1.000 1.000 1.000 1.000 1.006 1.000 1.012 1.000 1.080 1.000 -9999.000 -9999.000 -9999.000 
-9999.000 -9999.000 -9999.000 1.000 1.000 1.115 1.325 1.518 1.618 1.651 1.527 1.240 1.071 1.052 1.067 1.084 1.102 1.106 1.110 1.112 1.112 1.110 1.106 1.103 1.099 1.094 1.090 1.084 1.078 1.073 1.070 1.070 1.075 1.084 1.101 1.122 1.141 1.137 1.086 1.000 1.000 1.169 1.220 1.485 1.178 1.057 1.053 1.050 1.004 1.000 1.000 1.000 1.000 1.000 1.000 1.000 1.000 1.000 1.000 1.000 1.000 1.001 1.016 1.000 1.040 1.000 1.016 1.000 1.025 1.174 1.134 1.095 1.170 1.062 1.015 1.003 1.002 1.000 1.000 1.002 1.000 1.000 1.000 1.000 1.000 1.000 1.000 1.000 1.000 1.000 1.000 1.000 1.000 1.002 1.000 1.013 1.011 1.014 1.029 1.008 1.002 1.011 1.004 1.000 1.024 1.000 1.044 1.000 1.093 1.000 1.112 1.000 1.000 1.000 1.000 1.000 1.000 1.000 1.015 1.128 1.259 1.452 1.336 1.198 1.344 1.071 1.042 1.062 1.021 1.000 1.006 1.000 1.000 1.005 1.000 1.006 1.003 1.005 1.007 1.008 1.010 1.012 1.014 1.016 1.023 1.030 1.014 1.006 1.000 1.002 1.000 1.000 1.000 1.001 1.000 1.000 1.000 1.000 1.000 1.007 1.000 1.011 1.000 1.054 1.015 -9999.000 -9999.000 -9999.000 
-9999.000 -9999.000 -9999.000 1.000 1.123 1.544 1.599 1.699 1.452 1.403 1.298 1.022 1.193 1.063 1.066 1.106 1.134 1.141 1.148 1.152 1.154 1.152 1.149 1.145 1.139 1.132 1.126 1.116 1.107 1.099 1.094 1.092 1.093 1.099 1.111 1.125 1.141 1.153 1.157 1.167 1.211 1.254 1.506 1.593 1.194 1.066 1.055 1.049 1.004 1.000 1.000 1.000 1.000 1.000 1.000 1.000 1.000 1.000 1.000 1.000 1.000 1.002 1.014 1.000 1.031 1.000 1.000 1.052 1.092 1.089 1.153 1.017 1.164 1.058 1.011 1.002 1.002 1.001 1.000 1.007 1.004 1.000 1.016 1.006 1.007 1.009 1.011 1.011 1.010 1.010 1.006 1.004 1.003 1.000 1.015 1.023 1.015 1.015 1.026 1.007 1.001 1.010 1.000 1.000 1.015 1.000 1.040 1.000 1.096 1.000 1.000 1.000 1.000 1.000 1.000 1.000 1.000 1.000 1.034 1.144 1.271 1.430 1.330 1.204 1.340 1.073 1.034 1.057 1.023 1.000 1.006 1.000 1.000 1.000 1.006 1.016 1.012 1.014 1.016 1.014 1.014 1.015 1.016 1.015 1.018 1.019 1.005 1.005 1.000 1.004 1.000 1.003 1.000 1.004 1.001 1.000 1.000 1.000 1.000 1.007 1.000 1.011 1.000 1.026 1.009 -9999.000 -9999.000 -9999.000 
-9999.000 -9999.000 -9999.000 1.000 1.532 1.601 1.466 1.542 1.327 1.275 1.162 1.015 1.067 1.199 1.000 1.078 1.134 1.165 1.183 1.194 1.199 1.201 1.201 1.198 1.194 1.187 1.178 1.167 1.147 1.129 1.120 1.115 1.114 1.116 1.120 1.129 1.141 1.159 1.189 1.243 1.341 1.494 1.661 1.640 1.206 1.071 1.054 1.046 1.004 1.000 1.000 1.000 1.000 1.000 1.000 1.000 1.000 1.000 1.000 1.000 1.000 1.002 1.012 1.000 1.033 1.000 1.048 1.132 1.135 1.041 1.000 1.000 1.248 1.072 1.008 1.002 1.001 1.001 1.000 1.011 1.000 1.000 1.012 1.000 1.000 1.000 1.000 1.000 1.000 1.003 1.000 1.000 1.017 1.003 1.048 1.034 1.022 1.019 1.023 1.006 1.001 1.008 1.002 1.012 1.020 1.000 1.050 1.000 1.121 1.000 1.000 1.000 1.000 1.000 1.000 1.000 1.000 1.000 1.046 1.153 1.280 1.428 1.334 1.207 1.324 1.065 1.020 1.045 1.015 1.000 1.002 1.000 1.001 1.005 1.022 1.030 1.024 1.025 1.026 1.022 1.021 1.021 1.019 1.017 1.015 1.006 1.000 1.000 1.000 1.000 1.000 1.006 1.002 1.014 1.010 1.004 1.002 1.003 1.010 1.022 1.007 1.011 1.000 1.023 1.002 -9999.000 -9999.000 -9999.000 
-9999.000 -9999.000 -9999.000 1.000 1.609 1.433 1.349 1.413 1.227 1.170 1.050 1.030 1.000 1.243 1.000 1.039 1.135 1.190 1.222 1.242 1.253 1.260 1.260 1.263 1.260 1.256 1.248 1.234 1.221 1.181 1.137 1.125 1.123 1.129 1.125 1.130 1.140 1.161 1.202 1.285 1.390 1.415 1.565 1.591 1.195 1.065 1.047 1.041 1.004 1.000 1.000 1.000 1.000 1.000 1.000 1.000 1.000 1.000 1.000 1.000 1.000 1.003 1.006 1.000 1.018 1.000 1.052 1.094 1.089 1.088 1.000 1.336 1.401 1.080 1.005 1.001 1.001 1.002 1.000 1.021 1.003 1.000 1.036 1.000 1.000 1.000 1.000 1.000 1.000 1.021 1.000 1.052 1.025 1.024 1.069 1.032 1.017 1.014 1.015 1.004 1.002 1.005 1.000 1.014 1.011 1.000 1.046 1.000 1.117 1.000 1.000 1.000 1.000 1.000 1.000 1.000 1.000 1.000 1.052 1.155 1.282 1.432 1.337 1.200 1.308 1.066 1.015 1.047 1.009 1.002 1.000 1.009 1.005 1.009 1.030 1.030 1.022 1.023 1.023 1.018 1.018 1.017 1.013 1.013 1.007 1.000 1.002 1.000 1.000 1.000 1.007 1.008 1.038 1.000 1.051 1.001 1.013 1.022 1.012 1.046 1.014 1.032 1.000 1.035 1.021 -9999.000 -9999.000 -9999.000 
-9999.000 -9999.000 -9999.000 1.060 1.619 1.337 1.274 1.322 1.158 1.094 1.000 1.007 1.000 1.278 1.000 1.038 1.175 1.251 1.298 1.322 1.331 1.338 1.347 1.353 1.355 1.358 1.343 1.321 1.305 1.279 1.226 1.123 1.102 1.113 1.131 1.125 1.137 1.161 1.207 1.296 1.461 1.324 1.443 1.538 1.184 1.061 1.041 1.035 1.003 1.000 1.000 1.000 1.000 1.000 1.000 1.000 1.000 1.000 1.000 1.000 1.000 1.002 1.004 1.012 1.017 1.021 1.064 1.081 1.088 1.114 1.365 1.475 1.283 1.046 1.002 1.000 1.001 1.002 1.000 1.027 1.010 1.000 1.081 1.016 1.051 1.069 1.082 1.082 1.025 1.113 1.000 1.131 1.053 1.049 1.089 1.029 1.012 1.009 1.008 1.003 1.003 1.003 1.004 1.015 1.005 1.000 1.038 1.000 1.117 1.000 1.000 1.000 1.000 1.000 1.000 1.000 1.000 1.000 1.052 1.152 1.280 1.429 1.336 1.200 1.300 1.066 1.015 1.054 1.008 1.009 1.000 1.021 1.008 1.011 1.036 1.031 1.020 1.020 1.019 1.014 1.014 1.012 1.006 1.008 1.003 1.000 1.003 1.000 1.000 1.006 1.032 1.000 1.134 1.000 1.136 1.029 1.050 1.086 1.000 1.000 1.060 1.098 1.000 1.071 1.000 -9999.000 -9999.000 -9999.000 
-9999.000 -9999.000 -9999.000 1.139 1.457 1.189 1.143 1.191 1.064 1.058 1.036 1.060 1.000 1.258 1.000 1.208 1.324 1.400 1.440 1.459 1.466 1.470 1.472 1.483 1.493 1.514 1.533 1.522 1.480 1.441 1.367 1.249 1.053 1.070 1.111 1.117 1.131 1.159 1.214 1.323 1.763 1.293 1.375 1.500 1.176 1.057 1.036 1.031 1.003 1.000 1.000 1.000 1.000 1.000 1.000 1.000 1.000 1.000 1.000 1.000 1.000 1.001 1.002 1.005 1.007 1.011 1.021 1.022 1.021 1.042 1.077 1.082 1.066 1.033 1.017 1.014 1.012 1.008 1.000 1.029 1.000 1.000 1.019 1.000 1.000 1.000 1.000 1.000 1.124 1.082 1.072 1.202 1.059 1.061 1.079 1.017 1.008 1.005 1.004 1.003 1.003 1.005 1.009 1.013 1.025 1.016 1.063 1.000 1.141 1.000 1.000 1.000 1.000 1.000 1.000 1.000 1.000 1.000 1.049 1.144 1.272 1.431 1.336 1.223 1.317 1.054 1.033 1.070 1.018 1.008 1.000 1.022 1.013 1.005 1.035 1.025 1.012 1.012 1.011 1.005 1.005 1.004 1.005 1.001 1.009 1.000 1.000 1.000 1.005 1.017 1.032 1.000 1.130 1.080 1.245 1.104 1.060 1.100 1.000 1.131 1.217 1.113 1.000 1.077 1.000 -9999.000 -9999.000 -9999.000 
-9999.000 -9999.000 -9999.000 1.174 1.346 1.156 1.059 1.099 1.034 1.029 1.005 1.041 1.000 1.154 1.254 1.739 1.824 1.833 1.835 1.830 1.830 1.833 1.830 1.826 1.833 1.822 1.725 1.635 1.600 1.504 1.447 1.407 1.111 1.004 1.066 1.105 1.125 1.156 1.222 1.358 1.966 1.272 1.323 1.466 1.168 1.054 1.030 1.025 1.002 1.000 1.000 1.000 1.000 1.000 1.000 1.000 1.000 1.000 1.000 1.000 1.000 1.000 1.000 1.002 1.002 1.003 1.003 1.000 1.007 1.000 1.000 1.000 1.000 1.000 1.000 1.000 1.000 1.004 1.000 1.029 1.006 1.009 1.083 1.002 1.188 1.265 1.280 1.282 1.354 1.260 1.208 1.238 1.084 1.063 1.056 1.003 1.000 1.000 1.000 1.000 1.000 1.000 1.000 1.000 1.004 1.000 1.028 1.000 1.105 1.000 1.000 1.000 1.000 1.000 1.000 1.000 1.000 1.000 1.041 1.130 1.261 1.429 1.368 1.253 1.336 1.072 1.046 1.070 1.018 1.009 1.000 1.016 1.008 1.000 1.033 1.023 1.009 1.009 1.007 1.002 1.001 1.001 1.002 1.000 1.006 1.000 1.006 1.012 1.021 1.030 1.023 1.039 1.097 1.166 1.181 1.084 1.033 1.057 1.169 1.239 1.141 1.062 1.000 1.050 1.030 -9999.000 -9999.000 -9999.000 
-9999.000 -9999.000 -9999.000 1.147 1.225 1.118 1.000 1.018 1.009 1.003 1.000 1.016 1.000 1.128 1.034 1.337 1.324 1.324 1.324 1.322 1.321 1.321 1.319 1.317 1.320 1.325 1.305 1.282 1.271 1.205 1.188 1.161 1.000 1.103 1.003 1.075 1.123 1.154 1.231 1.390 1.936 1.256 1.283 1.437 1.161 1.051 1.025 1.020 1.002 1.000 1.000 1.000 1.000 1.000 1.000 1.000 1.000 1.000 1.000 1.000 0.999 1.000 1.004 1.016 1.035 1.048 1.040 1.000 1.014 1.006 1.000 1.023 1.000 1.000 1.026 1.000 1.023 1.009 1.003 1.019 1.000 1.015 1.035 1.019 1.113 1.143 1.148 1.151 1.192 1.148 1.123 1.147 1.052 1.039 1.040 1.004 1.003 1.000 1.003 1.003 1.000 1.007 1.002 1.000 1.020 1.000 1.044 1.000 1.125 1.000 1.000 1.000 1.000 1.000 1.000 1.000 1.000 1.000 1.030 1.113 1.245 1.411 1.357 1.244 1.321 1.066 1.040 1.058 1.013 1.008 1.000 1.016 1.013 1.004 1.043 1.027 1.010 1.009 1.007 1.000 1.000 1.001 1.002 1.000 1.005 1.000 1.002 1.011 1.018 1.024 1.013 1.024 1.086 1.058 1.114 1.028 1.020 1.012 1.024 1.051 1.023 1.017 1.000 1.022 1.010 -9999.000 -9999.000 -9999.000 
-9999.000 -9999.000 -9999.000 1.063 1.124 1.119 1.000 1.028 1.035 1.015 1.008 1.044 1.001 1.184 1.000 1.447 1.227 1.197 1.197 1.195 1.195 1.196 1.195 1.194 1.196 1.198 1.190 1.181 1.174 1.104 1.102 1.077 1.000 1.077 1.002 1.010 1.110 1.149 1.226 1.374 1.912 1.244 1.250 1.409 1.153 1.047 1.019 1.014 1.001 1.000 1.000 1.000 1.000 1.000 1.000 1.000 1.000 1.000 1.000 1.000 0.999 1.000 1.028 1.000 1.135 1.000 1.100 1.010 1.014 1.000 1.000 1.034 1.000 1.000 1.061 1.000 1.063 1.031 1.014 1.018 1.004 1.042 1.053 1.064 1.118 1.131 1.137 1.118 1.116 1.095 1.080 1.087 1.034 1.022 1.024 1.005 1.005 1.001 1.005 1.003 1.000 1.007 1.000 1.000 1.020 1.000 1.047 1.000 1.133 1.000 1.000 1.000 1.000 1.000 1.000 1.000 1.000 1.000 1.016 1.090 1.218 1.407 1.359 1.217 1.313 1.061 1.031 1.043 1.005 1.005 1.000 1.016 1.015 1.007 1.051 1.030 1.010 1.009 1.006 1.000 1.000 1.001 1.001 1.000 1.004 1.000 1.006 1.013 1.017 1.020 1.026 1.000 1.116 1.000 1.104 1.026 1.045 1.006 1.000 1.011 1.000 1.013 1.000 1.016 1.000 -9999.000 -9999.000 -9999.000 
-9999.000 -9999.000 -9999.000 1.000 1.050 1.097 1.000 1.000 1.020 1.000 1.064 1.058 1.011 1.151 1.209 1.509 1.159 1.118 1.115 1.114 1.114 1.114 1.114 1.114 1.116 1.122 1.121 1.117 1.109 1.041 1.050 1.067 1.000 1.068 1.000 1.055 1.077 1.139 1.208 1.364 1.867 1.221 1.210 1.370 1.135 1.040 1.008 1.010 1.004 1.002 1.002 1.001 1.001 1.001 1.000 1.000 1.000 1.000 1.000 1.000 1.000 1.000 1.045 1.000 1.161 1.000 1.290 1.028 1.028 1.003 1.000 1.054 1.000 1.002 1.068 1.011 1.112 1.050 1.019 1.008 1.000 1.038 1.046 1.057 1.083 1.088 1.061 1.055 1.070 1.089 1.042 1.053 1.018 1.012 1.015 1.010 1.006 1.004 1.008 1.005 1.000 1.013 1.000 1.000 1.024 1.000 1.041 1.000 1.124 1.000 1.000 1.000 1.000 1.000 1.000 1.000 1.000 1.000 1.001 1.064 1.180 1.288 1.422 1.042 1.275 1.072 1.018 1.028 1.001 1.004 1.000 1.021 1.016 1.012 1.060 1.033 1.011 1.009 1.007 1.000 1.000 1.000 1.001 1.000 1.001 1.000 1.005 1.009 1.012 1.013 1.032 1.000 1.142 1.063 1.239 1.107 1.055 1.008 1.000 1.013 1.000 1.014 1.000 1.016 1.000 -9999.000 -9999.000 -9999.000 
-9999.000 -9999.000 -9999.000 1.076 1.003 1.238 1.013 1.062 1.132 1.005 1.226 1.182 1.198 1.288 1.464 1.308 1.092 1.064 1.059 1.061 1.062 1.062 1.063 1.062 1.066 1.075 1.077 1.076 1.065 1.010 1.018 1.050 1.000 1.061 1.000 1.272 1.038 1.135 1.195 1.350 1.823 1.203 1.176 1.340 1.121 1.030 1.000 1.000 1.000 1.000 1.000 1.000 1.000 1.000 1.000 1.000 1.000 1.000 1.000 1.000 1.000 1.000 1.030 1.062 1.164 1.321 1.187 1.000 1.041 1.014 1.000 1.124 1.000 1.100 1.143 1.046 1.160 1.067 1.025 1.011 1.018 1.037 1.043 1.051 1.060 1.061 1.008 1.083 1.000 1.128 1.043 1.060 1.005 1.006 1.006 1.014 1.009 1.005 1.011 1.006 1.000 1.017 1.005 1.000 1.034 1.000 1.058 1.000 1.147 1.000 1.000 1.000 1.000 1.000 1.000 1.000 1.000 1.000 1.000 1.033 1.130 1.207 1.188 1.000 1.338 1.107 1.000 1.020 1.000 1.003 1.000 1.032 1.020 1.018 1.068 1.035 1.012 1.009 1.007 1.000 1.000 1.000 1.001 1.000 1.002 1.000 1.002 1.003 1.005 1.006 1.016 1.039 1.094 1.202 1.198 1.095 1.028 1.009 1.000 1.014 1.000 1.015 1.000 1.017 1.007 -9999.000 -9999.000 -9999.000 
-9999.000 -9999.000 -9999.000 -9999.000 1.282 1.095 1.100 1.333 1.116 1.179 1.358 1.193 1.117 1.121 1.120 1.048 1.039 1.045 1.045 1.050 1.051 1.052 1.064 1.086 1.084 1.064 1.032 1.026 1.026 1.042 1.000 1.066 1.000 1.011 1.067 1.126 1.000 1.146 1.209 1.342 1.700 1.213 1.120 1.271 1.074 1.052 1.016 1.015 1.013 1.006 1.007 1.004 1.003 1.001 1.001 1.001 1.000 1.000 1.000 1.000 1.000 1.000 1.004 1.017 1.038 1.048 1.066 1.000 1.051 1.000 1.000 1.063 1.000 1.294 1.132 1.093 1.192 1.068 1.017 1.003 1.007 1.011 1.012 1.015 1.016 1.017 1.046 1.117 1.032 1.273 1.121 1.079 1.001 1.007 1.007 1.017 1.007 1.003 1.014 1.005 1.000 1.012 1.000 1.000 1.010 1.000 1.021 1.000 1.106 1.000 1.000 1.000 1.000 1.000 1.000 1.000 1.000 1.000 1.000 1.007 1.072 1.130 1.141 1.346 1.699 1.184 1.000 1.039 1.000 1.007 1.000 1.050 1.020 1.024 1.074 1.037 1.012 1.009 1.006 1.000 1.000 1.000 1.001 1.000 1.003 1.002 1.005 1.005 1.004 1.004 1.005 1.011 1.020 1.032 1.027 1.014 1.003 1.010 1.000 1.015 1.000 1.016 1.000 1.032 1.023 -9999.000 -9999.000 -9999.000 
-9999.000 -9999.000 -9999.000 -9999.000 1.933 1.575 1.533 1.682 1.402 1.377 1.406 1.161 1.066 1.041 1.043 1.005 1.000 1.005 1.000 1.000 1.000 1.000 1.020 1.000 1.000 1.030 1.011 1.009 1.005 1.027 1.000 1.048 1.000 1.060 1.192 1.247 1.073 1.167 1.169 1.297 1.454 1.151 1.008 1.138 1.000 1.010 1.000 1.000 1.002 1.000 1.000 1.000 1.001 1.000 1.003 1.002 1.001 1.000 1.000 1.000 1.000 1.000 1.000 1.000 1.001 1.006 1.023 1.000 1.059 1.000 1.000 1.105 1.000 1.431 1.191 1.137 1.206 1.063 1.012 1.000 1.000 1.000 1.000 1.000 1.000 1.000 1.012 1.070 1.268 1.259 1.120 1.042 1.005 1.013 1.013 1.014 1.005 1.000 1.007 1.003 1.000 1.012 1.006 1.022 1.036 1.000 1.053 1.000 1.143 1.000 1.000 1.000 1.000 1.000 1.000 1.000 1.000 1.000 1.000 1.000 1.035 1.083 1.095 1.197 1.732 1.174 1.000 1.022 1.003 1.016 1.007 1.072 1.030 1.031 1.079 1.037 1.012 1.008 1.005 1.000 1.000 1.001 1.001 1.000 1.001 1.000 1.000 1.000 1.000 1.000 1.001 1.001 1.000 1.002 1.000 1.000 1.000 1.011 1.000 1.016 1.000 1.016 1.000 1.067 1.000 -9999.000 -9999.000 -9999.000 
-9999.000 -9999.000 -9999.000 -9999.000 1.379 1.209 1.197 1.434 1.251 1.226 1.263 1.107 1.042 1.011 1.020 1.000 1.000 1.030 1.000 1.000 1.000 1.017 1.057 1.000 1.118 1.285 1.059 1.011 1.000 1.020 1.000 1.029 1.000 1.032 1.106 1.114 1.000 1.125 1.004 1.086 1.265 1.188 1.000 1.105 1.000 1.032 1.000 1.012 1.018 1.000 1.028 1.005 1.004 1.000 1.010 1.004 1.001 1.000 1.000 1.000 1.000 1.000 1.000 1.000 1.000 1.007 1.022 1.000 1.060 1.000 1.000 1.090 1.008 1.394 1.157 1.116 1.181 1.052 1.009 1.000 1.000 1.000 1.000 1.000 1.000 1.000 1.002 1.022 1.047 1.035 1.022 1.005 1.008 1.011 1.004 1.001 1.002 1.000 1.004 1.001 1.000 1.004 1.001 1.014 1.024 1.000 1.040 1.000 1.138 1.000 1.000 1.001 1.000 1.000 1.000 1.000 1.000 1.000 1.000 1.000 1.019 1.061 1.078 1.089 1.473 1.231 1.000 1.078 1.050 1.024 1.017 1.085 1.028 1.027 1.075 1.034 1.010 1.006 1.004 1.000 1.000 1.001 1.003 1.000 1.005 1.000 1.000 1.000 1.000 1.008 1.007 1.003 1.002 1.003 1.000 1.000 1.000 1.013 1.000 1.017 1.000 1.016 1.000 1.069 1.000 -9999.000 -9999.000 -9999.000 
-9999.000 -9999.000 -9999.000 2.365 1.160 1.015 1.109 1.495 1.201 1.134 1.164 1.061 1.022 1.003 1.005 1.012 1.000 1.078 1.000 1.024 1.025 1.048 1.073 1.076 1.475 1.339 1.086 1.025 1.007 1.019 1.014 1.016 1.000 1.025 1.067 1.059 1.000 1.059 1.000 1.090 1.000 1.197 1.000 1.085 1.000 1.083 1.000 1.070 1.050 1.000 1.053 1.014 1.009 1.000 1.017 1.006 1.001 1.001 1.000 1.000 1.000 1.000 1.000 1.000 1.000 1.010 1.022 1.000 1.066 1.006 1.000 1.075 1.054 1.362 1.126 1.100 1.164 1.041 1.007 1.001 1.000 1.000 1.000 1.000 1.000 1.001 1.001 1.001 1.003 1.000 1.003 1.001 1.010 1.008 1.000 1.001 1.000 1.003 1.000 1.001 1.005 1.011 1.010 1.012 1.019 1.000 1.034 1.000 1.139 1.000 1.000 1.000 1.000 1.000 1.000 1.000 1.000 1.000 1.000 1.000 1.010 1.046 1.070 1.073 1.094 1.306 1.000 1.271 1.100 1.041 1.023 1.092 1.027 1.023 1.072 1.029 1.009 1.002 1.006 1.003 1.003 1.006 1.007 1.000 1.010 1.000 1.002 1.001 1.000 1.014 1.011 1.005 1.002 1.003 1.002 1.002 1.003 1.018 1.000 1.021 1.000 1.017 1.000 1.040 1.051 -9999.000 -9999.000 -9999.000 
-9999.000 -9999.000 -9999.000 2.010 1.274 1.000 1.482 1.527 1.123 1.049 1.078 1.035 1.017 1.036 1.006 1.035 1.000 1.113 1.000 1.000 1.000 1.000 1.002 1.133 1.201 1.258 1.088 1.044 1.000 1.030 1.017 1.030 1.013 1.058 1.000 1.083 1.000 1.142 1.000 1.283 1.000 1.174 1.000 1.000 1.009 1.029 1.000 1.177 1.036 1.029 1.084 1.027 1.006 1.006 1.022 1.003 1.004 1.003 1.007 1.010 1.011 1.011 1.010 1.007 1.005 1.015 1.018 1.000 1.054 1.000 1.000 1.029 1.096 1.167 1.182 1.010 1.142 1.027 1.012 1.006 1.004 1.002 1.002 1.002 1.003 1.005 1.007 1.007 1.008 1.006 1.007 1.004 1.006 1.006 1.000 1.005 1.000 1.008 1.000 1.011 1.009 1.014 1.014 1.001 1.025 1.000 1.045 1.000 1.151 1.000 1.000 1.000 1.000 1.000 1.000 1.000 1.000 1.000 1.000 1.000 1.003 1.037 1.070 1.068 1.079 1.142 1.320 1.527 1.121 1.051 1.008 1.083 1.030 1.012 1.068 1.021 1.008 1.000 1.004 1.004 1.002 1.008 1.008 1.000 1.013 1.000 1.000 1.002 1.000 1.018 1.013 1.006 1.000 1.004 1.000 1.003 1.000 1.016 1.000 1.018 1.000 1.014 1.000 1.015 1.011 -9999.000 -9999.000 -9999.000 
-9999.000 -9999.000 -9999.000 1.860 1.339 1.427 1.556 1.355 1.060 1.010 1.022 1.016 1.000 1.018 1.000 1.045 1.000 1.223 1.000 1.113 1.065 1.070 1.000 1.066 1.000 1.203 1.077 1.033 1.000 1.003 1.000 1.000 1.000 1.034 1.000 1.056 1.000 1.092 1.000 1.289 1.000 1.000 1.000 1.000 1.173 1.162 1.073 1.272 1.065 1.051 1.098 1.033 1.011 1.011 1.023 1.009 1.000 1.000 1.000 1.000 1.000 1.000 1.000 1.000 1.000 1.016 1.015 1.000 1.058 1.009 1.015 1.119 1.096 1.051 1.000 1.000 1.178 1.016 1.000 1.000 1.000 1.000 1.000 1.003 1.000 1.000 1.000 1.000 1.000 1.000 1.000 1.009 1.007 1.003 1.000 1.005 1.000 1.011 1.000 1.022 1.014 1.015 1.018 1.000 1.024 1.000 1.053 1.000 1.147 1.000 1.000 1.000 1.000 1.000 1.000 1.000 1.000 1.000 1.000 1.000 1.000 1.027 1.063 1.081 1.067 1.099 1.363 1.595 1.115 1.052 1.000 1.072 1.025 1.000 1.065 1.008 1.002 1.001 1.000 1.000 1.000 1.001 1.000 1.000 1.004 1.000 1.000 1.002 1.000 1.029 1.019 1.007 1.000 1.005 1.000 1.004 1.000 1.009 1.000 1.011 1.000 1.009 1.000 1.008 1.000 -9999.000 -9999.000 -9999.000 
-9999.000 -9999.000 -9999.000 1.505 1.197 1.135 1.112 1.098 1.052 1.008 1.013 1.038 1.000 1.049 1.000 1.062 1.000 1.244 1.000 1.000 1.000 1.001 1.109 1.072 1.048 1.248 1.067 1.058 1.000 1.027 1.023 1.019 1.020 1.060 1.000 1.084 1.000 1.117 1.000 1.262 1.000 1.000 1.001 1.221 1.604 1.133 1.180 1.342 1.082 1.073 1.106 1.036 1.014 1.013 1.017 1.018 1.000 1.017 1.009 1.004 1.024 1.000 1.008 1.017 1.000 1.026 1.010 1.000 1.040 1.000 1.049 1.115 1.047 1.123 1.000 1.398 1.359 1.053 1.018 1.000 1.010 1.008 1.000 1.013 1.005 1.000 1.018 1.001 1.000 1.016 1.000 1.026 1.008 1.005 1.000 1.006 1.000 1.011 1.000 1.027 1.014 1.013 1.027 1.000 1.034 1.013 1.070 1.000 1.174 1.000 1.003 1.000 1.000 1.000 1.000 1.000 1.000 1.000 1.000 1.000 1.000 1.018 1.052 1.086 1.086 1.072 1.141 1.378 1.076 1.075 1.000 1.079 1.039 1.000 1.072 1.018 1.003 1.010 1.000 1.013 1.000 1.017 1.003 1.000 1.016 1.000 1.000 1.016 1.000 1.053 1.029 1.010 1.003 1.007 1.000 1.014 1.000 1.006 1.000 1.011 1.000 1.007 1.000 1.007 1.000 -9999.000 -9999.000 -9999.000 
-9999.000 -9999.000 -9999.000 1.396 1.082 1.042 1.000 1.000 1.000 1.000 1.000 1.005 1.000 1.025 1.000 1.077 1.000 1.326 1.000 1.000 1.000 1.000 1.199 1.129 1.057 1.206 1.000 1.027 1.000 1.000 1.000 1.000 1.000 1.003 1.000 1.028 1.000 1.061 1.000 1.000 1.000 1.000 1.067 1.306 1.953 1.280 1.279 1.396 1.117 1.100 1.111 1.039 1.019 1.015 1.007 1.018 1.000 1.014 1.000 1.000 1.000 1.000 1.005 1.022 1.000 1.030 1.014 1.007 1.042 1.013 1.109 1.137 1.041 1.176 1.000 1.625 1.351 1.016 1.017 1.000 1.024 1.008 1.000 1.013 1.000 1.000 1.008 1.000 1.000 1.017 1.000 1.048 1.012 1.005 1.000 1.006 1.000 1.010 1.000 1.030 1.013 1.012 1.028 1.000 1.044 1.038 1.000 1.000 1.094 1.022 1.000 1.000 1.000 1.000 1.000 1.000 1.000 1.000 1.000 1.000 1.000 1.008 1.039 1.077 1.101 1.095 1.081 1.174 1.090 1.100 1.000 1.091 1.039 1.000 1.077 1.026 1.000 1.013 1.000 1.008 1.000 1.010 1.000 1.000 1.000 1.000 1.000 1.024 1.000 1.090 1.044 1.012 1.009 1.005 1.000 1.017 1.000 1.000 1.000 1.000 1.000 1.002 1.000 1.005 1.017 -9999.000 -9999.000 -9999.000 
-9999.000 -9999.000 -9999.000 1.779 1.070 1.000 1.000 1.000 1.003 1.000 1.000 1.024 1.000 1.045 1.000 1.068 1.000 1.300 1.000 1.000 1.000 1.000 1.000 1.173 1.000 1.114 1.000 1.046 1.000 1.008 1.002 1.000 1.000 1.034 1.000 1.056 1.000 1.049 1.000 1.000 1.000 1.000 1.141 1.363 1.893 1.240 1.229 1.358 1.101 1.086 1.087 1.027 1.013 1.008 1.005 1.030 1.000 1.041 1.000 1.000 1.026 1.000 1.069 1.038 1.025 1.033 1.008 1.015 1.018 1.000 1.082 1.083 1.000 1.154 1.000 1.406 1.339 1.059 1.037 1.000 1.052 1.012 1.000 1.023 1.004 1.000 1.040 1.000 1.023 1.036 1.000 1.081 1.018 1.005 1.000 1.007 1.000 1.009 1.001 1.030 1.013 1.012 1.031 1.000 1.055 1.016 1.000 1.027 1.000 1.070 1.000 1.000 1.000 1.000 1.000 1.000 1.000 1.000 1.000 1.000 1.000 1.000 1.024 1.059 1.098 1.115 1.114 1.089 1.177 1.205 1.000 1.168 1.065 1.010 1.090 1.043 1.000 1.032 1.000 1.027 1.000 1.058 1.005 1.035 1.042 1.008 1.011 1.065 1.000 1.140 1.058 1.013 1.015 1.007 1.000 1.043 1.014 1.000 1.045 1.000 1.017 1.010 1.005 1.021 1.038 -9999.000 -9999.000 -9999.000 
-9999.000 -9999.000 -9999.000 1.697 1.077 1.000 1.050 1.038 1.071 1.061 1.068 1.105 1.045 1.157 1.022 1.215 1.000 1.000 1.000 1.000 1.001 1.000 1.000 1.000 1.000 1.140 1.012 1.109 1.059 1.084 1.085 1.085 1.086 1.128 1.028 1.164 1.038 1.000 1.000 1.000 1.000 1.048 1.200 1.420 1.868 1.230 1.210 1.340 1.096 1.080 1.068 1.017 1.008 1.001 1.003 1.036 1.000 1.072 1.015 1.000 1.077 1.000 1.168 1.072 1.052 1.065 1.023 1.028 1.030 1.033 1.071 1.045 1.000 1.118 1.000 1.186 1.265 1.125 1.077 1.031 1.081 1.017 1.007 1.027 1.016 1.000 1.082 1.000 1.112 1.059 1.022 1.111 1.022 1.006 1.000 1.006 1.000 1.006 1.002 1.025 1.014 1.005 1.039 1.000 1.053 1.025 1.000 1.025 1.158 1.000 1.000 1.000 1.000 1.000 1.000 1.000 1.000 1.000 1.000 1.000 1.000 1.000 1.011 1.039 1.080 1.119 1.137 1.146 1.110 1.289 1.000 1.341 1.093 1.038 1.096 1.056 1.000 1.051 1.015 1.000 1.000 1.056 1.000 1.066 1.006 1.000 1.154 1.084 1.012 1.137 1.055 1.026 1.033 1.005 1.000 1.054 1.000 1.000 1.050 1.000 1.082 1.031 1.007 1.050 1.000 -9999.000 -9999.000 -9999.000 
-9999.000 -9999.000 -9999.000 1.130 1.034 1.000 1.011 1.000 1.000 1.000 1.000 1.002 1.000 1.000 1.000 1.000 1.000 1.000 1.000 1.000 1.001 1.000 1.000 1.000 1.000 1.000 1.000 1.000 1.000 1.000 1.000 1.000 1.001 1.000 1.000 1.000 1.000 1.000 1.000 1.000 1.008 1.100 1.241 1.507 1.818 1.199 1.171 1.296 1.070 1.055 1.043 1.006 1.005 1.007 1.003 1.034 1.000 1.046 1.000 1.000 1.000 1.142 1.265 1.074 1.080 1.077 1.021 1.014 1.012 1.013 1.018 1.044 1.009 1.136 1.000 1.000 1.166 1.305 1.081 1.076 1.108 1.014 1.000 1.010 1.000 1.000 1.005 1.000 1.211 1.064 1.055 1.122 1.023 1.007 1.000 1.004 1.000 1.003 1.000 1.002 1.015 1.000 1.044 1.000 1.048 1.000 1.136 1.000 1.251 1.000 1.000 1.000 1.000 1.000 1.000 1.000 1.000 1.000 1.000 1.000 1.000 1.000 1.000 1.021 1.054 1.102 1.142 1.172 1.202 1.232 1.625 1.549 1.090 1.073 1.098 1.061 1.000 1.059 1.000 1.000 1.000 1.000 1.350 1.110 1.040 1.276 1.263 1.062 1.000 1.014 1.033 1.029 1.031 1.001 1.000 1.048 1.000 1.036 1.079 1.052 1.116 1.039 1.007 1.049 1.000 -9999.000 -9999.000 -9999.000 
-9999.000 -9999.000 -9999.000 1.000 1.067 1.000 1.194 1.000 1.000 1.000 1.000 1.000 1.000 1.000 1.000 1.004 1.000 1.000 1.000 1.000 1.000 1.000 1.000 1.000 1.000 1.000 1.000 1.000 1.000 1.000 1.000 1.000 1.000 1.000 1.000 1.001 1.000 1.000 1.000 1.000 1.042 1.125 1.271 1.531 1.793 1.185 1.152 1.265 1.055 1.039 1.028 1.000 1.000 1.002 1.002 1.036 1.000 1.075 1.001 1.111 1.228 1.353 1.321 1.121 1.108 1.077 1.016 1.007 1.005 1.002 1.000 1.027 1.000 1.117 1.000 1.085 1.121 1.571 1.148 1.101 1.126 1.027 1.009 1.017 1.018 1.027 1.081 1.140 1.281 1.113 1.090 1.115 1.020 1.005 1.000 1.008 1.004 1.009 1.000 1.000 1.000 1.000 1.005 1.000 1.018 1.000 1.099 1.000 1.039 1.247 1.429 1.000 1.000 1.000 1.000 1.000 1.000 1.000 1.000 1.000 1.000 1.000 1.000 1.007 1.030 1.070 1.127 1.175 1.233 1.325 1.687 1.617 1.106 1.089 1.086 1.060 1.000 1.068 1.000 1.000 1.000 1.112 2.121 1.491 1.397 1.551 1.274 1.090 1.092 1.000 1.153 1.046 1.012 1.000 1.000 1.034 1.001 1.145 1.140 1.104 1.123 1.038 1.007 1.023 1.052 -9999.000 -9999.000 -9999.000 
-9999.000 -9999.000 -9999.000 1.000 1.081 1.000 1.000 1.000 1.000 1.000 1.000 1.000 1.003 1.000 1.001 1.000 1.000 1.000 1.000 1.000 1.000 1.000 1.000 1.000 1.000 1.001 1.000 1.000 1.000 1.000 1.000 1.000 1.000 1.000 1.000 1.000 1.000 1.000 1.000 1.018 1.067 1.154 1.300 1.545 1.775 1.174 1.136 1.243 1.055 1.033 1.031 1.002 1.002 1.003 1.002 1.023 1.000 1.043 1.000 1.095 1.168 1.238 1.207 1.085 1.077 1.052 1.008 1.003 1.002 1.011 1.000 1.034 1.000 1.109 1.000 1.196 1.463 1.736 1.170 1.106 1.127 1.028 1.002 1.001 1.000 1.043 1.077 1.123 1.200 1.080 1.065 1.081 1.014 1.004 1.000 1.005 1.003 1.009 1.000 1.014 1.000 1.023 1.007 1.000 1.022 1.000 1.094 1.134 1.377 1.311 1.284 1.000 1.000 1.000 1.000 1.000 1.000 1.000 1.000 1.000 1.000 1.000 1.000 1.000 1.012 1.037 1.090 1.161 1.231 1.351 1.786 1.625 1.102 1.093 1.068 1.052 1.000 1.068 1.000 1.000 1.145 1.565 1.907 1.385 1.304 1.346 1.146 1.074 1.121 1.008 1.206 1.067 1.018 1.001 1.000 1.016 1.067 1.123 1.096 1.076 1.077 1.020 1.003 1.004 1.015 -9999.000 -9999.000 -9999.000 
-9999.000 -9999.000 -9999.000 1.000 1.091 1.000 1.000 1.000 1.000 1.001 1.000 1.000 1.000 1.007 1.000 1.000 1.000 1.000 1.000 1.000 1.000 1.000 1.000 1.000 1.000 1.000 1.000 1.000 1.000 1.000 1.000 1.000 1.011 1.011 1.002 1.000 1.000 1.020 1.044 1.068 1.117 1.197 1.320 1.575 1.764 1.167 1.123 1.220 1.047 1.024 1.026 1.004 1.003 1.001 1.005 1.022 1.015 1.044 1.024 1.127 1.169 1.194 1.146 1.067 1.055 1.032 1.003 1.001 1.001 1.009 1.000 1.029 1.000 1.086 1.000 1.255 1.481 1.599 1.160 1.113 1.116 1.021 1.016 1.019 1.010 1.071 1.099 1.123 1.148 1.066 1.053 1.055 1.010 1.003 1.000 1.006 1.005 1.014 1.000 1.016 1.000 1.040 1.000 1.004 1.000 1.053 1.123 1.251 1.268 1.097 1.148 1.000 1.002 1.000 1.000 1.000 1.000 1.000 1.000 1.000 1.000 1.000 1.000 1.000 1.003 1.017 1.045 1.120 1.209 1.346 1.798 1.621 1.105 1.091 1.051 1.046 1.000 1.075 1.000 1.000 1.212 1.383 1.469 1.173 1.202 1.224 1.065 1.019 1.075 1.021 1.032 1.033 1.000 1.027 1.035 1.060 1.107 1.095 1.067 1.055 1.041 1.008 1.000 1.003 1.000 -9999.000 -9999.000 -9999.000 
-9999.000 -9999.000 -9999.000 1.000 1.089 1.000 1.000 1.000 1.000 1.000 1.000 1.001 1.015 1.042 1.050 1.055 1.056 1.048 1.026 1.000 1.000 1.000 1.000 1.000 1.000 1.000 1.000 1.000 1.000 1.001 1.031 1.074 1.089 1.079 1.078 1.088 1.100 1.121 1.136 1.154 1.185 1.240 1.319 1.574 1.736 1.152 1.112 1.203 1.048 1.020 1.030 1.009 1.005 1.000 1.005 1.008 1.022 1.036 1.040 1.093 1.110 1.115 1.079 1.036 1.027 1.017 1.003 1.001 1.002 1.014 1.000 1.035 1.000 1.086 1.000 1.148 1.223 1.373 1.120 1.112 1.054 1.031 1.055 1.015 1.058 1.066 1.071 1.082 1.088 1.044 1.035 1.032 1.007 1.002 1.000 1.005 1.004 1.020 1.000 1.041 1.000 1.118 1.000 1.071 1.000 1.194 1.147 1.116 1.071 1.016 1.091 1.000 1.172 1.000 1.000 1.000 1.000 1.000 1.000 1.000 1.000 1.000 1.000 1.000 1.000 1.006 1.020 1.056 1.167 1.312 1.773 1.601 1.102 1.077 1.060 1.038 1.000 1.078 1.014 1.000 1.253 1.196 1.058 1.134 1.131 1.204 1.058 1.000 1.066 1.025 1.020 1.025 1.000 1.148 1.069 1.078 1.106 1.055 1.039 1.033 1.010 1.005 1.000 1.005 1.000 -9999.000 -9999.000 -9999.000 
-9999.000 -9999.000 -9999.000 1.000 1.081 1.000 1.000 1.000 1.000 1.000 1.000 1.018 1.092 1.188 1.231 1.251 1.248 1.231 1.178 1.092 1.004 1.000 1.000 1.000 1.000 1.000 1.000 1.000 1.003 1.029 1.072 1.123 1.153 1.209 1.263 1.305 1.316 1.309 1.296 1.260 1.245 1.257 1.305 1.591 1.656 1.141 1.096 1.179 1.043 1.010 1.032 1.014 1.008 1.004 1.016 1.015 1.028 1.037 1.046 1.065 1.064 1.049 1.024 1.008 1.003 1.007 1.001 1.001 1.000 1.017 1.000 1.038 1.000 1.092 1.000 1.000 1.307 1.341 1.106 1.101 1.101 1.000 1.117 1.000 1.224 1.067 1.047 1.049 1.043 1.025 1.020 1.014 1.003 1.002 1.003 1.004 1.001 1.025 1.000 1.049 1.000 1.173 1.000 1.129 1.086 1.302 1.139 1.068 1.015 1.000 1.079 1.000 1.325 1.000 1.000 1.000 1.000 1.000 1.000 1.000 1.000 1.000 1.000 1.000 1.000 1.001 1.010 1.023 1.078 1.249 1.587 1.530 1.121 1.045 1.077 1.037 1.000 1.087 1.031 1.000 1.247 1.078 1.170 1.000 1.338 1.251 1.121 1.000 1.076 1.000 1.000 1.000 1.082 1.217 1.067 1.059 1.070 1.023 1.013 1.015 1.000 1.000 1.007 1.005 1.000 -9999.000 -9999.000 -9999.000 
-9999.000 -9999.000 -9999.000 1.000 1.068 1.000 1.000 1.000 1.000 1.000 1.026 1.102 1.271 1.521 1.673 1.729 1.701 1.573 1.329 1.121 1.026 1.000 1.000 1.000 1.000 1.000 1.000 1.000 1.013 1.042 1.094 1.158 1.278 1.473 1.650 1.703 1.793 1.741 1.610 1.445 1.190 1.224 1.268 1.548 1.519 1.155 1.045 1.132 1.057 1.000 1.036 1.016 1.014 1.003 1.017 1.008 1.008 1.011 1.016 1.019 1.025 1.025 1.030 1.020 1.024 1.011 1.011 1.010 1.002 1.026 0.999 1.041 1.000 1.103 1.000 1.209 1.517 1.330 1.099 1.085 1.128 1.000 1.103 1.141 1.285 1.038 1.012 1.012 1.009 1.006 1.005 1.003 1.001 1.001 1.001 1.007 1.000 1.031 1.000 1.024 1.000 1.107 1.083 1.292 1.204 1.326 1.095 1.025 1.035 1.021 1.109 1.000 1.360 1.000 1.000 1.000 1.000 1.000 1.000 1.000 1.000 1.000 1.000 1.000 1.000 1.000 1.006 1.015 1.026 1.128 1.282 1.285 1.129 1.000 1.092 1.025 1.000 1.086 1.035 1.004 1.247 1.000 1.300 1.000 2.009 1.244 1.127 1.000 1.081 1.000 1.053 1.109 1.176 1.211 1.053 1.032 1.038 1.025 1.001 1.009 1.017 1.020 1.024 1.021 1.000 -9999.000 -9999.000 -9999.000 
-9999.000 -9999.000 -9999.000 1.000 1.050 1.000 1.000 1.000 1.000 1.034 1.103 1.268 1.634 2.039 2.122 1.649 1.571 1.466 1.181 1.356 1.307 1.000 1.000 1.000 1.000 1.000 1.000 1.002 1.018 1.049 1.106 1.232 1.516 1.982 1.759 1.724 1.870 1.532 1.413 1.368 1.122 1.101 1.192 1.472 1.352 1.094 1.000 1.056 1.025 1.000 1.024 1.024 1.018 1.006 1.020 1.006 1.006 1.008 1.007 1.000 1.005 1.000 1.000 1.000 1.000 1.000 1.000 1.007 1.000 1.036 0.999 1.041 1.000 1.102 1.000 1.355 1.504 1.305 1.095 1.078 1.115 1.098 1.162 1.237 1.150 1.011 1.000 1.000 1.000 1.000 1.000 1.000 1.000 1.000 1.000 1.004 1.000 1.027 1.000 1.060 1.072 1.171 1.279 1.354 1.241 1.263 1.055 1.001 1.024 1.000 1.081 1.000 1.323 1.001 1.000 1.000 1.000 1.000 1.000 1.000 1.000 1.000 1.000 1.000 1.000 1.000 1.004 1.013 1.023 1.032 1.070 1.119 1.155 1.000 1.129 1.012 1.000 1.076 1.020 1.025 1.185 1.000 1.279 1.000 2.180 1.216 1.080 1.000 1.042 1.029 1.162 1.173 1.168 1.135 1.032 1.001 1.007 1.003 1.005 1.015 1.040 1.024 1.021 1.019 1.000 -9999.000 -9999.000 -9999.000 
-9999.000 -9999.000 -9999.000 1.000 1.029 1.000 1.000 1.000 1.010 1.092 1.219 1.533 1.934 1.752 1.648 1.278 1.218 1.138 1.022 1.048 1.168 1.000 1.000 1.000 1.000 1.000 1.000 1.004 1.019 1.052 1.124 1.357 1.708 1.935 1.382 1.354 1.455 1.203 1.117 1.102 1.018 1.002 1.126 1.265 1.263 1.128 1.001 1.057 1.055 1.000 1.082 1.065 1.026 1.019 1.020 1.023 1.028 1.045 1.031 1.008 1.020 1.000 1.018 1.000 1.021 1.000 1.046 1.027 1.002 1.054 1.000 1.043 1.000 1.094 1.000 1.177 1.422 1.289 1.092 1.072 1.098 1.033 1.029 1.035 1.018 1.001 1.000 1.000 1.000 1.000 1.000 1.000 1.000 1.000 1.000 1.004 1.000 1.023 1.000 1.026 1.050 1.091 1.152 1.182 1.138 1.169 1.039 1.000 1.032 1.000 1.106 1.000 1.346 1.000 1.000 1.000 1.001 1.000 1.000 1.000 1.000 1.000 1.000 1.000 1.000 1.000 1.002 1.011 1.022 1.034 1.036 1.000 1.259 1.000 1.227 1.034 1.000 1.090 1.045 1.032 1.222 1.000 1.246 1.220 1.791 1.209 1.048 1.000 1.021 1.095 1.110 1.094 1.077 1.039 1.014 1.000 1.017 1.042 1.022 1.030 1.057 1.016 1.007 1.010 1.000 -9999.000 -9999.000 -9999.000 
-9999.000 -9999.000 -9999.000 1.000 1.024 1.000 1.000 1.000 1.066 1.152 1.352 1.679 1.571 1.685 1.534 1.191 1.131 1.058 1.000 1.000 1.110 1.000 1.000 1.000 1.000 1.000 1.000 1.005 1.019 1.052 1.144 1.406 1.801 1.814 1.298 1.268 1.331 1.106 1.034 1.039 1.000 1.125 1.234 1.000 1.049 1.120 1.001 1.027 1.095 1.000 1.149 1.106 1.039 1.028 1.021 1.084 1.000 1.000 1.062 1.054 1.025 1.000 1.031 1.000 1.041 1.000 1.122 1.050 1.024 1.074 1.000 1.047 1.000 1.087 1.000 1.183 1.454 1.280 1.087 1.069 1.087 1.013 1.000 1.000 0.999 1.000 1.000 1.001 1.002 1.002 1.002 1.002 1.002 1.002 1.001 1.003 1.000 1.018 1.000 1.018 1.050 1.076 1.113 1.119 1.095 1.113 1.044 1.000 1.039 1.000 1.096 1.000 1.250 1.000 1.001 1.000 1.000 1.000 1.000 1.000 1.000 1.000 1.000 1.000 1.000 1.000 1.001 1.009 1.021 1.035 1.051 1.036 1.000 1.000 1.209 1.000 1.027 1.000 1.118 1.129 1.086 1.012 1.100 1.135 1.241 1.122 1.064 1.039 1.075 1.132 1.078 1.056 1.034 1.000 1.000 1.000 1.020 1.071 1.028 1.025 1.048 1.032 1.000 1.020 1.000 -9999.000 -9999.000 -9999.000 
-9999.000 -9999.000 -9999.000 1.000 1.000 1.000 1.000 1.000 1.099 1.192 1.383 1.667 1.463 1.581 1.407 1.101 1.048 1.072 1.022 1.000 1.177 1.000 1.000 1.000 1.000 1.000 1.000 1.001 1.016 1.051 1.147 1.396 1.974 1.646 1.180 1.154 1.200 1.123 1.000 1.104 1.039 1.000 1.276 1.000 1.000 1.097 1.000 1.088 1.102 1.007 1.253 1.146 1.044 1.033 1.027 1.105 1.000 1.125 1.241 1.072 1.033 1.000 1.011 1.000 1.000 1.073 1.206 1.049 1.045 1.079 1.000 1.042 1.000 1.065 1.000 1.352 1.517 1.273 1.086 1.065 1.077 1.011 1.000 1.000 1.000 1.000 1.001 1.000 1.003 1.002 1.003 1.002 1.004 1.001 1.002 1.003 1.000 1.012 1.000 1.010 1.040 1.056 1.078 1.076 1.062 1.073 1.046 1.000 1.042 1.000 1.087 1.001 1.224 1.000 1.000 1.000 1.000 1.000 1.000 1.000 1.000 1.000 1.000 1.000 1.000 1.000 1.000 1.007 1.019 1.035 1.055 1.073 1.057 1.010 1.000 1.014 1.052 1.093 1.323 1.305 1.143 1.075 1.055 1.101 1.050 1.043 1.255 1.127 1.123 1.134 1.046 1.023 1.017 1.000 1.000 1.000 1.024 1.088 1.029 1.014 1.036 1.034 1.000 1.020 1.000 -9999.000 -9999.000 -9999.000 
-9999.000 -9999.000 -9999.000 1.000 1.018 1.198 1.000 1.018 1.124 1.207 1.373 1.634 1.416 1.541 1.333 1.055 1.008 1.038 1.000 1.000 1.151 1.000 1.000 1.000 1.000 1.000 1.000 1.000 1.014 1.049 1.145 1.379 2.048 1.567 1.127 1.104 1.134 1.092 0.999 1.078 1.000 1.000 1.159 1.000 1.001 1.000 1.000 1.286 1.255 1.085 1.361 1.168 1.050 1.037 1.029 1.062 1.211 1.297 1.178 1.035 1.037 1.000 1.012 1.000 1.011 1.169 1.241 1.071 1.063 1.093 1.000 1.046 1.000 1.074 1.143 1.403 1.467 1.246 1.084 1.060 1.066 1.010 1.000 1.000 1.002 1.000 1.003 1.000 1.002 1.000 1.000 1.000 1.003 1.000 1.000 1.001 1.001 1.008 1.000 1.006 1.029 1.038 1.052 1.047 1.040 1.046 1.040 1.000 1.043 1.000 1.081 1.046 1.185 1.001 1.016 1.000 1.000 1.007 1.000 1.000 1.000 1.000 1.000 1.000 1.000 1.000 1.000 1.004 1.017 1.034 1.057 1.083 1.101 1.120 1.167 1.214 1.332 1.454 1.758 1.437 1.251 1.186 1.058 1.013 1.000 1.122 1.526 1.186 1.137 1.113 1.026 1.000 1.028 1.000 1.000 1.002 1.021 1.081 1.036 1.000 1.011 1.028 1.000 1.015 1.000 -9999.000 -9999.000 -9999.000 
-9999.000 -9999.000 -9999.000 1.000 1.000 1.165 1.174 1.053 1.148 1.210 1.346 1.601 1.359 1.481 1.259 1.079 1.000 1.081 1.024 1.000 1.183 1.000 1.000 1.000 1.001 1.000 1.000 1.000 1.008 1.042 1.138 1.357 1.944 1.456 1.141 1.036 1.055 1.113 1.000 1.107 1.025 1.001 1.219 1.000 1.009 1.005 1.089 1.361 1.269 1.191 1.442 1.175 1.053 1.036 1.025 1.009 1.037 1.050 1.040 1.000 1.030 1.000 1.000 1.058 1.150 1.272 1.247 1.085 1.065 1.088 1.000 1.039 1.000 1.020 1.149 1.281 1.341 1.198 1.073 1.050 1.051 1.008 1.000 1.000 1.004 1.000 1.008 1.000 1.010 1.000 1.009 1.000 1.016 1.000 1.010 1.009 1.004 1.005 1.000 1.007 1.015 1.021 1.030 1.026 1.022 1.029 1.037 1.000 1.039 1.000 1.053 1.116 1.182 1.000 1.510 1.044 1.000 1.000 1.000 1.000 1.000 1.000 1.000 1.000 1.000 1.000 1.000 1.002 1.014 1.032 1.056 1.087 1.118 1.163 1.244 1.983 2.020 1.968 1.935 1.410 1.280 1.252 1.206 1.266 1.338 1.602 1.590 1.188 1.126 1.084 1.026 1.000 1.037 1.000 1.000 1.008 1.001 1.037 1.024 1.000 1.003 1.010 1.000 1.002 1.010 -9999.000 -9999.000 -9999.000 
-9999.000 -9999.000 -9999.000 1.034 1.063 1.203 1.212 1.028 1.268 1.191 1.287 1.581 1.335 1.464 1.204 1.047 1.000 1.045 1.000 1.000 1.144 1.000 1.000 1.001 1.000 1.000 1.000 1.000 1.000 1.028 1.113 1.291 1.706 1.245 1.049 1.000 1.000 1.034 1.000 1.043 1.000 1.000 1.176 1.000 1.000 1.001 1.181 1.465 1.407 1.272 1.484 1.175 1.052 1.035 1.022 1.000 1.000 1.006 1.008 1.000 1.038 1.000 1.069 1.180 1.236 1.277 1.204 1.084 1.058 1.073 1.000 1.038 1.000 1.065 1.163 1.222 1.248 1.150 1.059 1.039 1.036 1.005 1.000 1.000 1.009 1.000 1.023 1.000 1.010 1.000 1.001 1.000 1.021 1.000 1.032 1.021 1.007 1.004 1.000 1.002 1.011 1.015 1.022 1.017 1.015 1.020 1.029 1.000 1.032 1.000 1.048 1.128 1.152 1.030 1.212 1.305 1.000 1.000 1.000 1.000 1.000 1.000 1.000 1.000 1.000 1.000 1.000 1.000 1.011 1.029 1.054 1.087 1.127 1.183 1.329 1.873 1.355 1.386 1.456 1.247 1.202 1.192 1.164 1.224 1.309 1.431 1.331 1.131 1.101 1.059 1.022 1.000 1.038 1.000 1.000 1.023 1.000 1.002 1.014 1.000 1.002 1.000 1.009 1.000 1.054 -9999.000 -9999.000 -9999.000 
-9999.000 -9999.000 -9999.000 1.066 1.013 1.085 1.080 1.017 1.000 1.294 1.135 1.510 1.341 1.472 1.187 1.051 1.000 1.061 1.000 1.000 1.171 1.000 1.000 1.000 1.000 1.000 1.000 1.000 1.000 1.006 1.069 1.185 1.324 1.159 1.101 1.000 1.041 1.063 1.000 1.079 1.000 1.000 1.001 1.000 1.000 1.037 1.256 1.695 1.384 1.247 1.444 1.157 1.047 1.031 1.020 1.000 1.000 1.005 1.005 1.003 1.019 1.000 1.060 1.112 1.138 1.160 1.117 1.051 1.031 1.048 1.000 1.016 1.000 1.067 1.111 1.136 1.149 1.095 1.039 1.026 1.022 1.003 1.000 1.000 1.027 1.000 1.068 1.000 1.067 1.000 1.045 1.000 1.072 1.000 1.071 1.036 1.011 1.002 1.000 1.006 1.013 1.015 1.019 1.015 1.012 1.013 1.021 1.000 1.018 1.000 1.029 1.086 1.076 1.005 1.048 1.176 1.000 1.008 1.000 1.000 1.000 1.000 1.000 1.000 1.000 1.000 1.000 1.000 1.009 1.026 1.050 1.085 1.129 1.192 1.369 1.665 1.210 1.276 1.289 1.138 1.118 1.113 1.082 1.126 1.180 1.239 1.176 1.088 1.072 1.039 1.019 1.000 1.041 1.000 1.000 1.035 1.000 1.028 1.040 1.020 1.040 1.043 1.044 1.025 1.099 -9999.000 -9999.000 -9999.000 
-9999.000 -9999.000 -9999.000 1.110 1.010 1.033 1.038 1.000 1.000 1.218 1.039 1.521 1.342 1.475 1.167 1.047 1.000 1.067 1.001 1.000 1.185 1.000 1.000 1.000 1.000 1.000 1.000 1.000 1.000 1.000 1.012 1.085 1.012 1.000 1.125 1.000 1.093 1.123 1.000 1.155 1.066 1.000 1.004 1.000 1.000 1.117 1.313 2.021 1.370 1.239 1.420 1.145 1.043 1.029 1.019 1.000 1.000 1.003 1.003 1.011 1.015 1.013 1.057 1.079 1.090 1.094 1.049 1.017 1.000 1.043 1.000 1.015 1.020 1.056 1.074 1.082 1.084 1.052 1.023 1.015 1.011 1.001 1.000 1.000 1.066 1.000 1.137 1.000 1.200 1.000 1.013 1.124 1.122 1.031 1.108 1.046 1.013 1.001 1.001 1.007 1.010 1.011 1.012 1.010 1.008 1.007 1.011 1.004 1.014 1.007 1.019 1.046 1.035 1.008 1.000 1.128 1.000 1.000 1.000 1.000 1.000 1.000 1.000 1.000 1.000 1.000 1.001 1.000 1.005 1.022 1.046 1.081 1.128 1.195 1.366 1.819 1.256 1.262 1.208 1.063 1.053 1.051 1.041 1.081 1.121 1.163 1.119 1.062 1.046 1.036 1.015 1.000 1.038 1.000 1.000 1.016 1.000 1.000 1.000 1.000 1.064 1.135 1.051 1.054 1.121 -9999.000 -9999.000 -9999.000 
-9999.000 -9999.000 -9999.000 1.049 1.066 1.000 1.096 1.020 1.000 1.249 1.000 1.365 1.358 1.440 1.163 1.054 1.000 1.082 1.010 1.000 1.207 1.000 1.000 1.000 1.000 1.000 1.000 1.000 1.000 1.000 1.000 1.000 1.000 1.000 1.000 1.000 1.000 1.000 1.000 1.000 1.000 1.000 1.000 1.000 1.024 1.189 1.383 2.296 1.329 1.221 1.395 1.134 1.039 1.026 1.017 1.000 0.999 1.001 1.002 1.006 1.009 1.010 1.028 1.037 1.040 1.041 1.021 1.014 1.056 1.000 1.052 1.014 1.027 1.027 1.034 1.036 1.036 1.022 1.010 1.006 1.004 1.001 1.000 1.000 1.073 1.000 1.107 1.000 1.163 1.000 1.059 1.331 1.150 1.069 1.128 1.050 1.013 1.001 1.001 1.004 1.005 1.006 1.006 1.004 1.004 1.003 1.005 1.004 1.008 1.005 1.020 1.004 1.046 1.021 1.000 1.139 1.000 1.043 1.000 1.000 1.000 1.000 1.000 1.000 1.000 1.000 1.000 1.000 1.002 1.018 1.042 1.076 1.125 1.194 1.351 2.119 1.321 1.236 1.160 1.032 1.011 1.016 1.034 1.058 1.086 1.121 1.085 1.042 1.027 1.030 1.012 1.000 1.041 1.000 1.024 1.038 1.000 1.010 1.034 1.072 1.156 1.205 1.096 1.084 1.124 -9999.000 -9999.000 -9999.000 
-9999.000 -9999.000 -9999.000 1.021 1.041 1.000 1.073 1.000 1.000 1.140 1.000 1.333 1.306 1.377 1.139 1.019 1.000 1.058 1.000 1.000 1.225 1.000 1.000 1.000 1.000 1.000 1.000 1.000 1.000 1.000 1.001 1.000 1.000 1.000 1.000 1.000 1.000 1.000 1.000 1.000 1.000 1.000 1.000 1.004 1.093 1.258 1.480 2.131 1.299 1.207 1.372 1.124 1.036 1.023 1.015 1.000 1.000 1.000 1.001 1.004 1.006 1.008 1.015 1.017 1.018 1.015 1.040 1.000 1.138 1.000 1.142 1.026 1.041 1.013 1.015 1.015 1.014 1.009 1.003 1.002 1.001 1.000 1.000 1.001 1.045 1.036 1.124 1.094 1.116 1.170 1.274 1.362 1.168 1.105 1.131 1.046 1.011 1.001 1.001 1.002 1.003 1.003 1.002 1.002 1.001 1.001 1.001 1.003 1.005 1.002 1.016 1.000 1.042 1.015 1.000 1.130 1.000 1.044 1.000 1.000 1.000 1.000 1.000 1.000 1.000 1.000 1.000 1.000 1.000 1.013 1.037 1.071 1.121 1.189 1.307 1.922 1.345 1.180 1.110 1.003 1.009 1.009 1.056 1.054 1.067 1.095 1.061 1.029 1.017 1.020 1.008 1.000 1.032 1.000 1.046 1.058 1.037 1.077 1.121 1.158 1.216 1.215 1.100 1.081 1.102 -9999.000 -9999.000 -9999.000 
-9999.000 -9999.000 -9999.000 1.013 1.059 1.000 1.089 1.000 1.000 1.109 1.080 1.456 1.268 1.344 1.177 1.038 1.000 1.082 1.000 1.000 1.186 1.000 1.000 1.000 1.000 1.000 1.000 1.001 1.006 1.000 1.000 1.000 1.000 1.000 1.000 1.000 1.000 1.000 1.000 1.000 1.000 1.000 1.000 1.033 1.143 1.311 1.551 1.978 1.262 1.189 1.351 1.114 1.032 1.021 1.013 1.000 1.000 1.000 1.001 1.001 1.002 1.003 1.004 1.005 1.005 1.003 1.052 1.000 1.137 1.130 1.234 1.071 1.040 1.003 1.004 1.004 1.003 1.002 1.001 1.001 1.000 1.000 1.000 1.002 1.019 1.000 1.051 1.014 1.035 1.101 1.132 1.182 1.106 1.083 1.098 1.033 1.007 1.000 1.000 1.001 1.001 1.001 1.001 1.000 1.000 1.000 1.000 1.001 1.001 1.004 1.022 1.000 1.046 1.014 1.000 1.138 1.000 1.032 1.000 1.000 1.000 1.000 1.000 1.000 1.000 1.000 1.000 1.000 1.000 1.008 1.030 1.064 1.114 1.179 1.246 1.583 1.328 1.107 1.107 1.014 1.019 1.009 1.087 1.057 1.054 1.073 1.044 1.021 1.011 1.013 1.007 1.008 1.025 1.000 1.059 1.069 1.060 1.094 1.125 1.149 1.183 1.168 1.081 1.065 1.074 -9999.000 -9999.000 -9999.000 
-9999.000 -9999.000 -9999.000 1.000 1.044 1.000 1.076 1.000 1.000 1.079 1.000 1.464 1.225 1.165 1.131 1.017 1.000 1.088 1.008 1.000 1.000 1.000 1.001 1.001 1.000 1.000 1.000 1.000 1.000 1.000 1.000 1.007 1.001 1.000 1.000 1.000 1.000 1.000 1.000 1.000 1.000 1.000 1.005 1.071 1.172 1.327 1.563 1.886 1.236 1.175 1.332 1.105 1.029 1.018 1.011 1.003 1.012 1.014 1.010 1.002 1.000 1.000 1.000 1.000 1.000 1.000 1.024 1.059 1.140 1.216 1.164 1.061 1.018 1.000 1.000 1.000 1.000 1.001 1.000 1.000 1.000 1.000 1.000 1.002 1.010 1.000 1.019 1.000 1.049 1.087 1.102 1.127 1.084 1.067 1.069 1.021 1.004 1.000 1.000 1.000 1.000 1.000 1.000 1.000 1.000 1.000 1.000 1.000 1.000 1.002 1.020 1.000 1.041 1.006 1.000 1.144 1.000 1.000 1.000 1.000 1.000 1.000 1.000 1.000 1.000 1.000 1.000 1.000 1.000 1.000 1.022 1.055 1.104 1.164 1.196 1.173 1.328 1.011 1.129 1.060 1.033 1.029 1.123 1.058 1.045 1.054 1.032 1.015 1.008 1.007 1.004 1.017 1.025 1.022 1.060 1.068 1.066 1.088 1.107 1.119 1.134 1.115 1.060 1.047 1.048 -9999.000 -9999.000 -9999.000 
-9999.000 -9999.000 -9999.000 1.000 1.049 1.000 1.086 1.000 1.000 1.147 1.000 1.195 1.225 1.000 1.113 1.015 1.000 1.077 1.000 1.000 1.000 1.000 1.000 1.003 1.000 1.000 1.000 1.000 1.000 1.000 1.000 1.000 1.000 1.000 1.000 1.000 1.000 1.001 1.000 1.000 1.000 1.000 1.030 1.091 1.184 1.321 1.600 1.820 1.215 1.164 1.315 1.096 1.025 1.015 1.010 1.023 1.010 1.032 1.011 1.018 1.000 1.000 1.000 1.000 1.000 1.000 1.003 1.012 1.026 1.031 1.022 1.009 1.002 1.000 1.000 1.000 1.000 1.000 1.000 1.000 1.000 1.000 1.000 1.002 1.005 1.008 1.015 1.013 1.058 1.074 1.080 1.079 1.048 1.038 1.035 1.010 1.002 1.000 1.000 1.000 1.000 1.000 1.000 1.000 1.000 1.000 1.000 1.000 1.000 1.003 1.024 1.000 1.048 1.009 1.000 1.163 1.001 1.000 1.000 1.000 1.000 1.000 1.000 1.000 1.000 1.000 1.000 1.000 1.000 1.000 1.010 1.042 1.090 1.146 1.160 1.163 1.403 1.000 1.196 1.165 1.060 1.055 1.152 1.058 1.036 1.037 1.020 1.010 1.007 1.005 1.007 1.025 1.032 1.037 1.056 1.060 1.062 1.075 1.083 1.086 1.087 1.068 1.040 1.031 1.025 -9999.000 -9999.000 -9999.000 
-9999.000 -9999.000 -9999.000 1.000 1.048 1.000 1.090 1.000 1.000 1.198 1.000 1.000 1.047 1.000 1.201 1.160 1.075 1.251 1.000 1.000 1.000 1.000 1.000 1.000 1.000 1.000 1.000 1.000 1.000 1.000 1.000 1.000 1.000 1.000 1.000 1.000 1.000 1.000 1.000 1.000 1.000 1.000 1.035 1.093 1.185 1.317 1.646 1.770 1.197 1.153 1.299 1.088 1.022 1.013 1.010 1.089 1.000 1.000 1.139 1.070 1.000 1.000 1.000 1.000 1.000 1.000 1.000 1.000 1.000 1.000 1.000 1.000 1.000 1.000 1.000 1.000 1.000 1.000 1.000 1.000 1.000 1.000 1.000 1.001 1.002 1.009 1.014 1.020 1.038 1.042 1.029 1.016 1.048 1.035 1.023 1.005 1.002 1.007 1.020 1.017 1.002 1.000 1.000 1.000 1.000 1.000 1.000 1.000 1.000 1.003 1.027 1.000 1.051 1.008 1.000 1.176 1.000 1.000 1.000 1.000 1.000 1.000 1.000 1.000 1.002 1.000 1.000 1.000 1.000 1.000 1.000 1.023 1.068 1.122 1.130 1.132 1.211 1.179 1.539 1.341 1.076 1.073 1.157 1.043 1.020 1.017 1.008 1.004 1.004 1.004 1.007 1.013 1.016 1.021 1.026 1.028 1.029 1.034 1.036 1.036 1.034 1.025 1.016 1.013 1.008 -9999.000 -9999.000 -9999.000 
-9999.000 -9999.000 -9999.000 1.000 1.048 1.000 1.094 1.000 1.000 1.158 1.000 1.000 1.000 1.000 1.000 1.000 1.000 1.000 1.000 1.000 1.000 1.000 1.000 1.000 1.000 1.004 1.000 -9999.000 -9999.000 -9999.000 -9999.000 -9999.000 -9999.000 -9999.000 -9999.000 -9999.000 -9999.000 -9999.000 -9999.000 -9999.000 1.000 1.000 1.022 1.081 1.172 1.291 1.720 1.715 1.175 1.139 1.280 1.078 1.018 1.009 1.007 1.101 1.000 1.182 1.289 1.080 1.000 1.000 1.000 1.000 1.000 1.000 1.000 1.000 1.000 1.000 1.000 1.000 1.000 1.000 1.000 1.000 1.000 1.000 1.000 1.000 1.000 1.000 1.000 1.000 1.001 1.003 1.004 1.006 1.009 1.010 1.021 1.039 1.000 1.000 1.044 1.016 1.000 1.037 1.000 1.012 1.020 1.000 1.000 1.000 1.000 1.000 1.000 1.000 1.000 1.003 1.030 1.000 1.054 1.006 1.000 1.185 1.000 1.000 1.000 1.000 1.000 1.000 1.000 1.000 1.000 1.000 1.000 1.000 1.000 1.000 1.000 1.000 1.037 1.091 1.101 1.096 1.156 1.380 2.039 1.452 1.100 1.082 1.142 1.028 1.007 1.005 1.001 1.001 1.001 1.001 1.002 1.003 1.003 1.004 1.005 1.005 1.005 1.006 1.006 1.006 1.006 1.004 1.003 1.002 1.001 -9999.000 -9999.000 -9999.000 
-9999.000 -9999.000 -9999.000 1.000 1.057 1.000 1.107 1.000 1.000 1.000 1.002 1.000 1.000 1.000 1.000 1.000 1.000 1.000 1.000 1.000 1.000 1.000 -9999.000 -9999.000 -9999.000 -9999.000 -9999.000 -9999.000 -9999.000 -9999.000 -9999.000 -9999.000 -9999.000 -9999.000 -9999.000 -9999.000 -9999.000 -9999.000 -9999.000 -9999.000 -9999.000 -9999.000 1.000 1.047 1.143 1.239 1.642 1.627 1.171 1.092 1.223 1.045 1.035 1.018 1.028 1.081 1.077 1.148 1.131 1.071 1.024 1.025 1.025 1.025 1.025 1.026 1.027 1.027 1.027 1.027 1.027 1.028 1.028 1.028 1.029 1.029 1.029 1.030 1.030 1.030 1.030 1.031 1.031 1.031 1.032 1.032 1.032 1.032 1.033 1.033 1.054 1.079 1.000 1.000 1.124 1.082 1.014 1.148 1.000 1.104 1.100 1.036 1.037 1.037 1.037 1.038 1.038 1.038 1.039 1.042 1.074 1.000 1.097 1.040 1.000 1.233 1.000 1.000 1.000 1.000 1.000 1.000 1.000 1.000 -9999.000 -9999.000 -9999.000 -9999.000 -9999.000 -9999.000 -9999.000 -9999.000 1.000 1.046 1.068 1.059 1.091 1.225 2.073 1.351 1.146 1.000 1.069 1.074 1.046 1.053 1.050 1.050 1.051 1.051 1.051 1.052 1.052 1.052 1.053 1.053 1.053 1.054 1.054 1.054 1.054 1.055 1.055 1.055 1.056 -9999.000 -9999.000 -9999.000 
-9999.000 -9999.000 -9999.000 1.000 1.119 1.000 1.168 1.023 1.000 1.000 1.000 1.000 1.000 1.000 1.000 1.000 1.000 1.000 1.000 -9999.000 -9999.000 -9999.000 -9999.000 -9999.000 -9999.000 -9999.000 -9999.000 -9999.000 -9999.000 -9999.000 -9999.000 -9999.000 -9999.000 -9999.000 -9999.000 -9999.000 -9999.000 -9999.000 -9999.000 -9999.000 -9999.000 -9999.000 -9999.000 1.000 1.074 1.160 1.221 1.269 1.192 1.000 1.064 1.070 1.052 1.039 1.043 1.054 1.110 1.131 1.100 1.048 1.037 1.036 1.036 1.034 1.035 1.033 1.034 1.032 1.033 1.031 1.030 1.031 1.029 1.030 1.028 1.029 1.027 1.027 1.025 1.026 1.025 1.024 1.025 1.023 1.023 1.021 1.022 1.021 1.021 1.019 1.061 1.145 1.000 1.152 1.095 1.095 1.000 1.214 1.000 1.000 1.121 1.014 1.013 1.012 1.014 1.012 1.013 1.012 1.014 1.016 1.050 1.000 1.075 1.017 1.000 1.217 1.000 1.004 1.000 1.000 1.000 -9999.000 -9999.000 -9999.000 -9999.000 -9999.000 -9999.000 -9999.000 -9999.000 -9999.000 -9999.000 -9999.000 -9999.000 -9999.000 1.022 1.014 1.038 1.070 1.297 1.020 1.093 1.000 1.027 1.032 1.008 1.014 1.010 1.010 1.011 1.010 1.011 1.009 1.011 1.010 1.009 1.011 1.009 1.010 1.009 1.011 1.009 1.010 1.009 1.010 1.010 -9999.000 -9999.000 -9999.000 
-9999.000 -9999.000 -9999.000 1.000 1.065 1.000 1.110 1.000 1.000 1.000 1.000 1.000 1.000 1.000 1.000 1.000 -9999.000 -9999.000 -9999.000 -9999.000 -9999.000 -9999.000 -9999.000 -9999.000 -9999.000 -9999.000 -9999.000 -9999.000 -9999.000 -9999.000 -9999.000 -9999.000 -9999.000 -9999.000 -9999.000 -9999.000 -9999.000 -9999.000 -9999.000 -9999.000 -9999.000 -9999.000 -9999.000 -9999.000 -9999.000 1.058 1.028 1.000 1.081 1.000 1.000 1.000 1.000 1.000 1.000 1.000 1.000 1.000 1.000 1.000 1.000 1.000 1.000 1.000 1.000 1.000 1.000 1.000 1.000 1.000 1.000 1.000 1.000 1.000 1.000 1.000 1.000 1.000 1.000 1.000 1.000 1.000 1.000 1.000 1.000 1.000 1.000 1.000 1.000 1.000 1.008 1.105 1.000 1.000 1.064 1.042 1.000 1.148 1.000 1.000 1.050 1.000 1.000 1.000 1.000 1.000 1.000 1.000 1.000 1.000 1.000 1.001 1.000 1.000 1.000 1.112 1.000 1.000 1.000 1.000 -9999.000 -9999.000 -9999.000 -9999.000 -9999.000 -9999.000 -9999.000 -9999.000 -9999.000 -9999.000 -9999.000 -9999.000 -9999.000 -9999.000 -9999.000 1.000 1.000 1.003 1.011 1.000 1.000 1.000 1.000 1.000 1.000 1.000 1.000 1.000 1.000 1.000 1.000 1.000 1.000 1.000 1.000 1.000 1.000 1.000 1.000 1.000 1.001 1.000 1.000 1.000 1.000 -9999.000 -9999.000 -9999.000 
-9999.000 -9999.000 -9999.000 1.000 1.000 1.000 1.000 1.000 1.000 1.000 1.000 1.000 1.000 -9999.000 -9999.000 -9999.000 -9999.000 -9999.000 -9999.000 -9999.000 -9999.000 -9999.000 -9999.000 -9999.000 -9999.000 -9999.000 -9999.000 -9999.000 -9999.000 -9999.000 -9999.000 -9999.000 -9999.000 -9999.000 -9999.000 -9999.000 -9999.000 -9999.000 -9999.000 -9999.000 -9999.000 -9999.000 -9999.000 -9999.000 -9999.000 -9999.000 1.000 1.000 1.000 1.000 1.000 1.000 1.000 1.000 1.000 1.000 1.000 1.000 1.000 1.000 1.000 1.003 1.000 1.000 1.000 1.000 1.000 1.000 1.000 1.001 1.000 1.000 1.000 1.000 1.000 1.000 1.000 1.000 1.000 1.000 1.000 1.000 1.000 1.000 1.013 1.009 1.000 1.000 1.000 1.000 1.000 1.000 1.000 1.000 1.000 1.004 1.001 1.000 1.000 1.000 1.000 1.000 1.000 1.000 1.000 1.000 1.000 1.002 1.001 1.000 1.000 1.000 1.000 1.000 1.000 1.000 1.000 1.000 -9999.000 -9999.000 -9999.000 -9999.000 -9999.000 -9999.000 -9999.000 -9999.000 -9999.000 -9999.000 -9999.000 -9999.000 -9999.000 -9999.000 -9999.000 -9999.000 -9999.000 -9999.000 -9999.000 1.000 1.003 1.004 1.000 1.000 1.000 1.000 1.000 1.000 1.000 1.000 1.000 1.000 1.000 1.000 1.000 1.000 1.000 1.000 1.000 1.000 1.000 1.000 1.000 1.000 1.000 1.000 1.000 -9999.000 -9999.000 -9999.000 
-9999.000 -9999.000 -9999.000 -9999.000 1.000 1.000 1.000 1.000 1.000 1.000 -9999.000 -9999.000 -9999.000 -9999.000 -9999.000 -9999.000 -9999.000 -9999.000 -9999.000 -9999.000 -9999.000 -9999.000 -9999.000 -9999.000 -9999.000 -9999.000 -9999.000 -9999.000 -9999.000 -9999.000 -9999.000 -9999.000 -9999.000 -9999.000 -9999.000 -9999.000 -9999.000 -9999.000 -9999.000 -9999.000 -9999.000 -9999.000 -9999.000 -9999.000 -9999.000 -9999.000 -9999.000 -9999.000 1.000 1.000 1.000 1.000 1.000 1.000 1.000 1.000 1.000 1.000 1.000 1.000 1.000 1.000 1.000 1.000 1.000 1.000 1.000 1.000 1.000 1.000 1.000 1.000 1.000 1.000 1.000 1.002 1.000 1.000 1.000 1.000 1.000 1.000 1.000 1.000 1.000 1.000 1.000 1.000 1.000 1.004 1.000 1.000 1.000 1.000 1.002 1.000 1.000 1.000 1.000 1.000 1.000 1.000 1.000 1.000 1.000 1.002 1.000 1.001 1.003 1.000 1.000 1.000 1.000 1.000 1.000 1.000 -9999.000 -9999.000 -9999.000 -9999.000 -9999.000 -9999.000 -9999.000 -9999.000 -9999.000 -9999.000 -9999.000 -9999.000 -9999.000 -9999.000 -9999.000 -9999.000 -9999.000 -9999.000 -9999.000 -9999.000 -9999.000 -9999.000 -9999.000 1.000 1.000 1.000 1.000 1.000 1.000 1.000 1.000 1.000 1.000 1.000 1.000 1.000 1.000 1.000 1.002 1.000 1.000 1.000 1.000 1.000 1.000 1.000 1.000 1.000 -9999.000 -9999.000 -9999.000 -9999.000 
-9999.000 -9999.000 -9999.000 -9999.000 -9999.000 -9999.000 -9999.000 -9999.000 -9999.000 -9999.000 -9999.000 -9999.000 -9999.000 -9999.000 -9999.000 -9999.000 -9999.000 -9999.000 -9999.000 -9999.000 -9999.000 -9999.000 -9999.000 -9999.000 -9999.000 -9999.000 -9999.000 -9999.000 -9999.000 -9999.000 -9999.000 -9999.000 -9999.000 -9999.000 -9999.000 -9999.000 -9999.000 -9999.000 -9999.000 -9999.000 -9999.000 -9999.000 -9999.000 -9999.000 -9999.000 -9999.000 -9999.000 -9999.000 -9999.000 -9999.000 -9999.000 1.000 1.000 1.000 1.000 1.000 1.000 1.000 1.000 1.000 1.000 1.000 1.000 1.000 1.000 1.005 1.000 1.000 1.000 1.000 1.000 1.000 1.000 1.000 1.000 1.000 1.000 1.000 1.000 1.000 1.000 1.000 1.000 1.000 1.000 1.000 1.000 1.000 1.000 1.000 1.000 1.000 1.000 1.000 1.000 1.000 1.000 1.000 1.000 1.000 1.000 1.000 1.000 1.000 1.000 1.000 1.000 1.000 1.000 1.000 1.000 1.000 -9999.000 -9999.000 -9999.000 -9999.000 -9999.000 -9999.000 -9999.000 -9999.000 -9999.000 -9999.000 -9999.000 -9999.000 -9999.000 -9999.000 -9999.000 -9999.000 -9999.000 -9999.000 -9999.000 -9999.000 -9999.000 -9999.000 -9999.000 -9999.000 -9999.000 -9999.000 -9999.000 -9999.000 -9999.000 -9999.000 1.000 1.000 1.000 1.000 1.021 1.000 1.000 1.000 1.000 1.000 1.000 1.000 1.000 1.007 1.000 1.000 1.000 1.000 1.000 1.000 1.000 -9999.000 -9999.000 -9999.000 -9999.000 -9999.000 
-9999.000 -9999.000 -9999.000 -9999.000 -9999.000 -9999.000 -9999.000 -9999.000 -9999.000 -9999.000 -9999.000 -9999.000 -9999.000 -9999.000 -9999.000 -9999.000 -9999.000 -9999.000 -9999.000 -9999.000 -9999.000 -9999.000 -9999.000 -9999.000 -9999.000 -9999.000 -9999.000 -9999.000 -9999.000 -9999.000 -9999.000 -9999.000 -9999.000 -9999.000 -9999.000 -9999.000 -9999.000 -9999.000 -9999.000 -9999.000 -9999.000 -9999.000 -9999.000 -9999.000 -9999.000 -9999.000 -9999.000 -9999.000 -9999.000 -9999.000 -9999.000 -9999.000 -9999.000 -9999.000 -9999.000 -9999.000 -9999.000 -9999.000 -9999.000 -9999.000 -9999.000 -9999.000 -9999.000 -9999.000 -9999.000 -9999.000 -9999.000 -9999.000 -9999.000 -9999.000 -9999.000 -9999.000 -9999.000 -9999.000 -9999.000 -9999.000 -9999.000 -9999.000 -9999.000 -9999.000 -9999.000 -9999.000 -9999.000 -9999.000 -9999.000 -9999.000 -9999.000 -9999.000 -9999.000 -9999.000 -9999.000 -9999.000 -9999.000 -9999.000 -9999.000 -9999.000 -9999.000 -9999.000 -9999.000 -9999.000 -9999.000 -9999.000 -9999.000 -9999.000 -9999.000 -9999.000 -9999.000 -9999.000 -9999.000 -9999.000 -9999.000 -9999.000 -9999.000 -9999.000 -9999.000 -9999.000 -9999.000 -9999.000 -9999.000 -9999.000 -9999.000 -9999.000 -9999.000 -9999.000 -9999.000 -9999.000 -9999.000 -9999.000 -9999.000 -9999.000 -9999.000 -9999.000 -9999.000 -9999.000 -9999.000 -9999.000 -9999.000 -9999.000 -9999.000 -9999.000 -9999.000 -9999.000 -9999.000 -9999.000 -9999.000 -9999.000 -9999.000 -9999.000 -9999.000 -9999.000 -9999.000 -9999.000 -9999.000 -9999.000 -9999.000 -9999.000 -9999.000 -9999.000 -9999.000 -9999.000 -9999.000 -9999.000 -9999.000 -9999.000 -9999.000 -9999.000 -9999.000 -9999.000 
-9999.000 -9999.000 -9999.000 -9999.000 -9999.000 -9999.000 -9999.000 -9999.000 -9999.000 -9999.000 -9999.000 -9999.000 -9999.000 -9999.000 -9999.000 -9999.000 -9999.000 -9999.000 -9999.000 -9999.000 -9999.000 -9999.000 -9999.000 -9999.000 -9999.000 -9999.000 -9999.000 -9999.000 -9999.000 -9999.000 -9999.000 -9999.000 -9999.000 -9999.000 -9999.000 -9999.000 -9999.000 -9999.000 -9999.000 -9999.000 -9999.000 -9999.000 -9999.000 -9999.000 -9999.000 -9999.000 -9999.000 -9999.000 -9999.000 -9999.000 -9999.000 -9999.000 -9999.000 -9999.000 -9999.000 -9999.000 -9999.000 -9999.000 -9999.000 -9999.000 -9999.000 -9999.000 -9999.000 -9999.000 -9999.000 -9999.000 -9999.000 -9999.000 -9999.000 -9999.000 -9999.000 -9999.000 -9999.000 -9999.000 -9999.000 -9999.000 -9999.000 -9999.000 -9999.000 -9999.000 -9999.000 -9999.000 -9999.000 -9999.000 -9999.000 -9999.000 -9999.000 -9999.000 -9999.000 -9999.000 -9999.000 -9999.000 -9999.000 -9999.000 -9999.000 -9999.000 -9999.000 -9999.000 -9999.000 -9999.000 -9999.000 -9999.000 -9999.000 -9999.000 -9999.000 -9999.000 -9999.000 -9999.000 -9999.000 -9999.000 -9999.000 -9999.000 -9999.000 -9999.000 -9999.000 -9999.000 -9999.000 -9999.000 -9999.000 -9999.000 -9999.000 -9999.000 -9999.000 -9999.000 -9999.000 -9999.000 -9999.000 -9999.000 -9999.000 -9999.000 -9999.000 -9999.000 -9999.000 -9999.000 -9999.000 -9999.000 -9999.000 -9999.000 -9999.000 -9999.000 -9999.000 -9999.000 -9999.000 -9999.000 -9999.000 -9999.000 -9999.000 -9999.000 -9999.000 -9999.000 -9999.000 -9999.000 -9999.000 -9999.000 -9999.000 -9999.000 -9999.000 -9999.000 -9999.000 -9999.000 -9999.000 -9999.000 -9999.000 -9999.000 -9999.000 -9999.000 -9999.000 -9999.000 
-9999.000 -9999.000 -9999.000 -9999.000 -9999.000 -9999.000 -9999.000 -9999.000 -9999.000 -9999.000 -9999.000 -9999.000 -9999.000 -9999.000 -9999.000 -9999.000 -9999.000 -9999.000 -9999.000 -9999.000 -9999.000 -9999.000 -9999.000 -9999.000 -9999.000 -9999.000 -9999.000 -9999.000 -9999.000 -9999.000 -9999.000 -9999.000 -9999.000 -9999.000 -9999.000 -9999.000 -9999.000 -9999.000 -9999.000 -9999.000 -9999.000 -9999.000 -9999.000 -9999.000 -9999.000 -9999.000 -9999.000 -9999.000 -9999.000 -9999.000 -9999.000 -9999.000 -9999.000 -9999.000 -9999.000 -9999.000 -9999.000 -9999.000 -9999.000 -9999.000 -9999.000 -9999.000 -9999.000 -9999.000 -9999.000 -9999.000 -9999.000 -9999.000 -9999.000 -9999.000 -9999.000 -9999.000 -9999.000 -9999.000 -9999.000 -9999.000 -9999.000 -9999.000 -9999.000 -9999.000 -9999.000 -9999.000 -9999.000 -9999.000 -9999.000 -9999.000 -9999.000 -9999.000 -9999.000 -9999.000 -9999.000 -9999.000 -9999.000 -9999.000 -9999.000 -9999.000 -9999.000 -9999.000 -9999.000 -9999.000 -9999.000 -9999.000 -9999.000 -9999.000 -9999.000 -9999.000 -9999.000 -9999.000 -9999.000 -9999.000 -9999.000 -9999.000 -9999.000 -9999.000 -9999.000 -9999.000 -9999.000 -9999.000 -9999.000 -9999.000 -9999.000 -9999.000 -9999.000 -9999.000 -9999.000 -9999.000 -9999.000 -9999.000 -9999.000 -9999.000 -9999.000 -9999.000 -9999.000 -9999.000 -9999.000 -9999.000 -9999.000 -9999.000 -9999.000 -9999.000 -9999.000 -9999.000 -9999.000 -9999.000 -9999.000 -9999.000 -9999.000 -9999.000 -9999.000 -9999.000 -9999.000 -9999.000 -9999.000 -9999.000 -9999.000 -9999.000 -9999.000 -9999.000 -9999.000 -9999.000 -9999.000 -9999.000 -9999.000 -9999.000 -9999.000 -9999.000 -9999.000 -9999.000 
-9999.000 -9999.000 -9999.000 -9999.000 -9999.000 -9999.000 -9999.000 -9999.000 -9999.000 -9999.000 -9999.000 -9999.000 -9999.000 -9999.000 -9999.000 -9999.000 -9999.000 -9999.000 -9999.000 -9999.000 -9999.000 -9999.000 -9999.000 -9999.000 -9999.000 -9999.000 -9999.000 -9999.000 -9999.000 -9999.000 -9999.000 -9999.000 -9999.000 -9999.000 -9999.000 -9999.000 -9999.000 -9999.000 -9999.000 -9999.000 -9999.000 -9999.000 -9999.000 -9999.000 -9999.000 -9999.000 -9999.000 -9999.000 -9999.000 -9999.000 -9999.000 -9999.000 -9999.000 -9999.000 -9999.000 -9999.000 -9999.000 -9999.000 -9999.000 -9999.000 -9999.000 -9999.000 -9999.000 -9999.000 -9999.000 -9999.000 -9999.000 -9999.000 -9999.000 -9999.000 -9999.000 -9999.000 -9999.000 -9999.000 -9999.000 -9999.000 -9999.000 -9999.000 -9999.000 -9999.000 -9999.000 -9999.000 -9999.000 -9999.000 -9999.000 -9999.000 -9999.000 -9999.000 -9999.000 -9999.000 -9999.000 -9999.000 -9999.000 -9999.000 -9999.000 -9999.000 -9999.000 -9999.000 -9999.000 -9999.000 -9999.000 -9999.000 -9999.000 -9999.000 -9999.000 -9999.000 -9999.000 -9999.000 -9999.000 -9999.000 -9999.000 -9999.000 -9999.000 -9999.000 -9999.000 -9999.000 -9999.000 -9999.000 -9999.000 -9999.000 -9999.000 -9999.000 -9999.000 -9999.000 -9999.000 -9999.000 -9999.000 -9999.000 -9999.000 -9999.000 -9999.000 -9999.000 -9999.000 -9999.000 -9999.000 -9999.000 -9999.000 -9999.000 -9999.000 -9999.000 -9999.000 -9999.000 -9999.000 -9999.000 -9999.000 -9999.000 -9999.000 -9999.000 -9999.000 -9999.000 -9999.000 -9999.000 -9999.000 -9999.000 -9999.000 -9999.000 -9999.000 -9999.000 -9999.000 -9999.000 -9999.000 -9999.000 -9999.000 -9999.000 -9999.000 -9999.000 -9999.000 -9999.000 
