ncols 121
nrows 121
xllcenter 614385.88
yllcenter 1276940.75
cellsize 92.28
NODATA_value -9999.000
0.000 0.000 0.000 0.000 0.000 0.000 0.000 0.000 0.000 0.000 0.000 0.000 0.000 0.000 0.000 0.000 0.000 0.000 0.000 0.000 0.000 0.000 0.000 0.000 0.000 0.000 0.000 0.000 0.000 0.000 0.000 0.000 0.000 0.000 0.000 0.000 0.000 0.000 0.000 0.000 0.000 0.000 0.000 0.000 0.000 0.000 0.000 0.000 0.000 0.000 0.000 0.000 0.000 0.000 0.000 0.000 0.000 0.000 0.000 0.000 0.000 0.000 0.000 0.000 0.000 0.000 0.000 0.000 0.000 0.000 0.000 0.000 0.000 0.000 0.000 0.000 0.000 0.000 0.000 0.000 0.000 0.000 0.000 0.000 0.000 0.000 0.000 0.000 0.000 0.000 0.000 0.000 0.000 0.000 0.000 0.000 0.000 0.000 0.000 0.000 0.000 0.000 0.000 0.000 0.000 0.000 0.000 0.000 0.000 0.000 0.000 0.000 0.000 0.000 0.000 0.000 0.000 0.000 0.000 0.000 0.000 
0.000 0.000 0.005 0.066 0.328 0.746 0.995 1.050 1.055 1.055 1.055 1.056 1.056 1.056 1.056 1.056 1.056 1.056 1.056 1.057 1.057 1.057 1.057 1.057 1.057 1.057 1.057 1.058 1.058 1.058 1.058 1.058 1.058 1.058 1.059 1.059 1.059 1.059 1.058 1.056 1.052 1.050 1.051 1.054 1.057 1.059 1.060 1.060 1.060 1.061 1.061 1.060 1.059 1.056 1.053 1.051 1.053 1.057 1.059 1.060 1.060 1.061 1.061 1.052 1.009 0.944 0.942 1.007 1.052 1.062 1.063 1.063 1.063 1.063 1.060 1.056 1.055 1.067 1.100 1.138 1.143 1.079 0.986 0.972 1.024 1.057 1.065 1.065 1.065 1.066 1.066 1.066 1.066 1.066 1.066 1.066 1.066 1.067 1.067 1.067 1.067 1.067 1.067 1.067 1.067 1.067 1.054 1.004 0.950 0.962 0.962 0.882 0.789 0.779 0.862 0.970 1.036 1.056 1.057 1.017 0.000 
0.000 0.000 0.008 0.081 0.364 0.800 1.056 1.112 1.117 1.117 1.117 1.118 1.118 1.119 1.119 1.119 1.119 1.120 1.120 1.120 1.121 1.121 1.121 1.122 1.122 1.122 1.123 1.123 1.124 1.124 1.124 1.125 1.125 1.125 1.126 1.126 1.126 1.125 1.120 1.106 1.085 1.070 1.074 1.094 1.114 1.125 1.129 1.130 1.130 1.130 1.130 1.128 1.119 1.101 1.079 1.070 1.082 1.103 1.115 1.112 1.112 1.124 1.132 1.132 1.120 1.101 1.101 1.120 1.133 1.136 1.137 1.137 1.137 1.132 1.117 1.086 1.057 1.058 1.101 1.160 1.194 1.179 1.140 1.124 1.132 1.140 1.142 1.142 1.143 1.143 1.143 1.144 1.144 1.144 1.144 1.145 1.145 1.145 1.146 1.146 1.147 1.147 1.147 1.148 1.148 1.148 1.146 1.135 1.119 1.100 1.031 0.899 0.783 0.784 0.899 1.030 1.094 1.099 1.088 1.016 0.000 
0.000 0.002 0.022 0.048 0.216 0.581 0.917 1.064 1.112 1.131 1.140 1.147 1.150 1.152 1.153 1.154 1.155 1.155 1.156 1.157 1.157 1.158 1.158 1.159 1.159 1.159 1.160 1.160 1.160 1.161 1.161 1.161 1.161 1.161 1.162 1.161 1.161 1.159 1.156 1.145 1.123 1.102 1.097 1.107 1.130 1.148 1.158 1.162 1.164 1.165 1.165 1.164 1.158 1.143 1.118 1.101 1.102 1.118 1.137 1.142 1.143 1.149 1.163 1.168 1.167 1.156 1.149 1.153 1.165 1.171 1.172 1.171 1.168 1.162 1.148 1.122 1.086 1.073 1.087 1.136 1.182 1.193 1.178 1.158 1.155 1.162 1.166 1.168 1.168 1.168 1.166 1.163 1.161 1.159 1.159 1.159 1.160 1.161 1.163 1.166 1.172 1.178 1.182 1.185 1.187 1.188 1.188 1.184 1.172 1.154 1.114 1.014 0.878 0.833 0.867 0.983 1.071 1.104 1.114 1.011 0.000 
0.000 0.004 0.051 0.083 0.261 0.577 0.862 1.026 1.115 1.164 1.194 1.214 1.226 1.233 1.238 1.241 1.244 1.246 1.248 1.249 1.251 1.252 1.253 1.253 1.254 1.254 1.254 1.254 1.254 1.253 1.252 1.251 1.251 1.251 1.250 1.248 1.243 1.238 1.231 1.219 1.196 1.180 1.176 1.179 1.195 1.214 1.229 1.238 1.243 1.246 1.246 1.244 1.239 1.226 1.204 1.190 1.188 1.193 1.205 1.215 1.222 1.229 1.241 1.250 1.256 1.257 1.254 1.252 1.253 1.255 1.254 1.249 1.239 1.224 1.199 1.166 1.138 1.128 1.131 1.155 1.188 1.207 1.215 1.216 1.218 1.222 1.225 1.227 1.227 1.224 1.218 1.208 1.199 1.194 1.193 1.192 1.193 1.196 1.203 1.214 1.230 1.249 1.263 1.273 1.279 1.282 1.282 1.281 1.274 1.255 1.218 1.145 1.053 1.007 0.998 1.033 1.083 1.116 1.131 1.000 0.000 
0.000 0.010 0.083 0.124 0.307 0.596 0.854 1.024 1.135 1.214 1.268 1.305 1.329 1.345 1.356 1.363 1.367 1.371 1.375 1.378 1.380 1.382 1.384 1.384 1.384 1.385 1.385 1.384 1.382 1.380 1.378 1.377 1.377 1.375 1.372 1.367 1.359 1.348 1.331 1.311 1.293 1.283 1.280 1.281 1.288 1.304 1.325 1.341 1.350 1.354 1.356 1.354 1.349 1.340 1.324 1.309 1.299 1.294 1.295 1.299 1.303 1.308 1.315 1.325 1.336 1.342 1.345 1.346 1.346 1.346 1.343 1.335 1.321 1.297 1.264 1.230 1.207 1.196 1.193 1.197 1.213 1.235 1.257 1.276 1.288 1.295 1.299 1.300 1.300 1.295 1.285 1.268 1.252 1.243 1.239 1.239 1.240 1.246 1.258 1.280 1.312 1.345 1.370 1.386 1.396 1.399 1.400 1.399 1.393 1.376 1.345 1.295 1.230 1.175 1.139 1.122 1.121 1.128 1.133 0.989 0.000 
0.000 0.050 0.138 0.173 0.366 0.635 0.866 1.038 1.168 1.263 1.331 1.380 1.415 1.438 1.453 1.463 1.470 1.475 1.481 1.484 1.486 1.487 1.489 1.490 1.491 1.491 1.490 1.489 1.488 1.487 1.487 1.488 1.485 1.482 1.477 1.469 1.458 1.441 1.417 1.391 1.374 1.365 1.362 1.363 1.369 1.383 1.406 1.428 1.441 1.448 1.450 1.447 1.445 1.436 1.420 1.399 1.378 1.363 1.355 1.352 1.352 1.354 1.359 1.368 1.384 1.396 1.403 1.406 1.407 1.406 1.403 1.396 1.381 1.359 1.329 1.301 1.282 1.270 1.263 1.259 1.263 1.278 1.304 1.329 1.345 1.355 1.359 1.359 1.358 1.354 1.343 1.324 1.307 1.298 1.294 1.293 1.296 1.305 1.323 1.352 1.392 1.431 1.459 1.477 1.487 1.489 1.490 1.489 1.485 1.467 1.441 1.402 1.350 1.291 1.232 1.186 1.154 1.134 1.124 0.983 0.000 
0.000 0.244 0.337 0.287 0.469 0.703 0.902 1.064 1.193 1.295 1.372 1.431 1.474 1.503 1.523 1.535 1.541 1.549 1.554 1.557 1.557 1.558 1.559 1.559 1.560 1.560 1.560 1.560 1.561 1.563 1.564 1.563 1.560 1.557 1.551 1.543 1.530 1.510 1.481 1.453 1.434 1.425 1.422 1.423 1.428 1.442 1.466 1.491 1.507 1.514 1.516 1.514 1.511 1.501 1.484 1.457 1.425 1.400 1.385 1.378 1.376 1.376 1.380 1.389 1.407 1.425 1.436 1.442 1.443 1.443 1.440 1.434 1.421 1.401 1.377 1.357 1.343 1.335 1.330 1.328 1.329 1.336 1.355 1.377 1.392 1.400 1.404 1.404 1.403 1.399 1.389 1.372 1.356 1.348 1.345 1.346 1.350 1.361 1.382 1.413 1.454 1.494 1.523 1.540 1.548 1.550 1.551 1.550 1.545 1.529 1.505 1.471 1.425 1.366 1.294 1.224 1.170 1.132 1.109 0.982 0.000 
0.000 0.637 0.731 0.563 0.669 0.812 0.949 1.079 1.204 1.311 1.397 1.463 1.512 1.546 1.569 1.583 1.590 1.598 1.601 1.603 1.603 1.603 1.602 1.601 1.602 1.602 1.602 1.604 1.608 1.610 1.611 1.611 1.610 1.607 1.602 1.593 1.580 1.559 1.529 1.499 1.480 1.471 1.468 1.469 1.474 1.487 1.511 1.536 1.552 1.560 1.561 1.560 1.556 1.544 1.523 1.490 1.447 1.415 1.396 1.386 1.383 1.384 1.387 1.398 1.416 1.438 1.453 1.460 1.463 1.463 1.461 1.456 1.445 1.430 1.412 1.399 1.391 1.386 1.385 1.385 1.388 1.393 1.404 1.420 1.431 1.437 1.439 1.439 1.438 1.433 1.424 1.412 1.400 1.394 1.393 1.396 1.401 1.413 1.434 1.464 1.503 1.538 1.565 1.582 1.587 1.589 1.589 1.587 1.581 1.568 1.546 1.511 1.471 1.410 1.331 1.246 1.177 1.129 1.097 0.981 0.000 
0.000 0.981 1.055 0.904 0.882 0.916 0.985 1.085 1.206 1.320 1.412 1.484 1.537 1.574 1.598 1.613 1.623 1.628 1.630 1.630 1.630 1.628 1.625 1.624 1.624 1.625 1.625 1.630 1.635 1.639 1.641 1.641 1.641 1.639 1.634 1.626 1.613 1.593 1.565 1.536 1.517 1.507 1.505 1.505 1.510 1.522 1.545 1.568 1.583 1.589 1.590 1.589 1.582 1.567 1.541 1.503 1.454 1.418 1.397 1.387 1.384 1.384 1.388 1.399 1.419 1.444 1.461 1.469 1.473 1.473 1.472 1.468 1.459 1.448 1.437 1.430 1.426 1.425 1.427 1.429 1.433 1.437 1.445 1.454 1.461 1.465 1.466 1.466 1.464 1.459 1.451 1.445 1.439 1.436 1.438 1.443 1.450 1.463 1.482 1.509 1.541 1.569 1.591 1.608 1.609 1.611 1.611 1.609 1.603 1.592 1.571 1.537 1.496 1.433 1.353 1.258 1.180 1.124 1.087 0.990 0.000 
0.000 1.081 1.090 1.030 0.968 0.969 1.008 1.090 1.205 1.325 1.422 1.497 1.553 1.592 1.617 1.632 1.641 1.644 1.646 1.645 1.644 1.640 1.637 1.635 1.633 1.634 1.638 1.643 1.650 1.655 1.658 1.659 1.660 1.658 1.654 1.647 1.635 1.618 1.592 1.565 1.547 1.538 1.535 1.535 1.539 1.550 1.570 1.590 1.602 1.606 1.607 1.604 1.596 1.578 1.547 1.505 1.454 1.416 1.392 1.380 1.377 1.378 1.383 1.396 1.419 1.446 1.464 1.474 1.478 1.479 1.478 1.474 1.467 1.460 1.455 1.452 1.452 1.453 1.457 1.461 1.466 1.470 1.475 1.481 1.485 1.486 1.487 1.486 1.484 1.479 1.472 1.467 1.473 1.479 1.482 1.486 1.495 1.507 1.522 1.543 1.568 1.592 1.609 1.619 1.618 1.622 1.623 1.619 1.615 1.605 1.585 1.554 1.509 1.447 1.367 1.269 1.182 1.116 1.076 1.010 0.000 
0.000 1.042 0.945 1.007 0.976 0.985 1.024 1.099 1.208 1.331 1.431 1.507 1.563 1.603 1.629 1.644 1.651 1.654 1.654 1.653 1.649 1.644 1.641 1.640 1.640 1.641 1.643 1.648 1.656 1.663 1.667 1.669 1.669 1.668 1.665 1.660 1.649 1.634 1.612 1.588 1.571 1.562 1.559 1.559 1.562 1.572 1.588 1.604 1.612 1.615 1.615 1.611 1.601 1.580 1.547 1.499 1.446 1.406 1.378 1.359 1.360 1.363 1.371 1.388 1.417 1.446 1.465 1.476 1.481 1.483 1.482 1.479 1.473 1.468 1.466 1.465 1.466 1.471 1.477 1.483 1.489 1.493 1.497 1.500 1.501 1.502 1.502 1.500 1.497 1.493 1.489 1.490 1.500 1.507 1.513 1.519 1.528 1.539 1.553 1.569 1.588 1.606 1.620 1.619 1.623 1.627 1.628 1.625 1.622 1.612 1.593 1.563 1.518 1.457 1.378 1.281 1.186 1.111 1.064 1.029 0.000 
0.000 1.003 0.815 0.888 0.937 0.982 1.038 1.115 1.217 1.338 1.440 1.517 1.572 1.611 1.636 1.650 1.657 1.659 1.658 1.655 1.649 1.644 1.642 1.641 1.641 1.641 1.644 1.649 1.658 1.666 1.671 1.673 1.673 1.673 1.672 1.667 1.658 1.646 1.627 1.605 1.590 1.581 1.578 1.578 1.581 1.587 1.599 1.611 1.617 1.619 1.617 1.614 1.602 1.579 1.541 1.485 1.426 1.385 1.357 1.341 1.346 1.349 1.360 1.383 1.416 1.447 1.468 1.479 1.484 1.485 1.484 1.482 1.477 1.473 1.472 1.472 1.475 1.481 1.490 1.497 1.504 1.508 1.511 1.512 1.513 1.513 1.511 1.509 1.506 1.504 1.503 1.506 1.514 1.524 1.535 1.545 1.555 1.565 1.576 1.588 1.602 1.614 1.620 1.618 1.625 1.629 1.629 1.629 1.625 1.616 1.598 1.569 1.526 1.466 1.389 1.294 1.197 1.116 1.061 1.050 0.000 
0.000 0.992 0.766 0.809 0.889 0.973 1.053 1.137 1.238 1.353 1.452 1.528 1.582 1.618 1.640 1.653 1.659 1.661 1.658 1.654 1.648 1.641 1.642 1.640 1.640 1.640 1.642 1.648 1.658 1.666 1.672 1.674 1.674 1.674 1.672 1.669 1.664 1.652 1.636 1.617 1.603 1.595 1.591 1.591 1.592 1.596 1.605 1.614 1.618 1.619 1.618 1.614 1.600 1.573 1.528 1.464 1.404 1.362 1.341 1.338 1.340 1.344 1.357 1.382 1.418 1.450 1.471 1.482 1.487 1.488 1.487 1.485 1.481 1.478 1.477 1.478 1.481 1.488 1.498 1.507 1.513 1.518 1.520 1.521 1.521 1.520 1.517 1.514 1.512 1.512 1.512 1.515 1.525 1.536 1.550 1.564 1.574 1.583 1.592 1.601 1.610 1.617 1.616 1.619 1.625 1.630 1.631 1.630 1.627 1.619 1.602 1.575 1.533 1.475 1.400 1.309 1.220 1.144 1.090 1.073 0.000 
0.000 0.998 0.774 0.794 0.877 0.972 1.068 1.165 1.269 1.377 1.470 1.541 1.591 1.625 1.644 1.655 1.659 1.659 1.655 1.650 1.642 1.637 1.638 1.640 1.636 1.635 1.637 1.644 1.655 1.665 1.671 1.673 1.674 1.674 1.674 1.671 1.665 1.655 1.641 1.625 1.611 1.602 1.598 1.597 1.597 1.600 1.606 1.614 1.618 1.619 1.617 1.610 1.594 1.563 1.514 1.451 1.396 1.360 1.347 1.340 1.339 1.344 1.358 1.386 1.425 1.457 1.477 1.488 1.493 1.495 1.494 1.491 1.487 1.484 1.484 1.485 1.487 1.493 1.503 1.512 1.519 1.524 1.527 1.527 1.527 1.525 1.521 1.518 1.517 1.516 1.518 1.521 1.531 1.542 1.561 1.578 1.589 1.596 1.602 1.608 1.614 1.615 1.616 1.620 1.626 1.630 1.632 1.631 1.629 1.622 1.607 1.581 1.541 1.485 1.412 1.329 1.259 1.204 1.156 1.095 0.000 
0.000 1.017 0.843 0.821 0.891 0.986 1.093 1.202 1.311 1.411 1.494 1.558 1.603 1.632 1.649 1.657 1.659 1.658 1.655 1.648 1.638 1.633 1.632 1.634 1.629 1.624 1.628 1.637 1.650 1.661 1.668 1.671 1.672 1.672 1.671 1.669 1.663 1.654 1.642 1.627 1.614 1.606 1.601 1.598 1.598 1.600 1.605 1.612 1.615 1.615 1.613 1.605 1.586 1.555 1.508 1.447 1.396 1.365 1.352 1.346 1.345 1.351 1.368 1.399 1.441 1.472 1.492 1.502 1.507 1.508 1.507 1.503 1.497 1.493 1.492 1.492 1.493 1.499 1.508 1.518 1.525 1.529 1.532 1.532 1.531 1.528 1.524 1.521 1.520 1.520 1.521 1.525 1.534 1.548 1.568 1.587 1.599 1.605 1.609 1.612 1.614 1.615 1.617 1.621 1.626 1.632 1.632 1.633 1.631 1.625 1.612 1.588 1.552 1.499 1.429 1.352 1.293 1.254 1.223 1.097 0.000 
0.000 1.054 0.985 0.914 0.953 1.029 1.134 1.252 1.363 1.455 1.527 1.581 1.617 1.641 1.653 1.658 1.660 1.659 1.656 1.648 1.637 1.628 1.624 1.622 1.619 1.615 1.618 1.627 1.641 1.654 1.661 1.665 1.666 1.666 1.665 1.662 1.658 1.651 1.641 1.629 1.617 1.608 1.601 1.598 1.597 1.598 1.601 1.605 1.607 1.607 1.604 1.596 1.579 1.551 1.508 1.451 1.404 1.380 1.367 1.363 1.363 1.371 1.390 1.424 1.467 1.497 1.516 1.525 1.529 1.529 1.528 1.522 1.514 1.507 1.504 1.502 1.500 1.506 1.514 1.523 1.530 1.535 1.537 1.538 1.535 1.531 1.527 1.524 1.523 1.523 1.523 1.527 1.536 1.551 1.573 1.591 1.604 1.610 1.613 1.614 1.615 1.616 1.618 1.622 1.628 1.633 1.634 1.635 1.634 1.630 1.619 1.599 1.567 1.519 1.455 1.378 1.313 1.272 1.253 1.078 0.000 
0.000 1.092 1.124 1.062 1.070 1.114 1.202 1.321 1.428 1.510 1.569 1.609 1.636 1.652 1.659 1.662 1.663 1.661 1.657 1.649 1.637 1.625 1.617 1.611 1.609 1.608 1.610 1.617 1.630 1.643 1.651 1.655 1.656 1.656 1.653 1.651 1.649 1.645 1.638 1.628 1.617 1.608 1.600 1.594 1.591 1.590 1.591 1.592 1.593 1.593 1.590 1.584 1.572 1.551 1.516 1.469 1.433 1.412 1.402 1.399 1.401 1.409 1.429 1.464 1.505 1.533 1.550 1.559 1.561 1.561 1.558 1.550 1.538 1.527 1.520 1.516 1.513 1.517 1.522 1.530 1.536 1.540 1.542 1.543 1.539 1.535 1.530 1.527 1.526 1.525 1.525 1.529 1.538 1.555 1.576 1.593 1.603 1.610 1.614 1.616 1.617 1.618 1.619 1.623 1.630 1.635 1.638 1.639 1.639 1.638 1.631 1.615 1.586 1.543 1.483 1.403 1.325 1.272 1.243 1.060 0.000 
0.000 1.119 1.200 1.168 1.178 1.219 1.300 1.409 1.499 1.563 1.607 1.636 1.653 1.663 1.668 1.669 1.666 1.664 1.659 1.650 1.638 1.624 1.611 1.603 1.600 1.600 1.602 1.608 1.618 1.630 1.637 1.640 1.641 1.641 1.642 1.640 1.637 1.634 1.630 1.624 1.616 1.606 1.595 1.585 1.578 1.573 1.571 1.571 1.571 1.571 1.571 1.571 1.568 1.559 1.540 1.512 1.487 1.472 1.466 1.464 1.465 1.472 1.489 1.518 1.553 1.576 1.590 1.597 1.598 1.598 1.594 1.585 1.570 1.555 1.545 1.538 1.535 1.535 1.537 1.542 1.547 1.549 1.550 1.549 1.546 1.541 1.535 1.531 1.529 1.528 1.529 1.533 1.542 1.559 1.579 1.594 1.602 1.609 1.614 1.618 1.619 1.620 1.621 1.625 1.632 1.640 1.645 1.647 1.648 1.649 1.643 1.628 1.602 1.562 1.502 1.420 1.330 1.263 1.219 1.041 0.000 
0.000 1.138 1.236 1.227 1.253 1.310 1.395 1.485 1.552 1.601 1.635 1.656 1.667 1.671 1.673 1.673 1.673 1.669 1.662 1.652 1.638 1.621 1.607 1.596 1.591 1.591 1.594 1.598 1.604 1.614 1.621 1.624 1.626 1.626 1.626 1.626 1.625 1.623 1.620 1.616 1.610 1.600 1.587 1.569 1.555 1.546 1.541 1.539 1.539 1.540 1.545 1.555 1.568 1.582 1.591 1.588 1.581 1.575 1.572 1.569 1.566 1.563 1.569 1.584 1.605 1.619 1.626 1.628 1.629 1.628 1.625 1.618 1.607 1.591 1.580 1.572 1.567 1.565 1.564 1.565 1.566 1.565 1.563 1.559 1.555 1.550 1.543 1.538 1.535 1.534 1.535 1.539 1.547 1.564 1.583 1.597 1.606 1.612 1.617 1.619 1.621 1.623 1.626 1.633 1.640 1.648 1.654 1.657 1.659 1.657 1.651 1.638 1.613 1.573 1.513 1.430 1.330 1.250 1.198 1.021 0.000 
0.000 1.155 1.262 1.265 1.306 1.376 1.455 1.529 1.587 1.627 1.654 1.669 1.676 1.678 1.677 1.678 1.679 1.675 1.667 1.656 1.640 1.621 1.602 1.591 1.587 1.585 1.585 1.587 1.590 1.598 1.606 1.611 1.614 1.615 1.615 1.615 1.615 1.613 1.610 1.605 1.599 1.589 1.571 1.545 1.522 1.507 1.499 1.497 1.498 1.503 1.516 1.538 1.567 1.609 1.664 1.711 1.730 1.737 1.737 1.731 1.715 1.688 1.668 1.660 1.660 1.659 1.658 1.656 1.653 1.651 1.649 1.646 1.642 1.635 1.628 1.623 1.618 1.614 1.611 1.607 1.602 1.595 1.586 1.578 1.571 1.563 1.555 1.549 1.546 1.545 1.545 1.548 1.556 1.572 1.589 1.602 1.610 1.615 1.618 1.620 1.621 1.623 1.627 1.633 1.643 1.653 1.660 1.662 1.662 1.662 1.657 1.644 1.620 1.579 1.519 1.434 1.325 1.236 1.179 1.002 0.000 
0.000 1.173 1.288 1.295 1.343 1.417 1.489 1.559 1.609 1.645 1.663 1.676 1.682 1.683 1.682 1.683 1.682 1.678 1.671 1.658 1.645 1.625 1.605 1.593 1.585 1.579 1.577 1.577 1.580 1.585 1.593 1.601 1.605 1.607 1.608 1.608 1.607 1.604 1.600 1.594 1.586 1.572 1.544 1.512 1.484 1.468 1.461 1.460 1.462 1.472 1.492 1.521 1.560 1.614 1.705 1.852 1.957 1.983 1.986 1.972 1.930 1.857 1.787 1.743 1.716 1.699 1.689 1.681 1.675 1.672 1.670 1.671 1.674 1.682 1.693 1.698 1.697 1.694 1.689 1.681 1.668 1.649 1.627 1.609 1.595 1.584 1.575 1.568 1.565 1.562 1.560 1.564 1.571 1.583 1.598 1.608 1.613 1.618 1.619 1.620 1.621 1.623 1.626 1.633 1.644 1.656 1.663 1.666 1.666 1.666 1.661 1.648 1.623 1.582 1.520 1.433 1.320 1.221 1.160 0.990 0.000 
0.000 1.193 1.313 1.322 1.371 1.442 1.516 1.580 1.623 1.653 1.668 1.677 1.683 1.687 1.688 1.687 1.684 1.680 1.672 1.659 1.647 1.626 1.605 1.589 1.578 1.571 1.569 1.569 1.570 1.574 1.584 1.593 1.598 1.601 1.602 1.602 1.600 1.596 1.591 1.583 1.570 1.552 1.515 1.478 1.452 1.439 1.434 1.434 1.439 1.452 1.473 1.503 1.541 1.597 1.700 1.941 2.244 2.355 2.359 2.326 2.238 2.086 1.935 1.837 1.776 1.740 1.719 1.707 1.698 1.692 1.690 1.691 1.699 1.720 1.755 1.794 1.821 1.824 1.819 1.806 1.782 1.744 1.696 1.659 1.633 1.617 1.605 1.597 1.592 1.586 1.583 1.586 1.591 1.599 1.609 1.614 1.617 1.620 1.619 1.619 1.620 1.621 1.625 1.632 1.644 1.657 1.665 1.668 1.669 1.668 1.662 1.649 1.624 1.583 1.520 1.431 1.312 1.207 1.141 0.986 0.000 
0.000 1.213 1.332 1.343 1.385 1.458 1.536 1.591 1.631 1.656 1.671 1.680 1.685 1.688 1.689 1.689 1.687 1.682 1.673 1.664 1.647 1.626 1.601 1.582 1.569 1.563 1.560 1.560 1.560 1.565 1.576 1.586 1.592 1.594 1.596 1.595 1.593 1.589 1.582 1.571 1.555 1.529 1.491 1.453 1.430 1.420 1.417 1.419 1.427 1.441 1.458 1.478 1.501 1.533 1.606 1.877 2.414 2.716 2.769 2.728 2.598 2.367 2.121 1.951 1.846 1.786 1.752 1.733 1.724 1.714 1.711 1.710 1.716 1.743 1.789 1.850 1.944 2.021 2.030 2.012 1.971 1.901 1.810 1.738 1.691 1.663 1.647 1.635 1.626 1.617 1.613 1.614 1.615 1.618 1.622 1.622 1.622 1.621 1.618 1.617 1.617 1.618 1.622 1.630 1.643 1.657 1.666 1.669 1.670 1.669 1.663 1.650 1.624 1.583 1.519 1.426 1.303 1.195 1.124 0.982 0.000 
0.000 1.217 1.326 1.348 1.393 1.468 1.542 1.596 1.633 1.658 1.673 1.682 1.686 1.689 1.689 1.689 1.688 1.684 1.676 1.663 1.645 1.622 1.596 1.574 1.560 1.553 1.551 1.551 1.555 1.561 1.571 1.580 1.585 1.587 1.588 1.587 1.585 1.581 1.573 1.560 1.540 1.510 1.469 1.436 1.416 1.408 1.407 1.412 1.421 1.436 1.446 1.449 1.439 1.405 1.350 1.498 2.096 2.766 2.998 2.972 2.833 2.579 2.281 2.066 1.925 1.840 1.793 1.768 1.754 1.741 1.737 1.729 1.732 1.736 1.757 1.825 1.961 2.185 2.311 2.318 2.265 2.155 1.992 1.856 1.773 1.722 1.691 1.670 1.657 1.648 1.643 1.641 1.640 1.639 1.637 1.634 1.628 1.621 1.617 1.615 1.614 1.615 1.619 1.628 1.642 1.657 1.666 1.670 1.670 1.669 1.663 1.650 1.625 1.582 1.517 1.421 1.296 1.184 1.109 0.980 0.000 
0.000 1.187 1.275 1.332 1.390 1.467 1.541 1.597 1.633 1.657 1.673 1.683 1.687 1.689 1.690 1.689 1.686 1.681 1.673 1.654 1.639 1.616 1.588 1.565 1.550 1.543 1.541 1.542 1.546 1.554 1.564 1.572 1.577 1.579 1.579 1.579 1.577 1.572 1.563 1.549 1.525 1.491 1.451 1.423 1.407 1.402 1.402 1.409 1.420 1.436 1.440 1.435 1.408 1.327 1.136 0.900 1.033 1.725 2.463 2.871 2.896 2.678 2.370 2.144 2.000 1.906 1.848 1.815 1.793 1.780 1.772 1.759 1.762 1.756 1.727 1.680 1.764 2.094 2.440 2.554 2.541 2.431 2.224 2.012 1.867 1.776 1.721 1.692 1.678 1.671 1.669 1.667 1.666 1.662 1.656 1.646 1.633 1.622 1.616 1.614 1.613 1.614 1.618 1.627 1.642 1.657 1.666 1.669 1.670 1.669 1.663 1.650 1.624 1.581 1.516 1.420 1.293 1.176 1.098 0.979 0.000 
0.000 1.133 1.196 1.277 1.367 1.460 1.535 1.589 1.628 1.657 1.673 1.683 1.687 1.688 1.687 1.687 1.685 1.679 1.669 1.648 1.630 1.606 1.577 1.554 1.540 1.532 1.530 1.531 1.534 1.541 1.553 1.561 1.564 1.567 1.568 1.568 1.566 1.561 1.551 1.534 1.509 1.473 1.436 1.413 1.401 1.398 1.400 1.407 1.423 1.437 1.440 1.433 1.401 1.311 1.112 0.774 0.531 0.507 0.859 1.544 2.272 2.563 2.380 2.171 2.062 1.987 1.924 1.877 1.853 1.840 1.828 1.821 1.823 1.811 1.779 1.715 1.654 1.705 2.044 2.432 2.626 2.564 2.376 2.133 1.936 1.811 1.737 1.700 1.687 1.686 1.692 1.695 1.695 1.692 1.680 1.659 1.638 1.624 1.617 1.614 1.613 1.614 1.618 1.627 1.643 1.657 1.665 1.669 1.669 1.669 1.664 1.648 1.622 1.580 1.515 1.420 1.293 1.171 1.088 0.978 0.000 
0.000 1.085 1.131 1.201 1.315 1.435 1.522 1.586 1.630 1.657 1.673 1.682 1.684 1.686 1.688 1.686 1.683 1.675 1.662 1.643 1.619 1.591 1.562 1.541 1.527 1.519 1.516 1.515 1.517 1.522 1.532 1.541 1.546 1.550 1.551 1.551 1.549 1.545 1.535 1.517 1.490 1.453 1.422 1.404 1.397 1.397 1.398 1.408 1.429 1.443 1.445 1.437 1.406 1.318 1.139 0.845 0.535 0.351 0.299 0.464 1.094 1.966 2.250 2.169 2.093 2.051 2.000 1.957 1.939 1.931 1.922 1.887 1.871 1.886 1.915 1.880 1.780 1.624 1.480 1.595 1.979 2.383 2.406 2.198 1.974 1.827 1.742 1.700 1.688 1.691 1.713 1.731 1.732 1.725 1.704 1.671 1.644 1.627 1.619 1.615 1.615 1.616 1.620 1.629 1.644 1.658 1.664 1.668 1.665 1.667 1.660 1.647 1.622 1.580 1.516 1.424 1.297 1.168 1.079 0.990 0.000 
0.000 1.063 1.105 1.155 1.271 1.406 1.507 1.578 1.624 1.653 1.671 1.681 1.686 1.689 1.688 1.685 1.679 1.669 1.653 1.631 1.604 1.573 1.545 1.524 1.510 1.501 1.495 1.493 1.493 1.496 1.503 1.511 1.517 1.521 1.523 1.524 1.524 1.520 1.511 1.495 1.465 1.432 1.409 1.396 1.393 1.394 1.397 1.413 1.440 1.455 1.458 1.451 1.419 1.347 1.215 0.985 0.679 0.453 0.358 0.380 0.689 1.489 1.968 2.073 2.065 2.026 2.008 2.036 2.049 2.056 2.014 1.903 1.868 1.906 2.087 2.179 2.088 1.846 1.494 1.244 1.182 1.559 2.087 2.174 1.989 1.829 1.740 1.693 1.676 1.683 1.723 1.773 1.779 1.760 1.721 1.679 1.650 1.632 1.623 1.619 1.619 1.620 1.623 1.632 1.646 1.659 1.664 1.666 1.664 1.667 1.660 1.646 1.621 1.581 1.520 1.432 1.309 1.174 1.077 1.015 0.000 
0.000 1.062 1.108 1.143 1.251 1.391 1.498 1.572 1.620 1.650 1.669 1.680 1.685 1.687 1.686 1.682 1.674 1.661 1.640 1.618 1.590 1.560 1.532 1.509 1.491 1.477 1.468 1.462 1.459 1.459 1.462 1.467 1.474 1.477 1.480 1.484 1.485 1.483 1.476 1.463 1.436 1.411 1.394 1.388 1.387 1.390 1.397 1.418 1.453 1.476 1.483 1.480 1.463 1.423 1.339 1.188 0.949 0.726 0.605 0.575 0.722 1.218 1.608 1.744 1.776 1.819 1.980 2.139 2.191 2.165 1.994 1.801 1.728 1.757 2.046 2.397 2.398 2.198 1.785 1.366 1.153 1.142 1.513 1.892 1.925 1.814 1.727 1.674 1.636 1.613 1.645 1.760 1.810 1.779 1.726 1.683 1.656 1.640 1.631 1.627 1.627 1.628 1.631 1.638 1.649 1.655 1.660 1.664 1.666 1.666 1.659 1.645 1.621 1.584 1.527 1.446 1.333 1.201 1.101 1.039 0.000 
0.000 1.069 1.120 1.147 1.245 1.383 1.494 1.570 1.619 1.650 1.667 1.679 1.683 1.684 1.684 1.679 1.668 1.654 1.632 1.611 1.582 1.553 1.525 1.500 1.478 1.456 1.436 1.421 1.411 1.406 1.405 1.407 1.411 1.415 1.419 1.427 1.432 1.432 1.429 1.419 1.402 1.386 1.378 1.376 1.378 1.384 1.398 1.423 1.462 1.497 1.515 1.519 1.514 1.493 1.445 1.354 1.206 1.045 0.945 0.906 0.929 1.121 1.352 1.477 1.589 1.751 2.032 2.272 2.347 2.254 1.809 1.501 1.350 1.282 1.500 2.134 2.470 2.383 2.104 1.690 1.380 1.253 1.313 1.571 1.707 1.726 1.686 1.638 1.586 1.529 1.478 1.551 1.733 1.772 1.725 1.683 1.661 1.649 1.642 1.640 1.639 1.640 1.642 1.646 1.652 1.658 1.662 1.664 1.663 1.661 1.656 1.643 1.621 1.585 1.532 1.459 1.363 1.257 1.164 1.062 0.000 
0.000 1.077 1.134 1.159 1.249 1.381 1.493 1.571 1.622 1.652 1.666 1.676 1.681 1.682 1.682 1.678 1.666 1.650 1.629 1.606 1.579 1.549 1.522 1.496 1.471 1.444 1.415 1.385 1.359 1.342 1.333 1.330 1.331 1.334 1.340 1.352 1.365 1.372 1.373 1.370 1.364 1.360 1.359 1.361 1.367 1.378 1.397 1.425 1.466 1.509 1.537 1.549 1.550 1.541 1.515 1.462 1.374 1.264 1.182 1.138 1.132 1.175 1.274 1.375 1.495 1.700 2.041 2.329 2.410 2.091 1.334 0.978 0.792 0.635 0.607 1.049 1.891 2.323 2.221 1.928 1.625 1.453 1.397 1.431 1.519 1.589 1.606 1.589 1.558 1.509 1.446 1.426 1.547 1.688 1.699 1.677 1.662 1.655 1.652 1.651 1.650 1.649 1.649 1.650 1.653 1.658 1.660 1.661 1.659 1.656 1.649 1.638 1.619 1.585 1.534 1.462 1.375 1.300 1.236 1.082 0.000 
0.000 1.086 1.150 1.174 1.258 1.383 1.493 1.571 1.621 1.649 1.669 1.673 1.677 1.678 1.679 1.675 1.663 1.648 1.628 1.605 1.577 1.549 1.522 1.495 1.469 1.439 1.405 1.363 1.321 1.291 1.273 1.265 1.263 1.264 1.270 1.282 1.302 1.320 1.328 1.329 1.333 1.337 1.341 1.348 1.357 1.372 1.394 1.425 1.467 1.515 1.550 1.570 1.577 1.575 1.562 1.533 1.482 1.412 1.345 1.296 1.260 1.232 1.226 1.265 1.359 1.537 1.777 1.925 1.866 1.357 0.692 0.474 0.370 0.251 0.165 0.191 0.695 1.589 2.072 1.981 1.726 1.526 1.430 1.407 1.428 1.479 1.526 1.549 1.548 1.521 1.477 1.463 1.502 1.619 1.652 1.660 1.660 1.658 1.657 1.657 1.656 1.654 1.652 1.652 1.653 1.655 1.657 1.655 1.653 1.650 1.645 1.636 1.616 1.583 1.534 1.462 1.375 1.311 1.275 1.103 0.000 
0.000 1.097 1.168 1.192 1.272 1.390 1.494 1.565 1.614 1.650 1.663 1.666 1.673 1.673 1.673 1.670 1.661 1.647 1.628 1.605 1.579 1.551 1.524 1.497 1.470 1.439 1.402 1.353 1.299 1.258 1.232 1.219 1.215 1.216 1.220 1.232 1.253 1.277 1.292 1.300 1.309 1.318 1.328 1.338 1.352 1.370 1.394 1.426 1.467 1.516 1.556 1.583 1.597 1.602 1.599 1.588 1.562 1.523 1.476 1.430 1.373 1.280 1.146 1.087 1.091 1.106 1.069 0.935 0.722 0.428 0.218 0.159 0.115 0.069 0.043 0.030 0.096 0.560 1.355 1.791 1.718 1.531 1.404 1.352 1.344 1.374 1.463 1.537 1.556 1.551 1.537 1.535 1.548 1.593 1.635 1.653 1.658 1.660 1.660 1.659 1.658 1.655 1.652 1.650 1.649 1.648 1.648 1.647 1.647 1.651 1.645 1.631 1.611 1.579 1.530 1.459 1.370 1.305 1.269 1.104 0.000 
0.000 1.112 1.190 1.211 1.290 1.402 1.499 1.567 1.614 1.645 1.649 1.654 1.662 1.666 1.666 1.663 1.657 1.645 1.629 1.609 1.584 1.557 1.530 1.503 1.476 1.444 1.403 1.351 1.288 1.239 1.207 1.190 1.184 1.184 1.187 1.197 1.216 1.242 1.263 1.278 1.292 1.305 1.318 1.332 1.349 1.370 1.395 1.427 1.467 1.515 1.557 1.588 1.611 1.626 1.635 1.640 1.636 1.623 1.599 1.568 1.511 1.368 1.047 0.847 0.839 0.860 0.824 0.660 0.361 0.137 0.054 0.033 0.022 0.017 0.020 0.026 0.028 0.111 0.565 1.280 1.531 1.442 1.297 1.210 1.192 1.234 1.421 1.564 1.607 1.616 1.618 1.615 1.612 1.620 1.638 1.652 1.658 1.660 1.660 1.660 1.658 1.654 1.649 1.645 1.642 1.642 1.640 1.638 1.638 1.636 1.630 1.619 1.601 1.570 1.521 1.449 1.356 1.286 1.242 1.086 0.000 
0.000 1.128 1.214 1.233 1.310 1.419 1.509 1.572 1.613 1.634 1.641 1.649 1.654 1.656 1.657 1.655 1.651 1.644 1.632 1.615 1.594 1.571 1.545 1.517 1.486 1.451 1.408 1.353 1.286 1.231 1.193 1.173 1.165 1.164 1.165 1.173 1.189 1.214 1.239 1.260 1.277 1.294 1.311 1.330 1.350 1.371 1.397 1.429 1.468 1.515 1.556 1.591 1.620 1.646 1.671 1.694 1.716 1.734 1.762 1.780 1.764 1.614 1.141 0.760 0.740 0.801 0.801 0.650 0.322 0.104 0.029 0.015 0.013 0.016 0.024 0.035 0.043 0.058 0.215 0.749 1.115 1.140 1.045 0.927 0.887 1.050 1.478 1.692 1.735 1.734 1.709 1.686 1.664 1.653 1.651 1.655 1.659 1.660 1.660 1.659 1.655 1.649 1.641 1.634 1.629 1.626 1.624 1.622 1.620 1.616 1.611 1.602 1.586 1.554 1.505 1.430 1.330 1.251 1.208 1.068 0.000 
0.000 1.144 1.240 1.258 1.332 1.436 1.516 1.571 1.605 1.623 1.634 1.641 1.647 1.647 1.646 1.647 1.648 1.645 1.638 1.626 1.611 1.592 1.568 1.541 1.509 1.470 1.422 1.359 1.287 1.229 1.188 1.164 1.153 1.150 1.151 1.157 1.170 1.191 1.217 1.242 1.265 1.287 1.309 1.331 1.352 1.374 1.401 1.433 1.472 1.516 1.556 1.592 1.627 1.662 1.699 1.743 1.808 1.925 2.104 2.300 2.533 2.670 2.258 1.559 1.245 1.120 0.957 0.680 0.345 0.127 0.040 0.021 0.022 0.034 0.057 0.074 0.083 0.092 0.147 0.413 0.711 0.780 0.739 0.639 0.654 1.102 1.810 2.036 2.017 1.898 1.790 1.729 1.694 1.671 1.661 1.659 1.659 1.659 1.658 1.655 1.649 1.638 1.625 1.614 1.607 1.602 1.599 1.597 1.594 1.591 1.586 1.577 1.560 1.531 1.480 1.400 1.289 1.200 1.152 1.014 0.000 
0.000 1.161 1.265 1.282 1.353 1.447 1.517 1.564 1.592 1.609 1.619 1.627 1.635 1.637 1.637 1.641 1.645 1.646 1.644 1.639 1.630 1.616 1.597 1.572 1.541 1.499 1.443 1.372 1.293 1.231 1.186 1.159 1.145 1.140 1.140 1.143 1.153 1.171 1.195 1.224 1.252 1.282 1.309 1.333 1.356 1.382 1.410 1.442 1.479 1.520 1.557 1.593 1.628 1.667 1.717 1.774 1.877 2.056 2.380 2.893 3.619 4.355 4.626 4.275 3.703 2.946 1.897 1.011 0.579 0.351 0.190 0.096 0.074 0.093 0.147 0.186 0.196 0.196 0.213 0.333 0.547 0.624 0.597 0.545 0.700 1.750 2.704 2.690 2.370 2.043 1.849 1.745 1.698 1.678 1.667 1.661 1.657 1.655 1.652 1.647 1.637 1.618 1.598 1.583 1.573 1.568 1.565 1.563 1.562 1.559 1.555 1.547 1.530 1.500 1.447 1.360 1.238 1.135 1.079 0.927 0.000 
0.000 1.180 1.289 1.305 1.368 1.451 1.514 1.553 1.576 1.591 1.602 1.611 1.619 1.626 1.632 1.639 1.645 1.648 1.649 1.648 1.643 1.634 1.619 1.596 1.565 1.522 1.464 1.389 1.304 1.236 1.188 1.156 1.139 1.131 1.130 1.131 1.138 1.152 1.175 1.205 1.237 1.271 1.305 1.336 1.364 1.394 1.425 1.458 1.493 1.529 1.562 1.594 1.627 1.667 1.722 1.792 1.913 2.133 2.492 3.079 3.935 4.750 5.213 5.300 5.099 4.383 2.996 1.738 1.137 0.877 0.651 0.428 0.296 0.277 0.330 0.404 0.429 0.419 0.397 0.425 0.544 0.603 0.575 0.556 0.898 2.258 3.112 2.961 2.519 2.126 1.896 1.766 1.706 1.684 1.673 1.663 1.654 1.649 1.644 1.632 1.613 1.585 1.558 1.539 1.528 1.523 1.521 1.521 1.522 1.522 1.520 1.514 1.499 1.470 1.417 1.330 1.200 1.076 1.017 0.839 0.000 
0.000 1.199 1.310 1.323 1.376 1.450 1.506 1.541 1.562 1.577 1.588 1.598 1.609 1.619 1.630 1.640 1.647 1.652 1.654 1.654 1.652 1.647 1.634 1.611 1.580 1.538 1.481 1.406 1.317 1.245 1.192 1.155 1.133 1.122 1.119 1.119 1.123 1.134 1.154 1.184 1.221 1.261 1.301 1.340 1.377 1.412 1.445 1.478 1.510 1.541 1.569 1.591 1.622 1.663 1.718 1.798 1.930 2.167 2.559 3.187 3.992 4.631 5.007 5.134 5.008 4.378 3.179 2.087 1.473 1.153 0.938 0.741 0.599 0.548 0.557 0.610 0.662 0.693 0.673 0.647 0.660 0.656 0.614 0.620 0.975 2.184 2.993 2.929 2.549 2.165 1.934 1.801 1.733 1.699 1.680 1.665 1.651 1.639 1.624 1.603 1.574 1.536 1.505 1.485 1.475 1.472 1.473 1.477 1.485 1.488 1.488 1.485 1.473 1.445 1.394 1.310 1.184 1.040 0.949 0.798 0.000 
0.000 1.206 1.310 1.329 1.377 1.445 1.497 1.530 1.552 1.566 1.580 1.592 1.603 1.616 1.630 1.643 1.652 1.654 1.659 1.660 1.659 1.654 1.642 1.621 1.591 1.550 1.493 1.419 1.331 1.255 1.198 1.155 1.125 1.112 1.105 1.104 1.106 1.114 1.131 1.159 1.197 1.242 1.292 1.341 1.386 1.426 1.461 1.493 1.521 1.547 1.571 1.588 1.615 1.653 1.707 1.790 1.926 2.167 2.589 3.205 3.758 4.067 4.183 3.963 3.538 3.036 2.480 1.939 1.486 1.168 0.956 0.792 0.686 0.657 0.671 0.703 0.765 0.849 0.922 0.924 0.890 0.818 0.751 0.748 0.985 1.751 2.480 2.654 2.477 2.179 1.966 1.841 1.768 1.724 1.695 1.672 1.652 1.630 1.605 1.573 1.532 1.489 1.458 1.440 1.433 1.431 1.433 1.441 1.456 1.462 1.463 1.462 1.452 1.425 1.376 1.296 1.179 1.035 0.912 0.804 0.000 
0.000 1.183 1.269 1.319 1.372 1.435 1.484 1.519 1.543 1.561 1.576 1.589 1.602 1.615 1.631 1.645 1.655 1.657 1.662 1.664 1.662 1.657 1.647 1.628 1.599 1.558 1.502 1.430 1.344 1.267 1.204 1.153 1.118 1.098 1.087 1.083 1.083 1.088 1.102 1.127 1.165 1.215 1.277 1.338 1.390 1.434 1.470 1.501 1.526 1.549 1.569 1.588 1.610 1.642 1.688 1.761 1.887 2.130 2.517 2.828 2.927 2.754 2.111 1.300 0.852 0.727 0.752 0.835 0.849 0.766 0.689 0.641 0.628 0.656 0.687 0.721 0.775 0.875 1.076 1.179 1.159 1.057 0.951 0.944 1.087 1.517 2.093 2.366 2.342 2.178 1.997 1.887 1.816 1.763 1.723 1.689 1.659 1.628 1.593 1.552 1.502 1.457 1.427 1.410 1.403 1.402 1.405 1.415 1.433 1.443 1.446 1.445 1.436 1.411 1.362 1.285 1.173 1.049 0.946 0.811 0.000 
0.000 1.133 1.195 1.271 1.347 1.416 1.469 1.508 1.537 1.559 1.575 1.589 1.602 1.616 1.632 1.646 1.657 1.661 1.663 1.665 1.664 1.660 1.651 1.633 1.605 1.564 1.509 1.439 1.359 1.279 1.211 1.153 1.109 1.078 1.060 1.053 1.051 1.053 1.063 1.085 1.122 1.178 1.252 1.328 1.388 1.436 1.474 1.503 1.527 1.548 1.567 1.587 1.609 1.638 1.673 1.721 1.801 1.933 2.097 2.154 2.129 1.760 0.787 0.174 0.061 0.065 0.079 0.121 0.167 0.196 0.218 0.249 0.338 0.512 0.631 0.673 0.704 0.784 1.099 1.370 1.372 1.224 1.054 1.026 1.148 1.510 2.034 2.308 2.303 2.183 2.041 1.954 1.890 1.832 1.774 1.722 1.676 1.633 1.589 1.539 1.484 1.439 1.408 1.391 1.384 1.383 1.386 1.398 1.417 1.430 1.435 1.434 1.425 1.401 1.355 1.278 1.165 1.061 0.999 0.839 0.000 
0.000 1.085 1.128 1.195 1.293 1.384 1.451 1.501 1.534 1.558 1.575 1.590 1.605 1.619 1.635 1.648 1.658 1.661 1.663 1.666 1.666 1.663 1.654 1.637 1.610 1.571 1.517 1.447 1.373 1.293 1.221 1.158 1.103 1.058 1.027 1.011 1.006 1.006 1.013 1.031 1.069 1.130 1.217 1.310 1.381 1.435 1.474 1.503 1.525 1.547 1.567 1.587 1.611 1.641 1.672 1.698 1.721 1.750 1.808 1.842 1.791 1.425 0.512 0.074 0.021 0.018 0.020 0.028 0.044 0.066 0.095 0.138 0.228 0.385 0.492 0.522 0.510 0.556 0.960 1.463 1.506 1.312 1.073 1.015 1.121 1.497 2.086 2.359 2.334 2.176 2.076 2.063 2.022 1.956 1.871 1.783 1.710 1.649 1.592 1.534 1.477 1.431 1.399 1.381 1.374 1.373 1.377 1.388 1.408 1.422 1.428 1.428 1.417 1.397 1.354 1.277 1.160 1.050 0.999 0.890 0.000 
0.000 1.060 1.097 1.145 1.248 1.358 1.439 1.495 1.534 1.559 1.579 1.594 1.610 1.626 1.640 1.652 1.659 1.663 1.666 1.668 1.668 1.665 1.657 1.641 1.616 1.579 1.529 1.458 1.387 1.311 1.236 1.167 1.103 1.046 1.002 0.975 0.963 0.961 0.964 0.980 1.015 1.078 1.174 1.284 1.368 1.428 1.469 1.499 1.524 1.546 1.568 1.592 1.621 1.658 1.686 1.699 1.697 1.680 1.667 1.653 1.594 1.310 0.541 0.096 0.026 0.020 0.021 0.026 0.037 0.061 0.102 0.168 0.268 0.384 0.444 0.453 0.414 0.425 0.806 1.453 1.549 1.342 1.026 0.887 0.939 1.308 2.069 2.478 2.413 2.154 2.074 2.170 2.238 2.167 2.045 1.891 1.770 1.678 1.602 1.535 1.476 1.429 1.397 1.378 1.371 1.370 1.373 1.383 1.403 1.418 1.424 1.424 1.414 1.397 1.356 1.281 1.165 1.032 0.954 0.940 0.000 
0.000 1.058 1.096 1.129 1.226 1.345 1.433 1.495 1.537 1.566 1.587 1.603 1.620 1.636 1.649 1.658 1.664 1.667 1.669 1.671 1.671 1.668 1.660 1.645 1.622 1.588 1.543 1.475 1.405 1.332 1.256 1.182 1.109 1.043 0.989 0.953 0.934 0.929 0.931 0.943 0.975 1.036 1.132 1.253 1.349 1.415 1.460 1.494 1.522 1.547 1.572 1.604 1.646 1.703 1.734 1.737 1.713 1.623 1.536 1.494 1.437 1.228 0.620 0.164 0.061 0.045 0.043 0.047 0.061 0.098 0.170 0.273 0.374 0.442 0.469 0.467 0.419 0.408 0.684 1.362 1.521 1.330 0.949 0.630 0.528 0.722 1.491 2.291 2.355 2.088 1.970 2.119 2.472 2.471 2.310 2.053 1.859 1.723 1.623 1.543 1.479 1.430 1.397 1.378 1.371 1.370 1.372 1.382 1.401 1.417 1.423 1.423 1.415 1.398 1.361 1.293 1.187 1.050 0.946 0.994 0.000 
0.000 1.064 1.108 1.132 1.220 1.339 1.434 1.500 1.547 1.579 1.599 1.616 1.634 1.649 1.660 1.667 1.671 1.673 1.673 1.674 1.674 1.670 1.663 1.650 1.629 1.599 1.558 1.500 1.431 1.358 1.281 1.204 1.123 1.047 0.985 0.942 0.919 0.910 0.911 0.920 0.948 1.005 1.097 1.221 1.324 1.396 1.446 1.483 1.514 1.545 1.580 1.627 1.693 1.792 1.857 1.868 1.799 1.536 1.378 1.325 1.284 1.139 0.669 0.254 0.145 0.121 0.107 0.104 0.124 0.195 0.323 0.445 0.515 0.549 0.555 0.549 0.513 0.488 0.599 1.089 1.316 1.225 0.905 0.511 0.296 0.257 0.568 1.430 1.921 1.828 1.680 1.878 2.599 2.719 2.515 2.173 1.931 1.770 1.651 1.560 1.490 1.437 1.402 1.382 1.373 1.372 1.374 1.383 1.401 1.417 1.424 1.425 1.422 1.407 1.373 1.317 1.229 1.115 1.033 1.049 0.000 
0.000 1.072 1.121 1.143 1.222 1.338 1.439 1.510 1.561 1.596 1.618 1.635 1.651 1.662 1.669 1.674 1.675 1.676 1.677 1.676 1.675 1.673 1.667 1.656 1.639 1.614 1.579 1.530 1.466 1.394 1.317 1.236 1.147 1.059 0.990 0.941 0.913 0.902 0.901 0.909 0.934 0.986 1.073 1.192 1.298 1.372 1.425 1.466 1.502 1.540 1.585 1.654 1.765 1.939 2.088 2.142 1.907 1.338 1.121 1.090 1.089 1.015 0.692 0.380 0.305 0.290 0.258 0.240 0.263 0.369 0.547 0.667 0.713 0.730 0.735 0.732 0.703 0.685 0.705 0.894 1.042 1.024 0.827 0.477 0.240 0.139 0.147 0.521 1.140 1.313 1.218 1.376 2.299 2.782 2.582 2.224 1.963 1.797 1.678 1.584 1.509 1.453 1.414 1.391 1.381 1.378 1.379 1.387 1.403 1.417 1.425 1.426 1.424 1.413 1.387 1.343 1.281 1.223 1.172 1.105 0.000 
0.000 1.080 1.135 1.157 1.230 1.341 1.447 1.522 1.575 1.611 1.635 1.653 1.664 1.671 1.674 1.676 1.678 1.678 1.678 1.678 1.677 1.676 1.672 1.664 1.653 1.634 1.609 1.563 1.507 1.441 1.366 1.281 1.183 1.083 1.002 0.943 0.913 0.901 0.899 0.906 0.929 0.977 1.058 1.169 1.270 1.344 1.398 1.443 1.485 1.529 1.583 1.666 1.809 2.055 2.292 2.332 1.654 0.843 0.704 0.786 0.908 0.944 0.803 0.637 0.616 0.645 0.647 0.624 0.571 0.643 0.812 0.933 0.977 0.986 0.965 0.914 0.875 0.856 0.855 0.891 0.922 0.876 0.715 0.434 0.213 0.105 0.072 0.151 0.597 1.006 1.051 1.050 1.625 2.473 2.514 2.230 1.967 1.808 1.698 1.610 1.537 1.478 1.436 1.408 1.395 1.390 1.390 1.395 1.407 1.420 1.426 1.427 1.426 1.417 1.395 1.356 1.307 1.280 1.272 1.122 0.000 
0.000 1.090 1.151 1.172 1.241 1.345 1.450 1.529 1.584 1.621 1.646 1.663 1.674 1.675 1.675 1.677 1.679 1.680 1.679 1.680 1.680 1.679 1.677 1.673 1.666 1.651 1.636 1.595 1.550 1.494 1.424 1.336 1.230 1.112 1.016 0.952 0.917 0.902 0.901 0.906 0.929 0.975 1.050 1.151 1.242 1.311 1.366 1.414 1.461 1.510 1.572 1.664 1.819 2.089 2.362 2.360 1.347 0.496 0.446 0.587 0.801 0.949 1.007 1.033 1.131 1.334 1.462 1.410 1.138 1.047 1.115 1.190 1.221 1.213 1.148 1.037 0.972 0.947 0.929 0.912 0.869 0.765 0.586 0.358 0.183 0.092 0.063 0.092 0.427 0.981 1.122 1.099 1.263 1.901 2.208 2.132 1.954 1.808 1.708 1.631 1.565 1.509 1.465 1.433 1.416 1.408 1.406 1.408 1.414 1.423 1.427 1.427 1.426 1.418 1.398 1.362 1.317 1.294 1.293 1.100 0.000 
0.000 1.102 1.170 1.186 1.248 1.342 1.450 1.531 1.588 1.626 1.651 1.667 1.672 1.673 1.673 1.678 1.679 1.680 1.681 1.682 1.682 1.682 1.682 1.679 1.675 1.665 1.652 1.623 1.588 1.540 1.476 1.392 1.284 1.152 1.043 0.972 0.929 0.911 0.908 0.913 0.933 0.976 1.048 1.141 1.219 1.280 1.331 1.379 1.428 1.482 1.549 1.649 1.810 2.072 2.310 2.292 1.302 0.458 0.394 0.517 0.734 0.948 1.124 1.289 1.477 1.716 1.851 1.828 1.557 1.408 1.407 1.433 1.438 1.422 1.352 1.165 1.026 0.996 0.973 0.925 0.822 0.652 0.447 0.267 0.148 0.085 0.066 0.128 0.585 1.256 1.432 1.385 1.389 1.620 1.907 1.959 1.899 1.799 1.711 1.644 1.587 1.535 1.492 1.459 1.437 1.424 1.418 1.417 1.419 1.423 1.426 1.426 1.424 1.417 1.398 1.364 1.320 1.288 1.270 1.079 0.000 
0.000 1.114 1.189 1.199 1.246 1.333 1.445 1.530 1.588 1.628 1.653 1.668 1.673 1.676 1.675 1.680 1.681 1.684 1.685 1.686 1.686 1.686 1.686 1.684 1.682 1.675 1.664 1.643 1.613 1.573 1.517 1.440 1.335 1.202 1.084 1.004 0.954 0.932 0.927 0.930 0.946 0.985 1.051 1.138 1.207 1.258 1.302 1.344 1.388 1.441 1.511 1.611 1.769 1.972 2.084 2.053 1.381 0.583 0.430 0.512 0.696 0.931 1.162 1.369 1.564 1.744 1.848 1.859 1.754 1.675 1.661 1.670 1.675 1.684 1.643 1.423 1.141 1.053 1.021 0.927 0.754 0.524 0.321 0.192 0.122 0.091 0.128 0.492 1.367 1.940 1.927 1.745 1.655 1.669 1.806 1.874 1.850 1.783 1.708 1.651 1.602 1.556 1.514 1.479 1.452 1.436 1.427 1.423 1.422 1.423 1.423 1.424 1.422 1.413 1.394 1.362 1.317 1.271 1.241 1.048 0.000 
0.000 1.090 1.172 1.193 1.229 1.313 1.433 1.524 1.586 1.627 1.653 1.668 1.673 1.676 1.681 1.683 1.683 1.688 1.689 1.690 1.690 1.690 1.687 1.689 1.688 1.684 1.672 1.654 1.630 1.597 1.548 1.476 1.381 1.257 1.135 1.048 0.994 0.969 0.961 0.962 0.974 1.007 1.064 1.140 1.202 1.247 1.283 1.317 1.355 1.399 1.459 1.548 1.679 1.813 1.875 1.868 1.589 0.956 0.586 0.556 0.684 0.912 1.174 1.392 1.573 1.706 1.784 1.820 1.831 1.833 1.845 1.872 1.933 2.033 2.125 2.080 1.806 1.479 1.172 0.917 0.654 0.403 0.234 0.149 0.117 0.139 0.444 1.414 2.281 2.414 2.232 1.977 1.837 1.796 1.826 1.859 1.835 1.771 1.705 1.654 1.612 1.572 1.530 1.494 1.465 1.445 1.433 1.427 1.424 1.423 1.425 1.424 1.417 1.407 1.384 1.354 1.307 1.252 1.218 1.008 0.000 
0.000 0.909 0.993 1.120 1.171 1.275 1.407 1.509 1.579 1.624 1.652 1.668 1.679 1.685 1.687 1.688 1.688 1.689 1.692 1.693 1.693 1.692 1.689 1.691 1.693 1.689 1.676 1.660 1.639 1.610 1.565 1.502 1.421 1.313 1.196 1.108 1.053 1.024 1.014 1.013 1.021 1.045 1.088 1.149 1.204 1.243 1.273 1.302 1.333 1.370 1.418 1.485 1.579 1.686 1.763 1.802 1.779 1.510 1.042 0.708 0.721 0.907 1.174 1.395 1.549 1.647 1.711 1.763 1.813 1.862 1.919 2.009 2.157 2.366 2.545 2.628 2.548 2.183 1.530 0.937 0.572 0.319 0.178 0.123 0.122 0.249 0.907 2.099 2.584 2.559 2.391 2.131 1.954 1.894 1.916 1.907 1.843 1.766 1.704 1.657 1.620 1.583 1.543 1.506 1.476 1.454 1.440 1.431 1.426 1.422 1.418 1.413 1.405 1.394 1.371 1.341 1.291 1.234 1.197 0.968 0.000 
0.000 0.528 0.608 0.881 1.033 1.205 1.364 1.482 1.563 1.616 1.648 1.668 1.680 1.686 1.690 1.692 1.693 1.691 1.694 1.693 1.695 1.694 1.692 1.692 1.694 1.691 1.679 1.663 1.641 1.611 1.571 1.521 1.456 1.369 1.268 1.188 1.134 1.103 1.089 1.085 1.088 1.101 1.128 1.170 1.212 1.244 1.269 1.296 1.322 1.354 1.395 1.447 1.517 1.603 1.688 1.760 1.809 1.824 1.646 1.139 0.870 0.954 1.173 1.387 1.528 1.619 1.680 1.734 1.789 1.855 1.945 2.075 2.304 2.605 2.779 2.827 2.745 2.390 1.667 0.926 0.513 0.261 0.132 0.095 0.108 0.281 1.120 2.316 2.651 2.635 2.519 2.271 2.057 2.012 2.066 2.005 1.864 1.765 1.706 1.661 1.626 1.591 1.553 1.517 1.486 1.462 1.446 1.435 1.427 1.421 1.415 1.408 1.398 1.384 1.362 1.328 1.274 1.215 1.178 0.956 0.000 
0.000 0.182 0.257 0.510 0.805 1.090 1.299 1.444 1.541 1.604 1.642 1.665 1.679 1.687 1.692 1.694 1.695 1.696 1.695 1.692 1.690 1.690 1.692 1.693 1.694 1.691 1.680 1.665 1.643 1.611 1.576 1.535 1.482 1.416 1.344 1.283 1.236 1.206 1.190 1.181 1.177 1.176 1.185 1.205 1.228 1.250 1.271 1.294 1.320 1.349 1.383 1.429 1.485 1.554 1.632 1.716 1.794 1.850 1.854 1.570 1.168 1.105 1.206 1.384 1.522 1.615 1.681 1.731 1.783 1.848 1.941 2.084 2.361 2.737 2.909 2.923 2.793 2.365 1.619 0.878 0.452 0.213 0.092 0.056 0.067 0.240 1.103 2.370 2.723 2.735 2.652 2.421 2.221 2.191 2.194 2.047 1.875 1.770 1.709 1.667 1.633 1.597 1.562 1.526 1.496 1.471 1.452 1.439 1.430 1.422 1.415 1.406 1.395 1.379 1.356 1.317 1.259 1.196 1.157 0.973 0.000 
0.000 0.040 0.112 0.283 0.644 1.002 1.250 1.418 1.528 1.597 1.639 1.664 1.678 1.687 1.693 1.696 1.697 1.697 1.695 1.691 1.690 1.690 1.691 1.693 1.693 1.686 1.676 1.661 1.641 1.615 1.583 1.544 1.499 1.453 1.405 1.365 1.335 1.311 1.292 1.284 1.275 1.265 1.256 1.254 1.257 1.265 1.278 1.296 1.319 1.346 1.380 1.423 1.472 1.528 1.590 1.667 1.754 1.809 1.823 1.737 1.468 1.334 1.319 1.408 1.542 1.643 1.706 1.753 1.795 1.841 1.904 2.013 2.246 2.635 2.866 2.874 2.676 2.099 1.323 0.709 0.350 0.156 0.060 0.031 0.032 0.143 0.880 2.341 2.887 2.915 2.857 2.678 2.491 2.371 2.241 2.047 1.884 1.780 1.715 1.673 1.638 1.604 1.570 1.536 1.505 1.480 1.460 1.445 1.434 1.425 1.416 1.407 1.395 1.377 1.351 1.306 1.243 1.177 1.136 0.989 0.000 
0.000 0.049 0.115 0.224 0.583 0.964 1.230 1.408 1.523 1.594 1.637 1.663 1.678 1.687 1.693 1.696 1.697 1.698 1.696 1.694 1.692 1.691 1.690 1.693 1.689 1.680 1.669 1.658 1.642 1.618 1.586 1.548 1.511 1.480 1.450 1.425 1.404 1.388 1.374 1.366 1.357 1.345 1.326 1.308 1.296 1.294 1.296 1.305 1.323 1.348 1.381 1.423 1.470 1.515 1.562 1.616 1.682 1.729 1.748 1.737 1.649 1.527 1.473 1.495 1.590 1.694 1.765 1.810 1.833 1.837 1.796 1.592 1.384 1.458 1.683 1.820 1.654 1.087 0.551 0.294 0.160 0.080 0.035 0.021 0.021 0.066 0.566 2.114 3.049 3.144 3.099 2.946 2.728 2.502 2.268 2.055 1.898 1.793 1.726 1.680 1.643 1.610 1.578 1.545 1.515 1.490 1.469 1.452 1.440 1.430 1.420 1.409 1.395 1.376 1.347 1.299 1.230 1.160 1.115 1.000 0.000 
0.000 0.222 0.279 0.273 0.583 0.958 1.226 1.406 1.522 1.594 1.637 1.663 1.678 1.687 1.693 1.696 1.697 1.698 1.697 1.697 1.697 1.692 1.691 1.693 1.687 1.676 1.666 1.657 1.642 1.617 1.585 1.550 1.520 1.500 1.481 1.466 1.453 1.443 1.436 1.429 1.419 1.406 1.385 1.358 1.337 1.326 1.322 1.326 1.337 1.358 1.389 1.430 1.474 1.512 1.545 1.576 1.612 1.644 1.669 1.680 1.661 1.595 1.575 1.608 1.691 1.790 1.861 1.902 1.904 1.880 1.638 0.931 0.428 0.290 0.318 0.402 0.385 0.212 0.088 0.063 0.052 0.037 0.023 0.018 0.018 0.037 0.319 1.709 3.070 3.281 3.226 3.079 2.873 2.620 2.332 2.095 1.928 1.815 1.741 1.690 1.651 1.618 1.586 1.555 1.527 1.502 1.481 1.464 1.451 1.440 1.429 1.417 1.403 1.382 1.347 1.293 1.217 1.146 1.099 1.005 0.000 
0.000 0.573 0.618 0.483 0.669 0.970 1.231 1.410 1.526 1.598 1.640 1.663 1.677 1.686 1.692 1.696 1.698 1.698 1.699 1.699 1.699 1.694 1.693 1.692 1.685 1.671 1.663 1.660 1.641 1.614 1.579 1.548 1.528 1.513 1.500 1.492 1.486 1.483 1.479 1.474 1.466 1.454 1.433 1.405 1.380 1.362 1.357 1.359 1.365 1.381 1.409 1.447 1.485 1.516 1.539 1.555 1.568 1.581 1.595 1.606 1.609 1.598 1.615 1.691 1.825 1.919 1.952 1.959 1.965 1.940 1.442 0.487 0.113 0.043 0.037 0.052 0.056 0.039 0.028 0.030 0.030 0.023 0.019 0.017 0.017 0.023 0.168 1.228 2.870 3.300 3.240 3.120 2.948 2.730 2.450 2.180 1.984 1.851 1.764 1.705 1.662 1.626 1.595 1.566 1.539 1.516 1.496 1.479 1.465 1.455 1.444 1.432 1.415 1.390 1.350 1.290 1.205 1.132 1.087 1.010 0.000 
0.000 0.889 0.924 0.806 0.867 1.029 1.250 1.420 1.531 1.603 1.646 1.664 1.675 1.685 1.691 1.696 1.698 1.698 1.700 1.700 1.698 1.696 1.692 1.685 1.677 1.668 1.665 1.661 1.637 1.607 1.573 1.548 1.533 1.521 1.513 1.509 1.508 1.509 1.509 1.508 1.502 1.492 1.474 1.448 1.422 1.405 1.401 1.401 1.406 1.419 1.443 1.477 1.506 1.527 1.541 1.548 1.548 1.541 1.533 1.534 1.542 1.563 1.610 1.719 1.907 2.003 1.998 1.957 1.960 1.901 1.195 0.271 0.038 0.013 0.012 0.016 0.025 0.029 0.031 0.032 0.028 0.020 0.016 0.014 0.013 0.014 0.070 0.726 2.333 3.122 3.179 3.105 2.980 2.818 2.590 2.309 2.070 1.906 1.798 1.725 1.675 1.636 1.604 1.575 1.551 1.530 1.512 1.497 1.483 1.473 1.466 1.453 1.432 1.402 1.358 1.292 1.196 1.114 1.072 1.010 0.000 
0.000 1.025 1.059 1.006 1.033 1.128 1.293 1.445 1.549 1.617 1.655 1.666 1.674 1.685 1.692 1.696 1.698 1.698 1.701 1.700 1.698 1.696 1.693 1.687 1.680 1.673 1.671 1.656 1.633 1.605 1.572 1.550 1.535 1.526 1.522 1.520 1.521 1.525 1.531 1.532 1.530 1.524 1.511 1.488 1.468 1.457 1.454 1.454 1.458 1.470 1.493 1.517 1.534 1.544 1.550 1.550 1.545 1.523 1.482 1.457 1.458 1.485 1.557 1.695 1.891 1.983 1.957 1.876 1.866 1.747 0.970 0.196 0.033 0.013 0.012 0.017 0.029 0.041 0.046 0.044 0.034 0.020 0.013 0.011 0.009 0.008 0.019 0.275 1.398 2.622 2.991 3.019 2.976 2.872 2.703 2.453 2.182 1.982 1.847 1.756 1.695 1.650 1.614 1.584 1.560 1.541 1.525 1.512 1.501 1.492 1.485 1.473 1.452 1.419 1.371 1.299 1.196 1.093 1.038 1.006 0.000 
0.000 1.057 1.094 1.090 1.127 1.218 1.358 1.483 1.567 1.622 1.653 1.668 1.677 1.687 1.695 1.697 1.696 1.698 1.700 1.700 1.698 1.696 1.693 1.690 1.685 1.677 1.665 1.650 1.634 1.604 1.573 1.551 1.537 1.531 1.528 1.528 1.530 1.536 1.545 1.551 1.553 1.550 1.543 1.529 1.516 1.511 1.510 1.511 1.515 1.527 1.544 1.558 1.565 1.568 1.568 1.565 1.555 1.522 1.442 1.361 1.326 1.322 1.361 1.442 1.501 1.477 1.461 1.501 1.541 1.420 0.826 0.234 0.060 0.023 0.018 0.023 0.038 0.057 0.065 0.063 0.048 0.024 0.013 0.009 0.007 0.005 0.006 0.066 0.550 1.720 2.563 2.844 2.938 2.895 2.777 2.577 2.317 2.081 1.913 1.799 1.722 1.666 1.625 1.593 1.568 1.549 1.536 1.525 1.516 1.509 1.501 1.490 1.471 1.439 1.390 1.315 1.206 1.090 1.011 1.002 0.000 
0.000 1.067 1.109 1.123 1.181 1.282 1.411 1.514 1.583 1.626 1.651 1.669 1.682 1.688 1.692 1.694 1.696 1.698 1.699 1.699 1.698 1.696 1.693 1.692 1.689 1.681 1.665 1.649 1.635 1.604 1.573 1.552 1.541 1.536 1.534 1.535 1.537 1.544 1.553 1.563 1.570 1.572 1.570 1.565 1.560 1.558 1.557 1.557 1.564 1.573 1.583 1.590 1.594 1.595 1.597 1.600 1.598 1.548 1.423 1.251 1.130 1.041 0.981 0.939 0.863 0.775 0.780 0.900 0.990 0.963 0.717 0.362 0.154 0.061 0.035 0.034 0.044 0.064 0.076 0.076 0.065 0.036 0.016 0.009 0.006 0.004 0.004 0.015 0.172 0.852 1.887 2.546 2.836 2.873 2.818 2.679 2.455 2.187 1.984 1.845 1.750 1.683 1.636 1.601 1.575 1.557 1.545 1.536 1.529 1.522 1.515 1.505 1.489 1.461 1.414 1.341 1.233 1.111 1.032 1.011 0.000 
0.000 1.075 1.122 1.143 1.215 1.328 1.448 1.536 1.595 1.633 1.657 1.674 1.686 1.694 1.696 1.695 1.696 1.698 1.699 1.699 1.698 1.696 1.693 1.693 1.692 1.684 1.667 1.651 1.634 1.606 1.577 1.557 1.547 1.542 1.540 1.540 1.544 1.550 1.558 1.569 1.580 1.588 1.591 1.592 1.592 1.590 1.591 1.596 1.602 1.608 1.613 1.615 1.617 1.620 1.625 1.641 1.665 1.614 1.446 1.193 0.980 0.798 0.656 0.553 0.472 0.429 0.446 0.552 0.640 0.652 0.590 0.423 0.237 0.114 0.064 0.053 0.054 0.068 0.082 0.084 0.073 0.043 0.018 0.009 0.005 0.004 0.004 0.007 0.046 0.321 1.102 2.039 2.660 2.855 2.860 2.776 2.565 2.263 2.032 1.876 1.770 1.697 1.645 1.608 1.582 1.564 1.553 1.545 1.539 1.534 1.528 1.520 1.507 1.484 1.444 1.379 1.282 1.165 1.081 1.033 0.000 
0.000 1.083 1.136 1.159 1.238 1.354 1.468 1.549 1.604 1.640 1.665 1.681 1.690 1.694 1.695 1.696 1.696 1.697 1.699 1.698 1.697 1.695 1.693 1.693 1.691 1.684 1.671 1.655 1.635 1.610 1.584 1.566 1.556 1.550 1.548 1.548 1.550 1.554 1.561 1.572 1.585 1.598 1.606 1.611 1.614 1.614 1.620 1.628 1.631 1.634 1.635 1.636 1.636 1.638 1.645 1.664 1.694 1.678 1.508 1.203 0.922 0.667 0.463 0.321 0.239 0.217 0.235 0.310 0.390 0.423 0.427 0.377 0.258 0.133 0.074 0.061 0.062 0.072 0.084 0.085 0.074 0.043 0.017 0.008 0.005 0.004 0.004 0.005 0.012 0.078 0.389 1.198 2.303 2.940 2.993 2.889 2.635 2.299 2.056 1.894 1.783 1.706 1.652 1.614 1.589 1.572 1.561 1.554 1.549 1.545 1.541 1.536 1.526 1.509 1.478 1.429 1.352 1.246 1.145 1.055 0.000 
0.000 1.093 1.151 1.175 1.252 1.367 1.478 1.557 1.610 1.645 1.668 1.682 1.690 1.694 1.696 1.697 1.696 1.697 1.698 1.696 1.697 1.695 1.694 1.691 1.687 1.682 1.673 1.660 1.643 1.621 1.597 1.581 1.569 1.562 1.558 1.556 1.555 1.557 1.563 1.573 1.587 1.602 1.615 1.626 1.634 1.639 1.645 1.650 1.652 1.653 1.653 1.653 1.652 1.654 1.660 1.677 1.708 1.721 1.606 1.296 0.949 0.647 0.394 0.211 0.122 0.102 0.110 0.149 0.204 0.240 0.258 0.263 0.230 0.137 0.071 0.057 0.059 0.069 0.079 0.079 0.068 0.040 0.016 0.007 0.005 0.005 0.005 0.006 0.007 0.013 0.076 0.411 1.550 2.897 3.139 2.982 2.656 2.306 2.063 1.900 1.789 1.712 1.659 1.621 1.596 1.580 1.570 1.564 1.559 1.557 1.555 1.551 1.544 1.531 1.506 1.465 1.402 1.315 1.217 1.095 0.000 
0.000 1.094 1.156 1.184 1.258 1.374 1.484 1.562 1.614 1.648 1.669 1.682 1.690 1.693 1.695 1.695 1.695 1.696 1.696 1.695 1.695 1.695 1.693 1.690 1.685 1.681 1.676 1.665 1.651 1.636 1.618 1.602 1.589 1.579 1.572 1.564 1.560 1.560 1.565 1.575 1.587 1.602 1.619 1.634 1.646 1.654 1.661 1.665 1.667 1.667 1.667 1.666 1.666 1.667 1.673 1.689 1.724 1.764 1.719 1.500 1.168 0.769 0.398 0.166 0.068 0.049 0.049 0.062 0.087 0.111 0.138 0.167 0.176 0.131 0.062 0.042 0.042 0.049 0.056 0.054 0.046 0.029 0.013 0.007 0.006 0.006 0.008 0.008 0.007 0.007 0.013 0.109 0.848 2.560 3.162 2.993 2.645 2.298 2.061 1.899 1.791 1.716 1.664 1.629 1.604 1.589 1.580 1.575 1.573 1.571 1.569 1.567 1.561 1.549 1.525 1.485 1.429 1.360 1.282 1.153 0.000 
0.000 1.061 1.116 1.173 1.257 1.380 1.489 1.565 1.616 1.649 1.670 1.682 1.689 1.692 1.694 1.693 1.692 1.693 1.694 1.694 1.694 1.693 1.692 1.690 1.686 1.682 1.678 1.671 1.662 1.651 1.639 1.624 1.609 1.597 1.585 1.574 1.564 1.567 1.570 1.577 1.587 1.602 1.620 1.638 1.652 1.663 1.671 1.675 1.677 1.677 1.677 1.676 1.676 1.678 1.684 1.702 1.740 1.807 1.877 1.851 1.673 1.238 0.598 0.173 0.054 0.033 0.030 0.032 0.038 0.050 0.077 0.123 0.140 0.115 0.052 0.027 0.023 0.024 0.026 0.026 0.024 0.017 0.010 0.007 0.007 0.010 0.014 0.014 0.010 0.008 0.011 0.055 0.518 2.074 2.928 2.869 2.579 2.263 2.045 1.894 1.790 1.719 1.671 1.638 1.615 1.601 1.593 1.589 1.587 1.586 1.585 1.583 1.577 1.563 1.536 1.492 1.433 1.382 1.336 1.211 0.000 
0.000 1.017 1.063 1.129 1.248 1.383 1.492 1.567 1.617 1.649 1.669 1.681 1.688 1.691 1.692 1.693 1.693 1.693 1.693 1.692 1.691 1.690 1.690 1.688 1.686 1.683 1.678 1.673 1.666 1.659 1.648 1.635 1.623 1.607 1.591 1.580 1.569 1.573 1.574 1.579 1.587 1.600 1.617 1.635 1.653 1.667 1.677 1.682 1.684 1.684 1.685 1.684 1.684 1.686 1.693 1.713 1.753 1.827 1.958 2.134 2.284 2.123 1.394 0.475 0.106 0.049 0.037 0.031 0.029 0.036 0.063 0.107 0.119 0.094 0.040 0.017 0.012 0.011 0.012 0.014 0.015 0.013 0.010 0.009 0.010 0.019 0.027 0.027 0.020 0.012 0.014 0.065 0.432 1.519 2.285 2.458 2.362 2.168 2.010 1.887 1.785 1.722 1.681 1.651 1.631 1.617 1.610 1.607 1.605 1.604 1.603 1.599 1.591 1.573 1.541 1.492 1.428 1.383 1.365 1.215 0.000 
0.000 1.048 1.106 1.124 1.245 1.384 1.493 1.569 1.619 1.649 1.667 1.678 1.687 1.686 1.691 1.692 1.693 1.692 1.689 1.687 1.685 1.685 1.685 1.685 1.684 1.682 1.678 1.673 1.667 1.660 1.650 1.642 1.632 1.617 1.598 1.584 1.577 1.578 1.579 1.582 1.590 1.600 1.612 1.631 1.652 1.669 1.681 1.686 1.687 1.688 1.688 1.688 1.688 1.690 1.699 1.720 1.760 1.834 1.965 2.185 2.503 2.752 2.595 1.710 0.741 0.372 0.277 0.219 0.167 0.098 0.073 0.100 0.099 0.065 0.024 0.010 0.007 0.006 0.007 0.010 0.014 0.016 0.016 0.017 0.022 0.035 0.042 0.041 0.031 0.020 0.025 0.110 0.496 1.231 1.707 1.899 1.951 1.944 1.876 1.774 1.716 1.721 1.698 1.674 1.655 1.642 1.634 1.630 1.627 1.625 1.621 1.614 1.601 1.578 1.542 1.488 1.415 1.365 1.343 1.165 0.000 
0.000 1.127 1.207 1.182 1.260 1.383 1.493 1.570 1.620 1.650 1.664 1.674 1.684 1.683 1.688 1.688 1.687 1.683 1.679 1.677 1.676 1.677 1.677 1.679 1.679 1.678 1.675 1.672 1.667 1.661 1.655 1.647 1.638 1.625 1.606 1.592 1.585 1.582 1.583 1.585 1.593 1.602 1.611 1.631 1.654 1.671 1.682 1.687 1.689 1.689 1.689 1.689 1.690 1.692 1.704 1.724 1.762 1.833 1.960 2.171 2.497 2.839 3.031 2.886 2.239 1.761 1.635 1.597 1.433 0.978 0.437 0.180 0.092 0.045 0.016 0.008 0.006 0.006 0.008 0.015 0.051 0.080 0.089 0.082 0.051 0.046 0.047 0.045 0.037 0.031 0.054 0.206 0.628 1.170 1.481 1.634 1.701 1.705 1.671 1.649 1.651 1.714 1.721 1.709 1.693 1.677 1.666 1.658 1.651 1.644 1.636 1.624 1.607 1.580 1.539 1.477 1.390 1.317 1.273 1.115 0.000 
0.000 1.171 1.260 1.253 1.294 1.386 1.493 1.570 1.620 1.651 1.665 1.674 1.679 1.679 1.681 1.680 1.675 1.669 1.664 1.663 1.664 1.664 1.665 1.669 1.670 1.669 1.668 1.667 1.664 1.660 1.655 1.650 1.642 1.631 1.615 1.600 1.591 1.588 1.587 1.589 1.596 1.603 1.612 1.632 1.656 1.673 1.683 1.688 1.690 1.690 1.690 1.686 1.691 1.695 1.707 1.725 1.759 1.822 1.935 2.120 2.408 2.733 2.928 2.965 2.855 2.725 2.741 2.849 2.923 2.667 1.894 0.971 0.364 0.097 0.022 0.016 0.016 0.022 0.054 0.182 0.444 0.592 0.610 0.469 0.166 0.054 0.043 0.042 0.040 0.050 0.123 0.358 0.782 1.160 1.377 1.500 1.559 1.575 1.568 1.576 1.602 1.709 1.761 1.762 1.750 1.725 1.702 1.685 1.672 1.659 1.646 1.631 1.611 1.580 1.533 1.460 1.355 1.256 1.198 1.068 0.000 
0.000 1.165 1.244 1.268 1.311 1.393 1.494 1.569 1.618 1.648 1.664 1.671 1.673 1.671 1.671 1.666 1.656 1.648 1.643 1.642 1.642 1.643 1.644 1.645 1.648 1.653 1.655 1.657 1.657 1.656 1.654 1.650 1.644 1.635 1.622 1.607 1.598 1.594 1.593 1.594 1.599 1.607 1.616 1.636 1.658 1.672 1.683 1.689 1.691 1.691 1.690 1.688 1.695 1.698 1.709 1.722 1.748 1.796 1.880 2.016 2.222 2.468 2.640 2.733 2.755 2.748 2.788 2.929 3.098 3.171 3.060 2.516 1.675 0.808 0.279 0.147 0.151 0.222 0.459 1.014 1.633 1.878 1.827 1.382 0.522 0.098 0.035 0.033 0.039 0.082 0.228 0.533 0.901 1.162 1.315 1.401 1.450 1.474 1.486 1.502 1.554 1.728 1.851 1.854 1.826 1.773 1.731 1.704 1.685 1.669 1.653 1.636 1.613 1.578 1.523 1.442 1.329 1.219 1.148 1.024 0.000 
0.000 1.127 1.185 1.247 1.311 1.401 1.497 1.567 1.613 1.641 1.658 1.664 1.664 1.662 1.657 1.645 1.630 1.619 1.612 1.610 1.610 1.611 1.612 1.615 1.621 1.628 1.635 1.640 1.644 1.647 1.648 1.647 1.644 1.637 1.627 1.615 1.606 1.602 1.600 1.601 1.605 1.613 1.625 1.643 1.663 1.678 1.687 1.692 1.693 1.690 1.689 1.692 1.697 1.699 1.707 1.712 1.728 1.756 1.805 1.882 1.997 2.142 2.269 2.379 2.480 2.571 2.667 2.816 3.015 3.147 3.193 3.135 2.855 2.232 1.459 1.034 0.975 1.096 1.431 1.952 2.327 2.445 2.411 2.083 1.082 0.256 0.052 0.036 0.050 0.129 0.343 0.697 1.001 1.188 1.287 1.334 1.353 1.355 1.359 1.382 1.472 1.779 1.996 1.977 1.893 1.802 1.747 1.715 1.693 1.675 1.657 1.638 1.613 1.574 1.515 1.429 1.312 1.199 1.124 0.981 0.000 
0.000 1.081 1.119 1.189 1.288 1.397 1.490 1.559 1.604 1.632 1.647 1.653 1.653 1.649 1.637 1.616 1.595 1.582 1.577 1.573 1.571 1.572 1.576 1.584 1.593 1.602 1.609 1.616 1.623 1.632 1.639 1.643 1.642 1.636 1.631 1.625 1.617 1.612 1.611 1.611 1.613 1.621 1.634 1.651 1.668 1.680 1.687 1.692 1.695 1.693 1.695 1.696 1.698 1.700 1.702 1.704 1.711 1.725 1.750 1.790 1.849 1.924 2.002 2.079 2.163 2.269 2.408 2.584 2.811 2.985 3.065 3.064 2.980 2.825 2.565 2.309 2.147 2.053 2.080 2.215 2.382 2.482 2.516 2.425 1.748 0.700 0.217 0.138 0.166 0.301 0.560 0.886 1.115 1.235 1.286 1.299 1.280 1.214 1.127 1.117 1.238 1.701 2.064 2.037 1.919 1.813 1.753 1.719 1.696 1.677 1.659 1.638 1.611 1.569 1.509 1.422 1.302 1.187 1.110 0.963 0.000 
0.000 1.052 1.081 1.135 1.245 1.377 1.477 1.548 1.595 1.623 1.637 1.641 1.639 1.630 1.612 1.585 1.563 1.550 1.543 1.540 1.541 1.544 1.550 1.562 1.575 1.584 1.589 1.593 1.601 1.615 1.628 1.635 1.639 1.640 1.639 1.634 1.627 1.622 1.621 1.621 1.623 1.629 1.640 1.657 1.672 1.681 1.687 1.690 1.689 1.695 1.700 1.699 1.698 1.697 1.697 1.698 1.701 1.706 1.717 1.735 1.761 1.796 1.837 1.883 1.937 2.005 2.105 2.255 2.468 2.670 2.792 2.843 2.844 2.792 2.719 2.606 2.425 2.280 2.239 2.257 2.359 2.461 2.524 2.563 2.408 1.734 1.094 0.933 1.002 1.152 1.251 1.251 1.280 1.306 1.306 1.294 1.263 1.193 1.069 0.973 0.975 1.421 1.994 2.021 1.920 1.813 1.753 1.719 1.696 1.678 1.659 1.640 1.611 1.567 1.507 1.420 1.296 1.178 1.098 0.970 0.000 
0.000 1.037 1.061 1.102 1.202 1.344 1.465 1.545 1.595 1.622 1.629 1.629 1.625 1.614 1.593 1.563 1.541 1.529 1.523 1.522 1.523 1.527 1.535 1.549 1.563 1.573 1.577 1.578 1.588 1.605 1.622 1.635 1.643 1.645 1.644 1.639 1.633 1.629 1.628 1.628 1.630 1.635 1.645 1.661 1.675 1.683 1.686 1.688 1.690 1.698 1.699 1.699 1.697 1.696 1.696 1.695 1.695 1.695 1.699 1.704 1.711 1.724 1.741 1.764 1.794 1.835 1.898 1.993 2.131 2.293 2.421 2.512 2.569 2.589 2.569 2.508 2.373 2.261 2.231 2.240 2.294 2.385 2.480 2.585 2.672 2.615 2.441 2.389 2.393 2.327 2.115 1.775 1.541 1.400 1.347 1.312 1.271 1.205 1.095 0.997 0.968 1.208 1.763 1.905 1.875 1.798 1.746 1.716 1.695 1.677 1.659 1.634 1.604 1.567 1.508 1.420 1.295 1.171 1.088 0.977 0.000 
0.000 0.998 1.014 1.068 1.166 1.321 1.455 1.543 1.590 1.613 1.619 1.617 1.614 1.603 1.580 1.550 1.529 1.518 1.514 1.513 1.514 1.519 1.529 1.543 1.557 1.567 1.570 1.571 1.583 1.601 1.621 1.634 1.641 1.644 1.644 1.642 1.636 1.633 1.632 1.632 1.634 1.638 1.648 1.663 1.678 1.684 1.684 1.685 1.690 1.697 1.698 1.698 1.697 1.697 1.696 1.695 1.692 1.691 1.691 1.687 1.684 1.685 1.689 1.698 1.713 1.736 1.773 1.831 1.917 2.029 2.131 2.206 2.257 2.285 2.293 2.271 2.216 2.172 2.158 2.159 2.183 2.246 2.353 2.500 2.646 2.734 2.761 2.739 2.664 2.514 2.279 1.962 1.680 1.471 1.398 1.347 1.296 1.240 1.163 1.102 1.085 1.218 1.612 1.752 1.767 1.753 1.727 1.706 1.690 1.676 1.661 1.638 1.611 1.572 1.513 1.423 1.298 1.167 1.078 0.989 0.000 
0.000 0.952 0.959 1.017 1.141 1.309 1.444 1.531 1.579 1.602 1.608 1.608 1.607 1.595 1.572 1.544 1.525 1.515 1.511 1.511 1.512 1.518 1.528 1.543 1.554 1.562 1.566 1.571 1.582 1.601 1.621 1.633 1.640 1.643 1.644 1.643 1.638 1.635 1.634 1.634 1.635 1.640 1.649 1.665 1.680 1.684 1.685 1.680 1.689 1.700 1.697 1.697 1.697 1.697 1.697 1.696 1.697 1.695 1.688 1.680 1.672 1.666 1.665 1.666 1.672 1.683 1.704 1.739 1.792 1.866 1.942 1.998 2.033 2.051 2.055 2.043 2.026 2.016 2.014 2.014 2.023 2.061 2.147 2.294 2.455 2.555 2.592 2.586 2.528 2.406 2.219 1.964 1.711 1.536 1.452 1.392 1.345 1.304 1.272 1.261 1.267 1.343 1.557 1.662 1.696 1.706 1.701 1.687 1.683 1.676 1.665 1.651 1.625 1.580 1.520 1.431 1.308 1.172 1.074 1.007 0.000 
0.000 0.974 0.990 1.008 1.133 1.298 1.430 1.516 1.567 1.591 1.600 1.602 1.600 1.590 1.569 1.543 1.525 1.515 1.512 1.512 1.513 1.519 1.530 1.544 1.555 1.561 1.566 1.574 1.586 1.603 1.622 1.634 1.640 1.642 1.644 1.643 1.638 1.636 1.635 1.634 1.635 1.640 1.650 1.666 1.679 1.683 1.686 1.682 1.692 1.701 1.696 1.697 1.696 1.696 1.697 1.697 1.695 1.693 1.687 1.678 1.667 1.659 1.655 1.654 1.655 1.660 1.672 1.692 1.725 1.773 1.826 1.866 1.890 1.901 1.903 1.898 1.891 1.885 1.884 1.885 1.892 1.915 1.964 2.052 2.163 2.236 2.268 2.273 2.256 2.200 2.092 1.916 1.702 1.574 1.505 1.454 1.416 1.400 1.392 1.392 1.404 1.449 1.552 1.630 1.668 1.682 1.683 1.678 1.679 1.675 1.667 1.653 1.628 1.589 1.531 1.447 1.330 1.195 1.094 1.024 0.000 
0.000 1.039 1.074 1.055 1.144 1.289 1.418 1.504 1.555 1.582 1.593 1.596 1.594 1.586 1.569 1.545 1.527 1.520 1.517 1.517 1.519 1.526 1.537 1.549 1.559 1.564 1.569 1.581 1.595 1.609 1.624 1.636 1.643 1.645 1.643 1.642 1.640 1.635 1.632 1.631 1.634 1.640 1.651 1.666 1.676 1.682 1.685 1.689 1.697 1.698 1.698 1.696 1.700 1.700 1.698 1.696 1.694 1.691 1.686 1.678 1.667 1.658 1.653 1.651 1.651 1.653 1.660 1.672 1.693 1.723 1.759 1.786 1.802 1.809 1.811 1.810 1.807 1.803 1.802 1.803 1.808 1.820 1.847 1.895 1.955 1.993 2.008 2.010 2.006 1.990 1.951 1.840 1.668 1.589 1.547 1.516 1.494 1.486 1.483 1.484 1.492 1.517 1.567 1.624 1.659 1.673 1.676 1.675 1.676 1.676 1.669 1.656 1.633 1.597 1.543 1.466 1.363 1.247 1.149 1.044 0.000 
0.000 1.078 1.125 1.122 1.175 1.284 1.407 1.492 1.544 1.573 1.586 1.590 1.590 1.584 1.570 1.551 1.536 1.532 1.530 1.531 1.534 1.540 1.550 1.560 1.567 1.571 1.576 1.592 1.607 1.615 1.624 1.635 1.648 1.651 1.652 1.651 1.643 1.634 1.630 1.630 1.632 1.640 1.654 1.666 1.675 1.681 1.686 1.691 1.696 1.698 1.699 1.697 1.698 1.697 1.697 1.696 1.694 1.691 1.686 1.680 1.670 1.660 1.654 1.652 1.651 1.653 1.657 1.666 1.680 1.699 1.723 1.740 1.751 1.757 1.758 1.758 1.757 1.755 1.754 1.754 1.757 1.763 1.777 1.802 1.833 1.852 1.858 1.857 1.847 1.830 1.815 1.747 1.640 1.606 1.585 1.568 1.557 1.552 1.550 1.550 1.555 1.569 1.594 1.630 1.658 1.673 1.679 1.678 1.679 1.677 1.671 1.659 1.635 1.603 1.548 1.474 1.381 1.293 1.217 1.067 0.000 
0.000 1.089 1.131 1.144 1.189 1.281 1.396 1.479 1.532 1.563 1.579 1.585 1.585 1.583 1.574 1.561 1.555 1.553 1.553 1.553 1.555 1.560 1.567 1.573 1.577 1.578 1.581 1.588 1.598 1.609 1.616 1.626 1.639 1.647 1.649 1.644 1.637 1.629 1.623 1.623 1.628 1.642 1.658 1.668 1.675 1.681 1.687 1.692 1.695 1.697 1.699 1.699 1.697 1.695 1.695 1.695 1.694 1.692 1.688 1.684 1.676 1.667 1.660 1.657 1.656 1.657 1.660 1.666 1.676 1.688 1.703 1.715 1.723 1.727 1.729 1.729 1.729 1.728 1.727 1.727 1.728 1.731 1.738 1.751 1.766 1.774 1.776 1.774 1.763 1.736 1.704 1.679 1.653 1.634 1.620 1.608 1.603 1.601 1.600 1.600 1.604 1.612 1.624 1.642 1.662 1.675 1.682 1.685 1.684 1.681 1.674 1.661 1.635 1.602 1.547 1.477 1.385 1.308 1.259 1.090 0.000 
0.000 1.083 1.102 1.137 1.189 1.278 1.386 1.465 1.519 1.552 1.570 1.579 1.581 1.581 1.578 1.573 1.572 1.572 1.570 1.569 1.570 1.572 1.576 1.580 1.582 1.584 1.584 1.585 1.587 1.595 1.605 1.613 1.620 1.623 1.624 1.624 1.619 1.617 1.606 1.608 1.616 1.640 1.665 1.671 1.673 1.680 1.689 1.692 1.693 1.696 1.698 1.700 1.696 1.693 1.694 1.695 1.695 1.692 1.691 1.688 1.684 1.678 1.672 1.669 1.668 1.667 1.668 1.671 1.675 1.683 1.693 1.700 1.706 1.710 1.712 1.713 1.713 1.712 1.712 1.712 1.712 1.714 1.717 1.723 1.730 1.733 1.734 1.732 1.725 1.706 1.690 1.682 1.669 1.656 1.645 1.637 1.636 1.637 1.637 1.639 1.643 1.646 1.651 1.659 1.672 1.681 1.685 1.687 1.687 1.684 1.678 1.664 1.635 1.598 1.546 1.477 1.384 1.307 1.260 1.087 0.000 
0.000 1.066 1.050 1.097 1.170 1.273 1.373 1.448 1.501 1.536 1.558 1.571 1.577 1.579 1.580 1.581 1.580 1.579 1.578 1.576 1.577 1.578 1.580 1.582 1.584 1.586 1.587 1.587 1.588 1.592 1.600 1.607 1.609 1.610 1.609 1.608 1.607 1.609 1.588 1.587 1.591 1.594 1.608 1.632 1.657 1.674 1.690 1.692 1.692 1.696 1.698 1.698 1.695 1.693 1.693 1.694 1.694 1.692 1.692 1.690 1.688 1.688 1.684 1.679 1.679 1.679 1.676 1.675 1.676 1.680 1.686 1.691 1.696 1.698 1.701 1.704 1.703 1.703 1.703 1.704 1.704 1.705 1.707 1.710 1.712 1.713 1.713 1.712 1.709 1.704 1.698 1.689 1.679 1.672 1.662 1.657 1.658 1.660 1.663 1.671 1.672 1.672 1.672 1.678 1.685 1.687 1.689 1.689 1.689 1.686 1.680 1.668 1.634 1.598 1.547 1.476 1.382 1.298 1.241 1.060 0.000 
0.000 1.057 1.022 1.059 1.152 1.266 1.359 1.428 1.478 1.514 1.541 1.560 1.571 1.577 1.579 1.580 1.578 1.577 1.577 1.579 1.580 1.580 1.581 1.582 1.583 1.585 1.588 1.591 1.593 1.592 1.597 1.600 1.595 1.593 1.592 1.591 1.592 1.592 1.578 1.574 1.575 1.583 1.594 1.607 1.638 1.664 1.682 1.695 1.695 1.697 1.697 1.695 1.693 1.692 1.692 1.692 1.692 1.692 1.691 1.690 1.690 1.690 1.688 1.685 1.687 1.686 1.678 1.676 1.676 1.677 1.680 1.684 1.688 1.686 1.691 1.696 1.695 1.697 1.698 1.699 1.700 1.701 1.702 1.703 1.704 1.704 1.704 1.703 1.702 1.699 1.696 1.691 1.685 1.681 1.679 1.673 1.670 1.675 1.683 1.697 1.691 1.689 1.691 1.692 1.689 1.690 1.691 1.691 1.690 1.686 1.680 1.667 1.636 1.600 1.548 1.473 1.374 1.281 1.219 1.032 0.000 
0.000 1.078 1.061 1.061 1.148 1.261 1.351 1.414 1.460 1.494 1.522 1.546 1.562 1.572 1.576 1.578 1.578 1.578 1.577 1.579 1.579 1.579 1.578 1.578 1.579 1.582 1.588 1.592 1.594 1.592 1.594 1.591 1.583 1.576 1.573 1.572 1.571 1.569 1.568 1.571 1.581 1.591 1.603 1.608 1.636 1.657 1.674 1.698 1.692 1.688 1.688 1.690 1.689 1.689 1.690 1.690 1.689 1.691 1.690 1.689 1.689 1.690 1.691 1.691 1.691 1.688 1.679 1.672 1.673 1.672 1.674 1.678 1.679 1.677 1.682 1.687 1.690 1.693 1.695 1.697 1.698 1.699 1.699 1.699 1.700 1.700 1.700 1.699 1.698 1.697 1.695 1.692 1.689 1.686 1.680 1.676 1.675 1.688 1.700 1.704 1.700 1.700 1.697 1.692 1.691 1.692 1.692 1.692 1.690 1.685 1.679 1.664 1.639 1.601 1.547 1.467 1.360 1.262 1.198 1.011 0.000 
0.000 1.128 1.154 1.116 1.173 1.266 1.348 1.407 1.451 1.484 1.511 1.535 1.552 1.564 1.571 1.574 1.575 1.575 1.575 1.574 1.572 1.571 1.570 1.571 1.572 1.575 1.583 1.591 1.590 1.590 1.589 1.582 1.571 1.558 1.551 1.547 1.545 1.544 1.546 1.553 1.565 1.584 1.600 1.609 1.634 1.656 1.674 1.693 1.692 1.690 1.687 1.685 1.684 1.684 1.686 1.686 1.685 1.688 1.687 1.687 1.688 1.690 1.691 1.692 1.692 1.686 1.677 1.668 1.666 1.665 1.665 1.669 1.668 1.668 1.672 1.679 1.685 1.689 1.692 1.694 1.696 1.697 1.697 1.697 1.697 1.697 1.697 1.697 1.696 1.696 1.695 1.694 1.692 1.689 1.683 1.681 1.684 1.699 1.704 1.702 1.703 1.700 1.697 1.696 1.694 1.693 1.691 1.691 1.689 1.686 1.678 1.663 1.638 1.600 1.543 1.457 1.344 1.243 1.177 0.995 0.000 
0.000 1.182 1.245 1.210 1.234 1.281 1.347 1.405 1.447 1.478 1.502 1.523 1.541 1.554 1.562 1.566 1.567 1.567 1.565 1.560 1.556 1.553 1.553 1.554 1.557 1.561 1.574 1.583 1.585 1.585 1.580 1.571 1.556 1.538 1.524 1.515 1.512 1.512 1.514 1.523 1.537 1.562 1.585 1.608 1.631 1.654 1.673 1.684 1.687 1.687 1.683 1.680 1.679 1.679 1.680 1.680 1.681 1.684 1.685 1.684 1.684 1.687 1.690 1.691 1.689 1.683 1.673 1.663 1.656 1.652 1.652 1.655 1.654 1.656 1.660 1.669 1.680 1.687 1.690 1.692 1.694 1.694 1.695 1.695 1.695 1.695 1.695 1.695 1.695 1.695 1.695 1.695 1.694 1.693 1.690 1.690 1.694 1.701 1.706 1.706 1.703 1.701 1.699 1.698 1.697 1.697 1.696 1.694 1.690 1.686 1.677 1.662 1.636 1.596 1.534 1.445 1.326 1.223 1.156 0.980 0.000 
0.000 1.224 1.302 1.279 1.286 1.305 1.350 1.406 1.447 1.476 1.498 1.515 1.529 1.541 1.548 1.551 1.552 1.549 1.543 1.532 1.526 1.523 1.522 1.524 1.530 1.539 1.557 1.566 1.569 1.569 1.565 1.556 1.538 1.511 1.486 1.472 1.467 1.467 1.469 1.478 1.496 1.524 1.559 1.593 1.622 1.647 1.666 1.675 1.680 1.680 1.679 1.677 1.676 1.675 1.675 1.675 1.676 1.679 1.681 1.680 1.680 1.684 1.687 1.687 1.684 1.678 1.666 1.652 1.641 1.635 1.634 1.634 1.635 1.639 1.648 1.661 1.675 1.687 1.687 1.689 1.691 1.692 1.692 1.692 1.692 1.692 1.692 1.693 1.693 1.694 1.695 1.695 1.695 1.695 1.695 1.695 1.696 1.700 1.702 1.702 1.701 1.700 1.699 1.699 1.698 1.698 1.697 1.695 1.691 1.686 1.676 1.659 1.631 1.588 1.522 1.428 1.305 1.204 1.137 0.985 0.000 
0.000 1.241 1.314 1.307 1.307 1.323 1.361 1.411 1.450 1.477 1.497 1.510 1.520 1.527 1.531 1.531 1.528 1.519 1.504 1.488 1.479 1.475 1.475 1.478 1.488 1.506 1.528 1.543 1.550 1.550 1.548 1.537 1.515 1.478 1.440 1.417 1.406 1.404 1.405 1.414 1.434 1.467 1.511 1.562 1.604 1.634 1.652 1.664 1.671 1.673 1.673 1.674 1.674 1.673 1.671 1.670 1.671 1.674 1.677 1.680 1.682 1.684 1.685 1.683 1.679 1.670 1.656 1.640 1.627 1.619 1.616 1.616 1.620 1.627 1.639 1.655 1.672 1.682 1.681 1.685 1.687 1.688 1.688 1.688 1.688 1.688 1.688 1.689 1.690 1.692 1.694 1.695 1.696 1.696 1.697 1.697 1.697 1.699 1.700 1.700 1.700 1.700 1.699 1.699 1.698 1.698 1.698 1.696 1.692 1.684 1.673 1.655 1.625 1.579 1.510 1.411 1.285 1.185 1.122 1.013 0.000 
0.000 1.218 1.277 1.302 1.312 1.337 1.378 1.422 1.457 1.482 1.499 1.509 1.514 1.516 1.513 1.507 1.494 1.473 1.446 1.424 1.413 1.411 1.408 1.413 1.427 1.454 1.491 1.516 1.527 1.529 1.527 1.515 1.489 1.441 1.384 1.345 1.324 1.317 1.315 1.324 1.346 1.383 1.436 1.504 1.563 1.604 1.631 1.648 1.659 1.666 1.668 1.669 1.671 1.670 1.668 1.663 1.665 1.669 1.673 1.679 1.684 1.684 1.683 1.680 1.674 1.664 1.650 1.633 1.620 1.613 1.608 1.608 1.612 1.622 1.632 1.651 1.669 1.674 1.675 1.678 1.680 1.681 1.681 1.680 1.680 1.680 1.681 1.682 1.684 1.688 1.691 1.694 1.695 1.696 1.697 1.697 1.697 1.698 1.699 1.699 1.699 1.699 1.699 1.699 1.698 1.698 1.698 1.697 1.691 1.682 1.669 1.650 1.619 1.572 1.501 1.401 1.271 1.168 1.110 1.077 0.000 
0.000 1.161 1.205 1.263 1.301 1.348 1.400 1.442 1.471 1.491 1.504 1.510 1.511 1.507 1.497 1.478 1.450 1.410 1.369 1.343 1.329 1.323 1.320 1.327 1.347 1.387 1.442 1.482 1.500 1.505 1.503 1.490 1.458 1.400 1.320 1.255 1.217 1.200 1.198 1.205 1.226 1.266 1.324 1.408 1.493 1.554 1.596 1.624 1.643 1.657 1.671 1.671 1.668 1.665 1.663 1.658 1.659 1.662 1.668 1.676 1.680 1.681 1.680 1.677 1.672 1.661 1.647 1.630 1.617 1.610 1.606 1.605 1.609 1.619 1.630 1.649 1.663 1.668 1.666 1.670 1.671 1.672 1.670 1.668 1.668 1.668 1.669 1.671 1.675 1.681 1.687 1.690 1.693 1.695 1.696 1.696 1.697 1.697 1.697 1.697 1.698 1.698 1.698 1.698 1.698 1.699 1.697 1.694 1.688 1.677 1.665 1.645 1.614 1.566 1.495 1.396 1.266 1.157 1.098 1.069 0.000 
0.000 1.102 1.136 1.196 1.271 1.351 1.416 1.462 1.491 1.504 1.512 1.514 1.511 1.501 1.479 1.444 1.394 1.330 1.274 1.237 1.218 1.210 1.210 1.221 1.250 1.304 1.383 1.441 1.470 1.479 1.479 1.466 1.429 1.359 1.252 1.147 1.081 1.049 1.036 1.035 1.048 1.087 1.162 1.270 1.387 1.479 1.544 1.589 1.621 1.644 1.660 1.662 1.662 1.659 1.656 1.654 1.652 1.655 1.661 1.669 1.674 1.676 1.676 1.674 1.670 1.663 1.650 1.630 1.616 1.609 1.606 1.606 1.609 1.617 1.630 1.646 1.655 1.659 1.658 1.661 1.660 1.657 1.652 1.648 1.648 1.648 1.649 1.653 1.659 1.669 1.678 1.684 1.689 1.692 1.694 1.695 1.695 1.696 1.695 1.695 1.695 1.696 1.696 1.696 1.696 1.693 1.686 1.681 1.679 1.673 1.660 1.639 1.608 1.561 1.491 1.396 1.267 1.152 1.088 1.062 0.000 
0.000 1.071 1.103 1.148 1.240 1.345 1.424 1.477 1.507 1.519 1.524 1.522 1.514 1.494 1.458 1.404 1.328 1.235 1.160 1.112 1.088 1.081 1.083 1.098 1.140 1.217 1.323 1.397 1.438 1.457 1.458 1.445 1.405 1.325 1.198 1.050 0.945 0.884 0.858 0.853 0.862 0.898 0.975 1.090 1.239 1.375 1.473 1.543 1.590 1.621 1.641 1.649 1.654 1.649 1.647 1.647 1.645 1.647 1.653 1.661 1.667 1.670 1.671 1.671 1.668 1.662 1.650 1.631 1.617 1.611 1.608 1.608 1.610 1.617 1.630 1.642 1.648 1.651 1.652 1.650 1.645 1.635 1.625 1.620 1.619 1.619 1.620 1.625 1.634 1.651 1.665 1.674 1.681 1.686 1.689 1.691 1.693 1.693 1.693 1.692 1.692 1.692 1.693 1.693 1.692 1.688 1.684 1.681 1.678 1.669 1.655 1.633 1.602 1.556 1.490 1.399 1.275 1.156 1.083 1.059 0.000 
0.000 1.065 1.099 1.131 1.223 1.341 1.430 1.485 1.516 1.529 1.531 1.528 1.514 1.485 1.434 1.357 1.251 1.129 1.038 0.983 0.958 0.953 0.958 0.982 1.040 1.142 1.273 1.368 1.419 1.436 1.439 1.426 1.383 1.295 1.153 0.972 0.836 0.754 0.715 0.705 0.710 0.737 0.803 0.912 1.072 1.248 1.382 1.478 1.544 1.587 1.615 1.634 1.638 1.633 1.635 1.636 1.637 1.640 1.645 1.654 1.661 1.665 1.667 1.668 1.667 1.662 1.651 1.635 1.622 1.616 1.614 1.615 1.616 1.619 1.628 1.637 1.644 1.646 1.644 1.637 1.624 1.605 1.588 1.579 1.577 1.576 1.579 1.585 1.597 1.613 1.636 1.657 1.670 1.677 1.682 1.685 1.688 1.689 1.690 1.691 1.691 1.691 1.690 1.689 1.688 1.685 1.683 1.679 1.673 1.663 1.648 1.625 1.594 1.552 1.493 1.410 1.295 1.177 1.099 1.074 0.000 
0.000 1.060 1.095 1.125 1.210 1.336 1.432 1.491 1.522 1.533 1.535 1.530 1.511 1.471 1.404 1.303 1.164 1.023 0.924 0.866 0.842 0.837 0.845 0.878 0.952 1.078 1.232 1.338 1.394 1.415 1.420 1.407 1.362 1.269 1.115 0.911 0.755 0.659 0.612 0.598 0.600 0.621 0.680 0.785 0.945 1.144 1.304 1.419 1.498 1.551 1.590 1.614 1.618 1.620 1.624 1.627 1.630 1.632 1.637 1.647 1.656 1.658 1.664 1.667 1.667 1.663 1.656 1.644 1.633 1.627 1.626 1.626 1.626 1.627 1.634 1.641 1.643 1.641 1.634 1.619 1.595 1.564 1.539 1.525 1.520 1.519 1.522 1.531 1.546 1.570 1.607 1.639 1.653 1.663 1.670 1.676 1.680 1.683 1.686 1.689 1.690 1.689 1.686 1.684 1.682 1.681 1.679 1.675 1.666 1.654 1.637 1.615 1.586 1.549 1.499 1.429 1.335 1.230 1.153 1.120 0.000 
0.000 1.022 1.050 1.106 1.199 1.333 1.433 1.493 1.523 1.534 1.535 1.528 1.504 1.452 1.367 1.239 1.072 0.919 0.816 0.757 0.734 0.730 0.741 0.782 0.874 1.023 1.196 1.311 1.373 1.397 1.400 1.387 1.341 1.244 1.082 0.866 0.698 0.595 0.544 0.528 0.528 0.547 0.601 0.703 0.864 1.072 1.254 1.380 1.465 1.526 1.570 1.595 1.606 1.610 1.616 1.620 1.622 1.624 1.630 1.639 1.650 1.654 1.663 1.667 1.668 1.667 1.664 1.657 1.649 1.645 1.643 1.642 1.642 1.643 1.645 1.647 1.645 1.638 1.621 1.596 1.558 1.518 1.490 1.474 1.466 1.464 1.467 1.475 1.491 1.522 1.564 1.604 1.627 1.643 1.654 1.661 1.668 1.674 1.679 1.683 1.684 1.683 1.679 1.676 1.675 1.674 1.672 1.667 1.656 1.642 1.624 1.603 1.580 1.552 1.512 1.458 1.383 1.299 1.237 1.191 0.000 
0.000 0.977 0.998 1.059 1.186 1.333 1.434 1.494 1.523 1.533 1.532 1.522 1.490 1.427 1.323 1.172 0.979 0.817 0.710 0.652 0.630 0.627 0.642 0.694 0.803 0.976 1.163 1.285 1.352 1.378 1.381 1.368 1.320 1.221 1.055 0.834 0.663 0.558 0.506 0.490 0.490 0.506 0.558 0.658 0.817 1.030 1.218 1.353 1.449 1.514 1.556 1.583 1.603 1.603 1.610 1.616 1.615 1.617 1.622 1.630 1.641 1.652 1.661 1.666 1.669 1.670 1.669 1.666 1.662 1.660 1.659 1.658 1.658 1.657 1.656 1.653 1.647 1.633 1.606 1.574 1.522 1.483 1.454 1.437 1.428 1.426 1.427 1.434 1.452 1.481 1.523 1.564 1.595 1.617 1.631 1.641 1.650 1.658 1.666 1.672 1.676 1.677 1.675 1.672 1.671 1.671 1.667 1.657 1.643 1.627 1.611 1.596 1.579 1.558 1.533 1.499 1.452 1.394 1.335 1.283 0.000 
0.000 1.006 1.037 1.053 1.184 1.334 1.435 1.493 1.520 1.528 1.526 1.509 1.467 1.388 1.264 1.087 0.876 0.712 0.605 0.550 0.531 0.531 0.552 0.616 0.740 0.933 1.130 1.259 1.329 1.357 1.360 1.346 1.298 1.198 1.033 0.814 0.646 0.542 0.491 0.474 0.474 0.490 0.540 0.638 0.795 1.006 1.201 1.345 1.446 1.510 1.552 1.581 1.600 1.600 1.606 1.611 1.610 1.610 1.613 1.620 1.632 1.646 1.658 1.665 1.668 1.670 1.671 1.671 1.670 1.668 1.667 1.667 1.667 1.666 1.664 1.658 1.647 1.626 1.596 1.556 1.498 1.463 1.431 1.414 1.407 1.405 1.406 1.413 1.430 1.458 1.494 1.530 1.559 1.583 1.601 1.615 1.625 1.635 1.646 1.656 1.665 1.671 1.673 1.674 1.672 1.668 1.661 1.645 1.629 1.615 1.602 1.590 1.579 1.569 1.562 1.544 1.523 1.492 1.447 1.405 0.000 
0.000 1.079 1.129 1.107 1.199 1.339 1.437 1.491 1.513 1.517 1.512 1.488 1.431 1.332 1.183 0.978 0.763 0.602 0.500 0.451 0.438 0.443 0.475 0.554 0.690 0.893 1.096 1.229 1.303 1.332 1.336 1.323 1.277 1.179 1.018 0.805 0.641 0.540 0.489 0.472 0.472 0.488 0.537 0.635 0.789 1.000 1.200 1.346 1.448 1.512 1.553 1.584 1.596 1.598 1.601 1.603 1.602 1.602 1.604 1.609 1.620 1.636 1.651 1.660 1.665 1.669 1.671 1.672 1.672 1.672 1.671 1.670 1.672 1.669 1.668 1.660 1.645 1.623 1.589 1.539 1.489 1.452 1.423 1.406 1.399 1.398 1.399 1.406 1.421 1.447 1.478 1.506 1.528 1.548 1.565 1.581 1.594 1.602 1.617 1.634 1.649 1.661 1.668 1.671 1.670 1.664 1.654 1.636 1.619 1.606 1.596 1.588 1.583 1.580 1.582 1.577 1.578 1.578 1.564 1.541 0.000 
0.000 1.127 1.189 1.184 1.244 1.355 1.441 1.485 1.500 1.501 1.490 1.453 1.377 1.253 1.073 0.841 0.633 0.488 0.399 0.360 0.355 0.371 0.418 0.507 0.651 0.860 1.067 1.203 1.278 1.309 1.314 1.303 1.260 1.167 1.012 0.804 0.644 0.545 0.495 0.478 0.478 0.494 0.543 0.639 0.792 1.001 1.207 1.358 1.460 1.525 1.565 1.589 1.597 1.597 1.595 1.592 1.590 1.590 1.591 1.595 1.604 1.619 1.636 1.650 1.659 1.661 1.669 1.671 1.672 1.672 1.672 1.669 1.663 1.662 1.670 1.660 1.642 1.614 1.576 1.530 1.486 1.449 1.421 1.405 1.398 1.397 1.398 1.405 1.420 1.445 1.474 1.494 1.507 1.518 1.528 1.541 1.552 1.561 1.581 1.604 1.627 1.645 1.656 1.660 1.661 1.656 1.645 1.629 1.612 1.600 1.592 1.587 1.586 1.587 1.591 1.599 1.617 1.639 1.653 1.646 0.000 
0.000 1.149 1.219 1.229 1.290 1.383 1.447 1.477 1.484 1.480 1.458 1.402 1.301 1.148 0.937 0.697 0.505 0.375 0.309 0.285 0.289 0.320 0.380 0.475 0.622 0.835 1.046 1.185 1.262 1.294 1.300 1.290 1.250 1.162 1.012 0.811 0.658 0.564 0.517 0.502 0.502 0.518 0.566 0.660 0.808 1.013 1.228 1.388 1.496 1.559 1.591 1.603 1.602 1.596 1.587 1.578 1.573 1.570 1.570 1.573 1.579 1.592 1.611 1.630 1.642 1.650 1.662 1.667 1.670 1.671 1.671 1.669 1.665 1.667 1.669 1.660 1.637 1.610 1.576 1.534 1.487 1.450 1.423 1.408 1.402 1.400 1.402 1.409 1.424 1.447 1.473 1.489 1.494 1.496 1.499 1.505 1.512 1.522 1.540 1.567 1.598 1.622 1.636 1.642 1.644 1.641 1.631 1.622 1.604 1.595 1.589 1.587 1.587 1.589 1.596 1.611 1.638 1.670 1.691 1.691 0.000 
0.000 1.167 1.243 1.258 1.323 1.401 1.450 1.470 1.472 1.460 1.423 1.348 1.226 1.050 0.817 0.587 0.413 0.301 0.254 0.241 0.247 0.288 0.355 0.453 0.601 0.818 1.034 1.177 1.255 1.286 1.291 1.282 1.246 1.163 1.020 0.833 0.693 0.608 0.566 0.553 0.554 0.570 0.617 0.706 0.847 1.042 1.264 1.447 1.558 1.618 1.637 1.630 1.611 1.593 1.575 1.559 1.546 1.539 1.537 1.537 1.542 1.552 1.569 1.591 1.612 1.632 1.647 1.656 1.663 1.668 1.669 1.668 1.667 1.668 1.669 1.660 1.634 1.607 1.576 1.537 1.494 1.459 1.434 1.420 1.414 1.413 1.414 1.421 1.438 1.462 1.479 1.487 1.488 1.484 1.479 1.478 1.481 1.488 1.503 1.527 1.562 1.591 1.610 1.619 1.622 1.621 1.617 1.614 1.598 1.589 1.586 1.585 1.586 1.590 1.598 1.615 1.645 1.679 1.698 1.699 0.000 
0.000 1.187 1.266 1.282 1.346 1.411 1.447 1.467 1.463 1.444 1.398 1.312 1.176 0.984 0.741 0.520 0.362 0.271 0.232 0.222 0.231 0.276 0.340 0.438 0.589 0.808 1.028 1.175 1.254 1.282 1.286 1.280 1.247 1.171 1.041 0.878 0.759 0.688 0.653 0.643 0.644 0.660 0.704 0.787 0.917 1.096 1.311 1.490 1.597 1.650 1.654 1.639 1.613 1.586 1.559 1.531 1.506 1.491 1.484 1.482 1.484 1.491 1.506 1.532 1.568 1.596 1.618 1.635 1.648 1.658 1.662 1.664 1.666 1.667 1.670 1.662 1.640 1.611 1.583 1.546 1.507 1.484 1.458 1.445 1.439 1.438 1.440 1.447 1.463 1.474 1.475 1.481 1.482 1.479 1.467 1.457 1.455 1.459 1.468 1.488 1.520 1.553 1.576 1.589 1.596 1.599 1.599 1.595 1.586 1.582 1.581 1.582 1.584 1.589 1.598 1.615 1.644 1.680 1.700 1.700 0.000 
0.000 1.210 1.290 1.304 1.361 1.416 1.445 1.461 1.455 1.434 1.384 1.293 1.149 0.948 0.706 0.504 0.357 0.268 0.229 0.220 0.230 0.268 0.331 0.430 0.584 0.805 1.027 1.176 1.258 1.286 1.285 1.281 1.256 1.193 1.084 0.956 0.866 0.813 0.787 0.778 0.780 0.793 0.831 0.905 1.019 1.176 1.352 1.493 1.583 1.623 1.640 1.635 1.608 1.573 1.537 1.498 1.458 1.427 1.410 1.404 1.404 1.409 1.422 1.448 1.494 1.542 1.576 1.602 1.622 1.637 1.647 1.655 1.661 1.664 1.663 1.658 1.648 1.628 1.603 1.569 1.539 1.522 1.500 1.488 1.483 1.481 1.481 1.485 1.492 1.494 1.490 1.494 1.489 1.480 1.461 1.441 1.433 1.431 1.436 1.449 1.475 1.507 1.535 1.553 1.563 1.572 1.574 1.574 1.573 1.573 1.574 1.576 1.580 1.586 1.596 1.612 1.637 1.673 1.699 1.699 0.000 
0.000 1.224 1.300 1.317 1.366 1.418 1.444 1.451 1.448 1.428 1.378 1.284 1.140 0.941 0.700 0.504 0.367 0.281 0.237 0.227 0.235 0.267 0.327 0.428 0.583 0.805 1.028 1.180 1.266 1.294 1.290 1.291 1.277 1.233 1.155 1.075 1.022 0.992 0.976 0.967 0.965 0.972 1.001 1.061 1.155 1.271 1.371 1.445 1.500 1.537 1.568 1.589 1.580 1.546 1.509 1.471 1.429 1.387 1.357 1.341 1.336 1.339 1.351 1.383 1.437 1.500 1.548 1.581 1.603 1.619 1.631 1.641 1.650 1.655 1.658 1.658 1.654 1.647 1.632 1.606 1.587 1.572 1.560 1.553 1.547 1.543 1.538 1.535 1.531 1.526 1.522 1.518 1.507 1.488 1.461 1.431 1.412 1.404 1.403 1.409 1.427 1.453 1.482 1.504 1.520 1.533 1.541 1.548 1.553 1.558 1.563 1.568 1.573 1.580 1.588 1.598 1.615 1.647 1.691 1.687 0.000 
0.000 1.208 1.273 1.313 1.366 1.416 1.441 1.448 1.445 1.427 1.376 1.285 1.143 0.943 0.702 0.512 0.383 0.305 0.262 0.247 0.250 0.273 0.330 0.430 0.587 0.809 1.032 1.184 1.271 1.303 1.314 1.319 1.315 1.294 1.258 1.231 1.219 1.220 1.220 1.212 1.197 1.193 1.211 1.256 1.323 1.384 1.418 1.426 1.410 1.401 1.423 1.468 1.493 1.493 1.478 1.454 1.419 1.375 1.335 1.311 1.300 1.298 1.311 1.345 1.408 1.484 1.539 1.575 1.598 1.614 1.625 1.633 1.641 1.648 1.654 1.660 1.663 1.663 1.656 1.626 1.614 1.626 1.639 1.640 1.632 1.613 1.597 1.585 1.575 1.566 1.558 1.548 1.532 1.506 1.469 1.425 1.393 1.374 1.367 1.367 1.374 1.391 1.414 1.437 1.459 1.478 1.497 1.514 1.528 1.539 1.549 1.557 1.562 1.567 1.570 1.570 1.571 1.586 1.632 1.601 0.000 
0.000 1.158 1.206 1.277 1.353 1.409 1.438 1.447 1.446 1.429 1.383 1.297 1.157 0.958 0.723 0.539 0.413 0.336 0.295 0.280 0.280 0.296 0.346 0.444 0.600 0.822 1.043 1.191 1.277 1.323 1.356 1.368 1.370 1.367 1.357 1.354 1.366 1.399 1.425 1.430 1.428 1.440 1.462 1.494 1.522 1.530 1.502 1.448 1.385 1.357 1.362 1.391 1.435 1.456 1.457 1.445 1.419 1.378 1.335 1.305 1.288 1.283 1.296 1.332 1.400 1.484 1.543 1.580 1.603 1.617 1.626 1.632 1.638 1.645 1.652 1.662 1.670 1.666 1.620 1.596 1.604 1.665 1.714 1.715 1.694 1.662 1.639 1.622 1.608 1.596 1.585 1.571 1.551 1.521 1.479 1.424 1.375 1.342 1.324 1.317 1.315 1.318 1.332 1.353 1.378 1.409 1.445 1.478 1.504 1.523 1.535 1.542 1.546 1.546 1.540 1.522 1.485 1.445 1.435 1.313 0.000 
0.000 1.100 1.133 1.206 1.311 1.391 1.434 1.449 1.449 1.436 1.396 1.317 1.187 1.001 0.776 0.594 0.466 0.387 0.345 0.330 0.329 0.342 0.387 0.478 0.630 0.848 1.064 1.206 1.294 1.353 1.401 1.418 1.423 1.423 1.422 1.426 1.449 1.492 1.524 1.550 1.606 1.705 1.761 1.782 1.778 1.739 1.599 1.468 1.401 1.378 1.370 1.381 1.425 1.447 1.449 1.443 1.426 1.399 1.359 1.315 1.288 1.283 1.294 1.332 1.407 1.503 1.569 1.607 1.627 1.636 1.639 1.639 1.641 1.645 1.652 1.661 1.672 1.632 1.518 1.499 1.546 1.663 1.755 1.750 1.722 1.692 1.665 1.646 1.632 1.618 1.602 1.584 1.561 1.529 1.484 1.423 1.357 1.307 1.274 1.256 1.248 1.244 1.251 1.269 1.302 1.348 1.406 1.455 1.489 1.514 1.526 1.530 1.530 1.522 1.501 1.457 1.378 1.252 1.152 0.902 0.000 
0.000 1.066 1.094 1.148 1.266 1.373 1.433 1.456 1.459 1.451 1.420 1.353 1.241 1.079 0.871 0.686 0.553 0.468 0.424 0.408 0.406 0.418 0.457 0.541 0.684 0.893 1.099 1.234 1.319 1.388 1.439 1.456 1.461 1.461 1.456 1.458 1.472 1.497 1.520 1.567 1.702 1.966 2.143 2.165 2.142 2.023 1.683 1.499 1.441 1.432 1.427 1.430 1.441 1.449 1.449 1.444 1.444 1.451 1.429 1.359 1.306 1.294 1.303 1.346 1.442 1.566 1.644 1.683 1.696 1.696 1.682 1.662 1.653 1.651 1.654 1.660 1.660 1.616 1.512 1.471 1.448 1.493 1.607 1.702 1.722 1.701 1.677 1.659 1.643 1.628 1.611 1.590 1.565 1.532 1.486 1.421 1.340 1.272 1.227 1.200 1.186 1.185 1.193 1.213 1.250 1.310 1.385 1.443 1.482 1.510 1.523 1.525 1.521 1.505 1.471 1.405 1.302 1.140 0.992 0.666 0.000 
0.000 1.061 1.089 1.127 1.245 1.366 1.436 1.469 1.478 1.476 1.456 1.408 1.323 1.192 1.014 0.828 0.686 0.594 0.544 0.525 0.522 0.531 0.566 0.640 0.770 0.962 1.153 1.281 1.359 1.425 1.471 1.488 1.491 1.486 1.468 1.460 1.466 1.471 1.486 1.552 1.728 2.105 2.502 2.612 2.546 2.277 1.792 1.565 1.504 1.497 1.478 1.465 1.462 1.459 1.450 1.441 1.446 1.473 1.475 1.405 1.328 1.308 1.316 1.372 1.508 1.698 1.807 1.848 1.853 1.833 1.778 1.718 1.684 1.668 1.661 1.657 1.646 1.612 1.541 1.487 1.418 1.360 1.365 1.484 1.653 1.696 1.679 1.665 1.650 1.634 1.614 1.592 1.566 1.532 1.485 1.418 1.326 1.243 1.188 1.156 1.144 1.141 1.153 1.176 1.223 1.296 1.379 1.441 1.484 1.511 1.523 1.524 1.519 1.496 1.451 1.368 1.241 1.084 0.958 0.614 0.000 
0.000 1.066 1.098 1.128 1.242 1.370 1.449 1.492 1.510 1.513 1.506 1.481 1.428 1.337 1.200 1.026 0.875 0.774 0.716 0.692 0.687 0.693 0.720 0.783 0.894 1.061 1.235 1.357 1.434 1.479 1.506 1.518 1.516 1.500 1.469 1.443 1.431 1.432 1.457 1.532 1.706 2.072 2.617 2.858 2.784 2.402 1.895 1.633 1.541 1.503 1.484 1.476 1.470 1.469 1.455 1.422 1.410 1.445 1.458 1.399 1.333 1.310 1.320 1.374 1.524 1.801 1.994 2.061 2.071 2.034 1.939 1.824 1.746 1.703 1.678 1.661 1.644 1.620 1.579 1.520 1.449 1.405 1.396 1.457 1.638 1.676 1.673 1.667 1.654 1.636 1.614 1.590 1.564 1.531 1.484 1.415 1.318 1.219 1.154 1.119 1.107 1.109 1.124 1.157 1.216 1.296 1.381 1.446 1.491 1.517 1.527 1.528 1.522 1.497 1.444 1.342 1.182 1.035 0.951 0.604 0.000 
0.000 1.074 1.110 1.137 1.245 1.381 1.472 1.526 1.553 1.563 1.564 1.555 1.525 1.469 1.380 1.255 1.118 1.013 0.948 0.919 0.910 0.913 0.931 0.977 1.063 1.198 1.348 1.452 1.512 1.543 1.554 1.551 1.535 1.503 1.458 1.411 1.381 1.376 1.399 1.459 1.564 1.763 2.209 2.632 2.721 2.409 1.894 1.633 1.534 1.495 1.482 1.478 1.474 1.454 1.416 1.342 1.290 1.310 1.357 1.356 1.335 1.309 1.284 1.296 1.429 1.765 2.013 2.104 2.125 2.113 2.054 1.957 1.845 1.758 1.704 1.674 1.654 1.636 1.613 1.574 1.533 1.511 1.531 1.568 1.645 1.668 1.671 1.667 1.656 1.636 1.610 1.585 1.558 1.529 1.483 1.416 1.315 1.199 1.122 1.084 1.074 1.081 1.104 1.154 1.223 1.309 1.395 1.462 1.509 1.531 1.541 1.542 1.535 1.508 1.449 1.333 1.141 0.975 0.904 0.564 0.000 
0.000 1.082 1.122 1.152 1.266 1.411 1.510 1.570 1.602 1.615 1.617 1.613 1.598 1.567 1.515 1.442 1.353 1.277 1.223 1.199 1.189 1.188 1.196 1.224 1.280 1.374 1.488 1.566 1.604 1.614 1.606 1.583 1.544 1.490 1.434 1.380 1.323 1.284 1.275 1.289 1.272 1.147 1.143 1.428 1.813 1.976 1.756 1.562 1.485 1.462 1.466 1.478 1.479 1.465 1.424 1.348 1.301 1.305 1.353 1.366 1.355 1.324 1.259 1.165 1.142 1.291 1.440 1.550 1.678 1.859 2.046 2.032 1.919 1.790 1.722 1.685 1.673 1.660 1.646 1.627 1.607 1.598 1.621 1.656 1.673 1.672 1.672 1.668 1.655 1.631 1.597 1.570 1.549 1.526 1.486 1.423 1.321 1.183 1.087 1.047 1.040 1.053 1.098 1.169 1.253 1.346 1.432 1.499 1.540 1.560 1.569 1.570 1.561 1.531 1.466 1.342 1.126 0.877 0.745 0.430 0.000 
0.000 1.093 1.137 1.174 1.318 1.471 1.569 1.623 1.649 1.657 1.657 1.657 1.651 1.636 1.611 1.575 1.530 1.486 1.453 1.436 1.427 1.426 1.430 1.444 1.476 1.530 1.602 1.655 1.676 1.672 1.648 1.605 1.537 1.453 1.389 1.325 1.244 1.176 1.143 1.125 1.048 0.789 0.563 0.529 0.731 1.143 1.347 1.354 1.360 1.382 1.426 1.478 1.498 1.496 1.472 1.434 1.429 1.440 1.447 1.443 1.427 1.382 1.289 1.146 1.046 1.004 1.005 1.014 1.058 1.229 1.669 1.965 1.921 1.794 1.724 1.697 1.690 1.681 1.673 1.663 1.654 1.655 1.666 1.679 1.684 1.682 1.679 1.673 1.656 1.620 1.569 1.541 1.531 1.522 1.499 1.446 1.342 1.175 1.039 0.992 0.990 1.027 1.118 1.222 1.319 1.414 1.496 1.556 1.591 1.610 1.618 1.618 1.609 1.580 1.515 1.388 1.156 0.792 0.515 0.241 0.000 
0.000 1.106 1.155 1.218 1.414 1.562 1.639 1.671 1.683 1.686 1.685 1.687 1.685 1.680 1.672 1.660 1.645 1.628 1.613 1.598 1.590 1.587 1.588 1.595 1.610 1.636 1.671 1.695 1.699 1.696 1.678 1.619 1.514 1.380 1.277 1.204 1.138 1.078 1.023 0.967 0.875 0.677 0.517 0.481 0.542 0.795 0.991 1.069 1.145 1.239 1.352 1.461 1.532 1.566 1.571 1.557 1.547 1.583 1.599 1.592 1.568 1.510 1.383 1.223 1.143 1.122 1.126 1.105 1.059 1.088 1.291 1.637 1.767 1.748 1.711 1.703 1.697 1.694 1.691 1.688 1.686 1.684 1.692 1.694 1.694 1.692 1.692 1.684 1.664 1.603 1.509 1.474 1.485 1.522 1.536 1.502 1.398 1.202 0.975 0.879 0.892 1.003 1.193 1.333 1.422 1.492 1.555 1.607 1.646 1.666 1.672 1.672 1.668 1.653 1.610 1.496 1.256 0.811 0.385 0.133 0.000 
0.000 1.121 1.174 1.311 1.480 1.613 1.678 1.697 1.700 1.700 1.700 1.700 1.700 1.700 1.700 1.700 1.700 1.699 1.693 1.683 1.675 1.672 1.672 1.673 1.679 1.689 1.697 1.700 1.700 1.698 1.685 1.626 1.493 1.322 1.186 1.117 1.080 1.021 0.932 0.845 0.795 0.778 0.774 0.773 0.776 0.789 0.818 0.870 0.953 1.062 1.194 1.349 1.507 1.619 1.652 1.637 1.627 1.642 1.669 1.689 1.687 1.634 1.503 1.340 1.259 1.320 1.425 1.444 1.354 1.269 1.305 1.449 1.598 1.675 1.697 1.700 1.700 1.700 1.700 1.700 1.700 1.700 1.700 1.700 1.700 1.700 1.699 1.691 1.654 1.563 1.435 1.353 1.389 1.506 1.600 1.602 1.497 1.270 0.954 0.719 0.740 0.997 1.283 1.449 1.508 1.538 1.582 1.635 1.676 1.695 1.699 1.700 1.700 1.700 1.697 1.659 1.448 0.934 0.357 0.109 0.000 
0.000 1.133 1.190 1.332 1.500 1.624 1.682 1.698 1.700 1.700 1.700 1.700 1.700 1.700 1.700 1.700 1.700 1.700 1.700 1.699 1.698 1.698 1.698 1.698 1.699 1.699 1.700 1.700 1.700 1.698 1.680 1.614 1.475 1.305 1.176 1.112 1.071 1.000 0.893 0.793 0.739 0.722 0.719 0.719 0.720 0.723 0.735 0.771 0.850 0.972 1.126 1.307 1.489 1.622 1.677 1.683 1.682 1.686 1.693 1.697 1.687 1.628 1.489 1.330 1.271 1.359 1.479 1.488 1.378 1.282 1.321 1.469 1.613 1.682 1.698 1.700 1.700 1.700 1.700 1.700 1.700 1.700 1.700 1.700 1.700 1.700 1.699 1.688 1.643 1.534 1.389 1.305 1.357 1.498 1.619 1.651 1.572 1.344 1.006 0.763 0.811 1.109 1.423 1.595 1.649 1.662 1.673 1.685 1.695 1.699 1.700 1.700 1.700 1.700 1.697 1.659 1.449 0.935 0.357 0.107 0.000 
0.000 0.000 0.000 0.000 0.000 0.000 0.000 0.000 0.000 0.000 0.000 0.000 0.000 0.000 0.000 0.000 0.000 0.000 0.000 0.000 0.000 0.000 0.000 0.000 0.000 0.000 0.000 0.000 0.000 0.000 0.000 0.000 0.000 0.000 0.000 0.000 0.000 0.000 0.000 0.000 0.000 0.000 0.000 0.000 0.000 0.000 0.000 0.000 0.000 0.000 0.000 0.000 0.000 0.000 0.000 0.000 0.000 0.000 0.000 0.000 0.000 0.000 0.000 0.000 0.000 0.000 0.000 0.000 0.000 0.000 0.000 0.000 0.000 0.000 0.000 0.000 0.000 0.000 0.000 0.000 0.000 0.000 0.000 0.000 0.000 0.000 0.000 0.000 0.000 0.000 0.000 0.000 0.000 0.000 0.000 0.000 0.000 0.000 0.000 0.000 0.000 0.000 0.000 0.000 0.000 0.000 0.000 0.000 0.000 0.000 0.000 0.000 0.000 0.000 0.000 0.000 0.000 0.000 0.000 0.000 0.000 
