ncols 121
nrows 121
xllcenter 614385.88
yllcenter 1276940.75
cellsize 92.28
NODATA_value -9999.000
-9999.000 733.000 728.000 728.000 729.000 729.000 731.000 733.000 736.000 744.000 763.000 784.000 799.000 794.000 785.000 778.000 777.000 760.000 752.000 771.000 790.000 793.000 775.000 761.000 768.000 774.000 784.000 794.000 809.000 820.000 826.000 827.000 829.000 841.000 854.000 868.000 881.000 878.000 861.000 846.000 832.000 816.000 804.000 797.000 794.000 788.000 782.000 777.000 774.000 780.000 788.000 781.000 760.000 746.000 759.000 775.000 771.000 758.000 750.000 758.000 764.000 761.000 752.000 744.000 742.000 746.000 746.000 749.000 757.000 755.000 747.000 745.000 750.000 752.000 747.000 740.000 736.000 734.000 733.000 733.000 734.000 734.000 735.000 735.000 735.000 735.000 735.000 735.000 736.000 738.000 737.000 736.000 737.000 738.000 739.000 739.000 739.000 740.000 740.000 740.000 741.000 744.000 746.000 748.000 750.000 750.000 752.000 753.000 751.000 753.000 764.000 773.000 776.000 770.000 763.000 775.000 790.000 792.000 782.000 785.308 -9999.000 
-9999.000 737.000 729.000 728.000 728.000 729.000 731.000 733.000 737.000 750.000 768.000 787.000 798.000 786.000 774.000 770.000 772.000 761.000 752.000 768.000 783.000 788.000 769.000 761.000 769.000 776.000 783.000 790.000 805.000 818.000 830.000 830.000 829.000 843.000 857.000 869.000 882.000 887.000 880.000 867.000 850.000 829.000 815.000 810.000 805.000 799.000 794.000 789.000 781.000 782.000 787.000 782.000 763.000 747.000 760.000 776.000 775.000 762.000 753.000 757.000 759.000 756.000 750.000 748.000 750.000 749.000 748.000 751.000 759.000 759.000 751.000 746.000 750.000 756.000 752.000 745.000 739.000 735.000 733.000 734.000 734.000 734.000 735.000 735.000 735.000 734.000 735.000 736.000 737.000 739.000 738.000 738.000 738.000 741.000 743.000 742.000 742.000 742.000 745.000 746.000 744.000 743.000 743.000 744.000 746.000 748.000 749.000 750.000 751.000 753.000 757.000 764.000 770.000 768.000 768.000 781.000 791.000 796.000 793.000 782.678 -9999.000 
-9999.000 740.000 730.000 729.000 729.000 729.000 731.000 733.000 741.000 755.000 770.000 784.000 789.000 773.000 758.000 758.000 762.000 757.000 755.000 770.000 778.000 779.000 761.000 756.000 768.000 780.000 786.000 789.000 796.000 804.000 818.000 828.000 830.000 842.000 858.000 872.000 885.000 897.000 896.000 881.000 861.000 841.000 831.000 825.000 816.000 806.000 799.000 792.000 786.000 780.000 776.000 771.000 758.000 748.000 757.000 770.000 769.000 762.000 756.000 757.000 758.000 754.000 751.000 756.000 757.000 752.000 751.000 754.000 759.000 761.000 755.000 749.000 753.000 762.000 761.000 752.000 743.000 738.000 736.000 736.000 737.000 737.000 738.000 737.000 736.000 735.000 735.000 735.000 740.000 749.000 750.000 750.000 750.000 754.000 757.000 753.000 751.000 755.000 762.000 762.000 756.000 748.000 745.000 751.000 754.000 755.000 758.000 759.000 761.000 761.000 755.000 758.000 766.000 771.000 777.000 779.000 784.000 788.000 787.000 780.049 -9999.000 
-9999.000 734.000 731.000 733.000 730.000 730.000 731.000 737.000 745.000 755.000 764.000 774.000 776.000 764.000 749.000 748.000 748.000 749.000 757.000 770.000 775.000 773.000 758.000 751.000 760.000 771.000 776.000 776.000 779.000 787.000 801.000 823.000 842.000 851.000 855.000 869.000 886.000 899.000 893.000 871.000 852.000 840.000 832.000 824.000 812.000 801.000 791.000 784.000 778.000 772.000 765.000 756.000 749.000 745.000 748.000 754.000 756.000 756.000 757.000 761.000 761.000 757.000 756.000 760.000 761.000 758.000 757.000 760.000 759.000 760.000 762.000 760.000 761.000 768.000 770.000 763.000 752.000 743.000 738.000 737.000 737.000 736.000 737.000 737.000 737.000 740.000 740.000 737.000 743.000 752.000 753.000 752.000 753.000 759.000 763.000 764.000 765.000 769.000 775.000 774.000 765.000 753.000 747.000 752.000 758.000 762.000 767.000 771.000 773.000 771.000 761.000 760.000 767.000 775.000 781.000 776.000 773.000 776.000 773.000 775.645 -9999.000 
-9999.000 733.000 741.000 743.000 732.000 731.000 731.000 736.000 743.000 748.000 752.000 757.000 758.000 751.000 741.000 740.000 740.000 744.000 755.000 764.000 768.000 769.000 756.000 747.000 750.000 755.000 758.000 758.000 774.000 787.000 800.000 820.000 839.000 849.000 855.000 874.000 892.000 903.000 894.000 865.000 842.000 831.000 824.000 816.000 804.000 790.000 779.000 770.000 765.000 762.000 758.000 750.000 747.000 744.000 742.000 743.000 749.000 755.000 760.000 764.000 764.000 762.000 764.000 766.000 765.000 763.000 764.000 769.000 768.000 764.000 766.000 771.000 773.000 777.000 775.000 767.000 757.000 746.000 738.000 736.000 736.000 736.000 736.000 736.000 740.000 751.000 751.000 743.000 740.000 742.000 744.000 746.000 750.000 754.000 760.000 769.000 777.000 782.000 784.000 780.000 767.000 753.000 747.000 746.000 753.000 760.000 770.000 780.000 782.000 780.000 771.000 759.000 764.000 772.000 776.000 773.000 762.000 762.000 759.000 769.466 -9999.000 
-9999.000 743.000 750.000 745.000 736.000 734.000 732.000 732.000 736.000 736.000 738.000 741.000 741.000 738.000 736.000 739.000 743.000 752.000 761.000 762.000 765.000 764.000 752.000 744.000 744.000 747.000 750.000 753.000 778.000 794.000 806.000 816.000 819.000 822.000 836.000 860.000 881.000 891.000 881.000 857.000 839.000 824.000 819.000 811.000 799.000 788.000 779.000 768.000 759.000 755.000 755.000 755.000 756.000 753.000 744.000 741.000 745.000 751.000 755.000 760.000 764.000 767.000 772.000 774.000 768.000 763.000 766.000 774.000 779.000 775.000 771.000 775.000 779.000 778.000 773.000 763.000 752.000 742.000 738.000 736.000 735.000 736.000 736.000 735.000 738.000 749.000 755.000 749.000 741.000 739.000 742.000 742.000 744.000 748.000 756.000 770.000 781.000 790.000 793.000 785.000 770.000 757.000 752.000 749.000 752.000 759.000 770.000 785.000 792.000 788.000 777.000 762.000 764.000 772.000 773.000 766.000 760.000 759.000 759.000 763.288 -9999.000 
-9999.000 753.000 749.000 740.000 739.000 734.000 733.000 731.000 732.000 731.000 731.000 732.000 733.000 735.000 744.000 755.000 759.000 763.000 768.000 763.000 761.000 757.000 746.000 742.000 743.000 748.000 752.000 758.000 785.000 799.000 802.000 804.000 801.000 802.000 816.000 834.000 858.000 873.000 858.000 841.000 827.000 815.000 812.000 805.000 794.000 787.000 780.000 771.000 764.000 761.000 761.000 765.000 766.000 759.000 748.000 741.000 741.000 744.000 749.000 753.000 758.000 763.000 770.000 769.000 761.000 757.000 760.000 769.000 777.000 777.000 773.000 771.000 772.000 770.000 765.000 757.000 746.000 740.000 741.000 742.000 738.000 735.000 734.000 734.000 737.000 745.000 754.000 752.000 746.000 743.000 749.000 751.000 750.000 750.000 754.000 765.000 773.000 783.000 792.000 791.000 780.000 770.000 762.000 755.000 754.000 761.000 771.000 785.000 796.000 795.000 785.000 771.000 765.000 770.000 771.000 771.000 773.000 772.000 771.000 760.189 -9999.000 
-9999.000 756.000 746.000 738.000 736.000 731.000 732.000 733.000 731.000 730.000 730.000 731.000 738.000 745.000 758.000 768.000 768.000 765.000 766.000 760.000 752.000 746.000 741.000 742.000 748.000 759.000 766.000 775.000 797.000 798.000 787.000 783.000 785.000 791.000 801.000 816.000 839.000 854.000 843.000 825.000 812.000 806.000 801.000 797.000 795.000 794.000 792.000 783.000 777.000 773.000 770.000 769.000 766.000 758.000 751.000 743.000 741.000 746.000 751.000 753.000 757.000 763.000 767.000 764.000 757.000 752.000 755.000 764.000 773.000 773.000 768.000 765.000 763.000 759.000 756.000 749.000 743.000 747.000 754.000 754.000 747.000 739.000 736.000 735.000 737.000 744.000 755.000 756.000 751.000 753.000 761.000 765.000 761.000 756.000 755.000 760.000 768.000 778.000 788.000 791.000 787.000 780.000 767.000 760.000 764.000 770.000 775.000 789.000 801.000 799.000 789.000 773.000 766.000 771.000 779.000 786.000 786.000 783.000 776.000 760.170 -9999.000 
-9999.000 752.000 742.000 734.000 731.000 729.000 731.000 732.000 730.000 731.000 731.000 736.000 748.000 754.000 762.000 766.000 764.000 761.000 762.000 755.000 743.000 739.000 741.000 750.000 763.000 773.000 779.000 784.000 802.000 795.000 777.000 767.000 775.000 783.000 785.000 797.000 816.000 824.000 819.000 809.000 802.000 794.000 789.000 791.000 794.000 795.000 795.000 793.000 787.000 776.000 767.000 761.000 757.000 754.000 751.000 745.000 743.000 746.000 750.000 756.000 762.000 769.000 773.000 768.000 758.000 752.000 754.000 762.000 768.000 768.000 764.000 760.000 756.000 752.000 749.000 746.000 747.000 757.000 765.000 763.000 754.000 743.000 737.000 737.000 737.000 744.000 757.000 760.000 760.000 763.000 770.000 777.000 777.000 773.000 770.000 774.000 784.000 794.000 803.000 805.000 798.000 785.000 769.000 763.000 773.000 777.000 778.000 788.000 799.000 801.000 789.000 775.000 775.000 778.000 780.000 788.000 788.000 783.000 775.000 760.151 -9999.000 
-9999.000 747.000 737.000 732.000 731.000 736.000 737.000 731.000 730.000 732.000 733.000 740.000 748.000 754.000 760.000 759.000 756.000 755.000 756.000 748.000 739.000 742.000 751.000 760.000 774.000 780.000 779.000 774.000 789.000 786.000 772.000 761.000 767.000 773.000 773.000 783.000 796.000 800.000 800.000 795.000 792.000 789.000 786.000 790.000 794.000 790.000 785.000 785.000 780.000 769.000 758.000 754.000 751.000 747.000 746.000 745.000 751.000 757.000 759.000 767.000 771.000 773.000 777.000 771.000 759.000 752.000 751.000 755.000 758.000 760.000 758.000 756.000 753.000 752.000 752.000 753.000 756.000 760.000 758.000 753.000 748.000 741.000 736.000 736.000 737.000 740.000 750.000 760.000 768.000 777.000 784.000 791.000 795.000 792.000 786.000 779.000 779.000 788.000 802.000 814.000 810.000 795.000 775.000 772.000 784.000 788.000 788.000 793.000 802.000 800.000 786.000 781.000 787.000 787.000 784.000 785.000 783.000 775.000 766.000 763.926 -9999.000 
-9999.000 740.000 733.000 732.000 742.000 750.000 748.000 733.000 730.000 731.000 734.000 738.000 742.000 747.000 751.000 750.000 750.000 747.000 744.000 739.000 743.000 754.000 761.000 768.000 776.000 778.000 772.000 760.000 775.000 777.000 770.000 760.000 761.000 764.000 765.000 777.000 787.000 792.000 792.000 788.000 786.000 785.000 787.000 796.000 798.000 790.000 780.000 774.000 769.000 762.000 757.000 756.000 753.000 745.000 744.000 751.000 761.000 771.000 779.000 787.000 785.000 775.000 770.000 767.000 760.000 753.000 751.000 750.000 749.000 748.000 747.000 747.000 746.000 749.000 753.000 754.000 755.000 756.000 751.000 744.000 741.000 737.000 736.000 737.000 736.000 737.000 744.000 758.000 774.000 788.000 797.000 795.000 789.000 780.000 770.000 764.000 766.000 779.000 793.000 803.000 804.000 792.000 776.000 782.000 800.000 804.000 808.000 811.000 812.000 803.000 793.000 792.000 794.000 789.000 783.000 775.000 766.000 763.000 763.000 771.494 -9999.000 
-9999.000 737.000 733.000 736.000 753.000 758.000 750.000 733.000 729.000 732.000 732.000 734.000 737.000 739.000 741.000 745.000 746.000 740.000 735.000 738.000 753.000 766.000 769.000 769.000 769.000 773.000 769.000 759.000 763.000 767.000 765.000 757.000 753.000 755.000 761.000 780.000 789.000 790.000 786.000 781.000 779.000 781.000 789.000 797.000 796.000 787.000 779.000 768.000 762.000 759.000 757.000 755.000 751.000 746.000 748.000 757.000 771.000 785.000 801.000 811.000 799.000 777.000 764.000 761.000 757.000 755.000 757.000 753.000 746.000 744.000 742.000 742.000 742.000 744.000 747.000 747.000 746.000 744.000 743.000 741.000 739.000 737.000 735.000 736.000 736.000 736.000 741.000 755.000 771.000 784.000 789.000 781.000 770.000 761.000 754.000 756.000 763.000 775.000 782.000 787.000 787.000 776.000 769.000 785.000 806.000 817.000 821.000 820.000 814.000 805.000 801.000 801.000 799.000 789.000 778.000 767.000 767.000 774.000 775.000 779.062 -9999.000 
-9999.000 744.000 738.000 743.000 753.000 752.000 744.000 732.000 731.000 734.000 734.000 732.000 734.000 735.000 736.000 738.000 737.000 733.000 734.000 747.000 763.000 772.000 770.000 760.000 759.000 768.000 766.000 761.000 750.000 755.000 756.000 752.000 749.000 751.000 762.000 782.000 786.000 785.000 780.000 775.000 774.000 779.000 791.000 795.000 789.000 781.000 772.000 763.000 758.000 753.000 750.000 749.000 750.000 752.000 756.000 763.000 779.000 803.000 823.000 825.000 804.000 777.000 760.000 754.000 752.000 751.000 749.000 746.000 744.000 743.000 743.000 743.000 742.000 743.000 743.000 743.000 742.000 740.000 739.000 740.000 740.000 739.000 736.000 735.000 736.000 735.000 737.000 745.000 758.000 769.000 771.000 763.000 753.000 747.000 747.000 751.000 761.000 768.000 770.000 773.000 773.000 766.000 769.000 783.000 797.000 807.000 811.000 808.000 800.000 794.000 796.000 792.000 785.000 781.000 778.000 775.000 782.000 786.000 785.000 780.703 -9999.000 
-9999.000 751.000 752.000 756.000 753.000 748.000 742.000 733.000 737.000 738.000 736.000 732.000 734.000 735.000 735.000 734.000 731.000 731.000 742.000 761.000 770.000 770.000 763.000 749.000 755.000 762.000 759.000 760.000 745.000 748.000 749.000 750.000 752.000 755.000 768.000 778.000 780.000 779.000 775.000 771.000 773.000 780.000 791.000 793.000 785.000 777.000 767.000 759.000 754.000 750.000 748.000 749.000 754.000 759.000 765.000 776.000 796.000 813.000 820.000 814.000 794.000 771.000 756.000 750.000 748.000 748.000 748.000 747.000 746.000 745.000 747.000 750.000 748.000 747.000 746.000 745.000 744.000 743.000 740.000 741.000 744.000 741.000 737.000 736.000 736.000 735.000 735.000 739.000 746.000 751.000 751.000 749.000 745.000 744.000 751.000 757.000 762.000 761.000 757.000 759.000 760.000 760.000 770.000 781.000 785.000 788.000 793.000 794.000 787.000 780.000 784.000 778.000 771.000 779.000 785.000 784.000 781.000 781.000 778.000 776.415 -9999.000 
-9999.000 762.000 767.000 768.000 758.000 750.000 741.000 737.000 740.000 742.000 740.000 737.000 736.000 734.000 734.000 732.000 730.000 732.000 747.000 763.000 766.000 761.000 753.000 745.000 755.000 758.000 752.000 758.000 742.000 746.000 755.000 760.000 758.000 759.000 768.000 774.000 775.000 772.000 769.000 769.000 775.000 782.000 791.000 788.000 779.000 771.000 764.000 756.000 752.000 750.000 751.000 754.000 760.000 767.000 773.000 788.000 803.000 804.000 796.000 788.000 777.000 763.000 753.000 749.000 747.000 748.000 751.000 751.000 751.000 752.000 752.000 754.000 754.000 751.000 749.000 750.000 752.000 749.000 742.000 741.000 744.000 742.000 741.000 743.000 741.000 737.000 738.000 738.000 739.000 741.000 741.000 741.000 742.000 749.000 755.000 759.000 761.000 756.000 749.000 752.000 754.000 756.000 769.000 776.000 775.000 772.000 777.000 780.000 776.000 773.000 776.000 769.000 768.000 780.000 796.000 795.000 786.000 779.000 774.000 772.128 -9999.000 
-9999.000 774.000 768.000 765.000 754.000 743.000 742.000 744.000 746.000 751.000 750.000 745.000 737.000 732.000 734.000 734.000 733.000 735.000 744.000 757.000 759.000 749.000 743.000 744.000 756.000 756.000 745.000 747.000 742.000 752.000 765.000 765.000 763.000 763.000 768.000 770.000 771.000 766.000 764.000 770.000 781.000 786.000 790.000 785.000 774.000 768.000 762.000 757.000 754.000 753.000 754.000 758.000 765.000 776.000 782.000 785.000 786.000 780.000 771.000 766.000 760.000 754.000 751.000 749.000 748.000 750.000 753.000 753.000 756.000 760.000 758.000 754.000 750.000 748.000 751.000 757.000 758.000 752.000 744.000 743.000 746.000 744.000 745.000 748.000 747.000 742.000 739.000 737.000 736.000 739.000 741.000 742.000 744.000 746.000 749.000 752.000 753.000 749.000 746.000 753.000 759.000 756.000 762.000 768.000 762.000 757.000 766.000 770.000 767.000 767.000 766.000 759.000 763.000 775.000 788.000 793.000 795.000 794.000 786.000 774.814 -9999.000 
-9999.000 770.000 758.000 753.000 750.000 746.000 752.000 752.000 754.000 759.000 757.000 749.000 737.000 732.000 735.000 735.000 734.000 736.000 742.000 759.000 758.000 741.000 735.000 740.000 751.000 750.000 740.000 738.000 744.000 754.000 761.000 759.000 759.000 764.000 768.000 767.000 766.000 763.000 766.000 780.000 791.000 791.000 790.000 786.000 777.000 766.000 761.000 758.000 756.000 757.000 763.000 768.000 770.000 778.000 789.000 784.000 771.000 764.000 759.000 756.000 755.000 756.000 755.000 751.000 751.000 752.000 752.000 754.000 758.000 762.000 760.000 754.000 748.000 747.000 751.000 758.000 757.000 750.000 745.000 746.000 748.000 745.000 747.000 752.000 752.000 746.000 740.000 736.000 736.000 738.000 739.000 740.000 740.000 739.000 739.000 740.000 742.000 741.000 742.000 749.000 759.000 755.000 758.000 762.000 755.000 755.000 766.000 769.000 762.000 758.000 756.000 754.000 762.000 770.000 781.000 795.000 808.000 814.000 800.000 784.472 -9999.000 
-9999.000 757.000 761.000 763.000 767.000 766.000 765.000 760.000 758.000 760.000 755.000 744.000 735.000 732.000 734.000 734.000 735.000 735.000 738.000 748.000 748.000 736.000 733.000 735.000 739.000 740.000 738.000 739.000 747.000 751.000 753.000 751.000 750.000 759.000 761.000 762.000 761.000 762.000 774.000 788.000 797.000 799.000 796.000 790.000 784.000 772.000 762.000 758.000 757.000 764.000 778.000 785.000 783.000 785.000 789.000 781.000 769.000 761.000 758.000 756.000 756.000 758.000 757.000 755.000 755.000 753.000 752.000 755.000 759.000 761.000 758.000 753.000 750.000 750.000 752.000 755.000 756.000 752.000 748.000 747.000 748.000 747.000 748.000 753.000 753.000 746.000 740.000 739.000 744.000 743.000 740.000 739.000 739.000 738.000 739.000 740.000 741.000 741.000 741.000 745.000 753.000 752.000 752.000 755.000 750.000 752.000 755.000 756.000 753.000 751.000 749.000 756.000 764.000 767.000 777.000 797.000 818.000 823.000 808.000 794.130 -9999.000 
-9999.000 761.000 777.000 782.000 782.000 775.000 766.000 758.000 753.000 751.000 744.000 737.000 735.000 733.000 732.000 733.000 736.000 735.000 735.000 735.000 736.000 733.000 737.000 742.000 743.000 743.000 742.000 744.000 751.000 751.000 749.000 745.000 748.000 756.000 760.000 762.000 762.000 762.000 773.000 788.000 798.000 806.000 801.000 793.000 789.000 777.000 764.000 761.000 760.000 769.000 788.000 802.000 809.000 810.000 800.000 781.000 768.000 759.000 759.000 760.000 759.000 758.000 758.000 757.000 757.000 756.000 755.000 756.000 759.000 759.000 755.000 752.000 752.000 756.000 758.000 756.000 756.000 754.000 754.000 753.000 751.000 751.000 751.000 752.000 750.000 745.000 744.000 745.000 750.000 753.000 750.000 746.000 741.000 739.000 742.000 748.000 751.000 751.000 746.000 745.000 748.000 746.000 743.000 743.000 743.000 744.000 744.000 744.000 746.000 747.000 747.000 754.000 758.000 756.000 768.000 790.000 810.000 812.000 801.000 791.454 -9999.000 
-9999.000 774.000 782.000 781.000 774.000 762.000 753.000 748.000 743.000 739.000 736.000 738.000 738.000 735.000 740.000 740.000 735.000 734.000 734.000 732.000 734.000 739.000 748.000 757.000 760.000 757.000 752.000 750.000 754.000 752.000 744.000 743.000 752.000 763.000 769.000 771.000 770.000 769.000 773.000 784.000 797.000 806.000 802.000 794.000 788.000 778.000 769.000 765.000 764.000 775.000 790.000 808.000 825.000 830.000 810.000 784.000 769.000 762.000 763.000 764.000 762.000 760.000 761.000 762.000 761.000 759.000 757.000 757.000 762.000 762.000 756.000 754.000 758.000 763.000 760.000 757.000 756.000 757.000 759.000 758.000 758.000 759.000 756.000 754.000 752.000 750.000 749.000 747.000 749.000 752.000 751.000 746.000 741.000 740.000 747.000 756.000 761.000 763.000 760.000 751.000 747.000 745.000 744.000 745.000 747.000 746.000 746.000 746.000 746.000 747.000 749.000 749.000 750.000 751.000 762.000 780.000 795.000 793.000 785.000 776.444 -9999.000 
-9999.000 777.000 775.000 769.000 760.000 755.000 756.000 748.000 739.000 736.000 739.000 747.000 745.000 736.000 749.000 749.000 739.000 738.000 735.000 733.000 733.000 743.000 751.000 756.000 756.000 756.000 755.000 755.000 751.000 745.000 741.000 743.000 757.000 771.000 778.000 777.000 773.000 771.000 779.000 783.000 792.000 804.000 800.000 794.000 790.000 785.000 774.000 769.000 774.000 790.000 803.000 823.000 839.000 841.000 822.000 789.000 773.000 768.000 768.000 767.000 764.000 763.000 765.000 766.000 763.000 762.000 764.000 764.000 765.000 763.000 758.000 757.000 760.000 763.000 762.000 761.000 759.000 760.000 762.000 762.000 763.000 765.000 764.000 759.000 755.000 756.000 755.000 752.000 750.000 751.000 752.000 748.000 743.000 745.000 754.000 764.000 769.000 768.000 763.000 757.000 749.000 748.000 752.000 762.000 768.000 763.000 765.000 762.000 751.000 753.000 762.000 758.000 751.000 749.000 755.000 768.000 780.000 780.000 773.000 761.434 -9999.000 
-9999.000 773.000 765.000 759.000 760.000 769.000 776.000 758.000 738.000 741.000 748.000 753.000 750.000 736.000 747.000 750.000 749.000 751.000 740.000 732.000 732.000 738.000 740.000 744.000 751.000 755.000 754.000 757.000 745.000 738.000 738.000 741.000 754.000 769.000 775.000 771.000 766.000 767.000 782.000 788.000 790.000 803.000 802.000 796.000 795.000 790.000 780.000 774.000 786.000 801.000 809.000 826.000 844.000 850.000 831.000 797.000 780.000 773.000 772.000 769.000 768.000 768.000 770.000 776.000 776.000 770.000 772.000 769.000 765.000 765.000 763.000 762.000 763.000 763.000 765.000 766.000 767.000 768.000 768.000 766.000 767.000 770.000 772.000 770.000 767.000 763.000 758.000 755.000 754.000 758.000 760.000 754.000 749.000 753.000 763.000 771.000 772.000 768.000 759.000 752.000 749.000 755.000 763.000 771.000 777.000 772.000 771.000 765.000 753.000 758.000 770.000 774.000 764.000 752.000 751.000 756.000 762.000 762.000 760.000 756.152 -9999.000 
-9999.000 770.000 762.000 761.000 772.000 781.000 781.000 757.000 740.000 747.000 756.000 755.000 748.000 737.000 743.000 751.000 756.000 753.000 737.000 732.000 734.000 735.000 733.000 737.000 744.000 747.000 748.000 751.000 739.000 735.000 739.000 742.000 747.000 755.000 759.000 756.000 758.000 764.000 778.000 793.000 803.000 810.000 807.000 803.000 800.000 794.000 783.000 777.000 789.000 799.000 806.000 825.000 844.000 855.000 841.000 805.000 785.000 779.000 778.000 776.000 776.000 777.000 777.000 789.000 792.000 783.000 781.000 776.000 768.000 770.000 776.000 777.000 771.000 766.000 765.000 768.000 772.000 778.000 780.000 776.000 774.000 776.000 781.000 783.000 783.000 775.000 766.000 760.000 760.000 765.000 764.000 758.000 754.000 756.000 764.000 772.000 770.000 761.000 751.000 745.000 749.000 762.000 772.000 778.000 781.000 780.000 774.000 761.000 755.000 765.000 778.000 786.000 778.000 758.000 755.000 756.000 755.000 753.000 755.000 760.598 -9999.000 
-9999.000 774.000 771.000 772.000 778.000 777.000 764.000 749.000 751.000 756.000 756.000 749.000 742.000 738.000 748.000 756.000 754.000 745.000 735.000 736.000 736.000 734.000 733.000 733.000 734.000 735.000 737.000 739.000 736.000 739.000 752.000 758.000 759.000 758.000 759.000 759.000 760.000 767.000 781.000 798.000 808.000 813.000 814.000 808.000 801.000 795.000 784.000 781.000 790.000 804.000 815.000 831.000 847.000 862.000 853.000 817.000 795.000 790.000 788.000 789.000 788.000 786.000 791.000 805.000 811.000 803.000 791.000 780.000 776.000 783.000 792.000 798.000 791.000 781.000 778.000 773.000 771.000 777.000 785.000 788.000 786.000 784.000 789.000 800.000 801.000 788.000 775.000 766.000 765.000 773.000 773.000 766.000 760.000 758.000 760.000 766.000 767.000 759.000 747.000 745.000 747.000 757.000 766.000 774.000 781.000 783.000 776.000 766.000 763.000 770.000 779.000 786.000 779.000 762.000 760.000 767.000 766.000 765.000 764.000 765.044 -9999.000 
-9999.000 785.000 781.000 773.000 768.000 759.000 749.000 756.000 770.000 769.000 760.000 745.000 739.000 745.000 758.000 758.000 748.000 739.000 738.000 744.000 741.000 736.000 734.000 734.000 732.000 730.000 731.000 732.000 734.000 740.000 756.000 767.000 771.000 767.000 765.000 767.000 765.000 770.000 783.000 798.000 805.000 815.000 818.000 806.000 797.000 792.000 786.000 784.000 792.000 806.000 822.000 835.000 852.000 871.000 873.000 852.000 828.000 812.000 802.000 801.000 801.000 800.000 810.000 820.000 815.000 800.000 794.000 797.000 802.000 809.000 819.000 823.000 821.000 819.000 818.000 809.000 793.000 780.000 780.000 788.000 798.000 800.000 799.000 805.000 808.000 803.000 796.000 781.000 771.000 775.000 778.000 773.000 769.000 768.000 762.000 761.000 762.000 756.000 747.000 745.000 744.000 747.000 756.000 771.000 780.000 781.000 777.000 777.000 776.000 779.000 783.000 786.000 778.000 764.000 766.000 779.000 780.000 782.000 781.000 771.533 -9999.000 
-9999.000 793.000 788.000 773.000 760.000 748.000 753.000 769.000 780.000 778.000 766.000 748.000 743.000 755.000 765.000 758.000 745.000 743.000 752.000 757.000 751.000 741.000 736.000 737.000 735.000 733.000 733.000 735.000 739.000 736.000 746.000 757.000 763.000 761.000 759.000 760.000 762.000 769.000 782.000 795.000 805.000 817.000 816.000 800.000 789.000 787.000 787.000 788.000 800.000 816.000 834.000 844.000 856.000 880.000 899.000 896.000 873.000 850.000 837.000 826.000 818.000 812.000 817.000 821.000 812.000 804.000 813.000 826.000 837.000 848.000 857.000 855.000 849.000 848.000 853.000 849.000 834.000 812.000 796.000 794.000 801.000 812.000 813.000 811.000 816.000 823.000 814.000 795.000 788.000 784.000 778.000 772.000 767.000 766.000 763.000 756.000 752.000 749.000 746.000 746.000 744.000 743.000 753.000 769.000 774.000 775.000 779.000 782.000 783.000 790.000 792.000 788.000 778.000 766.000 773.000 787.000 787.000 792.000 788.000 780.064 -9999.000 
-9999.000 788.000 787.000 779.000 766.000 754.000 764.000 773.000 773.000 769.000 761.000 750.000 753.000 761.000 765.000 755.000 747.000 754.000 765.000 765.000 757.000 744.000 738.000 738.000 736.000 735.000 736.000 738.000 741.000 737.000 741.000 744.000 747.000 748.000 749.000 755.000 767.000 776.000 789.000 799.000 808.000 813.000 807.000 793.000 784.000 782.000 787.000 795.000 809.000 826.000 842.000 853.000 868.000 895.000 918.000 920.000 912.000 898.000 883.000 869.000 856.000 839.000 822.000 811.000 810.000 818.000 832.000 843.000 850.000 857.000 869.000 879.000 878.000 870.000 864.000 865.000 865.000 855.000 841.000 829.000 821.000 822.000 828.000 830.000 834.000 838.000 829.000 816.000 807.000 798.000 788.000 775.000 766.000 762.000 759.000 753.000 750.000 747.000 746.000 746.000 747.000 745.000 749.000 760.000 763.000 769.000 788.000 797.000 796.000 796.000 796.000 791.000 777.000 769.000 781.000 794.000 798.000 802.000 794.000 788.595 -9999.000 
-9999.000 773.000 778.000 780.000 774.000 767.000 773.000 773.000 767.000 761.000 757.000 756.000 756.000 757.000 758.000 757.000 753.000 758.000 766.000 761.000 751.000 744.000 739.000 738.000 735.000 735.000 738.000 738.000 739.000 740.000 753.000 751.000 746.000 745.000 748.000 759.000 774.000 786.000 797.000 806.000 810.000 808.000 801.000 788.000 779.000 779.000 785.000 795.000 813.000 832.000 846.000 858.000 883.000 912.000 921.000 922.000 936.000 949.000 938.000 921.000 898.000 863.000 829.000 817.000 819.000 827.000 840.000 853.000 860.000 864.000 880.000 898.000 893.000 878.000 869.000 871.000 879.000 884.000 881.000 878.000 866.000 848.000 842.000 846.000 849.000 850.000 842.000 834.000 831.000 821.000 801.000 782.000 772.000 766.000 761.000 756.000 753.000 748.000 746.000 745.000 743.000 743.000 744.000 747.000 757.000 772.000 792.000 809.000 808.000 797.000 794.000 788.000 774.000 768.000 782.000 796.000 803.000 804.000 796.000 790.065 -9999.000 
-9999.000 762.000 766.000 775.000 780.000 780.000 776.000 776.000 771.000 765.000 766.000 761.000 753.000 749.000 748.000 751.000 748.000 752.000 763.000 758.000 745.000 741.000 740.000 738.000 734.000 736.000 739.000 739.000 738.000 739.000 752.000 758.000 756.000 752.000 752.000 760.000 773.000 787.000 799.000 807.000 807.000 802.000 796.000 785.000 774.000 776.000 783.000 796.000 810.000 823.000 841.000 863.000 891.000 906.000 906.000 919.000 946.000 973.000 977.000 951.000 913.000 871.000 844.000 842.000 850.000 861.000 873.000 879.000 887.000 897.000 908.000 921.000 919.000 902.000 884.000 877.000 884.000 894.000 903.000 912.000 916.000 899.000 872.000 860.000 858.000 858.000 849.000 847.000 851.000 835.000 807.000 789.000 780.000 772.000 766.000 761.000 756.000 751.000 747.000 746.000 745.000 744.000 745.000 750.000 762.000 779.000 794.000 805.000 806.000 794.000 788.000 785.000 780.000 771.000 777.000 790.000 798.000 800.000 796.000 784.474 -9999.000 
-9999.000 768.000 763.000 765.000 777.000 776.000 765.000 764.000 763.000 762.000 770.000 767.000 761.000 755.000 747.000 739.000 738.000 741.000 748.000 747.000 740.000 739.000 740.000 740.000 737.000 736.000 740.000 741.000 738.000 736.000 740.000 747.000 751.000 753.000 757.000 763.000 774.000 787.000 796.000 802.000 801.000 796.000 790.000 776.000 769.000 774.000 784.000 795.000 799.000 811.000 844.000 873.000 885.000 882.000 884.000 905.000 933.000 962.000 980.000 961.000 920.000 889.000 876.000 882.000 895.000 901.000 903.000 901.000 906.000 923.000 939.000 948.000 947.000 937.000 913.000 890.000 889.000 898.000 909.000 926.000 943.000 936.000 908.000 883.000 869.000 864.000 857.000 860.000 865.000 853.000 835.000 812.000 793.000 780.000 770.000 765.000 758.000 750.000 747.000 749.000 750.000 754.000 758.000 762.000 773.000 786.000 792.000 794.000 793.000 786.000 777.000 778.000 780.000 775.000 774.000 780.000 787.000 787.000 788.000 778.883 -9999.000 
-9999.000 776.000 765.000 756.000 765.000 766.000 753.000 748.000 747.000 748.000 755.000 758.000 756.000 750.000 742.000 736.000 743.000 745.000 739.000 737.000 737.000 739.000 739.000 740.000 739.000 737.000 740.000 742.000 740.000 736.000 736.000 738.000 743.000 752.000 760.000 768.000 773.000 783.000 792.000 797.000 794.000 788.000 779.000 769.000 770.000 776.000 782.000 786.000 788.000 803.000 835.000 859.000 862.000 864.000 876.000 893.000 918.000 942.000 964.000 961.000 935.000 915.000 910.000 918.000 922.000 917.000 912.000 910.000 916.000 944.000 976.000 982.000 973.000 967.000 951.000 923.000 910.000 912.000 915.000 925.000 945.000 954.000 942.000 917.000 895.000 882.000 872.000 875.000 883.000 882.000 873.000 848.000 816.000 793.000 780.000 773.000 765.000 756.000 748.000 747.000 752.000 756.000 760.000 765.000 773.000 781.000 783.000 785.000 786.000 779.000 767.000 771.000 781.000 781.000 773.000 772.000 774.000 773.000 776.000 782.000 -9999.000 
-9999.000 770.000 769.000 765.000 758.000 759.000 752.000 754.000 754.000 746.000 742.000 744.000 743.000 740.000 737.000 735.000 747.000 749.000 741.000 737.000 737.000 739.000 739.000 739.000 739.000 739.000 741.000 743.000 740.000 737.000 736.000 737.000 739.000 746.000 756.000 763.000 766.000 776.000 788.000 791.000 787.000 779.000 770.000 764.000 772.000 777.000 778.000 779.000 785.000 802.000 817.000 830.000 841.000 860.000 878.000 886.000 905.000 929.000 944.000 950.000 945.000 940.000 939.000 940.000 933.000 929.000 927.000 923.000 929.000 964.000 1008.000 1009.000 996.000 990.000 981.000 963.000 944.000 934.000 931.000 931.000 945.000 960.000 955.000 936.000 915.000 898.000 888.000 890.000 893.000 892.000 890.000 874.000 842.000 809.000 791.000 781.000 772.000 762.000 752.000 747.000 748.000 751.000 754.000 758.000 765.000 775.000 777.000 778.000 778.000 768.000 761.000 767.000 779.000 790.000 790.000 782.000 776.000 775.000 775.000 793.824 -9999.000 
-9999.000 763.000 768.000 774.000 766.000 766.000 763.000 769.000 765.000 752.000 745.000 753.000 753.000 746.000 738.000 734.000 741.000 742.000 739.000 737.000 736.000 737.000 738.000 742.000 740.000 740.000 741.000 742.000 740.000 738.000 736.000 738.000 738.000 742.000 751.000 757.000 761.000 774.000 785.000 785.000 780.000 773.000 765.000 762.000 770.000 774.000 774.000 778.000 787.000 803.000 818.000 824.000 835.000 858.000 876.000 889.000 905.000 919.000 923.000 931.000 938.000 950.000 962.000 963.000 958.000 961.000 967.000 968.000 969.000 986.000 1016.000 1029.000 1022.000 1020.000 1018.000 1006.000 986.000 968.000 959.000 956.000 961.000 972.000 965.000 949.000 938.000 926.000 914.000 906.000 895.000 884.000 879.000 875.000 852.000 821.000 803.000 789.000 775.000 763.000 752.000 747.000 747.000 748.000 749.000 749.000 751.000 759.000 764.000 764.000 761.000 756.000 755.000 763.000 774.000 789.000 794.000 794.000 792.000 792.000 794.000 805.649 -9999.000 
-9999.000 764.000 769.000 772.000 772.000 776.000 770.000 766.000 759.000 753.000 758.000 774.000 773.000 765.000 748.000 736.000 734.000 736.000 737.000 737.000 738.000 735.000 737.000 745.000 741.000 741.000 740.000 742.000 740.000 737.000 736.000 738.000 740.000 742.000 746.000 751.000 760.000 775.000 785.000 781.000 776.000 770.000 764.000 765.000 771.000 771.000 770.000 777.000 790.000 812.000 831.000 834.000 842.000 856.000 868.000 887.000 902.000 906.000 907.000 915.000 927.000 947.000 973.000 990.000 995.000 1001.000 1014.000 1017.000 1015.000 1021.000 1041.000 1061.000 1069.000 1072.000 1065.000 1047.000 1026.000 1006.000 993.000 982.000 973.000 979.000 981.000 974.000 966.000 951.000 932.000 919.000 903.000 882.000 868.000 864.000 849.000 822.000 804.000 794.000 781.000 766.000 755.000 753.000 750.000 748.000 749.000 748.000 749.000 751.000 752.000 751.000 751.000 752.000 758.000 772.000 785.000 788.000 786.000 783.000 788.000 798.000 805.000 807.804 -9999.000 
-9999.000 771.000 771.000 769.000 768.000 768.000 763.000 758.000 762.000 766.000 767.000 776.000 776.000 769.000 751.000 738.000 736.000 736.000 737.000 738.000 738.000 734.000 735.000 743.000 746.000 742.000 740.000 743.000 742.000 738.000 738.000 740.000 741.000 742.000 744.000 747.000 759.000 772.000 780.000 780.000 776.000 768.000 762.000 768.000 776.000 772.000 772.000 782.000 797.000 822.000 839.000 843.000 851.000 866.000 873.000 880.000 885.000 890.000 903.000 915.000 926.000 942.000 972.000 1003.000 1015.000 1011.000 1022.000 1040.000 1058.000 1074.000 1088.000 1101.000 1112.000 1117.000 1108.000 1091.000 1077.000 1058.000 1035.000 1013.000 995.000 995.000 1006.000 1011.000 997.000 970.000 945.000 926.000 904.000 879.000 859.000 845.000 829.000 808.000 796.000 794.000 787.000 776.000 765.000 757.000 752.000 751.000 751.000 748.000 748.000 750.000 752.000 757.000 762.000 766.000 774.000 779.000 785.000 787.000 781.000 772.000 777.000 791.000 800.000 800.290 -9999.000 
-9999.000 773.000 768.000 764.000 761.000 754.000 752.000 760.000 770.000 770.000 761.000 761.000 762.000 759.000 748.000 741.000 738.000 738.000 738.000 739.000 736.000 734.000 740.000 746.000 748.000 741.000 739.000 742.000 747.000 739.000 740.000 743.000 742.000 742.000 744.000 748.000 759.000 768.000 775.000 776.000 773.000 764.000 757.000 766.000 776.000 772.000 772.000 786.000 805.000 824.000 831.000 837.000 848.000 870.000 883.000 882.000 865.000 862.000 880.000 899.000 912.000 921.000 949.000 978.000 995.000 994.000 1001.000 1026.000 1060.000 1096.000 1129.000 1154.000 1175.000 1188.000 1173.000 1146.000 1128.000 1102.000 1069.000 1038.000 1023.000 1026.000 1030.000 1023.000 1003.000 971.000 941.000 919.000 900.000 877.000 849.000 823.000 802.000 791.000 790.000 791.000 790.000 782.000 769.000 760.000 755.000 752.000 750.000 748.000 750.000 756.000 765.000 770.000 773.000 781.000 789.000 792.000 791.000 786.000 776.000 765.000 766.000 776.000 784.000 792.776 -9999.000 
-9999.000 774.000 768.000 766.000 760.000 749.000 744.000 750.000 759.000 761.000 756.000 747.000 748.000 760.000 757.000 744.000 739.000 737.000 738.000 738.000 735.000 738.000 747.000 748.000 743.000 737.000 738.000 740.000 749.000 740.000 740.000 744.000 745.000 744.000 744.000 747.000 757.000 769.000 769.000 768.000 768.000 758.000 755.000 762.000 768.000 767.000 771.000 783.000 798.000 811.000 813.000 826.000 836.000 857.000 872.000 872.000 849.000 831.000 844.000 867.000 879.000 887.000 909.000 933.000 951.000 963.000 980.000 1009.000 1044.000 1083.000 1122.000 1152.000 1184.000 1220.000 1225.000 1200.000 1174.000 1138.000 1100.000 1071.000 1060.000 1051.000 1036.000 1015.000 981.000 942.000 914.000 903.000 895.000 878.000 854.000 821.000 794.000 784.000 781.000 784.000 789.000 784.000 769.000 760.000 756.000 754.000 751.000 752.000 751.000 751.000 760.000 767.000 772.000 777.000 782.000 788.000 791.000 784.000 773.000 763.000 759.000 763.000 769.000 786.759 -9999.000 
-9999.000 777.000 775.000 775.000 768.000 756.000 745.000 743.000 750.000 758.000 758.000 747.000 744.000 759.000 756.000 742.000 738.000 742.000 745.000 740.000 736.000 737.000 744.000 742.000 738.000 736.000 737.000 739.000 747.000 741.000 739.000 742.000 744.000 744.000 744.000 747.000 753.000 766.000 765.000 761.000 759.000 753.000 759.000 766.000 763.000 767.000 772.000 779.000 789.000 797.000 802.000 814.000 819.000 831.000 843.000 848.000 838.000 815.000 818.000 837.000 841.000 847.000 866.000 886.000 905.000 927.000 963.000 998.000 1032.000 1063.000 1095.000 1129.000 1163.000 1196.000 1214.000 1213.000 1194.000 1167.000 1144.000 1122.000 1092.000 1057.000 1025.000 994.000 952.000 907.000 880.000 874.000 871.000 863.000 853.000 834.000 810.000 786.000 773.000 773.000 781.000 782.000 770.000 757.000 752.000 752.000 751.000 752.000 753.000 750.000 747.000 751.000 760.000 766.000 771.000 775.000 778.000 777.000 767.000 757.000 756.000 756.000 757.000 782.239 -9999.000 
-9999.000 779.000 772.000 772.000 772.000 766.000 752.000 744.000 746.000 749.000 749.000 743.000 741.000 746.000 745.000 740.000 744.000 756.000 758.000 749.000 742.000 737.000 740.000 744.000 743.000 740.000 743.000 746.000 747.000 744.000 741.000 743.000 742.000 744.000 741.000 747.000 752.000 761.000 762.000 756.000 752.000 756.000 769.000 773.000 771.000 771.000 773.000 779.000 784.000 790.000 799.000 809.000 806.000 811.000 819.000 819.000 814.000 801.000 802.000 811.000 818.000 833.000 850.000 863.000 881.000 909.000 946.000 985.000 1019.000 1042.000 1067.000 1101.000 1137.000 1166.000 1187.000 1189.000 1176.000 1159.000 1143.000 1123.000 1087.000 1051.000 1019.000 981.000 937.000 895.000 863.000 845.000 834.000 829.000 827.000 826.000 819.000 796.000 775.000 767.000 771.000 774.000 764.000 755.000 751.000 751.000 753.000 760.000 764.000 758.000 750.000 748.000 749.000 752.000 755.000 757.000 759.000 760.000 756.000 753.000 757.000 761.000 764.000 777.718 -9999.000 
-9999.000 784.000 768.000 761.000 762.000 758.000 747.000 741.000 743.000 746.000 746.000 741.000 740.000 739.000 740.000 749.000 760.000 768.000 770.000 766.000 753.000 739.000 741.000 749.000 749.000 744.000 750.000 757.000 755.000 750.000 748.000 755.000 756.000 757.000 748.000 746.000 751.000 758.000 762.000 758.000 751.000 759.000 771.000 770.000 770.000 771.000 776.000 783.000 788.000 790.000 798.000 802.000 794.000 794.000 797.000 793.000 790.000 790.000 797.000 809.000 828.000 851.000 868.000 880.000 898.000 922.000 943.000 967.000 1000.000 1026.000 1051.000 1079.000 1109.000 1139.000 1163.000 1168.000 1154.000 1138.000 1120.000 1099.000 1071.000 1044.000 1017.000 983.000 940.000 904.000 872.000 843.000 823.000 809.000 802.000 805.000 810.000 800.000 778.000 765.000 764.000 769.000 769.000 765.000 756.000 750.000 754.000 764.000 772.000 771.000 761.000 752.000 748.000 748.000 748.000 748.000 751.000 753.000 752.000 755.000 763.000 772.000 780.000 776.736 -9999.000 
-9999.000 788.000 772.000 756.000 750.000 745.000 741.000 739.000 749.000 756.000 750.000 742.000 739.000 738.000 742.000 763.000 774.000 772.000 775.000 774.000 757.000 743.000 741.000 748.000 749.000 746.000 752.000 759.000 761.000 756.000 756.000 771.000 770.000 764.000 752.000 745.000 747.000 755.000 759.000 756.000 752.000 758.000 765.000 764.000 767.000 769.000 775.000 784.000 795.000 792.000 790.000 789.000 784.000 785.000 788.000 787.000 791.000 797.000 804.000 827.000 857.000 878.000 894.000 913.000 934.000 953.000 967.000 982.000 1006.000 1033.000 1058.000 1081.000 1103.000 1126.000 1146.000 1153.000 1142.000 1118.000 1094.000 1076.000 1055.000 1038.000 1018.000 984.000 946.000 919.000 890.000 853.000 831.000 816.000 799.000 786.000 788.000 789.000 780.000 769.000 762.000 765.000 770.000 768.000 759.000 752.000 752.000 754.000 761.000 770.000 771.000 758.000 750.000 756.000 759.000 754.000 752.000 751.000 752.000 756.000 765.000 774.000 781.000 779.292 -9999.000 
-9999.000 782.000 769.000 754.000 749.000 747.000 743.000 741.000 749.000 751.000 746.000 742.000 740.000 741.000 751.000 771.000 774.000 767.000 771.000 768.000 754.000 757.000 755.000 750.000 749.000 749.000 750.000 756.000 763.000 758.000 763.000 776.000 771.000 762.000 758.000 750.000 745.000 749.000 753.000 752.000 754.000 756.000 757.000 763.000 770.000 771.000 772.000 779.000 787.000 785.000 781.000 782.000 787.000 795.000 803.000 806.000 814.000 823.000 834.000 856.000 880.000 901.000 924.000 952.000 976.000 996.000 1012.000 1024.000 1041.000 1064.000 1084.000 1103.000 1125.000 1140.000 1150.000 1156.000 1151.000 1131.000 1102.000 1075.000 1056.000 1040.000 1023.000 992.000 957.000 933.000 902.000 862.000 839.000 826.000 809.000 785.000 773.000 776.000 780.000 774.000 765.000 762.000 765.000 767.000 760.000 754.000 752.000 750.000 752.000 761.000 768.000 763.000 758.000 767.000 774.000 768.000 759.000 754.000 757.000 768.000 773.000 775.000 780.000 781.848 -9999.000 
-9999.000 765.000 758.000 756.000 763.000 762.000 752.000 747.000 752.000 748.000 743.000 741.000 741.000 747.000 757.000 764.000 761.000 762.000 775.000 768.000 762.000 776.000 776.000 763.000 762.000 760.000 760.000 761.000 765.000 763.000 764.000 769.000 760.000 754.000 757.000 755.000 749.000 744.000 748.000 750.000 758.000 760.000 761.000 767.000 772.000 776.000 777.000 779.000 776.000 776.000 776.000 781.000 789.000 796.000 809.000 826.000 843.000 862.000 875.000 882.000 899.000 927.000 961.000 1001.000 1029.000 1047.000 1061.000 1072.000 1082.000 1098.000 1124.000 1159.000 1178.000 1179.000 1182.000 1188.000 1183.000 1159.000 1122.000 1087.000 1065.000 1049.000 1030.000 1001.000 963.000 939.000 913.000 872.000 846.000 830.000 811.000 791.000 775.000 769.000 771.000 774.000 771.000 766.000 763.000 765.000 761.000 754.000 753.000 753.000 751.000 757.000 768.000 766.000 759.000 765.000 775.000 777.000 771.000 760.000 761.000 772.000 780.000 781.000 779.000 779.790 -9999.000 
-9999.000 755.000 757.000 767.000 775.000 768.000 754.000 749.000 755.000 749.000 741.000 739.000 739.000 744.000 750.000 747.000 748.000 765.000 779.000 774.000 770.000 785.000 783.000 777.000 778.000 774.000 782.000 779.000 766.000 765.000 764.000 761.000 751.000 753.000 757.000 760.000 757.000 746.000 745.000 748.000 757.000 767.000 768.000 770.000 772.000 778.000 783.000 787.000 785.000 783.000 784.000 783.000 784.000 795.000 807.000 823.000 848.000 878.000 898.000 904.000 917.000 945.000 984.000 1035.000 1074.000 1097.000 1111.000 1123.000 1133.000 1145.000 1170.000 1200.000 1217.000 1217.000 1218.000 1222.000 1209.000 1174.000 1133.000 1096.000 1067.000 1051.000 1035.000 1005.000 967.000 939.000 908.000 875.000 855.000 845.000 828.000 799.000 776.000 766.000 764.000 765.000 764.000 763.000 761.000 761.000 761.000 758.000 757.000 757.000 753.000 753.000 762.000 771.000 764.000 760.000 769.000 777.000 778.000 766.000 757.000 765.000 774.000 775.000 770.000 773.119 -9999.000 
-9999.000 768.000 770.000 779.000 773.000 759.000 749.000 745.000 746.000 741.000 740.000 742.000 740.000 740.000 742.000 739.000 742.000 761.000 774.000 771.000 764.000 774.000 777.000 782.000 777.000 776.000 795.000 797.000 763.000 757.000 755.000 751.000 751.000 764.000 767.000 766.000 759.000 746.000 744.000 747.000 752.000 762.000 765.000 767.000 764.000 771.000 782.000 786.000 786.000 785.000 786.000 782.000 782.000 790.000 797.000 814.000 844.000 873.000 901.000 921.000 936.000 960.000 999.000 1045.000 1090.000 1130.000 1154.000 1174.000 1198.000 1215.000 1219.000 1221.000 1232.000 1250.000 1259.000 1249.000 1224.000 1179.000 1134.000 1097.000 1066.000 1053.000 1044.000 1016.000 980.000 949.000 914.000 883.000 864.000 860.000 849.000 815.000 785.000 772.000 765.000 764.000 765.000 765.000 764.000 761.000 760.000 760.000 759.000 757.000 751.000 750.000 757.000 768.000 770.000 763.000 767.000 777.000 778.000 764.000 755.000 756.000 760.000 760.000 759.000 766.448 -9999.000 
-9999.000 786.000 786.000 783.000 768.000 756.000 757.000 754.000 749.000 744.000 753.000 756.000 751.000 752.000 744.000 739.000 742.000 754.000 768.000 768.000 759.000 758.000 766.000 774.000 768.000 773.000 792.000 795.000 760.000 757.000 754.000 746.000 750.000 765.000 769.000 766.000 762.000 751.000 746.000 748.000 749.000 752.000 754.000 756.000 757.000 764.000 776.000 779.000 778.000 782.000 781.000 777.000 778.000 784.000 792.000 810.000 842.000 869.000 898.000 925.000 950.000 976.000 1011.000 1048.000 1093.000 1141.000 1180.000 1206.000 1228.000 1237.000 1228.000 1226.000 1245.000 1270.000 1276.000 1253.000 1226.000 1188.000 1142.000 1100.000 1072.000 1066.000 1064.000 1044.000 1008.000 972.000 939.000 910.000 888.000 879.000 868.000 833.000 796.000 776.000 770.000 770.000 771.000 771.000 767.000 760.000 757.000 758.000 757.000 752.000 750.000 751.000 754.000 762.000 772.000 772.000 772.000 776.000 770.000 762.000 759.000 757.000 755.000 759.000 762.000 767.813 -9999.000 
-9999.000 788.000 786.000 778.000 775.000 771.000 770.000 764.000 756.000 752.000 760.000 761.000 757.000 761.000 746.000 739.000 744.000 760.000 771.000 773.000 765.000 753.000 754.000 762.000 759.000 762.000 774.000 781.000 760.000 765.000 760.000 744.000 744.000 755.000 761.000 761.000 760.000 753.000 749.000 750.000 753.000 755.000 752.000 753.000 757.000 764.000 767.000 767.000 770.000 777.000 774.000 775.000 784.000 786.000 791.000 807.000 839.000 872.000 902.000 928.000 958.000 986.000 1021.000 1059.000 1102.000 1139.000 1168.000 1186.000 1197.000 1203.000 1201.000 1210.000 1231.000 1258.000 1261.000 1237.000 1214.000 1193.000 1160.000 1118.000 1084.000 1075.000 1080.000 1066.000 1030.000 995.000 965.000 933.000 908.000 897.000 881.000 842.000 799.000 778.000 774.000 773.000 773.000 772.000 766.000 760.000 755.000 752.000 752.000 756.000 757.000 752.000 751.000 763.000 780.000 782.000 778.000 773.000 767.000 773.000 779.000 772.000 764.000 772.000 779.000 777.214 -9999.000 
-9999.000 776.000 772.000 771.000 783.000 780.000 772.000 765.000 764.000 758.000 755.000 753.000 751.000 748.000 741.000 739.000 745.000 762.000 766.000 766.000 765.000 751.000 751.000 759.000 755.000 755.000 765.000 775.000 754.000 760.000 757.000 742.000 741.000 751.000 761.000 764.000 761.000 753.000 749.000 750.000 754.000 762.000 763.000 760.000 754.000 756.000 757.000 761.000 764.000 768.000 770.000 778.000 784.000 786.000 791.000 809.000 845.000 883.000 912.000 941.000 972.000 1001.000 1040.000 1080.000 1112.000 1131.000 1137.000 1143.000 1158.000 1170.000 1169.000 1182.000 1207.000 1223.000 1226.000 1213.000 1194.000 1186.000 1169.000 1136.000 1109.000 1105.000 1102.000 1084.000 1050.000 1019.000 989.000 956.000 929.000 917.000 900.000 861.000 816.000 787.000 774.000 771.000 770.000 769.000 765.000 759.000 758.000 757.000 760.000 768.000 766.000 754.000 750.000 760.000 777.000 786.000 783.000 772.000 766.000 776.000 786.000 780.000 774.000 783.000 788.000 786.615 -9999.000 
-9999.000 762.000 763.000 771.000 782.000 776.000 765.000 758.000 760.000 752.000 744.000 741.000 740.000 738.000 741.000 742.000 740.000 750.000 751.000 750.000 751.000 747.000 751.000 751.000 748.000 751.000 765.000 769.000 747.000 748.000 745.000 741.000 744.000 756.000 767.000 766.000 762.000 757.000 752.000 749.000 753.000 763.000 769.000 767.000 755.000 751.000 753.000 755.000 759.000 765.000 769.000 775.000 778.000 783.000 792.000 821.000 866.000 904.000 930.000 950.000 977.000 1007.000 1042.000 1079.000 1099.000 1103.000 1102.000 1109.000 1132.000 1149.000 1151.000 1163.000 1175.000 1187.000 1199.000 1198.000 1181.000 1172.000 1157.000 1140.000 1135.000 1138.000 1131.000 1108.000 1080.000 1057.000 1032.000 999.000 966.000 941.000 915.000 884.000 843.000 805.000 782.000 772.000 767.000 764.000 761.000 758.000 759.000 762.000 765.000 767.000 763.000 754.000 749.000 755.000 772.000 787.000 788.000 779.000 768.000 772.000 783.000 780.000 777.000 784.000 786.000 790.122 -9999.000 
-9999.000 759.000 766.000 778.000 786.000 782.000 770.000 753.000 752.000 754.000 746.000 738.000 738.000 740.000 752.000 750.000 741.000 744.000 745.000 744.000 742.000 742.000 745.000 742.000 742.000 748.000 758.000 759.000 744.000 742.000 743.000 746.000 752.000 763.000 762.000 758.000 758.000 757.000 755.000 754.000 755.000 761.000 767.000 774.000 765.000 755.000 752.000 755.000 760.000 766.000 769.000 773.000 780.000 786.000 794.000 827.000 877.000 929.000 958.000 970.000 982.000 1005.000 1029.000 1056.000 1066.000 1059.000 1056.000 1072.000 1103.000 1125.000 1133.000 1142.000 1151.000 1166.000 1188.000 1209.000 1214.000 1201.000 1174.000 1157.000 1159.000 1160.000 1152.000 1134.000 1109.000 1086.000 1063.000 1031.000 992.000 951.000 917.000 890.000 861.000 825.000 793.000 775.000 767.000 762.000 760.000 760.000 763.000 763.000 761.000 760.000 757.000 753.000 749.000 750.000 762.000 777.000 786.000 784.000 775.000 770.000 772.000 776.000 782.000 785.000 777.000 787.734 -9999.000 
-9999.000 777.000 779.000 779.000 784.000 781.000 768.000 755.000 763.000 764.000 749.000 744.000 750.000 754.000 763.000 758.000 745.000 743.000 745.000 747.000 744.000 741.000 742.000 742.000 740.000 744.000 751.000 753.000 742.000 744.000 744.000 746.000 754.000 759.000 752.000 750.000 752.000 753.000 758.000 761.000 757.000 758.000 764.000 773.000 771.000 765.000 759.000 757.000 760.000 767.000 773.000 777.000 787.000 800.000 807.000 830.000 877.000 930.000 970.000 986.000 994.000 1002.000 1012.000 1026.000 1030.000 1022.000 1023.000 1050.000 1085.000 1108.000 1120.000 1127.000 1134.000 1148.000 1174.000 1203.000 1226.000 1224.000 1201.000 1186.000 1188.000 1193.000 1175.000 1145.000 1110.000 1075.000 1047.000 1017.000 977.000 938.000 910.000 891.000 875.000 844.000 808.000 785.000 773.000 765.000 761.000 765.000 769.000 768.000 763.000 756.000 752.000 752.000 751.000 751.000 753.000 760.000 769.000 771.000 770.000 770.000 770.000 774.000 779.000 782.000 779.000 785.346 -9999.000 
-9999.000 796.000 792.000 776.000 772.000 768.000 760.000 766.000 774.000 762.000 745.000 751.000 764.000 771.000 771.000 762.000 747.000 740.000 741.000 742.000 742.000 742.000 743.000 744.000 742.000 745.000 753.000 749.000 743.000 750.000 750.000 744.000 747.000 748.000 746.000 749.000 758.000 764.000 767.000 768.000 760.000 754.000 757.000 765.000 769.000 768.000 767.000 762.000 764.000 770.000 772.000 778.000 792.000 813.000 826.000 849.000 886.000 926.000 964.000 990.000 1000.000 1001.000 1001.000 1004.000 1007.000 1006.000 1019.000 1045.000 1068.000 1084.000 1100.000 1114.000 1123.000 1136.000 1153.000 1172.000 1197.000 1204.000 1202.000 1205.000 1208.000 1208.000 1181.000 1142.000 1104.000 1063.000 1025.000 994.000 956.000 924.000 903.000 888.000 876.000 856.000 828.000 802.000 780.000 765.000 762.000 768.000 771.000 770.000 764.000 756.000 752.000 758.000 762.000 756.000 752.000 753.000 753.000 756.000 766.000 778.000 783.000 779.000 778.000 784.000 790.000 789.694 -9999.000 
-9999.000 802.000 800.000 779.000 770.000 768.000 762.000 775.000 781.000 767.000 751.000 752.000 765.000 770.000 765.000 754.000 746.000 746.000 741.000 739.000 740.000 747.000 753.000 745.000 744.000 750.000 760.000 749.000 746.000 749.000 755.000 746.000 747.000 746.000 748.000 758.000 766.000 771.000 767.000 767.000 760.000 753.000 752.000 760.000 765.000 767.000 769.000 770.000 770.000 772.000 770.000 775.000 793.000 816.000 834.000 857.000 893.000 928.000 959.000 990.000 1007.000 1008.000 1008.000 1010.000 1012.000 1018.000 1022.000 1032.000 1046.000 1057.000 1068.000 1088.000 1109.000 1116.000 1123.000 1137.000 1152.000 1164.000 1184.000 1211.000 1229.000 1218.000 1179.000 1135.000 1091.000 1047.000 1005.000 970.000 939.000 914.000 900.000 890.000 881.000 862.000 832.000 803.000 780.000 766.000 765.000 770.000 771.000 769.000 764.000 756.000 757.000 768.000 775.000 768.000 757.000 751.000 754.000 762.000 774.000 785.000 788.000 782.000 777.000 786.000 795.000 800.778 -9999.000 
-9999.000 797.000 798.000 790.000 788.000 783.000 769.000 780.000 792.000 779.000 758.000 748.000 752.000 758.000 756.000 750.000 755.000 762.000 749.000 740.000 746.000 763.000 759.000 746.000 748.000 754.000 758.000 750.000 744.000 750.000 766.000 758.000 746.000 744.000 747.000 762.000 765.000 761.000 759.000 761.000 754.000 750.000 750.000 756.000 762.000 769.000 769.000 768.000 766.000 767.000 768.000 776.000 796.000 818.000 830.000 848.000 878.000 905.000 936.000 973.000 1004.000 1016.000 1025.000 1034.000 1042.000 1047.000 1047.000 1043.000 1044.000 1045.000 1050.000 1070.000 1088.000 1091.000 1092.000 1101.000 1114.000 1133.000 1166.000 1205.000 1229.000 1221.000 1178.000 1128.000 1079.000 1037.000 1002.000 965.000 933.000 913.000 900.000 896.000 884.000 852.000 819.000 795.000 776.000 767.000 767.000 772.000 771.000 764.000 757.000 756.000 763.000 772.000 777.000 773.000 759.000 752.000 759.000 772.000 783.000 788.000 786.000 777.000 774.000 785.000 795.000 811.862 -9999.000 
-9999.000 787.000 786.000 786.000 794.000 789.000 774.000 784.000 801.000 785.000 766.000 756.000 748.000 758.000 763.000 757.000 765.000 766.000 754.000 743.000 756.000 772.000 756.000 747.000 753.000 754.000 748.000 745.000 743.000 759.000 776.000 768.000 749.000 744.000 745.000 755.000 754.000 753.000 756.000 754.000 748.000 748.000 750.000 755.000 762.000 766.000 763.000 758.000 757.000 762.000 770.000 783.000 798.000 825.000 832.000 844.000 869.000 884.000 913.000 954.000 992.000 1011.000 1033.000 1055.000 1067.000 1076.000 1080.000 1074.000 1069.000 1060.000 1053.000 1063.000 1071.000 1072.000 1076.000 1085.000 1103.000 1127.000 1161.000 1201.000 1228.000 1225.000 1183.000 1130.000 1076.000 1033.000 1000.000 966.000 937.000 913.000 903.000 900.000 882.000 844.000 809.000 789.000 777.000 769.000 770.000 774.000 769.000 760.000 755.000 761.000 770.000 775.000 775.000 770.000 758.000 753.000 760.000 775.000 781.000 779.000 772.000 769.000 777.000 787.000 796.000 814.799 -9999.000 
-9999.000 780.000 772.000 774.000 787.000 790.000 785.000 795.000 805.000 794.000 782.000 771.000 752.000 754.000 759.000 756.000 760.000 761.000 758.000 748.000 759.000 764.000 750.000 744.000 750.000 747.000 741.000 742.000 748.000 770.000 784.000 771.000 754.000 755.000 750.000 746.000 746.000 756.000 760.000 753.000 750.000 758.000 757.000 756.000 757.000 760.000 758.000 755.000 758.000 766.000 780.000 793.000 808.000 832.000 838.000 841.000 862.000 878.000 905.000 942.000 981.000 1011.000 1031.000 1047.000 1062.000 1073.000 1080.000 1087.000 1096.000 1092.000 1090.000 1093.000 1091.000 1083.000 1086.000 1095.000 1113.000 1138.000 1162.000 1197.000 1230.000 1234.000 1197.000 1140.000 1083.000 1038.000 1001.000 964.000 936.000 920.000 910.000 899.000 869.000 830.000 799.000 783.000 775.000 770.000 773.000 772.000 765.000 759.000 758.000 763.000 767.000 767.000 765.000 761.000 754.000 751.000 757.000 768.000 773.000 768.000 763.000 767.000 782.000 793.000 799.000 809.590 -9999.000 
-9999.000 772.000 765.000 770.000 782.000 785.000 789.000 797.000 797.000 787.000 780.000 769.000 754.000 753.000 751.000 749.000 750.000 751.000 753.000 760.000 764.000 757.000 743.000 740.000 743.000 743.000 747.000 743.000 753.000 776.000 790.000 776.000 759.000 770.000 765.000 746.000 746.000 760.000 757.000 750.000 752.000 762.000 759.000 754.000 753.000 754.000 756.000 759.000 761.000 767.000 779.000 792.000 808.000 827.000 841.000 845.000 861.000 883.000 908.000 937.000 967.000 993.000 1008.000 1022.000 1036.000 1048.000 1059.000 1075.000 1092.000 1103.000 1115.000 1122.000 1121.000 1115.000 1112.000 1117.000 1135.000 1159.000 1175.000 1196.000 1228.000 1243.000 1210.000 1150.000 1096.000 1049.000 1002.000 960.000 929.000 912.000 900.000 878.000 850.000 819.000 794.000 781.000 775.000 775.000 777.000 773.000 767.000 763.000 758.000 757.000 757.000 756.000 755.000 754.000 753.000 752.000 754.000 758.000 760.000 757.000 758.000 769.000 782.000 790.000 795.000 804.381 -9999.000 
-9999.000 759.000 760.000 769.000 774.000 778.000 783.000 784.000 779.000 772.000 766.000 759.000 760.000 768.000 759.000 748.000 749.000 750.000 753.000 762.000 768.000 761.000 746.000 747.000 755.000 762.000 760.000 746.000 752.000 764.000 781.000 779.000 771.000 777.000 766.000 745.000 745.000 753.000 750.000 748.000 752.000 759.000 755.000 752.000 751.000 753.000 755.000 757.000 759.000 765.000 775.000 789.000 804.000 820.000 840.000 861.000 878.000 887.000 900.000 918.000 944.000 966.000 982.000 999.000 1010.000 1019.000 1034.000 1058.000 1082.000 1102.000 1126.000 1152.000 1163.000 1160.000 1155.000 1151.000 1168.000 1196.000 1220.000 1240.000 1260.000 1252.000 1206.000 1146.000 1093.000 1045.000 997.000 956.000 926.000 903.000 886.000 868.000 847.000 823.000 800.000 784.000 779.000 777.000 778.000 776.000 769.000 762.000 759.000 757.000 754.000 753.000 753.000 754.000 755.000 753.000 753.000 753.000 753.000 754.000 756.000 764.000 773.000 782.000 788.000 797.727 -9999.000 
-9999.000 754.000 760.000 770.000 779.000 784.000 783.000 782.000 784.000 782.000 768.000 760.000 769.000 781.000 774.000 754.000 751.000 756.000 753.000 760.000 773.000 769.000 755.000 760.000 778.000 779.000 765.000 747.000 760.000 758.000 766.000 777.000 776.000 775.000 758.000 745.000 744.000 747.000 746.000 746.000 753.000 758.000 752.000 754.000 764.000 765.000 757.000 758.000 765.000 775.000 783.000 795.000 809.000 821.000 839.000 863.000 885.000 894.000 900.000 905.000 921.000 941.000 960.000 977.000 986.000 997.000 1019.000 1044.000 1068.000 1097.000 1131.000 1178.000 1206.000 1205.000 1200.000 1192.000 1202.000 1230.000 1259.000 1283.000 1294.000 1263.000 1201.000 1141.000 1092.000 1048.000 1001.000 956.000 920.000 892.000 872.000 858.000 844.000 825.000 803.000 790.000 786.000 784.000 785.000 780.000 769.000 766.000 766.000 762.000 756.000 755.000 756.000 758.000 759.000 756.000 754.000 754.000 752.000 752.000 754.000 756.000 765.000 779.000 784.000 789.628 -9999.000 
-9999.000 757.000 767.000 778.000 787.000 789.000 786.000 791.000 798.000 793.000 776.000 767.000 777.000 789.000 784.000 761.000 758.000 766.000 760.000 764.000 779.000 774.000 765.000 773.000 784.000 772.000 761.000 751.000 771.000 765.000 766.000 774.000 767.000 762.000 750.000 746.000 747.000 747.000 744.000 745.000 755.000 761.000 752.000 758.000 773.000 769.000 758.000 761.000 768.000 776.000 785.000 798.000 811.000 823.000 838.000 854.000 872.000 891.000 910.000 917.000 930.000 942.000 949.000 960.000 969.000 987.000 1014.000 1045.000 1069.000 1097.000 1134.000 1185.000 1227.000 1244.000 1250.000 1246.000 1249.000 1267.000 1294.000 1316.000 1304.000 1257.000 1200.000 1149.000 1102.000 1053.000 1001.000 958.000 922.000 890.000 871.000 858.000 843.000 825.000 808.000 799.000 797.000 795.000 788.000 776.000 769.000 772.000 776.000 770.000 761.000 759.000 763.000 767.000 766.000 759.000 756.000 763.000 765.000 758.000 754.000 756.000 767.000 779.000 777.000 781.529 -9999.000 
-9999.000 753.000 761.000 772.000 777.000 776.000 777.000 787.000 797.000 789.000 776.000 775.000 786.000 794.000 785.000 768.000 771.000 775.000 765.000 762.000 775.000 777.000 774.000 781.000 779.000 762.000 765.000 768.000 778.000 772.000 764.000 763.000 754.000 748.000 745.000 744.000 746.000 747.000 745.000 744.000 751.000 755.000 750.000 759.000 774.000 771.000 760.000 759.000 764.000 769.000 779.000 791.000 801.000 814.000 831.000 841.000 859.000 884.000 906.000 920.000 940.000 955.000 963.000 969.000 979.000 995.000 1016.000 1048.000 1075.000 1104.000 1138.000 1183.000 1230.000 1277.000 1309.000 1308.000 1310.000 1319.000 1329.000 1336.000 1314.000 1266.000 1211.000 1159.000 1111.000 1061.000 1007.000 963.000 930.000 901.000 878.000 859.000 842.000 826.000 812.000 805.000 804.000 803.000 790.000 777.000 774.000 778.000 779.000 773.000 765.000 766.000 772.000 773.000 767.000 758.000 758.000 771.000 780.000 773.000 761.000 756.000 761.000 767.000 764.000 775.858 -9999.000 
-9999.000 749.000 752.000 757.000 760.000 761.000 766.000 773.000 784.000 782.000 779.000 787.000 795.000 788.000 775.000 774.000 787.000 786.000 773.000 759.000 763.000 768.000 769.000 776.000 774.000 760.000 769.000 779.000 778.000 768.000 756.000 752.000 750.000 745.000 743.000 748.000 747.000 747.000 747.000 743.000 745.000 747.000 749.000 760.000 770.000 774.000 762.000 752.000 754.000 757.000 768.000 783.000 796.000 807.000 822.000 838.000 860.000 886.000 903.000 922.000 945.000 962.000 985.000 1000.000 1006.000 1018.000 1037.000 1059.000 1078.000 1108.000 1155.000 1197.000 1247.000 1284.000 1318.000 1333.000 1337.000 1345.000 1356.000 1359.000 1342.000 1301.000 1242.000 1171.000 1112.000 1067.000 1021.000 979.000 947.000 913.000 884.000 858.000 834.000 817.000 805.000 796.000 795.000 800.000 795.000 782.000 778.000 782.000 780.000 773.000 767.000 769.000 772.000 773.000 768.000 760.000 759.000 768.000 782.000 783.000 769.000 758.000 756.000 757.000 758.000 772.615 -9999.000 
-9999.000 753.000 753.000 753.000 760.000 765.000 768.000 769.000 773.000 776.000 789.000 802.000 796.000 778.000 769.000 779.000 795.000 789.000 775.000 759.000 758.000 761.000 764.000 768.000 765.000 760.000 773.000 781.000 764.000 759.000 759.000 756.000 758.000 752.000 749.000 753.000 749.000 745.000 746.000 747.000 747.000 745.000 746.000 752.000 757.000 760.000 754.000 746.000 750.000 756.000 765.000 779.000 793.000 808.000 822.000 843.000 867.000 897.000 917.000 937.000 960.000 978.000 1005.000 1030.000 1047.000 1059.000 1075.000 1083.000 1096.000 1121.000 1156.000 1200.000 1248.000 1278.000 1299.000 1317.000 1328.000 1345.000 1370.000 1382.000 1372.000 1334.000 1273.000 1198.000 1134.000 1082.000 1039.000 1001.000 967.000 928.000 894.000 865.000 835.000 807.000 792.000 783.000 786.000 796.000 795.000 786.000 782.000 782.000 776.000 766.000 760.000 763.000 764.000 762.000 760.000 757.000 758.000 766.000 780.000 788.000 779.000 763.000 756.000 756.000 762.000 769.373 -9999.000 
-9999.000 768.000 763.000 758.000 760.000 767.000 776.000 782.000 776.000 776.000 790.000 802.000 789.000 771.000 773.000 788.000 797.000 785.000 771.000 763.000 763.000 765.000 774.000 776.000 768.000 765.000 777.000 781.000 755.000 761.000 770.000 765.000 767.000 759.000 761.000 759.000 747.000 744.000 747.000 752.000 748.000 744.000 745.000 748.000 751.000 749.000 746.000 746.000 751.000 758.000 763.000 772.000 784.000 802.000 817.000 835.000 860.000 885.000 913.000 942.000 971.000 999.000 1022.000 1044.000 1074.000 1100.000 1116.000 1123.000 1130.000 1140.000 1157.000 1191.000 1223.000 1244.000 1265.000 1286.000 1312.000 1337.000 1350.000 1360.000 1360.000 1338.000 1286.000 1220.000 1163.000 1107.000 1054.000 1014.000 978.000 939.000 905.000 879.000 853.000 822.000 794.000 779.000 778.000 787.000 790.000 785.000 781.000 780.000 774.000 765.000 759.000 759.000 760.000 758.000 757.000 756.000 760.000 767.000 775.000 781.000 773.000 762.000 757.000 758.000 764.000 771.125 -9999.000 
-9999.000 787.000 781.000 769.000 760.000 765.000 779.000 788.000 786.000 784.000 792.000 793.000 779.000 768.000 778.000 793.000 795.000 781.000 768.000 773.000 774.000 768.000 782.000 785.000 775.000 772.000 777.000 772.000 760.000 769.000 777.000 772.000 772.000 768.000 768.000 756.000 748.000 752.000 753.000 754.000 746.000 742.000 743.000 745.000 748.000 756.000 759.000 754.000 752.000 756.000 759.000 764.000 770.000 791.000 809.000 821.000 839.000 869.000 904.000 938.000 969.000 994.000 1015.000 1036.000 1066.000 1100.000 1129.000 1138.000 1150.000 1159.000 1171.000 1180.000 1196.000 1216.000 1233.000 1254.000 1281.000 1307.000 1317.000 1324.000 1332.000 1339.000 1308.000 1235.000 1175.000 1118.000 1063.000 1021.000 985.000 948.000 911.000 882.000 853.000 821.000 797.000 784.000 777.000 780.000 785.000 781.000 776.000 774.000 772.000 768.000 765.000 764.000 764.000 763.000 762.000 758.000 762.000 770.000 774.000 774.000 767.000 759.000 759.000 764.000 765.000 777.871 -9999.000 
-9999.000 801.000 793.000 780.000 766.000 763.000 770.000 775.000 784.000 789.000 799.000 797.000 780.000 772.000 776.000 787.000 786.000 775.000 774.000 785.000 780.000 767.000 774.000 778.000 777.000 779.000 778.000 769.000 780.000 777.000 779.000 778.000 776.000 769.000 759.000 750.000 752.000 770.000 770.000 767.000 748.000 742.000 749.000 757.000 766.000 782.000 784.000 768.000 757.000 750.000 753.000 759.000 765.000 781.000 799.000 811.000 828.000 861.000 896.000 929.000 953.000 972.000 985.000 1010.000 1046.000 1081.000 1111.000 1127.000 1141.000 1156.000 1159.000 1156.000 1168.000 1189.000 1206.000 1225.000 1253.000 1275.000 1290.000 1294.000 1298.000 1307.000 1295.000 1245.000 1178.000 1120.000 1072.000 1035.000 1003.000 972.000 935.000 895.000 858.000 822.000 798.000 783.000 777.000 779.000 783.000 780.000 775.000 773.000 771.000 769.000 769.000 770.000 769.000 766.000 762.000 761.000 765.000 770.000 774.000 773.000 764.000 758.000 764.000 774.000 775.000 784.617 -9999.000 
-9999.000 808.000 802.000 784.000 769.000 763.000 763.000 767.000 779.000 797.000 809.000 803.000 789.000 785.000 785.000 788.000 784.000 781.000 787.000 791.000 781.000 776.000 778.000 775.000 779.000 788.000 788.000 782.000 794.000 785.000 778.000 773.000 772.000 762.000 752.000 749.000 756.000 773.000 774.000 778.000 758.000 745.000 752.000 767.000 776.000 795.000 799.000 783.000 763.000 752.000 752.000 756.000 764.000 775.000 789.000 808.000 827.000 852.000 883.000 911.000 931.000 940.000 952.000 978.000 1020.000 1056.000 1086.000 1109.000 1128.000 1143.000 1134.000 1125.000 1132.000 1153.000 1180.000 1204.000 1232.000 1252.000 1261.000 1264.000 1266.000 1266.000 1257.000 1230.000 1188.000 1143.000 1100.000 1059.000 1026.000 992.000 951.000 909.000 869.000 827.000 795.000 781.000 778.000 777.000 775.000 774.000 772.000 769.000 768.000 769.000 770.000 767.000 764.000 762.000 760.000 766.000 774.000 777.000 779.000 774.000 764.000 758.000 761.000 771.000 777.000 784.264 -9999.000 
-9999.000 809.000 805.000 786.000 773.000 772.000 768.000 769.000 783.000 801.000 814.000 809.000 804.000 800.000 803.000 809.000 804.000 800.000 802.000 793.000 785.000 789.000 788.000 780.000 787.000 797.000 802.000 798.000 791.000 781.000 771.000 764.000 763.000 754.000 752.000 760.000 765.000 763.000 760.000 769.000 758.000 746.000 750.000 766.000 777.000 786.000 786.000 782.000 776.000 767.000 759.000 755.000 762.000 775.000 785.000 800.000 824.000 846.000 867.000 886.000 898.000 909.000 926.000 947.000 986.000 1027.000 1060.000 1078.000 1103.000 1117.000 1103.000 1095.000 1099.000 1116.000 1143.000 1176.000 1209.000 1232.000 1239.000 1239.000 1235.000 1228.000 1216.000 1200.000 1186.000 1162.000 1126.000 1089.000 1055.000 1013.000 964.000 917.000 876.000 833.000 799.000 785.000 782.000 781.000 778.000 777.000 776.000 771.000 767.000 764.000 762.000 760.000 759.000 759.000 759.000 768.000 778.000 781.000 780.000 774.000 764.000 759.000 758.000 761.000 765.000 776.811 -9999.000 
-9999.000 807.000 808.000 793.000 788.000 792.000 784.000 778.000 790.000 806.000 810.000 805.000 810.000 813.000 816.000 826.000 826.000 825.000 819.000 806.000 806.000 801.000 793.000 787.000 796.000 802.000 803.000 797.000 779.000 770.000 763.000 757.000 753.000 751.000 756.000 775.000 775.000 761.000 749.000 755.000 751.000 747.000 750.000 753.000 761.000 765.000 765.000 767.000 779.000 780.000 770.000 755.000 758.000 771.000 778.000 789.000 810.000 831.000 840.000 855.000 865.000 877.000 898.000 916.000 940.000 979.000 1007.000 1030.000 1062.000 1071.000 1064.000 1057.000 1063.000 1081.000 1102.000 1136.000 1172.000 1199.000 1206.000 1196.000 1188.000 1175.000 1162.000 1152.000 1149.000 1147.000 1132.000 1112.000 1083.000 1032.000 976.000 926.000 882.000 841.000 812.000 800.000 796.000 794.000 792.000 796.000 797.000 789.000 783.000 775.000 772.000 771.000 767.000 761.000 760.000 765.000 775.000 780.000 776.000 769.000 764.000 761.000 759.000 760.000 762.000 769.359 -9999.000 
-9999.000 802.000 808.000 800.000 807.000 813.000 803.000 790.000 795.000 805.000 802.000 801.000 811.000 813.000 813.000 824.000 828.000 828.000 824.000 825.000 824.000 805.000 795.000 799.000 807.000 810.000 798.000 790.000 773.000 766.000 763.000 763.000 757.000 754.000 766.000 781.000 780.000 762.000 749.000 752.000 747.000 749.000 753.000 752.000 750.000 753.000 753.000 764.000 782.000 783.000 769.000 758.000 757.000 762.000 771.000 783.000 797.000 809.000 813.000 825.000 835.000 844.000 864.000 881.000 901.000 924.000 948.000 973.000 999.000 1008.000 1005.000 1008.000 1021.000 1044.000 1066.000 1096.000 1133.000 1159.000 1156.000 1137.000 1125.000 1113.000 1099.000 1096.000 1099.000 1103.000 1106.000 1109.000 1096.000 1045.000 988.000 937.000 896.000 863.000 841.000 830.000 818.000 808.000 815.000 831.000 832.000 815.000 794.000 782.000 776.000 772.000 767.000 762.000 762.000 773.000 787.000 788.000 776.000 766.000 763.000 761.000 761.000 763.000 763.000 765.891 -9999.000 
-9999.000 799.000 807.000 807.000 812.000 814.000 804.000 797.000 802.000 800.000 792.000 796.000 812.000 814.000 807.000 810.000 814.000 818.000 826.000 836.000 834.000 813.000 802.000 819.000 830.000 827.000 808.000 794.000 784.000 779.000 778.000 781.000 774.000 767.000 772.000 780.000 778.000 759.000 755.000 759.000 748.000 749.000 757.000 764.000 767.000 767.000 758.000 758.000 771.000 777.000 771.000 769.000 765.000 758.000 769.000 782.000 788.000 791.000 798.000 809.000 807.000 810.000 827.000 842.000 865.000 885.000 897.000 911.000 921.000 933.000 947.000 968.000 990.000 1013.000 1042.000 1072.000 1092.000 1102.000 1095.000 1077.000 1063.000 1053.000 1050.000 1049.000 1049.000 1056.000 1072.000 1094.000 1098.000 1063.000 1004.000 949.000 908.000 883.000 874.000 866.000 845.000 832.000 846.000 862.000 858.000 827.000 796.000 778.000 771.000 768.000 766.000 763.000 765.000 782.000 799.000 793.000 774.000 763.000 761.000 761.000 763.000 770.000 770.000 766.406 -9999.000 
-9999.000 806.000 809.000 803.000 803.000 804.000 796.000 796.000 802.000 792.000 786.000 796.000 812.000 817.000 806.000 803.000 809.000 820.000 833.000 838.000 834.000 828.000 819.000 837.000 853.000 841.000 822.000 815.000 811.000 804.000 795.000 789.000 779.000 772.000 768.000 772.000 775.000 766.000 762.000 758.000 748.000 749.000 760.000 773.000 778.000 784.000 777.000 767.000 763.000 768.000 776.000 780.000 772.000 760.000 765.000 778.000 780.000 783.000 791.000 796.000 797.000 789.000 796.000 807.000 828.000 845.000 848.000 853.000 866.000 890.000 911.000 938.000 957.000 974.000 1000.000 1025.000 1033.000 1035.000 1035.000 1025.000 1009.000 1002.000 1003.000 1006.000 1014.000 1033.000 1057.000 1079.000 1092.000 1067.000 1015.000 964.000 928.000 906.000 899.000 889.000 873.000 872.000 887.000 887.000 858.000 818.000 794.000 782.000 777.000 775.000 772.000 765.000 768.000 783.000 794.000 789.000 775.000 764.000 762.000 764.000 763.000 764.000 768.000 766.921 -9999.000 
-9999.000 800.000 800.000 790.000 795.000 795.000 786.000 787.000 790.000 786.000 786.000 799.000 811.000 810.000 798.000 799.000 809.000 823.000 834.000 828.000 826.000 833.000 837.000 853.000 860.000 849.000 845.000 841.000 835.000 821.000 805.000 791.000 776.000 769.000 763.000 764.000 767.000 770.000 767.000 758.000 751.000 750.000 762.000 781.000 788.000 795.000 795.000 780.000 766.000 772.000 785.000 786.000 776.000 762.000 760.000 767.000 772.000 778.000 784.000 785.000 788.000 782.000 779.000 785.000 798.000 809.000 816.000 824.000 841.000 862.000 884.000 904.000 915.000 928.000 956.000 971.000 974.000 983.000 985.000 976.000 964.000 960.000 959.000 968.000 993.000 1030.000 1057.000 1067.000 1066.000 1048.000 1009.000 971.000 941.000 923.000 913.000 898.000 887.000 889.000 886.000 870.000 846.000 816.000 793.000 784.000 779.000 777.000 771.000 768.000 773.000 780.000 787.000 788.000 777.000 767.000 764.000 765.000 763.000 763.000 765.000 769.040 -9999.000 
-9999.000 783.000 782.000 779.000 783.000 782.000 777.000 781.000 796.000 801.000 792.000 794.000 803.000 799.000 797.000 802.000 809.000 818.000 824.000 818.000 819.000 824.000 836.000 851.000 856.000 854.000 855.000 853.000 854.000 835.000 817.000 794.000 781.000 777.000 775.000 764.000 759.000 765.000 765.000 759.000 754.000 750.000 764.000 786.000 794.000 797.000 797.000 786.000 772.000 782.000 791.000 789.000 776.000 763.000 762.000 769.000 767.000 768.000 768.000 769.000 775.000 777.000 775.000 773.000 780.000 789.000 798.000 814.000 832.000 840.000 850.000 865.000 871.000 887.000 910.000 921.000 926.000 938.000 942.000 935.000 925.000 922.000 926.000 941.000 973.000 1014.000 1038.000 1035.000 1029.000 1020.000 998.000 972.000 953.000 937.000 917.000 905.000 902.000 896.000 884.000 873.000 860.000 831.000 801.000 784.000 777.000 773.000 769.000 775.000 787.000 793.000 790.000 784.000 775.000 768.000 767.000 765.000 765.000 767.000 766.000 772.762 -9999.000 
-9999.000 767.000 768.000 775.000 779.000 781.000 779.000 786.000 808.000 820.000 807.000 792.000 792.000 788.000 795.000 802.000 803.000 804.000 808.000 808.000 815.000 822.000 835.000 847.000 852.000 854.000 849.000 846.000 867.000 843.000 814.000 796.000 802.000 798.000 790.000 772.000 757.000 754.000 757.000 756.000 753.000 751.000 756.000 774.000 785.000 787.000 786.000 787.000 790.000 798.000 795.000 788.000 773.000 764.000 773.000 778.000 770.000 765.000 761.000 762.000 769.000 771.000 768.000 768.000 775.000 781.000 788.000 806.000 824.000 823.000 825.000 834.000 840.000 854.000 869.000 880.000 885.000 898.000 905.000 904.000 894.000 892.000 900.000 919.000 952.000 976.000 992.000 993.000 985.000 980.000 968.000 956.000 947.000 930.000 921.000 926.000 931.000 925.000 906.000 891.000 873.000 841.000 811.000 788.000 778.000 776.000 775.000 779.000 791.000 794.000 787.000 780.000 775.000 770.000 767.000 767.000 768.000 772.000 771.000 776.484 -9999.000 
-9999.000 762.000 767.000 782.000 797.000 801.000 798.000 800.000 814.000 828.000 815.000 800.000 800.000 789.000 788.000 795.000 801.000 803.000 809.000 811.000 822.000 831.000 839.000 845.000 849.000 851.000 843.000 844.000 868.000 841.000 819.000 814.000 819.000 815.000 802.000 784.000 761.000 750.000 750.000 749.000 748.000 752.000 754.000 759.000 767.000 775.000 780.000 793.000 805.000 803.000 791.000 776.000 765.000 766.000 783.000 785.000 779.000 774.000 764.000 759.000 761.000 762.000 760.000 763.000 773.000 778.000 781.000 787.000 796.000 798.000 803.000 810.000 816.000 826.000 834.000 841.000 850.000 861.000 872.000 877.000 871.000 872.000 880.000 896.000 917.000 932.000 941.000 939.000 934.000 933.000 933.000 930.000 932.000 932.000 938.000 953.000 965.000 964.000 947.000 924.000 895.000 854.000 816.000 794.000 781.000 776.000 779.000 788.000 798.000 799.000 794.000 790.000 785.000 777.000 769.000 768.000 771.000 781.000 780.000 781.908 -9999.000 
-9999.000 761.000 769.000 786.000 807.000 819.000 818.000 816.000 820.000 825.000 817.000 810.000 812.000 797.000 793.000 795.000 803.000 813.000 822.000 821.000 835.000 841.000 840.000 842.000 842.000 841.000 835.000 844.000 863.000 843.000 826.000 820.000 811.000 806.000 796.000 786.000 768.000 755.000 755.000 763.000 759.000 765.000 761.000 765.000 769.000 781.000 787.000 800.000 803.000 793.000 780.000 769.000 761.000 767.000 785.000 786.000 782.000 779.000 770.000 762.000 757.000 758.000 764.000 770.000 772.000 774.000 773.000 772.000 772.000 778.000 788.000 801.000 806.000 804.000 803.000 811.000 826.000 840.000 850.000 861.000 860.000 862.000 867.000 872.000 882.000 892.000 897.000 895.000 890.000 890.000 896.000 903.000 914.000 923.000 941.000 967.000 982.000 980.000 966.000 945.000 913.000 863.000 827.000 809.000 791.000 780.000 779.000 788.000 804.000 812.000 813.000 810.000 798.000 781.000 771.000 772.000 776.000 785.000 787.000 789.035 -9999.000 
-9999.000 767.000 771.000 782.000 803.000 820.000 819.000 817.000 818.000 814.000 815.000 817.000 815.000 804.000 808.000 808.000 813.000 819.000 825.000 825.000 833.000 833.000 836.000 839.000 841.000 833.000 831.000 843.000 852.000 836.000 816.000 801.000 787.000 784.000 780.000 770.000 762.000 755.000 752.000 757.000 756.000 769.000 781.000 789.000 789.000 785.000 791.000 811.000 808.000 792.000 778.000 765.000 757.000 759.000 775.000 776.000 773.000 772.000 766.000 758.000 754.000 757.000 765.000 770.000 772.000 771.000 765.000 763.000 765.000 770.000 781.000 794.000 797.000 791.000 789.000 797.000 811.000 822.000 832.000 845.000 850.000 851.000 851.000 846.000 852.000 857.000 857.000 855.000 850.000 850.000 859.000 868.000 883.000 912.000 942.000 962.000 966.000 963.000 952.000 939.000 922.000 885.000 844.000 817.000 798.000 785.000 788.000 805.000 821.000 827.000 822.000 811.000 794.000 776.000 771.000 779.000 789.000 796.000 795.000 796.161 -9999.000 
-9999.000 783.000 780.000 782.000 796.000 809.000 806.000 800.000 802.000 806.000 811.000 814.000 811.000 812.000 825.000 825.000 821.000 821.000 818.000 820.000 825.000 829.000 834.000 838.000 840.000 829.000 830.000 843.000 850.000 833.000 811.000 795.000 783.000 772.000 764.000 764.000 767.000 753.000 749.000 756.000 762.000 768.000 787.000 800.000 794.000 782.000 800.000 815.000 807.000 790.000 780.000 774.000 764.000 755.000 759.000 758.000 757.000 758.000 755.000 754.000 754.000 753.000 756.000 762.000 765.000 768.000 762.000 762.000 765.000 768.000 778.000 792.000 795.000 789.000 786.000 795.000 807.000 813.000 817.000 829.000 840.000 843.000 832.000 820.000 821.000 825.000 823.000 822.000 824.000 825.000 827.000 838.000 867.000 904.000 929.000 939.000 935.000 930.000 927.000 929.000 920.000 887.000 846.000 821.000 804.000 794.000 809.000 829.000 835.000 827.000 811.000 796.000 784.000 774.000 773.000 787.000 804.000 811.000 807.000 809.847 -9999.000 
-9999.000 788.000 788.000 786.000 791.000 794.000 792.000 792.000 799.000 806.000 809.000 805.000 801.000 815.000 831.000 830.000 819.000 811.000 809.000 818.000 825.000 829.000 828.000 829.000 830.000 824.000 832.000 841.000 836.000 826.000 816.000 797.000 782.000 775.000 774.000 781.000 781.000 758.000 751.000 758.000 773.000 780.000 787.000 789.000 778.000 778.000 797.000 801.000 787.000 780.000 792.000 789.000 773.000 755.000 751.000 753.000 759.000 758.000 754.000 751.000 752.000 754.000 756.000 756.000 757.000 762.000 761.000 763.000 764.000 763.000 774.000 787.000 789.000 783.000 786.000 794.000 800.000 800.000 804.000 816.000 822.000 825.000 812.000 800.000 802.000 807.000 806.000 808.000 814.000 811.000 814.000 832.000 861.000 893.000 912.000 921.000 920.000 918.000 918.000 915.000 901.000 871.000 843.000 829.000 819.000 816.000 830.000 835.000 826.000 813.000 798.000 788.000 786.000 781.000 777.000 787.000 801.000 811.000 816.000 830.091 -9999.000 
-9999.000 784.000 786.000 784.000 783.000 789.000 798.000 805.000 808.000 803.000 799.000 793.000 795.000 811.000 817.000 817.000 813.000 802.000 805.000 813.000 822.000 824.000 827.000 828.000 823.000 824.000 836.000 840.000 819.000 812.000 813.000 801.000 789.000 789.000 793.000 796.000 784.000 766.000 754.000 755.000 768.000 777.000 774.000 765.000 760.000 772.000 776.000 773.000 764.000 765.000 783.000 785.000 769.000 753.000 753.000 765.000 773.000 772.000 766.000 756.000 763.000 771.000 769.000 759.000 754.000 756.000 759.000 761.000 760.000 760.000 769.000 774.000 775.000 776.000 778.000 783.000 786.000 789.000 790.000 792.000 792.000 793.000 790.000 789.000 791.000 793.000 795.000 800.000 803.000 802.000 809.000 831.000 863.000 893.000 916.000 929.000 929.000 915.000 901.000 895.000 886.000 867.000 851.000 838.000 827.000 832.000 842.000 838.000 828.000 817.000 805.000 801.000 799.000 788.000 779.000 782.000 794.000 816.000 828.000 850.335 -9999.000 
-9999.000 778.000 778.000 776.000 777.000 793.000 811.000 816.000 813.000 803.000 792.000 785.000 792.000 804.000 802.000 808.000 809.000 799.000 803.000 809.000 820.000 826.000 832.000 835.000 828.000 830.000 841.000 837.000 808.000 795.000 798.000 794.000 791.000 795.000 797.000 791.000 777.000 770.000 759.000 754.000 759.000 762.000 758.000 753.000 752.000 764.000 759.000 756.000 757.000 756.000 762.000 765.000 759.000 757.000 768.000 785.000 792.000 794.000 780.000 772.000 785.000 787.000 773.000 764.000 758.000 758.000 756.000 757.000 758.000 762.000 767.000 764.000 764.000 771.000 772.000 779.000 782.000 783.000 780.000 778.000 780.000 781.000 783.000 786.000 785.000 784.000 789.000 790.000 788.000 790.000 806.000 835.000 867.000 898.000 921.000 932.000 932.000 918.000 893.000 875.000 866.000 861.000 851.000 840.000 837.000 845.000 851.000 851.000 847.000 830.000 814.000 810.000 799.000 788.000 783.000 789.000 806.000 832.000 844.000 855.293 -9999.000 
-9999.000 767.000 767.000 766.000 771.000 787.000 802.000 804.000 807.000 808.000 797.000 785.000 792.000 796.000 796.000 804.000 800.000 799.000 808.000 804.000 810.000 821.000 826.000 834.000 838.000 844.000 848.000 840.000 798.000 784.000 780.000 775.000 775.000 776.000 775.000 771.000 763.000 762.000 756.000 751.000 751.000 753.000 755.000 754.000 750.000 754.000 753.000 759.000 766.000 759.000 753.000 754.000 754.000 764.000 780.000 803.000 812.000 806.000 781.000 787.000 801.000 793.000 774.000 774.000 766.000 761.000 759.000 759.000 758.000 758.000 758.000 761.000 765.000 770.000 770.000 772.000 777.000 779.000 776.000 774.000 775.000 780.000 784.000 782.000 780.000 780.000 781.000 780.000 783.000 793.000 820.000 852.000 880.000 905.000 918.000 919.000 918.000 913.000 900.000 881.000 864.000 853.000 848.000 841.000 839.000 848.000 852.000 849.000 847.000 843.000 833.000 816.000 802.000 800.000 797.000 793.000 798.000 815.000 829.000 844.965 -9999.000 
-9999.000 758.000 759.000 759.000 764.000 773.000 780.000 783.000 795.000 805.000 801.000 786.000 784.000 784.000 788.000 793.000 789.000 801.000 813.000 805.000 803.000 812.000 811.000 825.000 842.000 859.000 860.000 849.000 806.000 790.000 782.000 784.000 787.000 779.000 772.000 769.000 763.000 760.000 762.000 762.000 764.000 762.000 761.000 760.000 755.000 751.000 752.000 759.000 762.000 761.000 757.000 753.000 753.000 764.000 781.000 804.000 815.000 808.000 792.000 803.000 808.000 796.000 785.000 787.000 774.000 767.000 768.000 765.000 757.000 758.000 758.000 762.000 765.000 767.000 766.000 766.000 770.000 772.000 771.000 774.000 777.000 779.000 780.000 778.000 775.000 775.000 773.000 778.000 793.000 817.000 844.000 865.000 873.000 883.000 889.000 889.000 890.000 897.000 896.000 882.000 868.000 860.000 854.000 846.000 846.000 852.000 848.000 836.000 830.000 831.000 825.000 809.000 805.000 814.000 818.000 808.000 796.000 799.000 807.000 834.637 -9999.000 
-9999.000 761.000 759.000 762.000 769.000 774.000 773.000 773.000 788.000 797.000 795.000 783.000 775.000 774.000 778.000 781.000 783.000 794.000 805.000 801.000 798.000 801.000 800.000 817.000 830.000 847.000 851.000 840.000 832.000 821.000 812.000 813.000 816.000 809.000 799.000 792.000 775.000 779.000 787.000 791.000 798.000 792.000 783.000 782.000 773.000 758.000 754.000 755.000 762.000 769.000 767.000 753.000 753.000 765.000 776.000 789.000 801.000 797.000 793.000 799.000 800.000 794.000 795.000 796.000 779.000 776.000 778.000 769.000 758.000 756.000 757.000 759.000 759.000 759.000 760.000 766.000 770.000 770.000 770.000 778.000 781.000 780.000 778.000 774.000 775.000 783.000 786.000 790.000 807.000 823.000 831.000 838.000 845.000 852.000 854.000 853.000 858.000 872.000 876.000 867.000 859.000 859.000 853.000 849.000 855.000 856.000 848.000 832.000 817.000 810.000 804.000 804.000 813.000 825.000 826.000 812.000 801.000 806.000 813.000 828.821 -9999.000 
-9999.000 770.000 768.000 771.000 785.000 792.000 791.000 778.000 780.000 783.000 784.000 780.000 774.000 774.000 774.000 778.000 790.000 797.000 804.000 804.000 808.000 803.000 795.000 805.000 810.000 825.000 830.000 825.000 835.000 832.000 827.000 825.000 829.000 827.000 825.000 811.000 797.000 806.000 813.000 820.000 835.000 831.000 822.000 814.000 794.000 778.000 759.000 757.000 775.000 783.000 777.000 758.000 754.000 763.000 764.000 774.000 784.000 777.000 778.000 787.000 783.000 788.000 798.000 796.000 784.000 782.000 777.000 771.000 765.000 762.000 767.000 763.000 759.000 760.000 761.000 763.000 766.000 768.000 768.000 773.000 777.000 780.000 777.000 771.000 774.000 782.000 784.000 785.000 794.000 804.000 809.000 812.000 818.000 823.000 829.000 837.000 852.000 864.000 866.000 856.000 846.000 842.000 840.000 851.000 867.000 862.000 846.000 835.000 832.000 824.000 817.000 824.000 833.000 831.000 817.000 806.000 807.000 821.000 835.000 827.519 -9999.000 
-9999.000 775.000 778.000 783.000 792.000 800.000 802.000 788.000 777.000 779.000 791.000 791.000 784.000 784.000 778.000 783.000 797.000 804.000 802.000 802.000 811.000 806.000 791.000 793.000 801.000 814.000 816.000 813.000 826.000 821.000 814.000 816.000 823.000 822.000 823.000 821.000 817.000 818.000 812.000 813.000 826.000 836.000 848.000 845.000 818.000 786.000 761.000 761.000 785.000 796.000 778.000 760.000 757.000 756.000 757.000 770.000 773.000 764.000 764.000 769.000 770.000 785.000 800.000 799.000 785.000 780.000 785.000 786.000 774.000 770.000 774.000 769.000 766.000 775.000 770.000 761.000 759.000 761.000 763.000 763.000 764.000 769.000 771.000 769.000 768.000 770.000 774.000 777.000 778.000 782.000 785.000 788.000 798.000 818.000 839.000 851.000 855.000 855.000 850.000 838.000 826.000 824.000 833.000 851.000 871.000 872.000 852.000 847.000 856.000 849.000 842.000 845.000 840.000 829.000 820.000 822.000 824.000 825.000 830.000 826.217 -9999.000 
-9999.000 778.000 792.000 800.000 797.000 795.000 794.000 785.000 779.000 784.000 798.000 797.000 789.000 786.000 786.000 792.000 797.000 800.000 796.000 794.000 802.000 800.000 787.000 787.000 798.000 806.000 802.000 801.000 810.000 811.000 807.000 805.000 814.000 814.000 812.000 817.000 824.000 823.000 808.000 792.000 795.000 808.000 826.000 832.000 812.000 785.000 759.000 760.000 787.000 796.000 777.000 760.000 757.000 752.000 753.000 762.000 760.000 757.000 755.000 757.000 768.000 782.000 791.000 785.000 777.000 781.000 795.000 791.000 774.000 773.000 780.000 769.000 770.000 785.000 789.000 781.000 770.000 761.000 763.000 763.000 761.000 761.000 761.000 764.000 762.000 763.000 763.000 767.000 770.000 775.000 780.000 783.000 797.000 816.000 829.000 834.000 829.000 820.000 815.000 812.000 812.000 826.000 846.000 863.000 872.000 868.000 854.000 854.000 867.000 869.000 864.000 854.000 841.000 836.000 838.000 844.000 843.000 828.000 821.000 827.082 -9999.000 
-9999.000 789.000 802.000 804.000 794.000 792.000 797.000 794.000 787.000 786.000 796.000 797.000 788.000 785.000 791.000 797.000 795.000 792.000 789.000 786.000 789.000 788.000 782.000 789.000 800.000 802.000 793.000 787.000 792.000 796.000 797.000 801.000 811.000 811.000 812.000 823.000 832.000 836.000 822.000 795.000 778.000 785.000 800.000 803.000 790.000 771.000 755.000 756.000 771.000 785.000 781.000 765.000 762.000 755.000 753.000 757.000 757.000 754.000 755.000 759.000 770.000 779.000 779.000 771.000 771.000 783.000 791.000 788.000 778.000 784.000 789.000 775.000 772.000 782.000 791.000 790.000 775.000 767.000 770.000 771.000 765.000 761.000 761.000 762.000 762.000 763.000 764.000 766.000 768.000 773.000 776.000 780.000 788.000 799.000 805.000 802.000 796.000 795.000 800.000 806.000 813.000 825.000 838.000 847.000 856.000 859.000 855.000 852.000 859.000 870.000 873.000 870.000 862.000 855.000 848.000 846.000 845.000 834.000 829.000 830.113 -9999.000 
-9999.000 788.000 795.000 794.000 788.000 793.000 802.000 806.000 797.000 785.000 790.000 793.000 788.000 786.000 790.000 795.000 791.000 790.000 793.000 792.000 787.000 782.000 781.000 786.000 794.000 793.000 785.000 791.000 796.000 793.000 793.000 798.000 809.000 815.000 816.000 819.000 823.000 830.000 822.000 795.000 772.000 773.000 778.000 782.000 776.000 761.000 756.000 758.000 771.000 786.000 787.000 780.000 778.000 761.000 758.000 762.000 763.000 753.000 755.000 761.000 769.000 777.000 768.000 765.000 775.000 789.000 793.000 789.000 782.000 791.000 793.000 778.000 779.000 795.000 804.000 797.000 782.000 775.000 782.000 781.000 772.000 764.000 763.000 762.000 763.000 762.000 763.000 764.000 765.000 768.000 770.000 771.000 777.000 783.000 787.000 785.000 781.000 786.000 799.000 813.000 818.000 817.000 826.000 839.000 853.000 862.000 862.000 861.000 856.000 858.000 870.000 878.000 875.000 865.000 851.000 849.000 854.000 850.000 844.000 833.145 -9999.000 
-9999.000 789.000 789.000 786.000 785.000 792.000 797.000 801.000 800.000 791.000 787.000 789.000 788.000 785.000 785.000 788.000 789.000 798.000 806.000 807.000 798.000 783.000 778.000 779.000 782.000 781.000 781.000 790.000 800.000 801.000 804.000 807.000 809.000 818.000 818.000 816.000 804.000 799.000 796.000 779.000 766.000 764.000 765.000 767.000 763.000 754.000 763.000 769.000 780.000 791.000 785.000 778.000 770.000 760.000 766.000 778.000 774.000 758.000 766.000 778.000 775.000 772.000 762.000 768.000 784.000 792.000 797.000 798.000 792.000 799.000 795.000 783.000 792.000 813.000 815.000 803.000 786.000 784.000 793.000 788.000 778.000 767.000 765.000 766.000 768.000 764.000 764.000 764.000 765.000 765.000 766.000 767.000 771.000 779.000 780.000 776.000 776.000 782.000 798.000 816.000 831.000 833.000 838.000 846.000 852.000 855.000 853.000 860.000 863.000 859.000 865.000 872.000 869.000 862.000 857.000 855.000 853.000 849.000 839.000 830.821 -9999.000 
-9999.000 788.000 790.000 787.000 783.000 785.000 787.000 791.000 796.000 796.000 794.000 791.000 786.000 782.000 782.000 785.000 789.000 799.000 808.000 808.000 798.000 784.000 780.000 781.000 783.000 778.000 776.000 778.000 785.000 789.000 793.000 794.000 796.000 800.000 804.000 809.000 791.000 778.000 779.000 768.000 766.000 771.000 773.000 775.000 764.000 757.000 772.000 783.000 788.000 790.000 778.000 767.000 759.000 759.000 770.000 781.000 765.000 761.000 774.000 786.000 777.000 769.000 762.000 771.000 779.000 785.000 793.000 796.000 794.000 798.000 798.000 791.000 796.000 812.000 817.000 808.000 793.000 803.000 809.000 796.000 782.000 769.000 769.000 775.000 778.000 772.000 767.000 767.000 766.000 765.000 766.000 767.000 767.000 770.000 771.000 771.000 776.000 785.000 800.000 818.000 830.000 832.000 832.000 831.000 834.000 838.000 840.000 851.000 865.000 866.000 864.000 863.000 863.000 864.000 862.000 855.000 848.000 844.000 835.000 823.141 -9999.000 
-9999.000 784.000 788.000 787.000 787.000 787.000 789.000 794.000 802.000 805.000 804.000 795.000 784.000 780.000 782.000 788.000 795.000 799.000 801.000 798.000 791.000 786.000 791.000 799.000 798.000 787.000 780.000 777.000 778.000 777.000 778.000 778.000 779.000 779.000 785.000 793.000 779.000 768.000 767.000 763.000 776.000 792.000 796.000 792.000 775.000 767.000 780.000 788.000 782.000 774.000 766.000 761.000 759.000 761.000 773.000 773.000 757.000 757.000 768.000 769.000 762.000 757.000 759.000 763.000 767.000 772.000 779.000 789.000 792.000 789.000 794.000 797.000 802.000 813.000 813.000 801.000 797.000 814.000 818.000 803.000 784.000 774.000 775.000 783.000 787.000 780.000 773.000 774.000 772.000 771.000 777.000 781.000 775.000 771.000 769.000 771.000 774.000 782.000 792.000 802.000 807.000 804.000 808.000 816.000 821.000 825.000 828.000 838.000 857.000 866.000 863.000 859.000 861.000 870.000 866.000 853.000 842.000 833.000 823.000 817.000 -9999.000 
-9999.000 785.000 787.000 786.000 793.000 798.000 797.000 803.000 813.000 818.000 813.000 798.000 786.000 784.000 785.000 793.000 803.000 807.000 808.000 799.000 792.000 797.000 806.000 817.000 816.000 803.000 796.000 789.000 784.000 783.000 775.000 778.000 787.000 787.000 778.000 777.000 774.000 765.000 763.000 769.000 793.000 816.000 818.000 807.000 791.000 780.000 790.000 787.000 773.000 763.000 763.000 761.000 760.000 762.000 776.000 776.000 764.000 758.000 758.000 761.000 760.000 763.000 761.000 759.000 760.000 766.000 772.000 782.000 785.000 780.000 787.000 789.000 800.000 807.000 800.000 799.000 805.000 818.000 819.000 805.000 785.000 773.000 778.000 790.000 795.000 789.000 777.000 776.000 777.000 780.000 788.000 790.000 783.000 773.000 771.000 770.000 772.000 774.000 778.000 783.000 784.000 786.000 796.000 807.000 811.000 821.000 834.000 845.000 858.000 861.000 853.000 847.000 850.000 856.000 855.000 852.000 850.000 840.000 823.000 815.000 -9999.000 
-9999.000 797.000 792.000 786.000 797.000 807.000 806.000 809.000 816.000 818.000 809.000 793.000 785.000 787.000 790.000 793.000 800.000 814.000 823.000 816.000 800.000 798.000 809.000 818.000 820.000 816.000 812.000 804.000 797.000 789.000 779.000 778.000 794.000 805.000 797.000 787.000 787.000 770.000 766.000 786.000 812.000 820.000 812.000 806.000 805.000 793.000 789.000 778.000 768.000 766.000 777.000 767.000 762.000 767.000 777.000 784.000 784.000 767.000 758.000 769.000 773.000 775.000 769.000 764.000 762.000 765.000 776.000 780.000 776.000 777.000 786.000 782.000 783.000 789.000 789.000 795.000 807.000 814.000 810.000 799.000 783.000 778.000 786.000 796.000 801.000 795.000 781.000 784.000 792.000 798.000 799.000 794.000 783.000 774.000 772.000 771.000 771.000 772.000 777.000 781.000 785.000 787.000 786.000 796.000 810.000 832.000 851.000 853.000 855.000 860.000 851.000 841.000 838.000 838.000 844.000 851.000 853.000 843.000 822.000 812.000 -9999.000 
-9999.000 814.000 801.000 790.000 798.000 809.000 811.000 812.000 817.000 815.000 802.000 788.000 782.000 790.000 802.000 805.000 804.000 815.000 830.000 833.000 814.000 795.000 795.000 802.000 811.000 816.000 814.000 803.000 789.000 780.000 781.000 788.000 800.000 815.000 820.000 808.000 790.000 773.000 769.000 783.000 799.000 802.000 792.000 799.000 812.000 810.000 797.000 776.000 765.000 773.000 783.000 769.000 769.000 775.000 780.000 790.000 792.000 773.000 759.000 773.000 782.000 783.000 774.000 767.000 764.000 766.000 780.000 784.000 775.000 773.000 780.000 777.000 772.000 777.000 786.000 805.000 823.000 818.000 805.000 791.000 781.000 777.000 790.000 805.000 809.000 798.000 786.000 798.000 809.000 813.000 809.000 795.000 781.000 775.000 774.000 774.000 773.000 775.000 779.000 786.000 798.000 804.000 801.000 808.000 823.000 840.000 847.000 843.000 850.000 857.000 851.000 848.000 847.000 837.000 833.000 841.000 848.000 843.000 823.000 811.000 -9999.000 
-9999.000 827.000 809.000 795.000 803.000 808.000 808.000 812.000 817.000 812.000 798.000 785.000 779.000 790.000 804.000 810.000 809.000 816.000 829.000 832.000 818.000 796.000 789.000 794.000 805.000 813.000 809.000 795.000 790.000 781.000 782.000 793.000 803.000 815.000 825.000 816.000 796.000 783.000 780.000 777.000 778.000 781.000 779.000 796.000 815.000 820.000 804.000 777.000 769.000 785.000 789.000 771.000 778.000 792.000 791.000 787.000 786.000 771.000 762.000 776.000 791.000 787.000 777.000 772.000 772.000 767.000 775.000 790.000 780.000 767.000 771.000 771.000 772.000 779.000 790.000 814.000 830.000 825.000 805.000 790.000 784.000 782.000 789.000 807.000 813.000 804.000 798.000 809.000 817.000 816.000 805.000 791.000 785.000 782.000 780.000 781.000 779.000 778.000 776.000 782.000 800.000 809.000 808.000 815.000 823.000 833.000 836.000 837.000 849.000 853.000 851.000 858.000 859.000 845.000 832.000 830.000 831.000 826.000 819.000 817.000 -9999.000 
-9999.000 820.000 806.000 796.000 803.000 805.000 800.000 805.000 817.000 814.000 796.000 781.000 777.000 786.000 797.000 799.000 796.000 803.000 815.000 817.000 813.000 797.000 789.000 792.000 803.000 810.000 809.000 800.000 797.000 786.000 787.000 798.000 805.000 820.000 835.000 839.000 830.000 816.000 800.000 782.000 772.000 774.000 783.000 799.000 811.000 812.000 793.000 773.000 780.000 794.000 796.000 776.000 791.000 805.000 800.000 782.000 771.000 762.000 766.000 779.000 792.000 790.000 780.000 776.000 773.000 768.000 769.000 782.000 778.000 765.000 764.000 767.000 773.000 784.000 795.000 812.000 827.000 823.000 803.000 793.000 800.000 797.000 792.000 807.000 819.000 816.000 809.000 814.000 812.000 805.000 795.000 795.000 798.000 795.000 799.000 802.000 797.000 788.000 781.000 780.000 789.000 802.000 807.000 815.000 824.000 826.000 824.000 833.000 845.000 845.000 846.000 855.000 856.000 847.000 841.000 832.000 826.000 836.000 841.000 842.000 -9999.000 
-9999.000 806.000 799.000 797.000 808.000 812.000 804.000 800.000 807.000 807.000 790.000 777.000 779.000 787.000 790.000 788.000 785.000 790.000 799.000 806.000 810.000 799.000 793.000 794.000 801.000 804.000 803.000 798.000 790.000 788.000 793.000 796.000 797.000 807.000 822.000 840.000 847.000 839.000 820.000 792.000 780.000 789.000 803.000 803.000 800.000 794.000 783.000 778.000 791.000 806.000 800.000 780.000 787.000 812.000 807.000 787.000 774.000 765.000 771.000 786.000 793.000 789.000 780.000 775.000 772.000 767.000 765.000 769.000 764.000 764.000 772.000 778.000 774.000 781.000 797.000 815.000 829.000 829.000 809.000 808.000 818.000 809.000 794.000 799.000 814.000 820.000 814.000 818.000 815.000 803.000 800.000 808.000 806.000 802.000 814.000 818.000 817.000 805.000 795.000 789.000 786.000 789.000 802.000 817.000 831.000 835.000 828.000 826.000 830.000 832.000 840.000 849.000 852.000 851.000 845.000 835.000 837.000 850.000 856.000 858.000 -9999.000 
-9999.000 802.000 795.000 798.000 813.000 821.000 811.000 797.000 793.000 790.000 780.000 774.000 778.000 782.000 784.000 785.000 787.000 790.000 796.000 806.000 811.000 803.000 798.000 798.000 798.000 795.000 791.000 790.000 790.000 795.000 805.000 809.000 807.000 802.000 804.000 817.000 831.000 829.000 814.000 793.000 791.000 805.000 818.000 815.000 800.000 790.000 792.000 787.000 795.000 814.000 810.000 788.000 784.000 810.000 810.000 790.000 775.000 767.000 778.000 792.000 794.000 783.000 780.000 777.000 772.000 768.000 765.000 764.000 761.000 763.000 774.000 786.000 786.000 796.000 815.000 818.000 815.000 820.000 824.000 842.000 847.000 822.000 799.000 792.000 799.000 809.000 823.000 831.000 825.000 808.000 805.000 817.000 818.000 819.000 831.000 835.000 834.000 822.000 812.000 802.000 797.000 791.000 798.000 816.000 835.000 839.000 833.000 831.000 833.000 837.000 845.000 852.000 856.000 851.000 837.000 833.000 844.000 847.000 843.000 843.000 -9999.000 
-9999.000 805.000 797.000 796.000 807.000 818.000 816.000 810.000 802.000 788.000 780.000 779.000 783.000 787.000 794.000 801.000 803.000 803.000 812.000 823.000 826.000 813.000 802.000 797.000 793.000 793.000 791.000 791.000 797.000 804.000 814.000 817.000 815.000 811.000 806.000 805.000 814.000 820.000 808.000 800.000 813.000 826.000 839.000 836.000 813.000 801.000 802.000 798.000 796.000 815.000 823.000 810.000 793.000 806.000 807.000 787.000 772.000 774.000 786.000 800.000 795.000 786.000 783.000 780.000 778.000 779.000 774.000 768.000 764.000 766.000 781.000 796.000 811.000 820.000 825.000 810.000 801.000 810.000 826.000 850.000 857.000 829.000 802.000 789.000 796.000 809.000 829.000 840.000 832.000 813.000 809.000 812.000 815.000 825.000 834.000 844.000 851.000 844.000 834.000 825.000 823.000 809.000 794.000 804.000 824.000 830.000 833.000 838.000 845.000 854.000 856.000 853.000 849.000 843.000 838.000 841.000 842.000 838.000 831.000 828.000 -9999.000 
-9999.000 804.000 801.000 803.000 812.000 824.000 827.000 820.000 804.000 785.000 779.000 787.000 795.000 805.000 817.000 826.000 827.000 827.000 841.000 855.000 847.000 823.000 807.000 798.000 791.000 798.000 798.000 798.000 797.000 800.000 804.000 805.000 805.000 807.000 805.000 801.000 806.000 814.000 810.000 811.000 832.000 850.000 860.000 854.000 829.000 814.000 812.000 810.000 803.000 811.000 826.000 830.000 808.000 808.000 810.000 793.000 784.000 789.000 798.000 802.000 799.000 795.000 790.000 792.000 801.000 798.000 787.000 775.000 766.000 766.000 782.000 804.000 829.000 837.000 819.000 797.000 793.000 807.000 827.000 849.000 851.000 830.000 808.000 795.000 806.000 814.000 822.000 838.000 839.000 829.000 829.000 832.000 831.000 833.000 836.000 848.000 859.000 859.000 848.000 835.000 829.000 819.000 808.000 801.000 803.000 811.000 820.000 834.000 851.000 862.000 864.000 856.000 845.000 842.000 849.000 853.000 849.000 845.000 841.000 838.000 -9999.000 
-9999.000 800.000 803.000 810.000 822.000 835.000 837.000 820.000 797.000 780.000 778.000 786.000 797.000 806.000 815.000 823.000 830.000 845.000 864.000 879.000 864.000 834.000 813.000 800.000 791.000 798.000 804.000 812.000 803.000 795.000 797.000 799.000 801.000 805.000 811.000 810.000 808.000 820.000 816.000 820.000 839.000 861.000 877.000 873.000 853.000 837.000 830.000 830.000 818.000 820.000 828.000 840.000 835.000 822.000 821.000 820.000 814.000 817.000 818.000 811.000 805.000 805.000 795.000 797.000 811.000 811.000 793.000 779.000 768.000 769.000 790.000 812.000 831.000 827.000 802.000 788.000 797.000 819.000 839.000 846.000 833.000 821.000 808.000 804.000 824.000 829.000 823.000 823.000 829.000 823.000 816.000 816.000 827.000 838.000 846.000 854.000 864.000 861.000 846.000 837.000 836.000 832.000 828.000 817.000 813.000 811.000 810.000 828.000 840.000 849.000 858.000 850.000 843.000 850.000 862.000 863.000 855.000 848.000 845.000 845.000 -9999.000 
-9999.000 793.000 803.000 817.000 832.000 838.000 829.000 807.000 786.000 776.000 777.000 784.000 793.000 800.000 810.000 828.000 851.000 873.000 893.000 904.000 880.000 844.000 820.000 805.000 794.000 797.000 808.000 823.000 808.000 796.000 801.000 808.000 811.000 812.000 819.000 825.000 817.000 822.000 824.000 830.000 846.000 871.000 892.000 891.000 872.000 862.000 849.000 841.000 841.000 843.000 844.000 861.000 866.000 852.000 839.000 837.000 845.000 844.000 841.000 830.000 816.000 811.000 803.000 803.000 817.000 816.000 799.000 784.000 773.000 774.000 797.000 819.000 825.000 812.000 789.000 782.000 798.000 819.000 840.000 837.000 811.000 800.000 803.000 820.000 833.000 831.000 817.000 811.000 815.000 809.000 803.000 808.000 817.000 830.000 846.000 856.000 859.000 854.000 844.000 854.000 865.000 862.000 842.000 829.000 836.000 827.000 810.000 813.000 821.000 831.000 841.000 841.000 839.000 848.000 863.000 865.000 852.000 843.000 845.000 847.000 -9999.000 
-9999.000 786.000 799.000 816.000 828.000 831.000 817.000 792.000 780.000 779.000 782.000 793.000 807.000 818.000 828.000 850.000 880.000 905.000 923.000 921.000 883.000 844.000 821.000 806.000 797.000 801.000 814.000 827.000 808.000 801.000 809.000 820.000 825.000 827.000 836.000 846.000 838.000 825.000 829.000 840.000 855.000 880.000 899.000 901.000 895.000 886.000 872.000 861.000 868.000 870.000 870.000 876.000 886.000 875.000 854.000 857.000 860.000 855.000 845.000 838.000 827.000 819.000 822.000 825.000 825.000 809.000 794.000 783.000 776.000 775.000 792.000 807.000 808.000 792.000 776.000 784.000 804.000 817.000 829.000 823.000 800.000 789.000 804.000 822.000 825.000 814.000 801.000 800.000 802.000 800.000 811.000 825.000 825.000 825.000 843.000 855.000 852.000 845.000 842.000 861.000 874.000 872.000 848.000 845.000 849.000 829.000 813.000 817.000 827.000 838.000 843.000 840.000 837.000 843.000 857.000 862.000 845.000 832.000 831.000 831.000 -9999.000 
-9999.000 782.000 787.000 797.000 803.000 806.000 801.000 785.000 778.000 776.000 780.000 797.000 819.000 837.000 858.000 874.000 893.000 910.000 926.000 921.000 878.000 839.000 818.000 808.000 804.000 811.000 824.000 834.000 809.000 813.000 820.000 831.000 838.000 836.000 847.000 858.000 850.000 836.000 837.000 853.000 868.000 885.000 903.000 919.000 919.000 912.000 905.000 888.000 899.000 904.000 898.000 895.000 900.000 890.000 868.000 870.000 866.000 858.000 846.000 839.000 832.000 831.000 843.000 842.000 827.000 806.000 786.000 775.000 774.000 773.000 777.000 783.000 783.000 776.000 775.000 797.000 815.000 812.000 808.000 805.000 788.000 780.000 801.000 811.000 812.000 802.000 789.000 796.000 805.000 815.000 824.000 825.000 819.000 820.000 842.000 861.000 855.000 844.000 843.000 858.000 873.000 868.000 850.000 850.000 840.000 822.000 822.000 830.000 831.000 836.000 844.000 844.000 838.000 840.000 853.000 858.000 842.000 827.000 825.000 829.000 -9999.000 
-9999.000 778.000 775.000 777.000 780.000 781.000 782.000 785.000 784.000 777.000 783.000 803.000 825.000 842.000 856.000 863.000 873.000 886.000 905.000 907.000 872.000 836.000 824.000 822.000 819.000 821.000 831.000 839.000 825.000 833.000 839.000 850.000 851.000 842.000 851.000 857.000 850.000 849.000 859.000 879.000 892.000 906.000 919.000 937.000 945.000 938.000 933.000 916.000 927.000 942.000 934.000 920.000 915.000 904.000 888.000 884.000 874.000 862.000 851.000 846.000 837.000 841.000 849.000 839.000 821.000 803.000 788.000 785.000 776.000 774.000 777.000 778.000 771.000 765.000 772.000 792.000 806.000 795.000 786.000 780.000 773.000 772.000 783.000 792.000 796.000 790.000 793.000 812.000 824.000 831.000 821.000 810.000 807.000 820.000 847.000 857.000 855.000 851.000 844.000 850.000 864.000 865.000 853.000 842.000 833.000 833.000 833.000 838.000 849.000 854.000 850.000 848.000 843.000 839.000 847.000 850.000 840.000 829.000 838.000 849.000 -9999.000 
-9999.000 767.000 768.000 772.000 781.000 782.000 781.000 788.000 785.000 780.000 789.000 806.000 823.000 832.000 832.000 833.000 840.000 853.000 878.000 888.000 868.000 842.000 837.000 842.000 846.000 847.000 850.000 856.000 855.000 861.000 869.000 874.000 861.000 851.000 856.000 864.000 867.000 871.000 885.000 901.000 916.000 927.000 937.000 955.000 971.000 965.000 956.000 948.000 956.000 967.000 964.000 942.000 928.000 912.000 906.000 899.000 879.000 872.000 868.000 860.000 849.000 856.000 855.000 842.000 820.000 808.000 803.000 797.000 783.000 783.000 777.000 773.000 773.000 772.000 775.000 775.000 785.000 779.000 774.000 777.000 784.000 779.000 776.000 779.000 779.000 778.000 786.000 798.000 810.000 818.000 808.000 798.000 803.000 823.000 840.000 842.000 852.000 858.000 848.000 846.000 857.000 863.000 850.000 838.000 848.000 858.000 850.000 851.000 864.000 863.000 856.000 857.000 849.000 834.000 831.000 835.000 829.000 825.000 840.000 852.000 -9999.000 
-9999.000 762.000 769.000 778.000 788.000 787.000 785.000 793.000 786.000 783.000 791.000 803.000 811.000 810.000 808.000 809.000 814.000 827.000 850.000 863.000 858.000 846.000 850.000 860.000 870.000 873.000 876.000 882.000 889.000 893.000 893.000 884.000 868.000 867.000 869.000 875.000 889.000 904.000 917.000 929.000 936.000 944.000 941.000 951.000 972.000 980.000 981.000 979.000 990.000 1007.000 990.000 964.000 953.000 936.000 919.000 898.000 889.000 886.000 877.000 866.000 864.000 873.000 872.000 856.000 840.000 822.000 816.000 807.000 795.000 787.000 779.000 776.000 775.000 779.000 778.000 771.000 774.000 778.000 788.000 806.000 814.000 806.000 790.000 783.000 783.000 783.000 783.000 787.000 792.000 794.000 789.000 787.000 797.000 812.000 822.000 828.000 850.000 860.000 848.000 844.000 850.000 857.000 850.000 852.000 877.000 888.000 877.000 874.000 877.000 866.000 863.000 870.000 860.000 842.000 830.000 826.000 824.000 823.000 831.000 839.000 -9999.000 
-9999.000 765.000 776.000 790.000 793.000 786.000 787.000 796.000 789.000 782.000 787.000 792.000 792.000 794.000 799.000 809.000 817.000 826.000 838.000 846.000 846.000 842.000 848.000 855.000 863.000 871.000 881.000 895.000 915.000 912.000 899.000 883.000 877.000 881.000 886.000 892.000 907.000 924.000 941.000 953.000 963.000 965.000 952.000 952.000 972.000 995.000 1005.000 1004.000 1019.000 1037.000 1020.000 991.000 971.000 953.000 929.000 912.000 910.000 896.000 883.000 871.000 876.000 889.000 886.000 868.000 851.000 831.000 826.000 815.000 800.000 792.000 786.000 780.000 778.000 784.000 787.000 782.000 782.000 798.000 819.000 824.000 828.000 818.000 796.000 797.000 799.000 796.000 795.000 784.000 780.000 781.000 783.000 785.000 790.000 799.000 810.000 829.000 853.000 860.000 852.000 851.000 860.000 867.000 855.000 847.000 862.000 881.000 883.000 882.000 880.000 870.000 877.000 879.000 864.000 844.000 834.000 836.000 841.000 833.000 826.000 824.000 -9999.000 
-9999.000 773.000 780.000 791.000 796.000 793.000 796.000 805.000 798.000 785.000 781.000 783.000 787.000 792.000 797.000 807.000 815.000 822.000 827.000 832.000 833.000 828.000 829.000 835.000 850.000 871.000 889.000 907.000 941.000 935.000 912.000 895.000 895.000 898.000 906.000 912.000 921.000 941.000 963.000 979.000 991.000 992.000 970.000 958.000 973.000 1005.000 1029.000 1034.000 1042.000 1048.000 1025.000 992.000 965.000 949.000 937.000 947.000 940.000 910.000 889.000 880.000 889.000 903.000 890.000 873.000 860.000 843.000 832.000 823.000 810.000 802.000 792.000 785.000 792.000 808.000 815.000 809.000 796.000 823.000 857.000 861.000 846.000 824.000 810.000 815.000 817.000 809.000 801.000 788.000 782.000 785.000 787.000 788.000 793.000 800.000 817.000 841.000 863.000 866.000 860.000 867.000 873.000 872.000 860.000 848.000 851.000 867.000 875.000 886.000 884.000 878.000 883.000 881.000 863.000 846.000 843.000 851.000 853.000 839.000 828.000 825.000 -9999.000 
-9999.000 769.000 773.000 785.000 795.000 798.000 804.000 812.000 809.000 797.000 790.000 795.000 805.000 807.000 799.000 796.000 799.000 805.000 813.000 819.000 819.000 815.000 818.000 829.000 853.000 876.000 895.000 915.000 965.000 961.000 936.000 917.000 912.000 916.000 924.000 931.000 945.000 967.000 991.000 1009.000 1018.000 1006.000 979.000 969.000 980.000 1011.000 1053.000 1078.000 1066.000 1036.000 1007.000 978.000 968.000 960.000 953.000 960.000 948.000 923.000 900.000 892.000 896.000 905.000 885.000 873.000 862.000 849.000 837.000 826.000 814.000 805.000 797.000 792.000 797.000 815.000 830.000 823.000 820.000 854.000 878.000 886.000 884.000 873.000 854.000 842.000 829.000 808.000 792.000 787.000 790.000 797.000 800.000 796.000 794.000 802.000 819.000 847.000 874.000 869.000 865.000 877.000 876.000 866.000 854.000 847.000 846.000 855.000 872.000 887.000 885.000 878.000 879.000 875.000 862.000 852.000 854.000 863.000 856.000 843.000 839.000 836.000 -9999.000 
-9999.000 778.000 779.000 781.000 784.000 790.000 800.000 810.000 814.000 809.000 798.000 802.000 815.000 821.000 807.000 791.000 791.000 800.000 806.000 811.000 812.000 818.000 830.000 842.000 857.000 876.000 893.000 915.000 953.000 957.000 948.000 936.000 930.000 935.000 946.000 955.000 971.000 991.000 1013.000 1029.000 1039.000 1016.000 990.000 987.000 995.000 1019.000 1062.000 1083.000 1055.000 1020.000 1003.000 995.000 989.000 975.000 972.000 980.000 964.000 942.000 924.000 915.000 915.000 911.000 894.000 887.000 873.000 858.000 841.000 832.000 824.000 813.000 812.000 808.000 804.000 815.000 833.000 830.000 822.000 835.000 852.000 875.000 897.000 907.000 905.000 879.000 836.000 803.000 790.000 796.000 802.000 809.000 811.000 811.000 808.000 810.000 818.000 839.000 865.000 867.000 873.000 884.000 873.000 860.000 859.000 861.000 854.000 859.000 876.000 882.000 874.000 871.000 880.000 885.000 875.000 862.000 863.000 866.000 853.000 847.000 849.000 842.000 -9999.000 
-9999.000 797.000 803.000 798.000 786.000 788.000 798.000 811.000 818.000 811.000 798.000 798.000 811.000 824.000 817.000 799.000 794.000 804.000 811.000 816.000 820.000 835.000 851.000 866.000 874.000 881.000 889.000 902.000 923.000 933.000 942.000 946.000 945.000 953.000 962.000 975.000 995.000 1011.000 1030.000 1047.000 1056.000 1038.000 1024.000 1022.000 1018.000 1029.000 1063.000 1067.000 1039.000 1026.000 1021.000 1017.000 1011.000 996.000 999.000 1003.000 988.000 971.000 954.000 947.000 944.000 922.000 915.000 912.000 887.000 867.000 855.000 854.000 840.000 832.000 840.000 828.000 809.000 821.000 845.000 842.000 828.000 828.000 830.000 856.000 891.000 906.000 892.000 867.000 832.000 807.000 801.000 805.000 815.000 821.000 826.000 827.000 826.000 820.000 822.000 837.000 859.000 868.000 881.000 885.000 874.000 871.000 877.000 873.000 862.000 869.000 880.000 877.000 865.000 871.000 887.000 887.000 874.000 865.000 866.000 861.000 851.000 856.000 857.000 851.000 -9999.000 
-9999.000 802.000 814.000 814.000 798.000 795.000 804.000 817.000 821.000 816.000 806.000 797.000 803.000 817.000 820.000 811.000 807.000 817.000 830.000 835.000 836.000 848.000 866.000 886.000 895.000 897.000 899.000 902.000 914.000 922.000 936.000 948.000 958.000 967.000 978.000 992.000 1019.000 1038.000 1056.000 1076.000 1083.000 1071.000 1059.000 1051.000 1040.000 1049.000 1073.000 1064.000 1048.000 1042.000 1038.000 1036.000 1036.000 1035.000 1038.000 1044.000 1032.000 1010.000 987.000 978.000 965.000 943.000 950.000 944.000 914.000 892.000 887.000 873.000 864.000 864.000 860.000 836.000 817.000 825.000 851.000 860.000 846.000 839.000 833.000 849.000 887.000 887.000 863.000 841.000 825.000 822.000 813.000 820.000 834.000 837.000 842.000 844.000 841.000 837.000 844.000 855.000 860.000 864.000 878.000 880.000 875.000 881.000 882.000 879.000 871.000 869.000 873.000 866.000 858.000 874.000 887.000 879.000 861.000 852.000 861.000 869.000 870.000 876.000 876.000 875.000 -9999.000 
-9999.000 793.000 809.000 816.000 804.000 793.000 796.000 811.000 823.000 827.000 817.000 803.000 803.000 813.000 821.000 826.000 833.000 843.000 851.000 849.000 849.000 864.000 883.000 895.000 900.000 906.000 909.000 909.000 922.000 928.000 941.000 955.000 969.000 983.000 999.000 1010.000 1033.000 1060.000 1085.000 1105.000 1110.000 1105.000 1094.000 1087.000 1078.000 1076.000 1084.000 1071.000 1069.000 1060.000 1052.000 1052.000 1054.000 1059.000 1063.000 1072.000 1060.000 1033.000 1011.000 994.000 981.000 968.000 980.000 964.000 942.000 930.000 924.000 915.000 906.000 897.000 869.000 843.000 832.000 843.000 863.000 866.000 854.000 843.000 833.000 848.000 873.000 861.000 843.000 831.000 831.000 830.000 823.000 833.000 849.000 855.000 859.000 856.000 851.000 853.000 863.000 872.000 872.000 869.000 878.000 882.000 881.000 880.000 875.000 874.000 869.000 864.000 860.000 853.000 854.000 872.000 881.000 869.000 852.000 845.000 856.000 877.000 895.000 903.000 896.000 889.000 -9999.000 
-9999.000 778.000 788.000 797.000 792.000 789.000 795.000 807.000 824.000 835.000 831.000 820.000 816.000 820.000 826.000 839.000 856.000 866.000 863.000 853.000 857.000 879.000 900.000 912.000 912.000 912.000 913.000 917.000 931.000 939.000 950.000 965.000 982.000 999.000 1015.000 1030.000 1052.000 1073.000 1095.000 1113.000 1130.000 1141.000 1137.000 1136.000 1131.000 1116.000 1094.000 1086.000 1086.000 1077.000 1070.000 1070.000 1075.000 1078.000 1079.000 1077.000 1054.000 1028.000 1016.000 1007.000 996.000 984.000 996.000 992.000 984.000 981.000 970.000 960.000 949.000 928.000 895.000 866.000 852.000 862.000 870.000 862.000 858.000 852.000 837.000 853.000 860.000 845.000 831.000 836.000 846.000 843.000 840.000 847.000 858.000 868.000 871.000 872.000 870.000 881.000 895.000 900.000 881.000 879.000 885.000 878.000 874.000 870.000 866.000 866.000 860.000 852.000 848.000 847.000 855.000 874.000 879.000 867.000 848.000 845.000 859.000 883.000 901.000 906.000 890.000 874.000 -9999.000 
-9999.000 782.000 780.000 779.000 781.000 788.000 797.000 815.000 835.000 847.000 848.000 841.000 830.000 829.000 835.000 852.000 874.000 886.000 877.000 862.000 864.000 880.000 900.000 915.000 922.000 919.000 920.000 927.000 954.000 962.000 965.000 976.000 994.000 1015.000 1035.000 1057.000 1077.000 1092.000 1112.000 1135.000 1155.000 1181.000 1194.000 1191.000 1182.000 1147.000 1109.000 1108.000 1107.000 1101.000 1099.000 1099.000 1099.000 1098.000 1096.000 1093.000 1070.000 1043.000 1029.000 1018.000 1008.000 1004.000 1017.000 1018.000 1010.000 1001.000 991.000 983.000 977.000 957.000 929.000 897.000 875.000 877.000 875.000 862.000 858.000 843.000 839.000 856.000 855.000 842.000 842.000 858.000 863.000 858.000 857.000 862.000 872.000 887.000 898.000 898.000 899.000 903.000 920.000 912.000 891.000 896.000 901.000 883.000 870.000 865.000 860.000 858.000 852.000 853.000 861.000 859.000 852.000 855.000 862.000 855.000 843.000 848.000 868.000 890.000 899.000 895.000 880.000 869.000 -9999.000 
-9999.000 797.000 791.000 781.000 781.000 790.000 801.000 820.000 843.000 856.000 861.000 855.000 845.000 844.000 848.000 863.000 886.000 904.000 892.000 870.000 869.000 880.000 899.000 913.000 924.000 934.000 945.000 956.000 993.000 999.000 996.000 1001.000 1012.000 1036.000 1064.000 1092.000 1111.000 1127.000 1151.000 1184.000 1220.000 1249.000 1262.000 1251.000 1222.000 1169.000 1131.000 1136.000 1137.000 1137.000 1140.000 1146.000 1137.000 1124.000 1114.000 1116.000 1098.000 1071.000 1053.000 1030.000 1027.000 1041.000 1047.000 1039.000 1020.000 1000.000 984.000 971.000 966.000 955.000 941.000 920.000 900.000 887.000 879.000 871.000 865.000 849.000 843.000 851.000 855.000 850.000 856.000 870.000 880.000 878.000 878.000 891.000 913.000 938.000 950.000 947.000 941.000 938.000 934.000 916.000 899.000 897.000 893.000 885.000 882.000 876.000 863.000 859.000 858.000 861.000 873.000 873.000 860.000 845.000 840.000 837.000 837.000 849.000 866.000 883.000 889.000 879.000 870.000 871.000 -9999.000 
-9999.000 808.000 799.000 789.000 792.000 805.000 817.000 828.000 845.000 856.000 862.000 864.000 863.000 870.000 879.000 893.000 913.000 920.000 896.000 875.000 880.000 891.000 907.000 924.000 930.000 950.000 980.000 995.000 1022.000 1036.000 1044.000 1052.000 1053.000 1067.000 1106.000 1153.000 1187.000 1206.000 1229.000 1265.000 1294.000 1303.000 1302.000 1291.000 1247.000 1184.000 1150.000 1159.000 1179.000 1190.000 1197.000 1201.000 1181.000 1154.000 1144.000 1137.000 1118.000 1107.000 1089.000 1071.000 1064.000 1064.000 1059.000 1043.000 1029.000 1013.000 999.000 985.000 969.000 949.000 931.000 912.000 900.000 892.000 887.000 877.000 863.000 852.000 848.000 852.000 862.000 866.000 869.000 882.000 895.000 900.000 906.000 928.000 944.000 958.000 960.000 962.000 966.000 966.000 954.000 927.000 907.000 890.000 876.000 866.000 868.000 871.000 870.000 874.000 876.000 869.000 869.000 872.000 862.000 847.000 835.000 834.000 842.000 851.000 859.000 870.000 875.000 866.000 865.000 874.000 -9999.000 
-9999.000 -9999.000 -9999.000 -9999.000 -9999.000 -9999.000 -9999.000 -9999.000 -9999.000 -9999.000 -9999.000 -9999.000 -9999.000 -9999.000 -9999.000 -9999.000 -9999.000 -9999.000 -9999.000 -9999.000 -9999.000 -9999.000 -9999.000 -9999.000 -9999.000 -9999.000 -9999.000 -9999.000 -9999.000 -9999.000 -9999.000 -9999.000 -9999.000 -9999.000 -9999.000 -9999.000 -9999.000 -9999.000 -9999.000 -9999.000 -9999.000 -9999.000 -9999.000 -9999.000 -9999.000 -9999.000 -9999.000 -9999.000 -9999.000 -9999.000 -9999.000 -9999.000 -9999.000 -9999.000 -9999.000 -9999.000 -9999.000 -9999.000 -9999.000 -9999.000 -9999.000 -9999.000 -9999.000 -9999.000 -9999.000 -9999.000 -9999.000 -9999.000 -9999.000 -9999.000 -9999.000 -9999.000 -9999.000 -9999.000 -9999.000 -9999.000 -9999.000 -9999.000 -9999.000 -9999.000 -9999.000 -9999.000 -9999.000 -9999.000 -9999.000 -9999.000 -9999.000 -9999.000 -9999.000 -9999.000 -9999.000 -9999.000 -9999.000 -9999.000 -9999.000 -9999.000 -9999.000 -9999.000 -9999.000 -9999.000 -9999.000 -9999.000 -9999.000 -9999.000 -9999.000 -9999.000 -9999.000 -9999.000 -9999.000 -9999.000 -9999.000 -9999.000 -9999.000 -9999.000 -9999.000 -9999.000 -9999.000 -9999.000 -9999.000 -9999.000 -9999.000 
