ncols 121
nrows 121
xllcenter 614385.88
yllcenter 1276940.75
cellsize 92.28
NODATA_value -9999.000
0.000 0.000 0.000 0.000 0.000 0.000 0.000 0.000 0.000 0.000 0.000 0.000 0.000 0.000 0.000 0.000 0.000 0.000 0.000 0.000 0.000 0.000 0.000 0.000 0.000 0.000 0.000 0.000 0.000 0.000 0.000 0.000 0.000 0.000 0.000 0.000 0.000 0.000 0.000 0.000 0.000 0.000 0.000 0.000 0.000 0.000 0.000 0.000 0.000 0.000 0.000 0.000 0.000 0.000 0.000 0.000 0.000 0.000 0.000 0.000 0.000 0.000 0.000 0.000 0.000 0.000 0.000 0.000 0.000 0.000 0.000 0.000 0.000 0.000 0.000 0.000 0.000 0.000 0.000 0.000 0.000 0.000 0.000 0.000 0.000 0.000 0.000 0.000 0.000 0.000 0.000 0.000 0.000 0.000 0.000 0.000 0.000 0.000 0.000 0.000 0.000 0.000 0.000 0.000 0.000 0.000 0.000 0.000 0.000 0.000 0.000 0.000 0.000 0.000 0.000 0.000 0.000 0.000 0.000 0.000 0.000 
0.000 0.000 0.005 0.066 0.328 0.746 0.995 1.050 1.055 1.055 1.055 1.056 1.056 1.056 1.056 1.056 1.056 1.056 1.056 1.057 1.057 1.057 1.057 1.057 1.057 1.057 1.057 1.058 1.058 1.058 1.058 1.058 1.058 1.058 1.059 1.059 1.059 1.059 1.058 1.056 1.052 1.050 1.051 1.054 1.057 1.059 1.060 1.060 1.060 1.061 1.061 1.060 1.059 1.056 1.053 1.051 1.053 1.057 1.059 1.060 1.060 1.061 1.061 1.052 1.009 0.944 0.942 1.007 1.052 1.062 1.063 1.063 1.063 1.063 1.060 1.056 1.055 1.067 1.100 1.138 1.143 1.079 0.986 0.972 1.024 1.057 1.065 1.065 1.065 1.066 1.066 1.066 1.066 1.066 1.066 1.066 1.066 1.067 1.067 1.067 1.067 1.067 1.067 1.067 1.067 1.067 1.054 1.004 0.950 0.962 0.962 0.882 0.789 0.779 0.862 0.970 1.036 1.056 1.057 1.017 0.000 
0.000 0.000 0.008 0.081 0.364 0.800 1.056 1.112 1.117 1.117 1.117 1.118 1.118 1.119 1.119 1.119 1.119 1.120 1.120 1.120 1.121 1.121 1.121 1.122 1.122 1.122 1.123 1.123 1.124 1.124 1.124 1.125 1.125 1.125 1.126 1.126 1.126 1.125 1.120 1.106 1.085 1.070 1.074 1.094 1.114 1.125 1.129 1.130 1.130 1.130 1.130 1.128 1.119 1.101 1.079 1.070 1.082 1.103 1.115 1.112 1.112 1.124 1.132 1.132 1.120 1.101 1.101 1.120 1.133 1.136 1.137 1.137 1.137 1.132 1.117 1.086 1.057 1.058 1.101 1.160 1.194 1.179 1.140 1.124 1.132 1.140 1.142 1.142 1.143 1.143 1.143 1.144 1.144 1.144 1.144 1.145 1.145 1.145 1.146 1.146 1.147 1.147 1.147 1.148 1.148 1.148 1.146 1.135 1.119 1.100 1.031 0.899 0.783 0.784 0.899 1.030 1.094 1.099 1.088 1.016 0.000 
0.000 0.002 0.022 0.049 0.222 0.597 0.938 1.084 1.130 1.145 1.152 1.156 1.158 1.160 1.161 1.162 1.163 1.164 1.164 1.165 1.165 1.166 1.166 1.166 1.167 1.167 1.168 1.168 1.168 1.169 1.169 1.169 1.169 1.170 1.170 1.170 1.169 1.167 1.162 1.149 1.126 1.106 1.102 1.112 1.137 1.159 1.169 1.172 1.173 1.173 1.172 1.169 1.161 1.144 1.119 1.103 1.104 1.121 1.143 1.150 1.152 1.159 1.174 1.181 1.183 1.177 1.172 1.175 1.183 1.185 1.184 1.183 1.180 1.172 1.155 1.122 1.085 1.072 1.085 1.133 1.179 1.195 1.188 1.177 1.178 1.184 1.187 1.188 1.188 1.187 1.185 1.180 1.173 1.169 1.166 1.166 1.166 1.167 1.170 1.176 1.183 1.189 1.192 1.195 1.196 1.198 1.199 1.197 1.190 1.173 1.130 1.028 0.893 0.846 0.880 0.996 1.080 1.107 1.114 1.011 0.000 
0.000 0.004 0.051 0.088 0.288 0.634 0.927 1.086 1.168 1.213 1.239 1.255 1.266 1.274 1.279 1.284 1.287 1.287 1.287 1.289 1.290 1.291 1.292 1.292 1.292 1.292 1.293 1.293 1.294 1.293 1.293 1.292 1.292 1.292 1.291 1.288 1.283 1.273 1.258 1.238 1.215 1.203 1.201 1.207 1.230 1.260 1.279 1.286 1.288 1.286 1.282 1.272 1.254 1.229 1.208 1.200 1.200 1.210 1.233 1.253 1.266 1.277 1.291 1.305 1.317 1.324 1.324 1.322 1.318 1.315 1.310 1.302 1.286 1.260 1.219 1.168 1.131 1.118 1.121 1.144 1.180 1.211 1.239 1.263 1.281 1.291 1.296 1.297 1.296 1.291 1.279 1.257 1.235 1.221 1.214 1.212 1.212 1.216 1.226 1.244 1.269 1.290 1.305 1.315 1.322 1.327 1.331 1.333 1.331 1.317 1.283 1.212 1.122 1.075 1.061 1.087 1.116 1.128 1.131 1.000 0.000 
0.000 0.010 0.083 0.136 0.367 0.702 0.957 1.121 1.224 1.290 1.335 1.369 1.394 1.412 1.424 1.431 1.434 1.438 1.440 1.442 1.444 1.446 1.447 1.447 1.448 1.448 1.448 1.448 1.448 1.447 1.444 1.443 1.444 1.443 1.441 1.436 1.426 1.409 1.384 1.350 1.326 1.316 1.314 1.320 1.338 1.373 1.403 1.419 1.424 1.424 1.421 1.408 1.384 1.356 1.340 1.336 1.338 1.343 1.356 1.367 1.375 1.382 1.390 1.402 1.419 1.433 1.440 1.442 1.441 1.438 1.429 1.414 1.388 1.348 1.291 1.230 1.191 1.174 1.169 1.174 1.195 1.230 1.277 1.325 1.360 1.380 1.388 1.390 1.387 1.375 1.352 1.315 1.282 1.263 1.255 1.253 1.255 1.263 1.282 1.315 1.361 1.402 1.431 1.451 1.464 1.471 1.475 1.475 1.473 1.463 1.438 1.396 1.339 1.290 1.251 1.217 1.184 1.154 1.133 0.989 0.000 
0.000 0.050 0.138 0.192 0.459 0.786 1.012 1.160 1.263 1.339 1.399 1.446 1.483 1.509 1.525 1.534 1.540 1.544 1.549 1.551 1.552 1.553 1.555 1.555 1.556 1.557 1.556 1.556 1.556 1.556 1.550 1.551 1.551 1.550 1.547 1.541 1.529 1.509 1.478 1.435 1.405 1.392 1.389 1.393 1.409 1.442 1.482 1.508 1.520 1.523 1.523 1.513 1.496 1.474 1.459 1.450 1.444 1.439 1.434 1.431 1.431 1.432 1.436 1.446 1.466 1.488 1.501 1.507 1.507 1.504 1.494 1.475 1.445 1.405 1.354 1.300 1.260 1.235 1.225 1.223 1.232 1.259 1.306 1.364 1.406 1.430 1.440 1.441 1.438 1.423 1.394 1.350 1.315 1.295 1.288 1.287 1.290 1.302 1.327 1.370 1.430 1.483 1.521 1.545 1.560 1.565 1.568 1.569 1.568 1.556 1.537 1.506 1.464 1.413 1.357 1.293 1.220 1.162 1.124 0.983 0.000 
0.000 0.244 0.337 0.309 0.577 0.864 1.048 1.174 1.275 1.362 1.435 1.494 1.538 1.570 1.590 1.602 1.607 1.612 1.616 1.618 1.618 1.618 1.619 1.619 1.619 1.619 1.619 1.620 1.621 1.623 1.618 1.618 1.618 1.616 1.613 1.607 1.595 1.574 1.541 1.494 1.457 1.438 1.434 1.436 1.449 1.481 1.527 1.561 1.579 1.586 1.587 1.582 1.571 1.554 1.538 1.522 1.507 1.488 1.468 1.454 1.447 1.446 1.448 1.457 1.478 1.506 1.525 1.533 1.534 1.531 1.521 1.500 1.470 1.435 1.399 1.363 1.332 1.307 1.291 1.286 1.287 1.303 1.338 1.389 1.431 1.456 1.466 1.467 1.463 1.449 1.418 1.374 1.341 1.324 1.318 1.318 1.323 1.338 1.368 1.417 1.482 1.539 1.578 1.603 1.616 1.621 1.623 1.623 1.622 1.610 1.592 1.564 1.524 1.472 1.406 1.325 1.233 1.159 1.109 0.982 0.000 
0.000 0.637 0.731 0.583 0.753 0.932 1.061 1.172 1.273 1.368 1.452 1.520 1.571 1.606 1.628 1.641 1.647 1.652 1.654 1.655 1.654 1.653 1.652 1.652 1.652 1.652 1.652 1.653 1.656 1.657 1.657 1.657 1.656 1.655 1.652 1.646 1.635 1.615 1.581 1.532 1.489 1.467 1.460 1.461 1.473 1.502 1.550 1.591 1.614 1.624 1.627 1.625 1.618 1.605 1.585 1.560 1.536 1.505 1.475 1.455 1.446 1.443 1.445 1.454 1.475 1.507 1.529 1.538 1.540 1.537 1.527 1.505 1.476 1.450 1.428 1.411 1.396 1.383 1.372 1.363 1.359 1.362 1.378 1.411 1.448 1.469 1.478 1.480 1.476 1.463 1.435 1.396 1.368 1.353 1.350 1.351 1.358 1.377 1.410 1.461 1.525 1.575 1.612 1.635 1.645 1.650 1.652 1.651 1.648 1.638 1.618 1.587 1.548 1.492 1.420 1.332 1.232 1.153 1.097 0.981 0.000 
0.000 0.981 1.055 0.914 0.914 0.967 1.050 1.149 1.253 1.360 1.456 1.533 1.590 1.627 1.650 1.662 1.669 1.673 1.673 1.673 1.672 1.668 1.665 1.663 1.664 1.664 1.664 1.668 1.673 1.676 1.677 1.678 1.678 1.676 1.674 1.668 1.658 1.639 1.607 1.558 1.512 1.486 1.478 1.478 1.488 1.515 1.563 1.607 1.633 1.646 1.649 1.648 1.643 1.629 1.605 1.574 1.542 1.503 1.465 1.439 1.424 1.420 1.421 1.430 1.455 1.495 1.523 1.534 1.536 1.534 1.523 1.501 1.473 1.455 1.445 1.442 1.443 1.445 1.443 1.438 1.431 1.426 1.426 1.438 1.461 1.479 1.486 1.487 1.484 1.473 1.450 1.420 1.398 1.387 1.386 1.389 1.398 1.419 1.455 1.506 1.559 1.598 1.627 1.649 1.657 1.662 1.664 1.663 1.658 1.648 1.627 1.593 1.552 1.493 1.417 1.323 1.221 1.141 1.087 0.990 0.000 
0.000 1.081 1.090 1.030 0.968 0.971 1.016 1.094 1.202 1.335 1.452 1.540 1.600 1.639 1.662 1.674 1.679 1.681 1.682 1.681 1.677 1.672 1.668 1.665 1.663 1.663 1.667 1.672 1.679 1.684 1.687 1.688 1.688 1.687 1.685 1.680 1.671 1.653 1.623 1.577 1.530 1.503 1.493 1.493 1.502 1.527 1.573 1.618 1.645 1.657 1.660 1.659 1.652 1.636 1.610 1.575 1.533 1.481 1.428 1.391 1.370 1.362 1.363 1.377 1.414 1.465 1.499 1.514 1.518 1.517 1.506 1.484 1.464 1.454 1.452 1.458 1.473 1.486 1.491 1.490 1.485 1.477 1.471 1.470 1.477 1.488 1.494 1.495 1.492 1.483 1.466 1.445 1.436 1.437 1.440 1.447 1.461 1.482 1.512 1.549 1.584 1.612 1.634 1.652 1.659 1.665 1.667 1.664 1.661 1.650 1.628 1.594 1.545 1.481 1.399 1.299 1.198 1.123 1.076 1.010 0.000 
0.000 1.042 0.945 1.003 0.958 0.951 0.971 1.035 1.151 1.309 1.448 1.544 1.607 1.646 1.668 1.678 1.683 1.684 1.684 1.682 1.678 1.671 1.665 1.662 1.661 1.662 1.665 1.671 1.680 1.686 1.690 1.692 1.692 1.692 1.690 1.685 1.677 1.662 1.636 1.593 1.547 1.519 1.509 1.508 1.515 1.539 1.584 1.627 1.652 1.662 1.664 1.662 1.654 1.636 1.605 1.560 1.498 1.424 1.354 1.309 1.290 1.287 1.297 1.328 1.385 1.441 1.474 1.490 1.494 1.493 1.484 1.466 1.454 1.451 1.454 1.464 1.487 1.508 1.517 1.520 1.519 1.513 1.505 1.500 1.498 1.501 1.503 1.503 1.502 1.497 1.487 1.483 1.489 1.498 1.509 1.519 1.531 1.545 1.562 1.581 1.599 1.616 1.637 1.646 1.656 1.663 1.666 1.663 1.660 1.649 1.625 1.585 1.528 1.456 1.371 1.276 1.186 1.112 1.064 1.029 0.000 
0.000 1.003 0.815 0.878 0.896 0.910 0.942 1.011 1.133 1.303 1.449 1.549 1.612 1.650 1.670 1.679 1.684 1.684 1.683 1.681 1.673 1.663 1.655 1.651 1.651 1.652 1.656 1.665 1.677 1.686 1.691 1.693 1.693 1.693 1.692 1.688 1.681 1.668 1.646 1.608 1.565 1.538 1.527 1.526 1.533 1.555 1.597 1.636 1.656 1.663 1.664 1.663 1.652 1.627 1.584 1.517 1.425 1.335 1.271 1.243 1.237 1.241 1.264 1.311 1.379 1.433 1.465 1.479 1.483 1.482 1.474 1.459 1.450 1.448 1.452 1.464 1.490 1.515 1.529 1.534 1.535 1.534 1.529 1.524 1.521 1.519 1.517 1.515 1.513 1.510 1.508 1.511 1.522 1.539 1.558 1.571 1.581 1.588 1.594 1.600 1.605 1.616 1.628 1.632 1.644 1.655 1.659 1.659 1.655 1.643 1.618 1.577 1.516 1.443 1.356 1.270 1.187 1.114 1.061 1.050 0.000 
0.000 0.992 0.766 0.800 0.846 0.888 0.935 1.010 1.135 1.309 1.457 1.557 1.618 1.653 1.671 1.679 1.683 1.684 1.680 1.673 1.660 1.644 1.634 1.629 1.628 1.630 1.636 1.651 1.670 1.683 1.690 1.693 1.693 1.693 1.692 1.689 1.683 1.672 1.653 1.623 1.586 1.563 1.554 1.554 1.560 1.579 1.614 1.643 1.658 1.663 1.663 1.660 1.643 1.606 1.542 1.450 1.345 1.266 1.225 1.214 1.214 1.225 1.256 1.312 1.382 1.434 1.464 1.478 1.481 1.480 1.472 1.458 1.449 1.448 1.451 1.464 1.490 1.516 1.531 1.538 1.541 1.542 1.542 1.540 1.537 1.534 1.530 1.524 1.518 1.516 1.517 1.521 1.537 1.560 1.585 1.601 1.608 1.612 1.612 1.610 1.607 1.609 1.608 1.611 1.623 1.639 1.648 1.650 1.649 1.639 1.616 1.575 1.514 1.441 1.354 1.274 1.201 1.137 1.090 1.073 0.000 
0.000 0.998 0.774 0.786 0.838 0.888 0.944 1.026 1.157 1.334 1.476 1.570 1.626 1.656 1.670 1.676 1.678 1.676 1.668 1.658 1.641 1.623 1.612 1.608 1.604 1.605 1.613 1.633 1.660 1.678 1.687 1.691 1.692 1.692 1.692 1.689 1.683 1.673 1.658 1.637 1.611 1.593 1.587 1.586 1.590 1.602 1.625 1.647 1.658 1.661 1.660 1.652 1.627 1.579 1.503 1.400 1.305 1.242 1.216 1.208 1.210 1.226 1.265 1.330 1.399 1.446 1.472 1.484 1.487 1.485 1.477 1.461 1.452 1.450 1.453 1.463 1.485 1.511 1.527 1.535 1.540 1.543 1.546 1.546 1.545 1.542 1.536 1.526 1.519 1.517 1.518 1.523 1.540 1.565 1.595 1.614 1.622 1.623 1.622 1.615 1.604 1.597 1.595 1.597 1.607 1.627 1.641 1.646 1.646 1.638 1.617 1.577 1.519 1.445 1.363 1.294 1.238 1.194 1.156 1.095 0.000 
0.000 1.017 0.843 0.813 0.857 0.913 0.983 1.078 1.219 1.386 1.511 1.591 1.637 1.660 1.670 1.673 1.672 1.668 1.660 1.648 1.631 1.613 1.599 1.594 1.591 1.589 1.599 1.622 1.652 1.672 1.683 1.688 1.689 1.689 1.688 1.684 1.679 1.671 1.660 1.645 1.627 1.615 1.609 1.607 1.608 1.614 1.628 1.646 1.654 1.656 1.654 1.642 1.613 1.562 1.483 1.378 1.293 1.239 1.218 1.213 1.220 1.247 1.304 1.379 1.439 1.478 1.498 1.506 1.507 1.504 1.493 1.475 1.462 1.458 1.458 1.465 1.478 1.498 1.513 1.524 1.532 1.540 1.546 1.548 1.547 1.545 1.538 1.525 1.515 1.512 1.513 1.519 1.535 1.564 1.597 1.618 1.627 1.629 1.627 1.617 1.601 1.592 1.590 1.592 1.602 1.622 1.639 1.646 1.646 1.640 1.622 1.588 1.536 1.468 1.397 1.337 1.290 1.254 1.223 1.097 0.000 
0.000 1.054 0.985 0.910 0.935 0.987 1.069 1.183 1.331 1.468 1.563 1.620 1.651 1.665 1.671 1.671 1.670 1.664 1.655 1.644 1.629 1.609 1.595 1.586 1.585 1.583 1.593 1.616 1.646 1.666 1.677 1.682 1.683 1.682 1.678 1.674 1.669 1.664 1.657 1.648 1.637 1.628 1.620 1.615 1.613 1.616 1.625 1.638 1.645 1.646 1.643 1.630 1.603 1.554 1.477 1.375 1.296 1.253 1.237 1.238 1.255 1.302 1.382 1.459 1.508 1.534 1.546 1.548 1.547 1.541 1.527 1.504 1.484 1.474 1.470 1.471 1.475 1.488 1.498 1.507 1.517 1.531 1.542 1.547 1.547 1.544 1.536 1.519 1.504 1.497 1.496 1.502 1.520 1.554 1.593 1.618 1.629 1.631 1.629 1.618 1.602 1.592 1.590 1.591 1.601 1.622 1.640 1.648 1.650 1.646 1.635 1.610 1.571 1.519 1.460 1.400 1.337 1.284 1.253 1.078 0.000 
0.000 1.092 1.124 1.063 1.075 1.123 1.215 1.342 1.465 1.556 1.614 1.648 1.665 1.672 1.673 1.672 1.669 1.662 1.654 1.643 1.629 1.610 1.594 1.585 1.582 1.583 1.591 1.611 1.640 1.659 1.669 1.673 1.672 1.669 1.660 1.655 1.652 1.651 1.650 1.646 1.639 1.632 1.624 1.616 1.611 1.610 1.613 1.620 1.626 1.628 1.626 1.617 1.595 1.552 1.480 1.386 1.321 1.291 1.285 1.292 1.322 1.391 1.480 1.543 1.579 1.596 1.603 1.603 1.601 1.593 1.577 1.551 1.523 1.503 1.491 1.484 1.481 1.487 1.493 1.499 1.508 1.522 1.538 1.546 1.546 1.544 1.534 1.512 1.492 1.482 1.480 1.486 1.504 1.541 1.586 1.615 1.628 1.631 1.629 1.621 1.606 1.596 1.594 1.595 1.605 1.624 1.644 1.655 1.658 1.659 1.655 1.640 1.613 1.572 1.519 1.453 1.369 1.291 1.243 1.060 0.000 
0.000 1.119 1.200 1.177 1.207 1.276 1.376 1.479 1.559 1.614 1.649 1.668 1.676 1.679 1.679 1.676 1.669 1.662 1.654 1.644 1.632 1.615 1.597 1.586 1.581 1.582 1.588 1.606 1.633 1.651 1.658 1.660 1.658 1.649 1.637 1.630 1.627 1.628 1.631 1.635 1.636 1.632 1.624 1.612 1.597 1.588 1.585 1.586 1.591 1.598 1.604 1.601 1.589 1.557 1.497 1.423 1.379 1.363 1.362 1.375 1.413 1.482 1.552 1.599 1.625 1.638 1.642 1.643 1.642 1.636 1.625 1.606 1.578 1.549 1.525 1.507 1.497 1.493 1.495 1.499 1.507 1.520 1.537 1.546 1.547 1.545 1.535 1.511 1.488 1.477 1.476 1.481 1.499 1.537 1.584 1.613 1.626 1.630 1.631 1.627 1.617 1.608 1.605 1.607 1.616 1.635 1.655 1.666 1.672 1.675 1.672 1.661 1.639 1.605 1.554 1.484 1.387 1.288 1.219 1.041 0.000 
0.000 1.138 1.236 1.241 1.299 1.391 1.487 1.562 1.614 1.650 1.671 1.682 1.685 1.685 1.684 1.679 1.672 1.665 1.658 1.650 1.639 1.625 1.604 1.587 1.581 1.579 1.584 1.598 1.621 1.637 1.643 1.643 1.637 1.625 1.610 1.604 1.603 1.605 1.613 1.623 1.627 1.626 1.618 1.598 1.566 1.543 1.533 1.531 1.535 1.550 1.572 1.585 1.586 1.573 1.538 1.494 1.471 1.465 1.468 1.481 1.510 1.555 1.602 1.634 1.653 1.663 1.667 1.668 1.667 1.664 1.658 1.646 1.628 1.603 1.574 1.545 1.524 1.511 1.506 1.506 1.511 1.523 1.540 1.550 1.552 1.550 1.539 1.514 1.490 1.480 1.478 1.483 1.500 1.539 1.584 1.614 1.628 1.633 1.634 1.632 1.626 1.622 1.623 1.629 1.638 1.653 1.670 1.681 1.686 1.685 1.681 1.672 1.653 1.622 1.572 1.499 1.394 1.279 1.198 1.021 0.000 
0.000 1.155 1.262 1.283 1.364 1.467 1.546 1.603 1.644 1.670 1.683 1.690 1.691 1.691 1.687 1.682 1.678 1.672 1.666 1.660 1.652 1.637 1.612 1.586 1.575 1.573 1.575 1.584 1.601 1.617 1.622 1.622 1.619 1.608 1.596 1.590 1.590 1.592 1.600 1.611 1.615 1.613 1.600 1.568 1.513 1.473 1.455 1.452 1.459 1.487 1.534 1.568 1.588 1.600 1.603 1.599 1.598 1.600 1.602 1.605 1.610 1.624 1.643 1.659 1.671 1.678 1.681 1.682 1.682 1.681 1.677 1.670 1.661 1.647 1.628 1.599 1.568 1.545 1.532 1.528 1.529 1.537 1.551 1.561 1.563 1.561 1.551 1.527 1.504 1.494 1.492 1.497 1.513 1.549 1.591 1.618 1.632 1.636 1.636 1.633 1.629 1.628 1.630 1.636 1.649 1.666 1.679 1.686 1.688 1.689 1.686 1.677 1.660 1.629 1.579 1.503 1.393 1.267 1.179 1.002 0.000 
0.000 1.173 1.288 1.314 1.406 1.505 1.572 1.626 1.659 1.681 1.689 1.694 1.695 1.694 1.691 1.688 1.686 1.681 1.676 1.669 1.663 1.646 1.618 1.587 1.568 1.559 1.557 1.560 1.572 1.590 1.603 1.607 1.607 1.601 1.591 1.586 1.585 1.587 1.594 1.601 1.603 1.596 1.572 1.521 1.447 1.399 1.382 1.382 1.397 1.441 1.507 1.554 1.585 1.613 1.654 1.724 1.773 1.783 1.780 1.761 1.723 1.695 1.683 1.682 1.684 1.687 1.689 1.691 1.691 1.690 1.685 1.680 1.677 1.674 1.669 1.657 1.631 1.601 1.581 1.570 1.566 1.568 1.576 1.583 1.585 1.583 1.575 1.556 1.537 1.527 1.526 1.531 1.545 1.574 1.607 1.627 1.635 1.638 1.636 1.631 1.628 1.628 1.630 1.638 1.654 1.672 1.683 1.688 1.690 1.691 1.688 1.680 1.662 1.631 1.580 1.502 1.388 1.253 1.160 0.990 0.000 
0.000 1.193 1.313 1.339 1.429 1.524 1.590 1.639 1.667 1.685 1.690 1.693 1.695 1.696 1.696 1.695 1.692 1.687 1.682 1.676 1.668 1.649 1.619 1.581 1.552 1.538 1.533 1.535 1.545 1.568 1.590 1.600 1.602 1.600 1.591 1.585 1.585 1.586 1.592 1.595 1.593 1.581 1.545 1.476 1.395 1.350 1.336 1.338 1.362 1.419 1.495 1.545 1.579 1.610 1.664 1.817 2.032 2.071 2.054 1.994 1.886 1.786 1.732 1.706 1.696 1.694 1.695 1.697 1.698 1.696 1.687 1.681 1.680 1.685 1.693 1.699 1.699 1.682 1.660 1.642 1.630 1.622 1.619 1.619 1.618 1.617 1.613 1.601 1.589 1.582 1.581 1.586 1.595 1.614 1.631 1.638 1.639 1.638 1.630 1.624 1.621 1.622 1.625 1.636 1.655 1.673 1.684 1.690 1.691 1.691 1.689 1.680 1.662 1.630 1.578 1.497 1.375 1.236 1.141 0.986 0.000 
0.000 1.213 1.332 1.359 1.437 1.532 1.602 1.645 1.671 1.685 1.691 1.695 1.696 1.697 1.697 1.697 1.695 1.692 1.687 1.683 1.669 1.649 1.617 1.573 1.539 1.523 1.518 1.520 1.531 1.557 1.585 1.599 1.602 1.601 1.595 1.589 1.588 1.589 1.592 1.591 1.585 1.566 1.522 1.444 1.364 1.323 1.313 1.318 1.347 1.413 1.492 1.539 1.564 1.584 1.626 1.811 2.235 2.461 2.477 2.380 2.166 1.936 1.803 1.738 1.710 1.701 1.699 1.701 1.706 1.701 1.681 1.671 1.674 1.686 1.702 1.717 1.750 1.781 1.775 1.756 1.731 1.704 1.682 1.668 1.659 1.655 1.650 1.643 1.635 1.630 1.628 1.630 1.635 1.643 1.649 1.648 1.643 1.632 1.616 1.606 1.604 1.605 1.611 1.627 1.651 1.672 1.684 1.690 1.691 1.691 1.688 1.680 1.661 1.628 1.572 1.483 1.354 1.217 1.124 0.982 0.000 
0.000 1.217 1.326 1.363 1.442 1.537 1.604 1.646 1.671 1.685 1.692 1.696 1.697 1.698 1.698 1.697 1.696 1.696 1.691 1.683 1.668 1.647 1.613 1.567 1.533 1.516 1.512 1.514 1.527 1.555 1.584 1.600 1.606 1.607 1.604 1.599 1.596 1.595 1.593 1.588 1.577 1.551 1.502 1.421 1.347 1.313 1.305 1.313 1.344 1.415 1.495 1.536 1.545 1.527 1.476 1.574 2.026 2.557 2.757 2.709 2.493 2.174 1.919 1.787 1.729 1.709 1.705 1.708 1.712 1.698 1.667 1.655 1.658 1.656 1.655 1.686 1.749 1.863 1.926 1.924 1.889 1.832 1.770 1.728 1.703 1.687 1.677 1.669 1.663 1.659 1.657 1.657 1.658 1.661 1.660 1.655 1.642 1.620 1.596 1.584 1.581 1.583 1.591 1.611 1.642 1.667 1.682 1.689 1.691 1.691 1.688 1.678 1.658 1.622 1.562 1.467 1.335 1.200 1.109 0.980 0.000 
0.000 1.187 1.275 1.345 1.436 1.532 1.600 1.645 1.670 1.683 1.692 1.696 1.698 1.698 1.699 1.697 1.695 1.693 1.688 1.678 1.663 1.642 1.607 1.562 1.530 1.514 1.511 1.513 1.525 1.552 1.583 1.601 1.608 1.610 1.610 1.607 1.603 1.598 1.592 1.582 1.565 1.534 1.480 1.402 1.340 1.312 1.306 1.315 1.348 1.424 1.502 1.537 1.541 1.506 1.356 1.123 1.191 1.725 2.336 2.655 2.596 2.339 2.037 1.848 1.757 1.722 1.712 1.713 1.711 1.693 1.665 1.654 1.657 1.654 1.626 1.581 1.612 1.798 2.004 2.075 2.068 2.005 1.895 1.805 1.750 1.716 1.695 1.683 1.677 1.674 1.673 1.673 1.673 1.672 1.668 1.659 1.640 1.611 1.586 1.573 1.570 1.571 1.581 1.603 1.637 1.664 1.680 1.688 1.690 1.690 1.687 1.677 1.655 1.615 1.554 1.458 1.323 1.189 1.098 0.979 0.000 
0.000 1.133 1.196 1.287 1.406 1.514 1.589 1.634 1.663 1.682 1.691 1.696 1.698 1.698 1.696 1.696 1.695 1.691 1.685 1.672 1.655 1.633 1.599 1.557 1.527 1.514 1.510 1.512 1.523 1.549 1.581 1.600 1.607 1.610 1.610 1.608 1.604 1.597 1.587 1.571 1.547 1.511 1.455 1.387 1.339 1.317 1.314 1.325 1.365 1.445 1.516 1.544 1.546 1.509 1.359 1.048 0.771 0.693 0.977 1.521 2.070 2.273 2.094 1.897 1.794 1.745 1.724 1.718 1.713 1.699 1.680 1.672 1.678 1.689 1.677 1.630 1.581 1.575 1.762 2.000 2.135 2.111 2.015 1.890 1.797 1.740 1.706 1.688 1.680 1.680 1.683 1.686 1.686 1.682 1.674 1.660 1.638 1.608 1.583 1.570 1.567 1.569 1.578 1.601 1.636 1.663 1.679 1.686 1.689 1.689 1.686 1.673 1.651 1.613 1.551 1.456 1.320 1.181 1.088 0.978 0.000 
0.000 1.085 1.131 1.208 1.346 1.483 1.571 1.628 1.663 1.681 1.691 1.695 1.696 1.696 1.697 1.696 1.693 1.688 1.679 1.664 1.644 1.619 1.586 1.549 1.524 1.512 1.509 1.511 1.521 1.543 1.572 1.591 1.599 1.603 1.603 1.602 1.597 1.588 1.573 1.550 1.519 1.477 1.425 1.375 1.345 1.334 1.334 1.350 1.398 1.478 1.537 1.556 1.551 1.504 1.387 1.150 0.808 0.563 0.487 0.620 1.141 1.824 2.020 1.919 1.825 1.780 1.751 1.738 1.740 1.740 1.731 1.724 1.740 1.806 1.879 1.861 1.768 1.593 1.441 1.476 1.728 2.014 2.061 1.947 1.830 1.756 1.712 1.687 1.678 1.678 1.691 1.702 1.700 1.693 1.678 1.660 1.637 1.608 1.584 1.572 1.569 1.571 1.580 1.602 1.637 1.664 1.679 1.685 1.687 1.687 1.683 1.673 1.651 1.612 1.550 1.456 1.321 1.177 1.079 0.990 0.000 
0.000 1.063 1.105 1.162 1.304 1.459 1.559 1.622 1.659 1.679 1.690 1.695 1.697 1.698 1.697 1.694 1.689 1.680 1.667 1.647 1.623 1.596 1.565 1.536 1.516 1.506 1.504 1.505 1.512 1.529 1.553 1.568 1.577 1.580 1.581 1.580 1.575 1.565 1.545 1.517 1.476 1.434 1.395 1.368 1.355 1.353 1.357 1.380 1.429 1.504 1.559 1.577 1.570 1.543 1.478 1.328 1.040 0.724 0.574 0.579 0.867 1.534 1.845 1.872 1.822 1.769 1.756 1.799 1.837 1.856 1.844 1.782 1.777 1.887 2.203 2.358 2.265 1.964 1.546 1.282 1.213 1.475 1.867 1.949 1.847 1.763 1.712 1.680 1.664 1.663 1.688 1.723 1.724 1.706 1.681 1.660 1.638 1.612 1.592 1.582 1.579 1.581 1.590 1.610 1.642 1.665 1.679 1.684 1.687 1.688 1.684 1.673 1.651 1.613 1.553 1.462 1.331 1.182 1.077 1.015 0.000 
0.000 1.062 1.108 1.150 1.287 1.446 1.554 1.620 1.658 1.678 1.690 1.695 1.697 1.697 1.696 1.691 1.682 1.668 1.646 1.618 1.587 1.560 1.533 1.513 1.500 1.492 1.488 1.487 1.490 1.498 1.511 1.521 1.528 1.530 1.531 1.533 1.530 1.521 1.502 1.470 1.430 1.399 1.376 1.362 1.359 1.361 1.372 1.400 1.447 1.515 1.572 1.601 1.609 1.603 1.572 1.494 1.335 1.093 0.915 0.846 0.975 1.397 1.631 1.668 1.650 1.665 1.778 1.970 2.077 2.095 1.942 1.771 1.722 1.786 2.203 2.717 2.774 2.528 1.991 1.476 1.228 1.206 1.486 1.786 1.822 1.759 1.707 1.667 1.633 1.616 1.643 1.719 1.745 1.716 1.682 1.660 1.642 1.624 1.610 1.604 1.602 1.604 1.611 1.628 1.652 1.669 1.679 1.684 1.687 1.688 1.684 1.673 1.653 1.617 1.561 1.476 1.355 1.210 1.101 1.039 0.000 
0.000 1.069 1.120 1.155 1.283 1.443 1.553 1.619 1.657 1.679 1.688 1.694 1.696 1.696 1.694 1.688 1.675 1.654 1.625 1.589 1.553 1.525 1.501 1.483 1.471 1.462 1.455 1.448 1.441 1.436 1.436 1.438 1.440 1.442 1.446 1.454 1.460 1.457 1.444 1.422 1.395 1.374 1.361 1.357 1.357 1.364 1.381 1.411 1.456 1.517 1.576 1.614 1.631 1.633 1.623 1.588 1.513 1.388 1.275 1.223 1.246 1.381 1.486 1.522 1.560 1.672 1.934 2.354 2.558 2.447 1.923 1.646 1.510 1.402 1.643 2.374 2.847 2.766 2.409 1.890 1.498 1.336 1.375 1.584 1.696 1.713 1.688 1.652 1.607 1.546 1.501 1.554 1.683 1.712 1.679 1.660 1.650 1.642 1.638 1.636 1.636 1.637 1.642 1.651 1.664 1.673 1.680 1.684 1.685 1.685 1.682 1.673 1.655 1.625 1.575 1.500 1.395 1.270 1.164 1.062 0.000 
0.000 1.077 1.134 1.167 1.287 1.443 1.553 1.622 1.662 1.682 1.689 1.694 1.695 1.695 1.693 1.687 1.671 1.647 1.614 1.573 1.535 1.507 1.485 1.466 1.449 1.433 1.414 1.390 1.360 1.333 1.315 1.308 1.306 1.309 1.319 1.343 1.371 1.386 1.388 1.381 1.366 1.354 1.349 1.349 1.352 1.363 1.383 1.415 1.458 1.516 1.576 1.618 1.641 1.649 1.648 1.635 1.600 1.539 1.470 1.422 1.407 1.420 1.451 1.487 1.544 1.696 2.055 2.615 2.833 2.529 1.710 1.377 1.182 0.867 0.693 1.049 1.975 2.600 2.520 2.190 1.820 1.585 1.495 1.508 1.577 1.633 1.645 1.629 1.593 1.535 1.472 1.448 1.529 1.647 1.659 1.654 1.656 1.658 1.659 1.660 1.660 1.661 1.662 1.665 1.669 1.674 1.679 1.681 1.681 1.680 1.678 1.671 1.656 1.629 1.585 1.516 1.419 1.319 1.236 1.082 0.000 
0.000 1.086 1.150 1.182 1.297 1.448 1.555 1.623 1.662 1.681 1.693 1.693 1.694 1.694 1.691 1.684 1.668 1.645 1.611 1.568 1.531 1.503 1.481 1.461 1.442 1.420 1.391 1.349 1.290 1.233 1.198 1.182 1.179 1.183 1.201 1.241 1.295 1.329 1.343 1.343 1.341 1.336 1.335 1.337 1.344 1.358 1.382 1.414 1.457 1.511 1.571 1.617 1.645 1.657 1.659 1.655 1.639 1.606 1.558 1.509 1.463 1.430 1.418 1.433 1.487 1.626 1.908 2.275 2.387 2.016 1.284 0.969 0.736 0.424 0.219 0.203 0.609 1.593 2.275 2.248 1.988 1.726 1.576 1.526 1.531 1.564 1.588 1.592 1.579 1.542 1.492 1.472 1.492 1.586 1.626 1.647 1.661 1.668 1.673 1.674 1.674 1.674 1.672 1.670 1.670 1.671 1.673 1.672 1.672 1.672 1.670 1.667 1.655 1.630 1.588 1.522 1.425 1.332 1.275 1.103 0.000 
0.000 1.097 1.168 1.200 1.315 1.459 1.559 1.619 1.656 1.682 1.691 1.691 1.692 1.690 1.687 1.681 1.667 1.645 1.612 1.570 1.533 1.505 1.483 1.463 1.443 1.420 1.386 1.334 1.257 1.179 1.131 1.108 1.104 1.108 1.129 1.175 1.241 1.285 1.306 1.312 1.316 1.317 1.319 1.324 1.334 1.351 1.377 1.411 1.451 1.501 1.562 1.613 1.645 1.661 1.665 1.663 1.653 1.630 1.589 1.536 1.475 1.394 1.315 1.296 1.307 1.322 1.316 1.258 1.134 0.864 0.538 0.373 0.243 0.122 0.069 0.065 0.122 0.534 1.439 2.021 2.004 1.774 1.586 1.504 1.483 1.492 1.534 1.569 1.573 1.557 1.533 1.526 1.532 1.567 1.615 1.647 1.665 1.676 1.680 1.681 1.681 1.679 1.675 1.670 1.665 1.661 1.659 1.658 1.659 1.664 1.664 1.660 1.650 1.628 1.589 1.523 1.424 1.328 1.269 1.104 0.000 
0.000 1.112 1.190 1.222 1.337 1.475 1.567 1.622 1.657 1.679 1.680 1.680 1.682 1.683 1.681 1.676 1.665 1.647 1.618 1.579 1.545 1.519 1.498 1.477 1.457 1.431 1.392 1.335 1.249 1.160 1.103 1.077 1.070 1.073 1.093 1.139 1.206 1.251 1.275 1.287 1.294 1.299 1.305 1.314 1.329 1.348 1.373 1.404 1.442 1.491 1.554 1.609 1.644 1.662 1.668 1.668 1.661 1.637 1.593 1.539 1.476 1.364 1.151 1.029 1.044 1.108 1.114 1.011 0.742 0.364 0.152 0.083 0.055 0.043 0.048 0.060 0.078 0.171 0.661 1.507 1.838 1.743 1.538 1.408 1.363 1.377 1.486 1.572 1.589 1.589 1.586 1.588 1.589 1.597 1.623 1.653 1.672 1.681 1.683 1.684 1.683 1.679 1.674 1.666 1.655 1.646 1.641 1.639 1.639 1.642 1.645 1.644 1.639 1.622 1.585 1.519 1.416 1.311 1.242 1.086 0.000 
0.000 1.128 1.214 1.247 1.364 1.494 1.578 1.629 1.657 1.668 1.668 1.669 1.671 1.672 1.672 1.669 1.664 1.652 1.631 1.602 1.574 1.551 1.531 1.512 1.489 1.459 1.416 1.350 1.254 1.159 1.098 1.070 1.062 1.065 1.082 1.124 1.185 1.227 1.252 1.266 1.276 1.285 1.296 1.311 1.328 1.348 1.372 1.401 1.438 1.487 1.551 1.607 1.643 1.663 1.672 1.673 1.669 1.646 1.600 1.555 1.500 1.398 1.129 0.908 0.921 1.047 1.107 1.044 0.729 0.281 0.087 0.047 0.043 0.048 0.065 0.085 0.102 0.133 0.336 0.988 1.463 1.502 1.366 1.178 1.097 1.196 1.489 1.623 1.644 1.639 1.635 1.636 1.635 1.636 1.645 1.664 1.678 1.683 1.684 1.684 1.682 1.676 1.667 1.653 1.635 1.621 1.613 1.610 1.610 1.612 1.620 1.624 1.622 1.608 1.573 1.506 1.396 1.278 1.208 1.068 0.000 
0.000 1.144 1.240 1.275 1.391 1.511 1.585 1.628 1.648 1.655 1.656 1.655 1.656 1.657 1.657 1.660 1.662 1.658 1.649 1.635 1.618 1.601 1.584 1.566 1.545 1.512 1.463 1.387 1.278 1.172 1.106 1.074 1.065 1.067 1.083 1.119 1.172 1.210 1.234 1.250 1.264 1.277 1.293 1.312 1.330 1.349 1.372 1.401 1.437 1.487 1.551 1.607 1.645 1.667 1.676 1.680 1.684 1.695 1.704 1.705 1.736 1.856 1.698 1.385 1.260 1.281 1.289 1.156 0.774 0.306 0.104 0.065 0.070 0.096 0.145 0.172 0.183 0.195 0.283 0.642 1.030 1.117 1.060 0.898 0.877 1.197 1.684 1.821 1.773 1.704 1.669 1.659 1.657 1.657 1.662 1.674 1.680 1.683 1.684 1.682 1.677 1.667 1.652 1.630 1.604 1.587 1.578 1.575 1.575 1.583 1.595 1.598 1.597 1.586 1.552 1.480 1.359 1.229 1.152 1.014 0.000 
0.000 1.161 1.265 1.301 1.414 1.522 1.587 1.621 1.635 1.638 1.636 1.632 1.633 1.634 1.634 1.645 1.657 1.662 1.662 1.658 1.650 1.640 1.628 1.612 1.591 1.557 1.505 1.428 1.318 1.207 1.134 1.096 1.084 1.083 1.093 1.121 1.162 1.195 1.219 1.237 1.255 1.275 1.298 1.318 1.337 1.358 1.381 1.407 1.442 1.490 1.553 1.608 1.646 1.669 1.681 1.686 1.704 1.746 1.842 2.014 2.338 2.887 3.199 3.212 3.066 2.794 2.258 1.604 1.098 0.671 0.372 0.215 0.187 0.229 0.332 0.392 0.399 0.386 0.400 0.558 0.836 0.927 0.887 0.799 0.908 1.671 2.310 2.248 1.933 1.755 1.683 1.659 1.656 1.661 1.670 1.677 1.680 1.682 1.681 1.676 1.666 1.648 1.623 1.593 1.564 1.546 1.539 1.538 1.545 1.561 1.575 1.578 1.576 1.562 1.522 1.441 1.307 1.164 1.079 0.927 0.000 
0.000 1.180 1.289 1.324 1.430 1.526 1.582 1.608 1.616 1.615 1.608 1.602 1.601 1.605 1.612 1.633 1.654 1.666 1.670 1.671 1.669 1.663 1.654 1.639 1.616 1.580 1.525 1.446 1.340 1.238 1.167 1.126 1.109 1.105 1.109 1.124 1.153 1.180 1.204 1.225 1.246 1.273 1.305 1.332 1.354 1.376 1.399 1.424 1.456 1.501 1.561 1.612 1.646 1.667 1.682 1.692 1.723 1.794 1.948 2.260 2.728 3.244 3.703 4.091 4.299 4.152 3.435 2.460 1.887 1.569 1.222 0.827 0.607 0.582 0.675 0.761 0.774 0.742 0.685 0.699 0.832 0.897 0.849 0.805 1.064 2.053 2.598 2.404 1.977 1.769 1.689 1.661 1.657 1.661 1.672 1.677 1.678 1.677 1.673 1.661 1.640 1.611 1.576 1.542 1.516 1.502 1.499 1.503 1.519 1.543 1.558 1.561 1.558 1.540 1.495 1.406 1.260 1.102 1.017 0.839 0.000 
0.000 1.199 1.310 1.343 1.437 1.524 1.572 1.591 1.594 1.591 1.584 1.580 1.580 1.586 1.601 1.628 1.653 1.668 1.676 1.679 1.678 1.676 1.668 1.652 1.626 1.588 1.531 1.450 1.346 1.250 1.184 1.141 1.119 1.112 1.113 1.122 1.141 1.164 1.187 1.210 1.239 1.274 1.319 1.358 1.386 1.409 1.431 1.456 1.485 1.525 1.576 1.615 1.644 1.662 1.677 1.695 1.736 1.841 2.075 2.494 2.921 3.261 3.609 3.974 4.194 4.098 3.593 2.902 2.400 2.074 1.773 1.388 1.110 1.009 1.009 1.032 1.041 1.030 0.988 0.953 0.962 0.945 0.860 0.832 1.099 1.967 2.462 2.335 1.964 1.762 1.687 1.662 1.658 1.662 1.669 1.672 1.672 1.667 1.655 1.631 1.595 1.550 1.508 1.476 1.458 1.452 1.454 1.466 1.494 1.525 1.541 1.545 1.540 1.520 1.470 1.379 1.232 1.059 0.949 0.798 0.000 
0.000 1.206 1.310 1.348 1.436 1.515 1.557 1.573 1.576 1.573 1.569 1.568 1.569 1.578 1.597 1.627 1.654 1.669 1.679 1.683 1.683 1.681 1.673 1.656 1.629 1.589 1.529 1.447 1.342 1.252 1.188 1.145 1.119 1.111 1.109 1.113 1.123 1.140 1.161 1.187 1.222 1.267 1.325 1.381 1.422 1.452 1.476 1.499 1.524 1.553 1.588 1.616 1.638 1.651 1.665 1.685 1.733 1.866 2.171 2.634 2.884 2.928 2.798 2.632 2.491 2.446 2.541 2.577 2.341 2.069 1.784 1.463 1.242 1.162 1.148 1.140 1.147 1.165 1.184 1.166 1.139 1.050 0.930 0.896 1.061 1.577 1.995 2.059 1.891 1.736 1.674 1.657 1.654 1.657 1.661 1.662 1.660 1.650 1.628 1.590 1.535 1.473 1.427 1.401 1.391 1.392 1.400 1.425 1.469 1.507 1.524 1.528 1.523 1.499 1.445 1.352 1.212 1.047 0.912 0.804 0.000 
0.000 1.183 1.269 1.336 1.425 1.498 1.538 1.556 1.562 1.563 1.563 1.563 1.566 1.577 1.597 1.630 1.657 1.670 1.681 1.685 1.685 1.683 1.675 1.658 1.629 1.585 1.520 1.431 1.330 1.248 1.187 1.144 1.115 1.099 1.090 1.088 1.091 1.101 1.119 1.147 1.188 1.246 1.319 1.389 1.442 1.480 1.507 1.529 1.549 1.569 1.592 1.612 1.625 1.632 1.639 1.654 1.705 1.843 2.152 2.425 2.375 1.935 1.142 0.649 0.485 0.490 0.673 1.039 1.260 1.295 1.235 1.159 1.133 1.156 1.159 1.151 1.155 1.183 1.297 1.356 1.308 1.166 1.031 1.003 1.100 1.391 1.752 1.902 1.853 1.730 1.667 1.650 1.649 1.651 1.653 1.652 1.647 1.632 1.605 1.560 1.495 1.421 1.370 1.344 1.336 1.337 1.351 1.387 1.445 1.488 1.507 1.511 1.504 1.478 1.419 1.323 1.188 1.054 0.946 0.811 0.000 
0.000 1.133 1.195 1.284 1.391 1.469 1.515 1.540 1.553 1.559 1.561 1.564 1.568 1.580 1.603 1.636 1.661 1.673 1.680 1.685 1.685 1.683 1.675 1.658 1.627 1.579 1.509 1.415 1.318 1.243 1.186 1.142 1.107 1.076 1.052 1.040 1.037 1.040 1.054 1.082 1.130 1.202 1.297 1.384 1.448 1.493 1.523 1.543 1.558 1.573 1.588 1.597 1.601 1.597 1.591 1.591 1.613 1.689 1.849 1.929 1.875 1.392 0.473 0.107 0.069 0.072 0.099 0.190 0.293 0.376 0.438 0.506 0.658 0.920 1.059 1.074 1.059 1.079 1.306 1.507 1.462 1.260 1.076 1.043 1.120 1.378 1.753 1.926 1.897 1.761 1.679 1.656 1.652 1.653 1.653 1.649 1.640 1.623 1.594 1.547 1.477 1.396 1.338 1.309 1.301 1.302 1.318 1.359 1.425 1.472 1.493 1.496 1.489 1.460 1.401 1.300 1.164 1.059 0.999 0.839 0.000 
0.000 1.085 1.128 1.204 1.329 1.432 1.494 1.530 1.548 1.558 1.563 1.569 1.577 1.591 1.616 1.646 1.666 1.675 1.681 1.685 1.685 1.683 1.675 1.658 1.627 1.578 1.507 1.410 1.316 1.243 1.188 1.143 1.103 1.061 1.018 0.979 0.960 0.956 0.963 0.988 1.040 1.126 1.248 1.363 1.444 1.496 1.528 1.547 1.559 1.570 1.575 1.572 1.567 1.559 1.550 1.540 1.530 1.544 1.622 1.717 1.724 1.342 0.429 0.080 0.046 0.048 0.058 0.081 0.122 0.176 0.237 0.313 0.461 0.700 0.838 0.860 0.816 0.827 1.172 1.581 1.578 1.335 1.079 1.016 1.082 1.358 1.893 2.183 2.124 1.883 1.728 1.705 1.689 1.675 1.663 1.652 1.639 1.620 1.590 1.543 1.474 1.389 1.327 1.295 1.284 1.285 1.300 1.341 1.410 1.461 1.482 1.487 1.477 1.451 1.393 1.292 1.151 1.045 0.999 0.890 0.000 
0.000 1.060 1.097 1.153 1.285 1.407 1.482 1.525 1.548 1.562 1.572 1.581 1.594 1.613 1.638 1.659 1.671 1.678 1.682 1.685 1.685 1.683 1.675 1.658 1.628 1.580 1.511 1.412 1.321 1.250 1.195 1.149 1.104 1.058 1.002 0.939 0.895 0.877 0.876 0.891 0.937 1.027 1.170 1.322 1.427 1.492 1.527 1.546 1.556 1.559 1.555 1.547 1.542 1.541 1.539 1.529 1.512 1.510 1.553 1.640 1.661 1.405 0.559 0.124 0.065 0.062 0.069 0.087 0.118 0.173 0.251 0.358 0.513 0.681 0.759 0.760 0.691 0.684 1.043 1.583 1.635 1.377 1.030 0.872 0.895 1.169 1.886 2.463 2.459 2.089 1.814 1.799 1.798 1.755 1.700 1.667 1.644 1.620 1.590 1.545 1.478 1.392 1.327 1.292 1.280 1.280 1.293 1.332 1.400 1.453 1.476 1.481 1.472 1.448 1.391 1.292 1.153 1.026 0.954 0.940 0.000 
0.000 1.058 1.096 1.137 1.265 1.396 1.477 1.525 1.553 1.574 1.590 1.602 1.621 1.640 1.657 1.668 1.675 1.679 1.681 1.684 1.685 1.682 1.675 1.660 1.632 1.589 1.524 1.431 1.342 1.271 1.214 1.164 1.114 1.062 0.999 0.917 0.854 0.823 0.816 0.825 0.865 0.954 1.104 1.279 1.404 1.481 1.522 1.541 1.547 1.546 1.539 1.532 1.532 1.540 1.549 1.545 1.527 1.494 1.504 1.565 1.603 1.435 0.736 0.240 0.135 0.122 0.126 0.143 0.182 0.260 0.385 0.530 0.664 0.754 0.789 0.774 0.698 0.665 0.938 1.514 1.616 1.388 0.989 0.670 0.543 0.658 1.316 2.280 2.492 2.163 1.832 1.836 1.975 1.936 1.799 1.707 1.661 1.628 1.596 1.554 1.493 1.410 1.337 1.296 1.281 1.281 1.293 1.329 1.394 1.449 1.474 1.479 1.472 1.448 1.395 1.301 1.170 1.040 0.946 0.994 0.000 
0.000 1.064 1.108 1.140 1.260 1.393 1.478 1.531 1.568 1.595 1.615 1.629 1.647 1.660 1.669 1.674 1.677 1.679 1.680 1.682 1.683 1.681 1.676 1.664 1.642 1.606 1.551 1.473 1.385 1.312 1.250 1.193 1.137 1.076 1.003 0.909 0.831 0.790 0.780 0.786 0.823 0.911 1.065 1.252 1.386 1.468 1.511 1.529 1.533 1.531 1.527 1.526 1.533 1.560 1.610 1.631 1.602 1.458 1.419 1.459 1.503 1.377 0.826 0.375 0.270 0.261 0.263 0.272 0.324 0.461 0.659 0.795 0.860 0.881 0.884 0.865 0.805 0.755 0.856 1.275 1.444 1.328 0.997 0.608 0.375 0.300 0.491 1.359 2.065 2.018 1.731 1.748 2.110 2.163 1.960 1.781 1.698 1.652 1.614 1.575 1.524 1.449 1.366 1.313 1.292 1.289 1.298 1.330 1.391 1.447 1.475 1.482 1.479 1.457 1.408 1.325 1.212 1.104 1.033 1.049 0.000 
0.000 1.072 1.121 1.151 1.262 1.396 1.487 1.547 1.590 1.620 1.641 1.654 1.666 1.673 1.677 1.678 1.677 1.677 1.677 1.677 1.679 1.680 1.678 1.671 1.658 1.634 1.594 1.533 1.454 1.376 1.307 1.241 1.175 1.104 1.019 0.910 0.820 0.774 0.761 0.767 0.803 0.892 1.049 1.238 1.372 1.453 1.495 1.511 1.515 1.515 1.515 1.522 1.548 1.623 1.765 1.847 1.701 1.327 1.228 1.260 1.308 1.241 0.879 0.544 0.484 0.500 0.505 0.508 0.561 0.733 0.947 1.050 1.073 1.059 1.052 1.040 1.001 0.962 0.963 1.107 1.223 1.194 0.986 0.623 0.353 0.221 0.190 0.477 1.176 1.484 1.391 1.445 1.966 2.230 2.046 1.833 1.732 1.680 1.643 1.608 1.565 1.502 1.414 1.346 1.314 1.307 1.312 1.336 1.390 1.446 1.475 1.486 1.485 1.471 1.433 1.366 1.283 1.222 1.172 1.105 0.000 
0.000 1.080 1.135 1.165 1.273 1.410 1.508 1.572 1.615 1.642 1.660 1.673 1.679 1.682 1.682 1.679 1.676 1.674 1.674 1.674 1.677 1.680 1.680 1.678 1.671 1.656 1.632 1.583 1.521 1.452 1.378 1.303 1.226 1.142 1.039 0.912 0.818 0.769 0.755 0.761 0.796 0.886 1.044 1.229 1.358 1.435 1.474 1.490 1.495 1.497 1.502 1.520 1.575 1.719 1.963 2.029 1.531 0.935 0.859 0.989 1.140 1.166 1.010 0.846 0.830 0.892 0.967 0.986 0.952 1.019 1.145 1.221 1.241 1.225 1.181 1.136 1.107 1.094 1.095 1.120 1.142 1.097 0.934 0.631 0.354 0.201 0.143 0.179 0.559 1.057 1.176 1.183 1.538 2.050 2.039 1.850 1.745 1.696 1.663 1.631 1.595 1.543 1.467 1.391 1.349 1.335 1.336 1.351 1.392 1.446 1.475 1.487 1.488 1.480 1.454 1.402 1.334 1.292 1.272 1.122 0.000 
0.000 1.090 1.151 1.182 1.292 1.431 1.530 1.593 1.633 1.657 1.672 1.682 1.689 1.687 1.683 1.679 1.676 1.673 1.672 1.673 1.676 1.681 1.683 1.683 1.680 1.670 1.656 1.618 1.573 1.516 1.449 1.371 1.281 1.179 1.055 0.917 0.819 0.769 0.755 0.760 0.796 0.886 1.042 1.220 1.341 1.412 1.447 1.463 1.470 1.476 1.486 1.513 1.583 1.758 2.049 2.087 1.325 0.645 0.622 0.823 1.071 1.189 1.217 1.228 1.304 1.494 1.653 1.629 1.385 1.266 1.291 1.325 1.339 1.326 1.257 1.171 1.135 1.133 1.137 1.136 1.113 1.030 0.861 0.600 0.352 0.202 0.136 0.139 0.387 1.009 1.236 1.217 1.292 1.688 1.886 1.826 1.744 1.701 1.673 1.645 1.614 1.570 1.506 1.434 1.389 1.370 1.367 1.374 1.400 1.444 1.474 1.487 1.488 1.483 1.463 1.422 1.359 1.311 1.293 1.100 0.000 
0.000 1.102 1.170 1.200 1.305 1.440 1.540 1.605 1.644 1.667 1.680 1.687 1.689 1.684 1.682 1.680 1.675 1.673 1.673 1.674 1.677 1.682 1.686 1.687 1.686 1.680 1.670 1.646 1.613 1.567 1.505 1.428 1.335 1.220 1.077 0.930 0.826 0.775 0.760 0.766 0.801 0.889 1.043 1.206 1.314 1.377 1.409 1.426 1.436 1.446 1.461 1.495 1.574 1.756 2.024 2.058 1.313 0.616 0.579 0.766 1.040 1.217 1.340 1.457 1.601 1.791 1.904 1.883 1.634 1.451 1.421 1.420 1.416 1.400 1.338 1.197 1.126 1.132 1.147 1.139 1.087 0.959 0.761 0.533 0.340 0.210 0.151 0.158 0.525 1.306 1.570 1.473 1.387 1.509 1.704 1.754 1.727 1.700 1.677 1.653 1.624 1.585 1.532 1.470 1.424 1.399 1.392 1.394 1.407 1.438 1.467 1.481 1.483 1.480 1.463 1.427 1.369 1.309 1.270 1.079 0.000 
0.000 1.114 1.189 1.217 1.308 1.440 1.542 1.608 1.649 1.672 1.684 1.689 1.688 1.685 1.684 1.682 1.678 1.676 1.676 1.676 1.679 1.684 1.689 1.691 1.691 1.688 1.680 1.664 1.640 1.603 1.551 1.480 1.384 1.261 1.104 0.950 0.845 0.792 0.777 0.783 0.817 0.902 1.045 1.184 1.272 1.324 1.353 1.371 1.385 1.400 1.422 1.463 1.546 1.707 1.875 1.895 1.391 0.736 0.627 0.758 1.013 1.228 1.384 1.518 1.654 1.792 1.862 1.847 1.717 1.592 1.541 1.514 1.502 1.492 1.455 1.293 1.140 1.132 1.161 1.140 1.040 0.849 0.607 0.418 0.300 0.228 0.202 0.429 1.387 2.159 2.145 1.771 1.574 1.550 1.637 1.707 1.707 1.697 1.679 1.656 1.627 1.593 1.550 1.498 1.453 1.423 1.409 1.405 1.410 1.427 1.450 1.465 1.470 1.467 1.454 1.424 1.370 1.297 1.241 1.048 0.000 
0.000 1.090 1.172 1.215 1.298 1.431 1.539 1.608 1.649 1.673 1.685 1.690 1.691 1.689 1.688 1.685 1.681 1.683 1.682 1.683 1.686 1.690 1.689 1.694 1.696 1.694 1.687 1.674 1.656 1.629 1.585 1.519 1.428 1.305 1.143 0.985 0.880 0.829 0.814 0.819 0.850 0.928 1.057 1.168 1.234 1.271 1.292 1.310 1.326 1.347 1.376 1.424 1.500 1.618 1.726 1.758 1.560 1.068 0.792 0.804 0.986 1.222 1.400 1.531 1.638 1.708 1.740 1.753 1.732 1.681 1.635 1.611 1.617 1.658 1.708 1.646 1.489 1.376 1.289 1.145 0.943 0.677 0.443 0.322 0.271 0.265 0.413 1.353 2.745 3.010 2.501 1.900 1.669 1.620 1.647 1.694 1.701 1.695 1.679 1.655 1.627 1.595 1.560 1.518 1.476 1.443 1.420 1.409 1.407 1.413 1.428 1.440 1.444 1.444 1.433 1.410 1.363 1.284 1.218 1.008 0.000 
0.000 0.909 0.993 1.144 1.254 1.404 1.524 1.601 1.647 1.672 1.686 1.692 1.694 1.695 1.693 1.690 1.687 1.689 1.689 1.690 1.693 1.694 1.692 1.696 1.700 1.698 1.690 1.680 1.664 1.642 1.603 1.546 1.466 1.353 1.197 1.043 0.943 0.893 0.879 0.882 0.908 0.974 1.079 1.167 1.216 1.241 1.255 1.269 1.286 1.310 1.348 1.403 1.473 1.558 1.641 1.698 1.708 1.538 1.201 0.950 0.999 1.207 1.402 1.528 1.604 1.643 1.663 1.678 1.691 1.693 1.694 1.721 1.790 1.948 2.161 2.274 2.252 2.078 1.687 1.194 0.839 0.531 0.338 0.260 0.246 0.281 0.617 2.086 3.365 3.300 2.613 1.961 1.708 1.654 1.691 1.713 1.706 1.693 1.675 1.651 1.624 1.596 1.565 1.530 1.493 1.457 1.429 1.410 1.402 1.400 1.404 1.410 1.414 1.415 1.405 1.388 1.346 1.269 1.197 0.968 0.000 
0.000 0.528 0.608 0.905 1.131 1.339 1.488 1.583 1.639 1.669 1.685 1.692 1.695 1.696 1.696 1.695 1.693 1.693 1.693 1.693 1.696 1.696 1.695 1.698 1.701 1.700 1.692 1.682 1.667 1.643 1.609 1.562 1.497 1.403 1.271 1.135 1.045 0.998 0.982 0.983 1.000 1.045 1.119 1.179 1.214 1.230 1.239 1.249 1.264 1.292 1.336 1.397 1.463 1.526 1.589 1.651 1.717 1.766 1.668 1.296 1.102 1.206 1.391 1.516 1.582 1.613 1.629 1.643 1.659 1.685 1.733 1.827 2.041 2.439 2.824 2.980 2.955 2.670 1.980 1.224 0.771 0.448 0.259 0.194 0.195 0.250 0.645 2.249 3.419 3.322 2.688 2.017 1.737 1.690 1.753 1.746 1.716 1.691 1.670 1.645 1.621 1.595 1.567 1.537 1.504 1.468 1.435 1.411 1.399 1.394 1.394 1.396 1.398 1.397 1.390 1.371 1.327 1.250 1.178 0.956 0.000 
0.000 0.182 0.257 0.534 0.904 1.222 1.427 1.552 1.624 1.663 1.682 1.691 1.695 1.697 1.698 1.698 1.697 1.697 1.696 1.694 1.693 1.693 1.696 1.699 1.701 1.699 1.693 1.684 1.668 1.643 1.611 1.570 1.516 1.447 1.357 1.261 1.190 1.150 1.134 1.130 1.135 1.153 1.188 1.212 1.224 1.230 1.235 1.243 1.258 1.287 1.334 1.399 1.461 1.511 1.558 1.611 1.686 1.767 1.790 1.588 1.307 1.284 1.381 1.497 1.565 1.602 1.624 1.637 1.655 1.684 1.741 1.866 2.181 2.779 3.264 3.387 3.292 2.848 1.982 1.183 0.706 0.391 0.201 0.129 0.119 0.164 0.560 2.159 3.357 3.334 2.830 2.123 1.807 1.760 1.789 1.753 1.717 1.690 1.668 1.644 1.622 1.596 1.569 1.541 1.511 1.476 1.440 1.413 1.398 1.392 1.391 1.392 1.392 1.389 1.383 1.360 1.312 1.229 1.157 0.973 0.000 
0.000 0.040 0.112 0.303 0.734 1.131 1.379 1.528 1.612 1.657 1.680 1.690 1.695 1.697 1.699 1.699 1.699 1.699 1.697 1.694 1.693 1.693 1.696 1.699 1.700 1.696 1.690 1.681 1.666 1.643 1.611 1.571 1.525 1.479 1.426 1.377 1.340 1.316 1.303 1.300 1.298 1.294 1.288 1.273 1.251 1.238 1.237 1.243 1.257 1.286 1.338 1.408 1.466 1.506 1.539 1.574 1.625 1.694 1.731 1.682 1.506 1.427 1.427 1.487 1.560 1.605 1.631 1.654 1.676 1.699 1.733 1.810 2.049 2.594 3.158 3.310 3.144 2.507 1.636 0.998 0.601 0.332 0.164 0.101 0.091 0.105 0.359 1.739 3.275 3.464 3.170 2.462 1.991 1.843 1.791 1.744 1.713 1.690 1.667 1.645 1.622 1.597 1.571 1.545 1.516 1.483 1.446 1.417 1.401 1.394 1.392 1.392 1.392 1.388 1.379 1.350 1.295 1.208 1.136 0.989 0.000 
0.000 0.049 0.115 0.241 0.669 1.094 1.360 1.518 1.607 1.655 1.679 1.690 1.695 1.697 1.699 1.700 1.700 1.700 1.699 1.698 1.696 1.695 1.695 1.700 1.698 1.693 1.685 1.676 1.663 1.640 1.608 1.566 1.527 1.497 1.471 1.452 1.439 1.433 1.427 1.426 1.421 1.410 1.385 1.342 1.290 1.260 1.249 1.250 1.262 1.294 1.352 1.426 1.477 1.510 1.531 1.549 1.570 1.604 1.637 1.651 1.617 1.548 1.506 1.505 1.562 1.615 1.657 1.707 1.749 1.756 1.692 1.431 1.200 1.275 1.617 1.824 1.685 1.153 0.688 0.496 0.373 0.244 0.138 0.100 0.093 0.101 0.203 1.123 3.106 3.917 3.846 3.180 2.337 1.948 1.795 1.733 1.705 1.687 1.669 1.649 1.626 1.602 1.576 1.550 1.522 1.490 1.454 1.426 1.409 1.402 1.399 1.398 1.396 1.391 1.378 1.344 1.281 1.188 1.115 1.000 0.000 
0.000 0.222 0.279 0.289 0.666 1.088 1.357 1.517 1.607 1.655 1.679 1.690 1.695 1.697 1.699 1.699 1.700 1.700 1.700 1.700 1.700 1.696 1.696 1.700 1.697 1.691 1.682 1.672 1.658 1.632 1.594 1.554 1.523 1.506 1.496 1.492 1.495 1.502 1.505 1.504 1.499 1.484 1.450 1.393 1.326 1.286 1.269 1.269 1.279 1.314 1.380 1.451 1.496 1.519 1.530 1.535 1.539 1.550 1.573 1.603 1.616 1.585 1.561 1.560 1.598 1.657 1.721 1.822 1.922 1.926 1.604 0.843 0.381 0.263 0.290 0.387 0.398 0.297 0.225 0.221 0.218 0.177 0.127 0.114 0.116 0.121 0.150 0.623 2.644 4.362 4.548 4.060 2.912 2.137 1.837 1.736 1.702 1.685 1.671 1.656 1.637 1.612 1.586 1.559 1.530 1.498 1.467 1.443 1.429 1.422 1.419 1.416 1.413 1.404 1.383 1.340 1.265 1.169 1.099 1.005 0.000 
0.000 0.573 0.618 0.497 0.743 1.103 1.364 1.520 1.609 1.656 1.680 1.690 1.695 1.697 1.698 1.699 1.700 1.700 1.700 1.701 1.701 1.697 1.697 1.700 1.697 1.687 1.677 1.672 1.650 1.615 1.571 1.537 1.518 1.509 1.506 1.509 1.521 1.538 1.546 1.547 1.542 1.526 1.491 1.431 1.360 1.314 1.299 1.299 1.311 1.350 1.421 1.485 1.520 1.534 1.536 1.530 1.519 1.517 1.525 1.545 1.567 1.577 1.592 1.635 1.700 1.758 1.833 1.968 2.122 2.096 1.445 0.458 0.134 0.083 0.084 0.124 0.173 0.188 0.187 0.192 0.189 0.153 0.128 0.124 0.125 0.127 0.132 0.309 1.858 4.252 4.790 4.591 3.575 2.446 1.937 1.758 1.703 1.685 1.674 1.664 1.650 1.629 1.603 1.573 1.541 1.511 1.488 1.472 1.462 1.457 1.454 1.450 1.442 1.426 1.394 1.337 1.246 1.150 1.087 1.010 0.000 
0.000 0.889 0.924 0.820 0.929 1.163 1.389 1.530 1.613 1.659 1.682 1.691 1.694 1.696 1.697 1.699 1.700 1.700 1.701 1.701 1.700 1.699 1.697 1.693 1.688 1.682 1.678 1.670 1.640 1.598 1.554 1.526 1.514 1.508 1.508 1.513 1.529 1.552 1.564 1.567 1.564 1.550 1.517 1.460 1.392 1.351 1.338 1.340 1.356 1.402 1.475 1.526 1.549 1.553 1.549 1.534 1.508 1.491 1.488 1.496 1.515 1.547 1.596 1.681 1.796 1.870 1.918 2.013 2.179 2.118 1.274 0.311 0.094 0.070 0.074 0.108 0.171 0.211 0.228 0.232 0.203 0.146 0.120 0.112 0.109 0.106 0.102 0.122 0.891 3.228 4.624 4.740 4.165 2.939 2.119 1.810 1.714 1.687 1.677 1.669 1.660 1.644 1.622 1.590 1.556 1.529 1.512 1.501 1.496 1.493 1.494 1.489 1.478 1.455 1.412 1.341 1.231 1.127 1.072 1.010 0.000 
0.000 1.025 1.059 1.021 1.090 1.254 1.435 1.552 1.624 1.665 1.686 1.691 1.693 1.697 1.698 1.699 1.700 1.699 1.702 1.701 1.700 1.699 1.697 1.695 1.691 1.687 1.684 1.664 1.632 1.590 1.547 1.521 1.508 1.505 1.506 1.513 1.530 1.554 1.570 1.575 1.574 1.564 1.537 1.487 1.429 1.398 1.390 1.393 1.416 1.469 1.532 1.566 1.578 1.578 1.569 1.545 1.506 1.469 1.452 1.450 1.463 1.503 1.574 1.671 1.801 1.887 1.922 1.983 2.127 2.026 1.168 0.304 0.107 0.085 0.097 0.147 0.241 0.315 0.339 0.323 0.242 0.139 0.094 0.076 0.069 0.062 0.055 0.046 0.231 1.528 3.557 4.563 4.517 3.614 2.439 1.914 1.741 1.693 1.680 1.673 1.666 1.654 1.634 1.604 1.568 1.541 1.526 1.519 1.516 1.516 1.518 1.515 1.504 1.480 1.432 1.351 1.228 1.103 1.038 1.006 0.000 
0.000 1.057 1.094 1.102 1.179 1.331 1.482 1.578 1.636 1.669 1.686 1.692 1.694 1.697 1.701 1.701 1.699 1.700 1.701 1.701 1.700 1.699 1.698 1.696 1.694 1.689 1.680 1.657 1.630 1.588 1.546 1.519 1.506 1.503 1.504 1.510 1.526 1.551 1.570 1.579 1.580 1.575 1.556 1.517 1.475 1.457 1.454 1.461 1.487 1.536 1.579 1.599 1.604 1.602 1.590 1.562 1.517 1.459 1.410 1.390 1.391 1.413 1.449 1.498 1.546 1.562 1.594 1.724 1.856 1.767 1.151 0.445 0.199 0.143 0.150 0.198 0.294 0.381 0.409 0.395 0.301 0.152 0.084 0.056 0.043 0.035 0.031 0.030 0.043 0.376 1.782 3.703 4.508 4.184 2.991 2.105 1.798 1.708 1.684 1.676 1.669 1.659 1.641 1.613 1.574 1.547 1.532 1.526 1.526 1.528 1.531 1.531 1.522 1.499 1.452 1.367 1.237 1.099 1.011 1.002 0.000 
0.000 1.067 1.109 1.133 1.230 1.384 1.514 1.596 1.645 1.671 1.683 1.690 1.695 1.697 1.698 1.698 1.698 1.700 1.700 1.700 1.700 1.699 1.698 1.697 1.696 1.690 1.679 1.655 1.630 1.587 1.545 1.519 1.506 1.503 1.503 1.508 1.521 1.543 1.566 1.582 1.588 1.587 1.578 1.555 1.532 1.524 1.524 1.533 1.556 1.590 1.614 1.624 1.625 1.620 1.606 1.581 1.548 1.475 1.369 1.292 1.249 1.212 1.179 1.143 1.066 0.995 1.025 1.221 1.381 1.378 1.173 0.791 0.475 0.298 0.247 0.257 0.307 0.387 0.430 0.425 0.353 0.194 0.092 0.051 0.034 0.026 0.025 0.027 0.038 0.090 0.515 2.057 3.876 4.291 3.539 2.410 1.901 1.739 1.694 1.680 1.671 1.662 1.646 1.618 1.578 1.549 1.533 1.528 1.528 1.533 1.540 1.541 1.536 1.517 1.473 1.392 1.262 1.120 1.032 1.011 0.000 
0.000 1.075 1.122 1.152 1.263 1.420 1.537 1.609 1.651 1.674 1.687 1.693 1.697 1.700 1.701 1.699 1.698 1.699 1.700 1.701 1.700 1.699 1.698 1.698 1.697 1.691 1.678 1.657 1.630 1.589 1.548 1.522 1.510 1.506 1.506 1.510 1.521 1.539 1.561 1.582 1.596 1.603 1.603 1.597 1.589 1.583 1.580 1.590 1.608 1.629 1.640 1.643 1.642 1.634 1.616 1.594 1.579 1.511 1.358 1.208 1.112 1.024 0.922 0.786 0.679 0.638 0.682 0.864 1.048 1.110 1.080 0.962 0.751 0.509 0.384 0.347 0.344 0.388 0.437 0.437 0.373 0.218 0.095 0.047 0.030 0.025 0.026 0.035 0.056 0.087 0.168 0.756 2.596 3.950 3.819 2.805 2.069 1.799 1.713 1.687 1.675 1.664 1.648 1.621 1.581 1.549 1.533 1.528 1.528 1.534 1.546 1.550 1.548 1.535 1.498 1.427 1.312 1.174 1.081 1.033 0.000 
0.000 1.083 1.136 1.169 1.286 1.440 1.550 1.617 1.656 1.678 1.690 1.697 1.700 1.700 1.699 1.699 1.699 1.698 1.702 1.701 1.700 1.699 1.698 1.698 1.697 1.691 1.679 1.660 1.633 1.594 1.557 1.533 1.521 1.516 1.515 1.517 1.525 1.539 1.558 1.580 1.602 1.617 1.625 1.627 1.625 1.624 1.624 1.633 1.645 1.655 1.659 1.659 1.655 1.644 1.622 1.597 1.580 1.538 1.391 1.192 1.051 0.916 0.752 0.537 0.404 0.372 0.411 0.553 0.741 0.866 0.924 0.913 0.825 0.601 0.433 0.378 0.371 0.398 0.437 0.436 0.373 0.218 0.090 0.042 0.029 0.028 0.036 0.057 0.080 0.094 0.107 0.260 1.388 3.395 3.822 3.197 2.320 1.903 1.752 1.701 1.681 1.667 1.650 1.624 1.584 1.550 1.533 1.528 1.528 1.535 1.551 1.560 1.561 1.554 1.529 1.477 1.386 1.259 1.145 1.055 0.000 
0.000 1.093 1.151 1.185 1.300 1.450 1.556 1.622 1.659 1.680 1.691 1.697 1.699 1.700 1.700 1.700 1.699 1.698 1.701 1.701 1.700 1.699 1.699 1.697 1.694 1.690 1.681 1.665 1.641 1.607 1.576 1.556 1.544 1.538 1.535 1.535 1.538 1.545 1.559 1.579 1.602 1.623 1.638 1.646 1.650 1.653 1.656 1.662 1.668 1.673 1.674 1.672 1.666 1.652 1.628 1.598 1.577 1.559 1.455 1.238 1.047 0.870 0.653 0.390 0.239 0.205 0.221 0.300 0.433 0.570 0.680 0.760 0.768 0.621 0.420 0.350 0.346 0.373 0.402 0.397 0.335 0.196 0.083 0.040 0.032 0.038 0.057 0.079 0.090 0.087 0.084 0.118 0.692 2.756 3.721 3.380 2.522 2.009 1.800 1.722 1.692 1.672 1.653 1.627 1.587 1.552 1.534 1.529 1.529 1.537 1.557 1.571 1.575 1.572 1.557 1.518 1.447 1.337 1.217 1.095 0.000 
0.000 1.094 1.156 1.194 1.306 1.455 1.560 1.624 1.661 1.681 1.691 1.696 1.699 1.699 1.699 1.699 1.699 1.699 1.700 1.700 1.700 1.699 1.698 1.697 1.694 1.690 1.684 1.674 1.655 1.630 1.608 1.592 1.581 1.573 1.567 1.559 1.553 1.555 1.562 1.577 1.599 1.624 1.643 1.656 1.665 1.670 1.675 1.679 1.683 1.684 1.684 1.681 1.674 1.659 1.632 1.599 1.581 1.579 1.520 1.378 1.178 0.931 0.603 0.293 0.145 0.112 0.116 0.146 0.206 0.289 0.398 0.562 0.649 0.588 0.374 0.257 0.241 0.261 0.280 0.270 0.225 0.139 0.069 0.043 0.042 0.064 0.093 0.105 0.099 0.082 0.077 0.094 0.421 2.192 3.541 3.358 2.602 2.054 1.824 1.735 1.699 1.678 1.658 1.631 1.593 1.558 1.541 1.535 1.537 1.545 1.566 1.584 1.590 1.589 1.577 1.543 1.480 1.387 1.282 1.153 0.000 
0.000 1.061 1.116 1.181 1.307 1.457 1.561 1.626 1.662 1.681 1.691 1.696 1.698 1.699 1.699 1.698 1.698 1.698 1.699 1.699 1.699 1.699 1.698 1.697 1.695 1.693 1.689 1.682 1.672 1.656 1.642 1.631 1.620 1.611 1.597 1.579 1.562 1.561 1.564 1.574 1.593 1.619 1.643 1.659 1.671 1.680 1.685 1.689 1.691 1.691 1.691 1.688 1.681 1.666 1.637 1.607 1.598 1.616 1.659 1.711 1.608 1.274 0.687 0.246 0.107 0.076 0.073 0.080 0.100 0.145 0.250 0.452 0.552 0.510 0.308 0.162 0.131 0.131 0.137 0.136 0.122 0.088 0.058 0.049 0.061 0.115 0.163 0.167 0.131 0.087 0.078 0.097 0.340 1.768 3.132 3.132 2.579 2.055 1.828 1.736 1.699 1.680 1.662 1.639 1.604 1.572 1.556 1.552 1.553 1.562 1.582 1.600 1.607 1.606 1.592 1.555 1.489 1.408 1.336 1.211 0.000 
0.000 1.017 1.063 1.137 1.300 1.457 1.562 1.626 1.662 1.681 1.691 1.696 1.698 1.699 1.699 1.699 1.698 1.698 1.698 1.698 1.697 1.697 1.697 1.697 1.696 1.694 1.691 1.687 1.681 1.674 1.663 1.653 1.645 1.633 1.614 1.590 1.565 1.561 1.561 1.567 1.581 1.606 1.636 1.656 1.671 1.682 1.690 1.694 1.696 1.696 1.695 1.693 1.688 1.674 1.647 1.627 1.626 1.652 1.749 1.988 2.257 2.090 1.283 0.383 0.107 0.077 0.070 0.067 0.075 0.109 0.221 0.422 0.492 0.431 0.229 0.107 0.073 0.067 0.069 0.075 0.076 0.066 0.056 0.062 0.112 0.224 0.296 0.303 0.215 0.114 0.093 0.125 0.400 1.389 2.319 2.510 2.335 2.006 1.818 1.739 1.696 1.679 1.667 1.649 1.621 1.596 1.584 1.580 1.582 1.590 1.607 1.621 1.624 1.620 1.601 1.558 1.485 1.408 1.365 1.215 0.000 
0.000 1.048 1.106 1.134 1.295 1.457 1.562 1.627 1.663 1.681 1.691 1.695 1.697 1.698 1.699 1.699 1.699 1.698 1.696 1.695 1.695 1.695 1.695 1.695 1.695 1.694 1.691 1.688 1.684 1.679 1.672 1.666 1.659 1.646 1.623 1.591 1.567 1.556 1.553 1.554 1.565 1.588 1.620 1.649 1.670 1.683 1.691 1.697 1.698 1.698 1.697 1.696 1.692 1.682 1.664 1.652 1.653 1.677 1.769 2.022 2.514 2.840 2.483 1.345 0.477 0.250 0.206 0.175 0.133 0.129 0.244 0.421 0.445 0.343 0.149 0.065 0.042 0.038 0.039 0.048 0.057 0.060 0.063 0.109 0.265 0.417 0.455 0.416 0.285 0.156 0.129 0.215 0.609 1.272 1.695 1.848 1.877 1.811 1.730 1.673 1.651 1.676 1.672 1.662 1.644 1.628 1.621 1.620 1.621 1.626 1.636 1.641 1.640 1.630 1.604 1.554 1.473 1.388 1.343 1.165 0.000 
0.000 1.127 1.207 1.193 1.306 1.457 1.562 1.627 1.663 1.682 1.690 1.695 1.696 1.697 1.698 1.696 1.694 1.691 1.688 1.686 1.686 1.689 1.691 1.692 1.692 1.692 1.690 1.688 1.684 1.681 1.677 1.673 1.666 1.653 1.631 1.597 1.565 1.549 1.544 1.545 1.555 1.577 1.611 1.646 1.669 1.682 1.691 1.698 1.699 1.698 1.697 1.696 1.694 1.688 1.680 1.671 1.671 1.689 1.766 1.983 2.435 2.933 3.078 2.728 1.878 1.347 1.227 1.171 0.965 0.577 0.358 0.387 0.365 0.228 0.084 0.038 0.028 0.027 0.030 0.040 0.057 0.077 0.121 0.245 0.408 0.485 0.488 0.434 0.305 0.203 0.199 0.402 0.913 1.338 1.528 1.607 1.617 1.615 1.590 1.595 1.612 1.671 1.680 1.677 1.667 1.656 1.651 1.650 1.651 1.654 1.657 1.657 1.651 1.635 1.602 1.544 1.448 1.340 1.273 1.115 0.000 
0.000 1.171 1.260 1.265 1.336 1.461 1.562 1.627 1.662 1.682 1.691 1.695 1.697 1.694 1.694 1.691 1.686 1.679 1.676 1.675 1.676 1.678 1.681 1.686 1.687 1.686 1.685 1.684 1.682 1.680 1.677 1.674 1.668 1.657 1.635 1.600 1.566 1.548 1.542 1.543 1.552 1.575 1.609 1.645 1.669 1.683 1.691 1.697 1.699 1.699 1.698 1.694 1.695 1.692 1.690 1.683 1.681 1.692 1.739 1.873 2.189 2.674 2.949 2.952 2.682 2.458 2.450 2.585 2.716 2.248 1.287 0.557 0.303 0.154 0.058 0.033 0.028 0.030 0.041 0.089 0.223 0.381 0.502 0.577 0.472 0.414 0.412 0.378 0.285 0.244 0.331 0.654 1.100 1.357 1.483 1.539 1.556 1.562 1.554 1.562 1.587 1.666 1.700 1.701 1.691 1.679 1.673 1.671 1.671 1.671 1.670 1.667 1.657 1.635 1.595 1.526 1.412 1.281 1.198 1.068 0.000 
0.000 1.165 1.244 1.280 1.351 1.466 1.562 1.624 1.660 1.680 1.690 1.695 1.696 1.691 1.688 1.682 1.670 1.660 1.656 1.655 1.655 1.657 1.662 1.666 1.670 1.672 1.673 1.673 1.674 1.674 1.675 1.673 1.668 1.658 1.638 1.605 1.570 1.550 1.544 1.545 1.554 1.576 1.610 1.647 1.671 1.685 1.694 1.698 1.699 1.698 1.697 1.694 1.696 1.695 1.697 1.690 1.687 1.689 1.706 1.763 1.906 2.195 2.490 2.634 2.633 2.577 2.601 2.777 3.187 3.486 3.054 1.920 0.864 0.313 0.114 0.076 0.081 0.120 0.256 0.644 1.424 2.066 2.192 1.725 0.705 0.305 0.245 0.231 0.219 0.268 0.467 0.853 1.179 1.360 1.453 1.497 1.520 1.529 1.531 1.535 1.563 1.676 1.755 1.749 1.722 1.700 1.689 1.684 1.682 1.681 1.678 1.672 1.659 1.633 1.584 1.503 1.379 1.242 1.148 1.024 0.000 
0.000 1.127 1.185 1.257 1.351 1.469 1.563 1.622 1.656 1.676 1.687 1.691 1.691 1.687 1.679 1.665 1.646 1.630 1.621 1.618 1.620 1.623 1.631 1.639 1.645 1.649 1.651 1.653 1.656 1.661 1.667 1.668 1.666 1.658 1.642 1.613 1.580 1.562 1.556 1.556 1.565 1.586 1.620 1.653 1.675 1.689 1.696 1.699 1.700 1.696 1.696 1.697 1.699 1.699 1.700 1.694 1.690 1.688 1.691 1.707 1.755 1.857 2.009 2.145 2.254 2.337 2.419 2.595 2.983 3.532 3.808 3.579 2.701 1.592 0.835 0.576 0.576 0.719 1.108 1.830 2.905 3.680 3.813 3.163 1.371 0.353 0.183 0.167 0.189 0.295 0.570 0.964 1.224 1.360 1.423 1.453 1.469 1.476 1.468 1.470 1.515 1.719 1.862 1.834 1.761 1.718 1.700 1.692 1.689 1.686 1.682 1.675 1.659 1.626 1.570 1.482 1.354 1.218 1.124 0.981 0.000 
0.000 1.081 1.119 1.196 1.325 1.457 1.550 1.612 1.651 1.672 1.682 1.685 1.684 1.678 1.664 1.638 1.606 1.583 1.572 1.567 1.566 1.571 1.584 1.598 1.607 1.612 1.616 1.620 1.626 1.635 1.650 1.660 1.661 1.657 1.647 1.629 1.602 1.586 1.581 1.581 1.588 1.607 1.637 1.664 1.681 1.691 1.696 1.698 1.701 1.698 1.699 1.700 1.701 1.702 1.700 1.696 1.693 1.689 1.685 1.683 1.687 1.707 1.749 1.804 1.860 1.921 2.000 2.132 2.417 2.983 3.512 3.652 3.439 2.880 2.328 1.999 1.856 1.850 1.997 2.380 3.114 3.731 3.900 3.590 2.110 0.669 0.242 0.199 0.239 0.403 0.717 1.062 1.270 1.363 1.396 1.404 1.392 1.343 1.264 1.250 1.331 1.667 1.914 1.883 1.785 1.727 1.704 1.696 1.691 1.688 1.683 1.674 1.655 1.618 1.558 1.466 1.335 1.201 1.110 0.963 0.000 
0.000 1.052 1.081 1.141 1.278 1.430 1.535 1.603 1.644 1.666 1.676 1.678 1.674 1.663 1.638 1.595 1.548 1.518 1.504 1.500 1.504 1.519 1.541 1.557 1.566 1.570 1.573 1.576 1.583 1.599 1.625 1.646 1.658 1.662 1.659 1.648 1.629 1.616 1.612 1.611 1.615 1.628 1.650 1.671 1.684 1.692 1.695 1.697 1.694 1.698 1.702 1.702 1.701 1.699 1.698 1.697 1.694 1.690 1.684 1.675 1.661 1.645 1.636 1.641 1.655 1.676 1.710 1.775 1.911 2.194 2.653 3.025 3.151 3.007 2.807 2.622 2.399 2.258 2.245 2.419 2.853 3.206 3.331 3.262 2.624 1.483 0.840 0.718 0.817 1.040 1.215 1.291 1.346 1.370 1.378 1.377 1.359 1.297 1.179 1.092 1.091 1.440 1.859 1.878 1.790 1.728 1.705 1.696 1.692 1.688 1.683 1.674 1.652 1.612 1.551 1.458 1.323 1.189 1.098 0.970 0.000 
0.000 1.037 1.061 1.109 1.234 1.401 1.524 1.601 1.645 1.666 1.671 1.670 1.661 1.640 1.600 1.541 1.491 1.464 1.455 1.456 1.466 1.490 1.517 1.532 1.540 1.543 1.545 1.545 1.554 1.574 1.608 1.641 1.661 1.667 1.666 1.660 1.646 1.634 1.628 1.628 1.630 1.638 1.655 1.675 1.686 1.692 1.694 1.695 1.696 1.700 1.701 1.701 1.700 1.699 1.698 1.697 1.695 1.691 1.684 1.673 1.654 1.624 1.593 1.576 1.571 1.575 1.588 1.620 1.684 1.805 2.007 2.266 2.505 2.649 2.659 2.559 2.391 2.250 2.203 2.218 2.298 2.385 2.459 2.533 2.523 2.244 2.048 2.052 2.128 2.169 2.022 1.720 1.511 1.397 1.371 1.371 1.353 1.299 1.198 1.104 1.075 1.264 1.691 1.801 1.766 1.720 1.702 1.695 1.692 1.688 1.682 1.667 1.645 1.610 1.550 1.455 1.318 1.180 1.088 0.977 0.000 
0.000 0.998 1.014 1.075 1.199 1.383 1.518 1.601 1.643 1.661 1.665 1.660 1.648 1.619 1.568 1.503 1.457 1.436 1.431 1.434 1.450 1.481 1.509 1.523 1.528 1.531 1.531 1.531 1.541 1.564 1.601 1.638 1.659 1.666 1.667 1.665 1.653 1.640 1.634 1.632 1.634 1.640 1.655 1.675 1.688 1.691 1.692 1.692 1.696 1.700 1.700 1.700 1.699 1.699 1.699 1.698 1.694 1.691 1.686 1.674 1.654 1.621 1.582 1.557 1.547 1.546 1.552 1.570 1.607 1.667 1.755 1.873 2.015 2.130 2.196 2.210 2.164 2.064 1.971 1.926 1.922 1.941 1.975 2.042 2.192 2.334 2.404 2.457 2.468 2.409 2.208 1.878 1.600 1.426 1.382 1.375 1.355 1.312 1.240 1.180 1.161 1.265 1.577 1.689 1.703 1.700 1.695 1.692 1.690 1.688 1.683 1.671 1.650 1.613 1.551 1.455 1.319 1.175 1.078 0.989 0.000 
0.000 0.952 0.959 1.024 1.177 1.372 1.511 1.595 1.638 1.655 1.659 1.653 1.640 1.606 1.549 1.485 1.446 1.428 1.425 1.429 1.448 1.481 1.508 1.521 1.526 1.528 1.528 1.529 1.539 1.562 1.601 1.638 1.658 1.666 1.667 1.665 1.654 1.641 1.634 1.632 1.633 1.639 1.652 1.673 1.688 1.690 1.692 1.688 1.694 1.702 1.699 1.699 1.699 1.699 1.699 1.699 1.700 1.697 1.689 1.676 1.656 1.624 1.584 1.557 1.546 1.544 1.548 1.563 1.592 1.633 1.678 1.730 1.793 1.848 1.874 1.878 1.869 1.832 1.785 1.763 1.759 1.761 1.776 1.812 1.895 2.065 2.205 2.248 2.235 2.170 2.037 1.828 1.608 1.467 1.418 1.394 1.371 1.341 1.306 1.291 1.296 1.360 1.537 1.629 1.667 1.685 1.690 1.686 1.689 1.688 1.685 1.675 1.654 1.616 1.554 1.459 1.327 1.179 1.074 1.007 0.000 
0.000 0.974 0.990 1.015 1.170 1.365 1.504 1.587 1.631 1.649 1.652 1.649 1.634 1.600 1.542 1.482 1.445 1.430 1.428 1.434 1.455 1.491 1.515 1.527 1.530 1.530 1.530 1.533 1.543 1.566 1.604 1.640 1.659 1.667 1.668 1.664 1.652 1.638 1.629 1.626 1.625 1.630 1.643 1.666 1.683 1.689 1.692 1.689 1.696 1.703 1.699 1.699 1.697 1.698 1.700 1.700 1.699 1.696 1.690 1.680 1.662 1.633 1.596 1.572 1.561 1.559 1.562 1.575 1.600 1.633 1.663 1.689 1.715 1.735 1.743 1.744 1.741 1.729 1.712 1.703 1.701 1.702 1.707 1.723 1.760 1.833 1.898 1.917 1.915 1.892 1.838 1.743 1.610 1.518 1.472 1.438 1.411 1.396 1.390 1.394 1.407 1.449 1.538 1.613 1.656 1.678 1.686 1.684 1.689 1.689 1.686 1.676 1.656 1.620 1.561 1.472 1.348 1.202 1.094 1.024 0.000 
0.000 1.039 1.074 1.062 1.179 1.358 1.496 1.580 1.624 1.643 1.647 1.644 1.630 1.598 1.542 1.487 1.455 1.444 1.444 1.455 1.482 1.516 1.536 1.544 1.545 1.543 1.543 1.548 1.560 1.582 1.616 1.646 1.661 1.665 1.664 1.660 1.648 1.628 1.614 1.609 1.610 1.617 1.635 1.660 1.677 1.687 1.691 1.694 1.699 1.700 1.700 1.698 1.702 1.702 1.700 1.700 1.699 1.697 1.693 1.685 1.672 1.651 1.625 1.607 1.599 1.598 1.601 1.611 1.630 1.651 1.667 1.681 1.692 1.699 1.701 1.701 1.700 1.696 1.690 1.688 1.687 1.687 1.689 1.695 1.708 1.733 1.755 1.764 1.766 1.769 1.760 1.712 1.609 1.562 1.531 1.501 1.481 1.476 1.477 1.480 1.490 1.512 1.556 1.613 1.654 1.674 1.684 1.687 1.690 1.690 1.686 1.677 1.659 1.627 1.575 1.497 1.388 1.257 1.149 1.044 0.000 
0.000 1.078 1.125 1.129 1.206 1.351 1.487 1.571 1.617 1.636 1.641 1.639 1.627 1.598 1.549 1.507 1.485 1.480 1.484 1.501 1.532 1.558 1.571 1.574 1.573 1.569 1.567 1.574 1.588 1.604 1.629 1.652 1.667 1.671 1.671 1.664 1.643 1.615 1.600 1.596 1.599 1.611 1.634 1.658 1.676 1.686 1.692 1.696 1.699 1.700 1.701 1.699 1.700 1.700 1.700 1.699 1.700 1.699 1.695 1.691 1.683 1.670 1.655 1.645 1.641 1.641 1.643 1.650 1.663 1.674 1.680 1.685 1.689 1.691 1.692 1.692 1.691 1.690 1.688 1.687 1.686 1.686 1.687 1.689 1.692 1.699 1.704 1.706 1.709 1.714 1.718 1.691 1.624 1.605 1.591 1.574 1.562 1.554 1.551 1.551 1.555 1.567 1.589 1.623 1.656 1.675 1.684 1.689 1.692 1.692 1.688 1.680 1.662 1.637 1.589 1.518 1.421 1.311 1.217 1.067 0.000 
0.000 1.089 1.131 1.152 1.218 1.343 1.475 1.559 1.606 1.627 1.633 1.632 1.623 1.601 1.567 1.544 1.536 1.537 1.545 1.560 1.580 1.592 1.596 1.596 1.594 1.591 1.588 1.587 1.594 1.609 1.629 1.647 1.660 1.665 1.664 1.653 1.628 1.600 1.588 1.587 1.594 1.614 1.638 1.659 1.675 1.687 1.693 1.697 1.699 1.700 1.701 1.701 1.699 1.698 1.698 1.698 1.696 1.695 1.696 1.694 1.690 1.683 1.674 1.669 1.667 1.667 1.668 1.673 1.681 1.687 1.690 1.691 1.691 1.692 1.692 1.692 1.692 1.691 1.691 1.691 1.691 1.691 1.690 1.690 1.690 1.691 1.690 1.688 1.684 1.677 1.668 1.661 1.656 1.651 1.642 1.632 1.621 1.611 1.606 1.605 1.607 1.613 1.625 1.643 1.664 1.680 1.690 1.695 1.696 1.695 1.691 1.683 1.665 1.641 1.594 1.530 1.435 1.331 1.259 1.090 0.000 
0.000 1.083 1.102 1.143 1.213 1.332 1.458 1.541 1.589 1.613 1.622 1.622 1.617 1.603 1.586 1.578 1.579 1.584 1.590 1.598 1.605 1.608 1.607 1.604 1.603 1.601 1.602 1.603 1.603 1.610 1.624 1.635 1.641 1.642 1.639 1.628 1.612 1.596 1.580 1.581 1.589 1.613 1.644 1.668 1.680 1.687 1.695 1.698 1.699 1.700 1.701 1.701 1.698 1.696 1.697 1.697 1.698 1.696 1.697 1.697 1.695 1.692 1.686 1.683 1.682 1.682 1.683 1.685 1.688 1.692 1.693 1.693 1.694 1.695 1.695 1.696 1.696 1.696 1.696 1.696 1.696 1.696 1.696 1.694 1.692 1.690 1.689 1.686 1.680 1.670 1.666 1.674 1.680 1.682 1.682 1.672 1.657 1.649 1.645 1.645 1.646 1.649 1.654 1.664 1.679 1.688 1.694 1.696 1.697 1.697 1.695 1.687 1.667 1.640 1.597 1.535 1.440 1.332 1.260 1.087 0.000 
0.000 1.066 1.050 1.100 1.186 1.312 1.433 1.515 1.564 1.590 1.602 1.606 1.605 1.599 1.594 1.596 1.601 1.608 1.613 1.615 1.616 1.614 1.609 1.605 1.604 1.604 1.608 1.614 1.615 1.617 1.622 1.627 1.624 1.619 1.613 1.608 1.601 1.596 1.578 1.580 1.584 1.585 1.602 1.630 1.660 1.685 1.697 1.699 1.699 1.701 1.701 1.700 1.697 1.695 1.695 1.696 1.696 1.694 1.698 1.697 1.697 1.697 1.693 1.690 1.691 1.691 1.691 1.690 1.691 1.692 1.694 1.694 1.695 1.696 1.697 1.699 1.698 1.698 1.698 1.699 1.699 1.698 1.698 1.697 1.696 1.694 1.691 1.688 1.684 1.684 1.686 1.689 1.692 1.693 1.689 1.682 1.676 1.672 1.670 1.675 1.675 1.675 1.675 1.682 1.690 1.694 1.696 1.698 1.698 1.697 1.696 1.690 1.666 1.641 1.601 1.538 1.441 1.326 1.241 1.060 0.000 
0.000 1.057 1.022 1.060 1.159 1.291 1.403 1.480 1.527 1.554 1.570 1.580 1.586 1.589 1.593 1.599 1.608 1.615 1.618 1.620 1.619 1.614 1.606 1.602 1.602 1.603 1.609 1.617 1.619 1.618 1.616 1.613 1.601 1.594 1.590 1.588 1.589 1.589 1.581 1.581 1.583 1.590 1.603 1.624 1.658 1.680 1.693 1.703 1.702 1.703 1.701 1.697 1.694 1.693 1.693 1.693 1.692 1.692 1.696 1.697 1.698 1.698 1.698 1.695 1.697 1.698 1.693 1.691 1.691 1.691 1.692 1.693 1.695 1.693 1.696 1.700 1.698 1.699 1.699 1.699 1.699 1.699 1.699 1.699 1.698 1.697 1.696 1.694 1.693 1.693 1.694 1.696 1.697 1.697 1.697 1.691 1.684 1.684 1.688 1.697 1.693 1.690 1.693 1.696 1.694 1.696 1.698 1.698 1.698 1.697 1.695 1.690 1.669 1.644 1.603 1.537 1.437 1.311 1.219 1.032 0.000 
0.000 1.078 1.061 1.063 1.156 1.280 1.379 1.447 1.490 1.516 1.532 1.547 1.561 1.572 1.585 1.599 1.611 1.618 1.621 1.621 1.618 1.607 1.597 1.592 1.592 1.596 1.607 1.616 1.618 1.616 1.608 1.595 1.578 1.571 1.568 1.568 1.573 1.576 1.583 1.591 1.603 1.617 1.630 1.638 1.663 1.678 1.688 1.706 1.700 1.694 1.693 1.692 1.689 1.688 1.689 1.688 1.687 1.689 1.692 1.695 1.697 1.698 1.700 1.699 1.699 1.699 1.694 1.688 1.687 1.687 1.687 1.689 1.690 1.688 1.693 1.697 1.697 1.698 1.699 1.699 1.699 1.700 1.700 1.699 1.699 1.699 1.698 1.697 1.697 1.697 1.698 1.698 1.698 1.698 1.695 1.690 1.687 1.694 1.701 1.704 1.700 1.700 1.699 1.696 1.696 1.697 1.697 1.698 1.697 1.696 1.694 1.687 1.672 1.645 1.603 1.532 1.426 1.294 1.198 1.011 0.000 
0.000 1.128 1.154 1.117 1.177 1.274 1.363 1.425 1.466 1.492 1.508 1.523 1.537 1.552 1.572 1.594 1.609 1.616 1.618 1.616 1.607 1.590 1.578 1.575 1.575 1.582 1.599 1.614 1.615 1.612 1.602 1.581 1.560 1.549 1.545 1.546 1.551 1.560 1.573 1.588 1.605 1.625 1.642 1.651 1.670 1.681 1.690 1.703 1.701 1.696 1.691 1.686 1.682 1.680 1.681 1.682 1.680 1.682 1.686 1.691 1.695 1.698 1.699 1.701 1.700 1.697 1.692 1.683 1.680 1.676 1.677 1.680 1.679 1.680 1.686 1.692 1.696 1.698 1.699 1.699 1.699 1.700 1.700 1.699 1.699 1.699 1.699 1.699 1.699 1.699 1.699 1.699 1.699 1.698 1.695 1.692 1.692 1.701 1.704 1.702 1.702 1.700 1.699 1.698 1.698 1.697 1.697 1.697 1.696 1.695 1.694 1.686 1.671 1.644 1.600 1.524 1.411 1.274 1.177 0.995 0.000 
0.000 1.182 1.245 1.211 1.233 1.284 1.354 1.414 1.455 1.480 1.496 1.509 1.521 1.536 1.556 1.583 1.600 1.607 1.608 1.602 1.585 1.562 1.550 1.548 1.551 1.561 1.588 1.606 1.609 1.607 1.596 1.575 1.547 1.529 1.521 1.519 1.523 1.534 1.552 1.574 1.599 1.622 1.640 1.656 1.671 1.683 1.692 1.697 1.698 1.695 1.690 1.683 1.676 1.672 1.672 1.672 1.672 1.675 1.682 1.687 1.692 1.696 1.698 1.699 1.698 1.693 1.687 1.676 1.665 1.658 1.658 1.660 1.661 1.665 1.674 1.685 1.693 1.696 1.698 1.699 1.699 1.699 1.699 1.699 1.699 1.699 1.699 1.699 1.699 1.699 1.700 1.700 1.700 1.699 1.697 1.696 1.698 1.702 1.706 1.705 1.702 1.700 1.700 1.699 1.700 1.700 1.700 1.699 1.699 1.698 1.693 1.685 1.669 1.640 1.591 1.511 1.391 1.253 1.156 0.980 0.000 
0.000 1.224 1.302 1.279 1.283 1.303 1.351 1.411 1.452 1.477 1.492 1.502 1.511 1.523 1.540 1.565 1.581 1.587 1.586 1.575 1.550 1.523 1.511 1.510 1.516 1.535 1.572 1.593 1.600 1.600 1.593 1.574 1.540 1.506 1.487 1.481 1.483 1.492 1.512 1.540 1.573 1.604 1.630 1.652 1.668 1.680 1.690 1.693 1.694 1.693 1.689 1.681 1.673 1.667 1.665 1.664 1.665 1.670 1.680 1.685 1.690 1.694 1.696 1.696 1.694 1.688 1.677 1.660 1.641 1.630 1.627 1.627 1.629 1.638 1.654 1.673 1.686 1.696 1.696 1.697 1.698 1.698 1.698 1.698 1.698 1.698 1.698 1.699 1.699 1.699 1.700 1.700 1.700 1.699 1.699 1.699 1.699 1.701 1.702 1.702 1.701 1.700 1.700 1.700 1.700 1.701 1.701 1.700 1.698 1.697 1.693 1.683 1.665 1.632 1.578 1.492 1.364 1.230 1.137 0.985 0.000 
0.000 1.241 1.314 1.305 1.303 1.318 1.357 1.413 1.453 1.478 1.492 1.500 1.506 1.512 1.523 1.540 1.552 1.554 1.549 1.531 1.498 1.470 1.460 1.461 1.471 1.501 1.550 1.582 1.596 1.598 1.592 1.574 1.536 1.484 1.444 1.424 1.418 1.423 1.439 1.468 1.510 1.557 1.600 1.633 1.658 1.677 1.684 1.688 1.689 1.689 1.686 1.680 1.672 1.665 1.660 1.658 1.659 1.667 1.678 1.686 1.692 1.694 1.695 1.693 1.689 1.680 1.663 1.637 1.608 1.590 1.583 1.583 1.589 1.604 1.631 1.660 1.681 1.692 1.692 1.695 1.696 1.696 1.696 1.696 1.696 1.696 1.696 1.697 1.698 1.699 1.699 1.700 1.700 1.700 1.700 1.700 1.699 1.700 1.701 1.701 1.700 1.700 1.700 1.700 1.700 1.701 1.701 1.701 1.699 1.696 1.690 1.680 1.659 1.623 1.564 1.470 1.335 1.205 1.122 1.013 0.000 
0.000 1.218 1.277 1.300 1.307 1.330 1.372 1.424 1.462 1.485 1.497 1.503 1.505 1.505 1.505 1.510 1.512 1.508 1.494 1.464 1.422 1.397 1.387 1.389 1.406 1.451 1.520 1.569 1.590 1.595 1.591 1.573 1.531 1.460 1.382 1.335 1.315 1.312 1.319 1.347 1.397 1.463 1.533 1.589 1.629 1.657 1.671 1.680 1.683 1.685 1.682 1.678 1.673 1.665 1.659 1.653 1.656 1.664 1.676 1.686 1.693 1.694 1.693 1.691 1.686 1.674 1.652 1.620 1.585 1.565 1.556 1.555 1.563 1.584 1.614 1.651 1.675 1.684 1.688 1.691 1.692 1.692 1.692 1.691 1.691 1.691 1.692 1.693 1.696 1.697 1.699 1.699 1.700 1.700 1.700 1.700 1.699 1.700 1.700 1.700 1.700 1.700 1.700 1.700 1.700 1.700 1.701 1.702 1.699 1.694 1.687 1.676 1.654 1.616 1.553 1.455 1.314 1.183 1.110 1.077 0.000 
0.000 1.161 1.205 1.262 1.297 1.343 1.399 1.449 1.483 1.503 1.511 1.513 1.511 1.502 1.488 1.475 1.462 1.445 1.416 1.368 1.317 1.289 1.280 1.285 1.312 1.377 1.477 1.548 1.582 1.591 1.588 1.569 1.520 1.431 1.304 1.206 1.158 1.143 1.147 1.170 1.222 1.307 1.413 1.505 1.572 1.618 1.648 1.665 1.674 1.680 1.686 1.682 1.673 1.663 1.656 1.651 1.653 1.659 1.671 1.683 1.690 1.692 1.692 1.690 1.684 1.671 1.648 1.613 1.575 1.553 1.545 1.544 1.552 1.574 1.608 1.647 1.670 1.680 1.683 1.687 1.687 1.685 1.684 1.681 1.681 1.681 1.683 1.686 1.691 1.694 1.697 1.698 1.699 1.699 1.700 1.699 1.699 1.699 1.700 1.699 1.699 1.700 1.700 1.700 1.700 1.702 1.701 1.700 1.698 1.692 1.685 1.672 1.650 1.611 1.547 1.449 1.305 1.170 1.098 1.069 0.000 
0.000 1.102 1.136 1.196 1.272 1.360 1.436 1.489 1.520 1.532 1.537 1.535 1.526 1.507 1.477 1.441 1.404 1.362 1.307 1.229 1.165 1.133 1.126 1.135 1.177 1.271 1.413 1.516 1.567 1.583 1.583 1.563 1.507 1.399 1.229 1.059 0.958 0.917 0.910 0.924 0.976 1.080 1.226 1.368 1.476 1.554 1.608 1.641 1.661 1.673 1.680 1.677 1.671 1.660 1.651 1.649 1.648 1.652 1.662 1.676 1.685 1.689 1.689 1.688 1.683 1.672 1.650 1.612 1.573 1.551 1.543 1.543 1.550 1.572 1.608 1.644 1.666 1.676 1.679 1.682 1.680 1.674 1.667 1.664 1.663 1.664 1.667 1.672 1.681 1.688 1.693 1.696 1.697 1.698 1.699 1.699 1.699 1.699 1.699 1.699 1.699 1.699 1.699 1.699 1.699 1.698 1.694 1.691 1.691 1.689 1.682 1.669 1.646 1.607 1.544 1.447 1.304 1.165 1.088 1.062 0.000 
0.000 1.071 1.103 1.151 1.253 1.377 1.470 1.530 1.562 1.572 1.574 1.569 1.552 1.519 1.471 1.410 1.341 1.262 1.160 1.047 0.969 0.935 0.931 0.949 1.016 1.155 1.347 1.478 1.548 1.575 1.577 1.558 1.499 1.379 1.185 0.955 0.797 0.714 0.686 0.688 0.721 0.813 0.974 1.165 1.331 1.458 1.548 1.607 1.641 1.661 1.669 1.669 1.669 1.655 1.644 1.640 1.638 1.641 1.649 1.664 1.677 1.684 1.686 1.686 1.682 1.672 1.651 1.614 1.576 1.555 1.548 1.547 1.555 1.576 1.614 1.648 1.666 1.673 1.676 1.675 1.668 1.654 1.641 1.634 1.633 1.634 1.638 1.647 1.662 1.677 1.686 1.690 1.694 1.696 1.697 1.698 1.698 1.698 1.698 1.697 1.697 1.698 1.698 1.698 1.698 1.696 1.693 1.691 1.690 1.685 1.677 1.663 1.640 1.603 1.542 1.449 1.311 1.168 1.083 1.059 0.000 
0.000 1.065 1.099 1.136 1.246 1.390 1.495 1.558 1.590 1.602 1.603 1.596 1.574 1.530 1.464 1.380 1.276 1.149 0.996 0.865 0.789 0.762 0.763 0.796 0.892 1.074 1.302 1.456 1.537 1.567 1.572 1.554 1.493 1.368 1.162 0.893 0.689 0.571 0.521 0.512 0.527 0.588 0.714 0.905 1.127 1.321 1.461 1.555 1.612 1.643 1.655 1.662 1.662 1.645 1.631 1.623 1.622 1.623 1.631 1.648 1.667 1.678 1.683 1.684 1.682 1.674 1.655 1.622 1.589 1.570 1.564 1.564 1.571 1.590 1.625 1.653 1.667 1.672 1.671 1.665 1.649 1.622 1.598 1.587 1.584 1.584 1.590 1.604 1.626 1.648 1.665 1.680 1.688 1.692 1.694 1.695 1.696 1.696 1.697 1.697 1.697 1.698 1.697 1.697 1.696 1.694 1.693 1.690 1.685 1.678 1.668 1.654 1.633 1.598 1.543 1.457 1.330 1.191 1.099 1.074 0.000 
0.000 1.060 1.095 1.132 1.242 1.398 1.511 1.577 1.609 1.620 1.620 1.611 1.584 1.533 1.455 1.349 1.213 1.040 0.855 0.722 0.652 0.632 0.638 0.685 0.806 1.023 1.274 1.441 1.528 1.561 1.567 1.550 1.489 1.361 1.148 0.858 0.622 0.477 0.407 0.387 0.392 0.431 0.528 0.694 0.925 1.176 1.366 1.497 1.576 1.620 1.641 1.652 1.648 1.632 1.614 1.605 1.603 1.604 1.613 1.633 1.658 1.671 1.681 1.684 1.683 1.677 1.664 1.640 1.615 1.601 1.597 1.597 1.603 1.619 1.645 1.662 1.670 1.670 1.665 1.650 1.622 1.577 1.536 1.514 1.508 1.508 1.516 1.535 1.567 1.608 1.644 1.667 1.678 1.684 1.688 1.690 1.691 1.693 1.694 1.696 1.697 1.697 1.696 1.695 1.693 1.691 1.688 1.683 1.675 1.665 1.653 1.640 1.620 1.591 1.545 1.472 1.365 1.241 1.153 1.120 0.000 
0.000 1.022 1.050 1.114 1.237 1.404 1.521 1.587 1.619 1.628 1.628 1.617 1.586 1.530 1.441 1.315 1.147 0.934 0.737 0.607 0.545 0.531 0.542 0.603 0.747 0.989 1.256 1.429 1.521 1.557 1.562 1.545 1.484 1.355 1.138 0.836 0.580 0.417 0.333 0.305 0.305 0.333 0.413 0.563 0.791 1.071 1.298 1.451 1.543 1.596 1.625 1.633 1.632 1.620 1.604 1.595 1.591 1.593 1.602 1.624 1.652 1.668 1.681 1.686 1.686 1.684 1.678 1.664 1.648 1.639 1.637 1.637 1.641 1.651 1.664 1.672 1.673 1.669 1.655 1.630 1.586 1.521 1.462 1.428 1.413 1.411 1.417 1.440 1.483 1.549 1.605 1.638 1.659 1.671 1.677 1.680 1.683 1.685 1.688 1.692 1.694 1.694 1.692 1.691 1.689 1.686 1.681 1.671 1.657 1.642 1.630 1.617 1.602 1.581 1.548 1.496 1.414 1.314 1.237 1.191 0.000 
0.000 0.977 0.998 1.068 1.229 1.409 1.527 1.593 1.622 1.630 1.629 1.617 1.583 1.520 1.419 1.274 1.075 0.828 0.629 0.508 0.455 0.446 0.464 0.539 0.702 0.966 1.241 1.419 1.514 1.551 1.556 1.539 1.478 1.347 1.127 0.817 0.550 0.379 0.290 0.259 0.258 0.280 0.352 0.495 0.719 1.010 1.244 1.406 1.511 1.572 1.601 1.612 1.621 1.611 1.600 1.592 1.588 1.590 1.598 1.619 1.647 1.668 1.681 1.687 1.689 1.689 1.686 1.680 1.671 1.665 1.664 1.664 1.666 1.671 1.676 1.677 1.674 1.664 1.642 1.605 1.546 1.470 1.406 1.366 1.346 1.342 1.345 1.363 1.403 1.470 1.545 1.599 1.632 1.650 1.659 1.664 1.668 1.672 1.676 1.683 1.688 1.691 1.691 1.688 1.685 1.681 1.672 1.652 1.629 1.612 1.600 1.592 1.583 1.572 1.555 1.526 1.477 1.408 1.335 1.283 0.000 
0.000 1.006 1.037 1.063 1.230 1.415 1.532 1.595 1.622 1.629 1.627 1.611 1.570 1.495 1.379 1.210 0.979 0.717 0.525 0.416 0.373 0.369 0.396 0.484 0.662 0.944 1.227 1.406 1.504 1.541 1.546 1.529 1.467 1.334 1.109 0.793 0.525 0.356 0.269 0.240 0.239 0.260 0.331 0.471 0.693 0.979 1.211 1.375 1.482 1.544 1.579 1.600 1.611 1.605 1.598 1.592 1.589 1.590 1.598 1.617 1.645 1.667 1.680 1.687 1.690 1.691 1.691 1.689 1.684 1.681 1.679 1.679 1.680 1.682 1.682 1.679 1.671 1.653 1.624 1.583 1.508 1.435 1.372 1.332 1.313 1.307 1.309 1.323 1.358 1.419 1.496 1.556 1.596 1.619 1.631 1.637 1.642 1.647 1.654 1.666 1.679 1.686 1.688 1.688 1.684 1.678 1.664 1.636 1.608 1.590 1.580 1.574 1.571 1.569 1.567 1.556 1.537 1.502 1.447 1.405 0.000 
0.000 1.079 1.129 1.117 1.245 1.423 1.537 1.595 1.619 1.623 1.618 1.594 1.538 1.445 1.305 1.109 0.850 0.594 0.419 0.327 0.296 0.297 0.332 0.433 0.624 0.918 1.205 1.389 1.488 1.525 1.529 1.511 1.446 1.308 1.076 0.759 0.501 0.343 0.263 0.237 0.235 0.258 0.329 0.469 0.691 0.973 1.199 1.357 1.463 1.528 1.568 1.594 1.604 1.603 1.599 1.594 1.593 1.594 1.600 1.616 1.641 1.664 1.678 1.686 1.690 1.691 1.692 1.692 1.691 1.689 1.687 1.685 1.685 1.687 1.685 1.678 1.663 1.639 1.604 1.553 1.480 1.417 1.361 1.323 1.303 1.297 1.299 1.311 1.342 1.399 1.467 1.518 1.555 1.577 1.588 1.596 1.603 1.606 1.618 1.639 1.663 1.677 1.685 1.689 1.686 1.676 1.658 1.627 1.597 1.578 1.569 1.566 1.566 1.568 1.577 1.582 1.587 1.583 1.564 1.541 0.000 
0.000 1.127 1.189 1.195 1.292 1.443 1.544 1.593 1.610 1.610 1.598 1.558 1.479 1.357 1.183 0.951 0.679 0.454 0.311 0.242 0.225 0.232 0.276 0.384 0.581 0.881 1.172 1.359 1.458 1.496 1.501 1.481 1.410 1.263 1.022 0.715 0.483 0.340 0.266 0.242 0.242 0.268 0.342 0.486 0.708 0.981 1.198 1.353 1.457 1.524 1.566 1.591 1.601 1.604 1.603 1.600 1.598 1.598 1.601 1.613 1.633 1.655 1.672 1.683 1.689 1.688 1.692 1.693 1.693 1.692 1.691 1.687 1.679 1.681 1.685 1.673 1.650 1.615 1.569 1.519 1.467 1.411 1.361 1.324 1.305 1.299 1.301 1.312 1.343 1.396 1.458 1.496 1.515 1.524 1.530 1.535 1.541 1.547 1.566 1.600 1.639 1.664 1.677 1.682 1.681 1.673 1.653 1.623 1.592 1.574 1.566 1.564 1.565 1.571 1.584 1.603 1.626 1.643 1.653 1.646 0.000 
0.000 1.149 1.219 1.242 1.342 1.472 1.551 1.586 1.595 1.589 1.561 1.495 1.381 1.218 0.997 0.733 0.484 0.310 0.211 0.170 0.164 0.179 0.229 0.337 0.530 0.825 1.122 1.316 1.420 1.461 1.466 1.444 1.370 1.218 0.973 0.687 0.479 0.349 0.286 0.268 0.271 0.305 0.389 0.540 0.760 1.009 1.207 1.355 1.461 1.530 1.570 1.591 1.601 1.605 1.606 1.604 1.599 1.596 1.597 1.603 1.617 1.636 1.655 1.671 1.680 1.684 1.691 1.692 1.693 1.693 1.692 1.688 1.683 1.682 1.681 1.667 1.636 1.597 1.552 1.507 1.462 1.413 1.369 1.339 1.323 1.318 1.320 1.331 1.358 1.406 1.460 1.489 1.495 1.488 1.471 1.464 1.464 1.473 1.498 1.548 1.607 1.645 1.664 1.670 1.670 1.665 1.647 1.622 1.591 1.573 1.566 1.565 1.567 1.575 1.593 1.620 1.650 1.675 1.691 1.691 0.000 
0.000 1.167 1.243 1.272 1.377 1.490 1.553 1.577 1.578 1.559 1.506 1.405 1.248 1.033 0.778 0.534 0.339 0.211 0.145 0.121 0.121 0.142 0.195 0.300 0.484 0.766 1.073 1.281 1.394 1.437 1.443 1.422 1.348 1.196 0.950 0.681 0.494 0.385 0.338 0.328 0.339 0.387 0.488 0.649 0.860 1.067 1.236 1.372 1.479 1.556 1.591 1.597 1.602 1.605 1.606 1.603 1.595 1.584 1.578 1.578 1.585 1.598 1.619 1.644 1.662 1.677 1.685 1.689 1.690 1.693 1.692 1.689 1.686 1.683 1.678 1.665 1.631 1.590 1.545 1.503 1.463 1.425 1.394 1.373 1.364 1.363 1.366 1.377 1.403 1.443 1.477 1.491 1.489 1.468 1.432 1.412 1.409 1.415 1.441 1.494 1.568 1.619 1.645 1.655 1.657 1.654 1.640 1.619 1.589 1.574 1.568 1.568 1.572 1.583 1.604 1.632 1.662 1.685 1.698 1.699 0.000 
0.000 1.187 1.266 1.297 1.402 1.499 1.549 1.571 1.566 1.536 1.464 1.337 1.144 0.889 0.626 0.414 0.256 0.158 0.110 0.095 0.097 0.121 0.174 0.277 0.456 0.729 1.044 1.265 1.385 1.427 1.431 1.412 1.342 1.191 0.947 0.701 0.545 0.465 0.439 0.439 0.464 0.531 0.655 0.829 1.007 1.157 1.289 1.411 1.508 1.565 1.591 1.601 1.603 1.604 1.602 1.595 1.578 1.549 1.530 1.523 1.524 1.532 1.554 1.594 1.634 1.657 1.671 1.679 1.684 1.688 1.688 1.687 1.686 1.683 1.679 1.666 1.634 1.592 1.547 1.506 1.476 1.452 1.435 1.427 1.426 1.429 1.437 1.453 1.474 1.490 1.494 1.496 1.488 1.461 1.413 1.383 1.376 1.380 1.401 1.451 1.528 1.588 1.622 1.637 1.641 1.640 1.631 1.611 1.585 1.573 1.569 1.570 1.577 1.592 1.613 1.637 1.663 1.687 1.700 1.700 0.000 
0.000 1.210 1.290 1.320 1.416 1.502 1.545 1.563 1.556 1.521 1.442 1.301 1.087 0.809 0.554 0.359 0.223 0.139 0.098 0.085 0.088 0.111 0.164 0.267 0.443 0.713 1.032 1.260 1.385 1.427 1.427 1.410 1.344 1.198 0.968 0.766 0.654 0.612 0.608 0.623 0.662 0.749 0.890 1.043 1.160 1.251 1.337 1.416 1.490 1.551 1.592 1.606 1.603 1.598 1.589 1.572 1.536 1.479 1.437 1.419 1.416 1.423 1.450 1.506 1.575 1.620 1.646 1.660 1.670 1.676 1.679 1.681 1.682 1.680 1.676 1.664 1.641 1.606 1.566 1.528 1.508 1.494 1.485 1.481 1.481 1.485 1.496 1.513 1.530 1.535 1.528 1.523 1.503 1.464 1.409 1.372 1.358 1.359 1.375 1.416 1.486 1.552 1.593 1.613 1.619 1.621 1.614 1.597 1.577 1.568 1.567 1.569 1.580 1.598 1.617 1.637 1.659 1.682 1.699 1.699 0.000 
0.000 1.224 1.300 1.333 1.420 1.503 1.544 1.554 1.548 1.515 1.435 1.288 1.067 0.784 0.531 0.344 0.217 0.138 0.097 0.085 0.088 0.109 0.161 0.265 0.441 0.710 1.031 1.262 1.390 1.433 1.431 1.418 1.362 1.232 1.038 0.900 0.842 0.837 0.852 0.878 0.919 0.990 1.098 1.204 1.277 1.326 1.363 1.401 1.448 1.497 1.550 1.589 1.594 1.581 1.562 1.527 1.458 1.356 1.285 1.255 1.250 1.259 1.298 1.380 1.486 1.559 1.602 1.626 1.641 1.651 1.659 1.666 1.671 1.674 1.673 1.668 1.655 1.637 1.609 1.578 1.560 1.547 1.538 1.531 1.526 1.528 1.535 1.551 1.567 1.572 1.570 1.561 1.532 1.480 1.415 1.372 1.351 1.346 1.354 1.383 1.439 1.506 1.551 1.575 1.586 1.590 1.586 1.574 1.562 1.557 1.558 1.565 1.581 1.600 1.616 1.629 1.641 1.660 1.691 1.687 0.000 
0.000 1.208 1.273 1.326 1.417 1.500 1.540 1.551 1.546 1.515 1.434 1.289 1.071 0.786 0.533 0.348 0.221 0.144 0.105 0.092 0.093 0.112 0.164 0.268 0.445 0.715 1.037 1.268 1.396 1.445 1.455 1.449 1.409 1.312 1.180 1.108 1.089 1.090 1.097 1.110 1.133 1.174 1.248 1.325 1.372 1.396 1.407 1.410 1.405 1.412 1.452 1.515 1.542 1.543 1.525 1.475 1.375 1.237 1.147 1.110 1.104 1.114 1.161 1.260 1.386 1.475 1.531 1.566 1.590 1.607 1.622 1.636 1.651 1.664 1.672 1.675 1.672 1.664 1.645 1.615 1.601 1.602 1.598 1.587 1.571 1.564 1.566 1.576 1.592 1.600 1.601 1.594 1.568 1.515 1.442 1.384 1.349 1.334 1.334 1.348 1.385 1.442 1.487 1.516 1.534 1.541 1.542 1.538 1.533 1.533 1.539 1.557 1.580 1.597 1.606 1.609 1.605 1.605 1.632 1.601 0.000 
0.000 1.158 1.206 1.287 1.397 1.489 1.536 1.550 1.547 1.519 1.445 1.308 1.097 0.818 0.563 0.376 0.247 0.166 0.124 0.110 0.110 0.127 0.178 0.282 0.461 0.735 1.056 1.281 1.407 1.469 1.501 1.504 1.486 1.432 1.350 1.300 1.280 1.271 1.268 1.275 1.284 1.312 1.378 1.434 1.461 1.469 1.462 1.437 1.398 1.388 1.411 1.465 1.507 1.518 1.504 1.446 1.331 1.181 1.081 1.037 1.028 1.037 1.087 1.194 1.326 1.416 1.469 1.500 1.522 1.541 1.561 1.585 1.614 1.645 1.667 1.681 1.686 1.674 1.626 1.596 1.608 1.648 1.665 1.654 1.619 1.597 1.593 1.598 1.611 1.621 1.623 1.619 1.600 1.559 1.492 1.417 1.358 1.322 1.305 1.304 1.321 1.352 1.393 1.428 1.452 1.469 1.479 1.485 1.491 1.503 1.526 1.555 1.577 1.586 1.586 1.572 1.531 1.469 1.435 1.313 0.000 
0.000 1.100 1.133 1.213 1.348 1.467 1.530 1.552 1.552 1.531 1.470 1.351 1.161 0.904 0.649 0.452 0.311 0.219 0.168 0.150 0.148 0.163 0.211 0.315 0.497 0.777 1.094 1.309 1.422 1.496 1.542 1.552 1.545 1.516 1.462 1.417 1.393 1.376 1.362 1.359 1.377 1.437 1.512 1.553 1.564 1.554 1.494 1.448 1.423 1.421 1.435 1.470 1.508 1.517 1.498 1.435 1.320 1.171 1.067 1.016 1.004 1.013 1.062 1.171 1.307 1.396 1.445 1.471 1.487 1.499 1.513 1.534 1.568 1.616 1.656 1.681 1.694 1.658 1.566 1.548 1.579 1.650 1.704 1.695 1.658 1.629 1.618 1.618 1.628 1.637 1.638 1.634 1.619 1.586 1.531 1.456 1.373 1.305 1.261 1.238 1.232 1.236 1.257 1.291 1.332 1.371 1.401 1.429 1.455 1.489 1.524 1.554 1.570 1.573 1.565 1.530 1.447 1.289 1.152 0.902 0.000 
0.000 1.066 1.094 1.154 1.299 1.443 1.525 1.559 1.565 1.554 1.513 1.424 1.273 1.058 0.811 0.598 0.433 0.318 0.250 0.221 0.217 0.227 0.272 0.374 0.556 0.840 1.146 1.349 1.441 1.520 1.569 1.580 1.577 1.559 1.519 1.475 1.438 1.406 1.389 1.392 1.449 1.584 1.697 1.730 1.732 1.673 1.515 1.447 1.452 1.478 1.510 1.532 1.536 1.529 1.500 1.433 1.325 1.200 1.091 1.024 1.006 1.014 1.061 1.170 1.310 1.401 1.448 1.471 1.483 1.490 1.498 1.513 1.544 1.594 1.644 1.675 1.686 1.655 1.573 1.539 1.514 1.519 1.595 1.665 1.676 1.657 1.641 1.637 1.640 1.645 1.646 1.642 1.628 1.598 1.548 1.474 1.378 1.276 1.194 1.140 1.111 1.105 1.115 1.144 1.197 1.269 1.338 1.394 1.440 1.488 1.528 1.555 1.566 1.565 1.551 1.500 1.392 1.193 0.992 0.666 0.000 
0.000 1.061 1.089 1.133 1.275 1.431 1.526 1.571 1.586 1.586 1.567 1.514 1.414 1.259 1.051 0.826 0.627 0.479 0.384 0.338 0.325 0.332 0.369 0.464 0.641 0.918 1.203 1.389 1.481 1.552 1.587 1.595 1.593 1.574 1.535 1.492 1.445 1.404 1.394 1.414 1.496 1.712 1.977 2.063 2.029 1.850 1.567 1.476 1.491 1.529 1.557 1.559 1.557 1.544 1.506 1.430 1.341 1.267 1.178 1.079 1.037 1.039 1.081 1.188 1.345 1.450 1.494 1.510 1.513 1.508 1.505 1.513 1.539 1.586 1.636 1.663 1.669 1.656 1.615 1.563 1.498 1.422 1.415 1.514 1.650 1.675 1.658 1.650 1.649 1.650 1.649 1.643 1.629 1.600 1.551 1.476 1.370 1.234 1.120 1.049 1.017 1.010 1.020 1.051 1.114 1.210 1.306 1.381 1.441 1.495 1.537 1.561 1.567 1.563 1.541 1.476 1.350 1.145 0.958 0.614 0.000 
0.000 1.066 1.098 1.133 1.266 1.427 1.531 1.587 1.611 1.616 1.609 1.581 1.521 1.423 1.284 1.104 0.899 0.711 0.582 0.510 0.485 0.486 0.513 0.595 0.755 1.009 1.267 1.438 1.536 1.584 1.601 1.604 1.599 1.576 1.533 1.472 1.419 1.394 1.393 1.414 1.498 1.724 2.126 2.328 2.261 1.966 1.639 1.521 1.519 1.538 1.558 1.564 1.562 1.552 1.513 1.422 1.333 1.292 1.244 1.156 1.109 1.101 1.133 1.219 1.374 1.542 1.617 1.631 1.628 1.595 1.552 1.538 1.550 1.587 1.633 1.658 1.665 1.662 1.644 1.604 1.533 1.461 1.443 1.510 1.660 1.676 1.666 1.658 1.655 1.652 1.649 1.641 1.626 1.598 1.549 1.470 1.351 1.193 1.066 0.991 0.959 0.956 0.968 1.008 1.083 1.190 1.298 1.384 1.455 1.513 1.553 1.572 1.575 1.567 1.535 1.453 1.300 1.096 0.951 0.604 0.000 
0.000 1.074 1.110 1.142 1.268 1.431 1.541 1.603 1.632 1.640 1.639 1.627 1.594 1.536 1.449 1.332 1.185 1.008 0.849 0.751 0.709 0.702 0.717 0.778 0.908 1.121 1.345 1.491 1.573 1.610 1.621 1.618 1.600 1.566 1.510 1.434 1.376 1.355 1.355 1.373 1.423 1.540 1.859 2.162 2.223 1.988 1.652 1.525 1.511 1.520 1.548 1.560 1.558 1.534 1.480 1.376 1.265 1.244 1.254 1.219 1.195 1.190 1.184 1.211 1.326 1.546 1.659 1.690 1.694 1.676 1.641 1.613 1.594 1.605 1.634 1.658 1.668 1.669 1.663 1.643 1.599 1.551 1.569 1.614 1.670 1.676 1.671 1.665 1.658 1.651 1.643 1.632 1.615 1.589 1.539 1.460 1.337 1.167 1.032 0.958 0.930 0.931 0.950 1.000 1.081 1.191 1.306 1.404 1.484 1.543 1.579 1.593 1.594 1.581 1.539 1.436 1.244 1.023 0.904 0.564 0.000 
0.000 1.082 1.122 1.155 1.285 1.449 1.559 1.621 1.651 1.662 1.663 1.658 1.643 1.612 1.562 1.493 1.404 1.288 1.160 1.064 1.011 0.995 0.998 1.030 1.116 1.271 1.445 1.558 1.616 1.636 1.638 1.624 1.590 1.536 1.466 1.384 1.312 1.267 1.247 1.234 1.191 1.077 1.070 1.269 1.545 1.676 1.546 1.472 1.462 1.479 1.521 1.546 1.549 1.534 1.483 1.380 1.291 1.276 1.298 1.311 1.314 1.300 1.249 1.171 1.156 1.253 1.316 1.361 1.426 1.527 1.669 1.698 1.671 1.646 1.649 1.658 1.675 1.679 1.678 1.669 1.647 1.625 1.650 1.681 1.690 1.684 1.678 1.670 1.660 1.644 1.625 1.609 1.593 1.571 1.528 1.457 1.336 1.155 1.006 0.934 0.914 0.920 0.954 1.019 1.109 1.220 1.342 1.447 1.530 1.586 1.615 1.623 1.621 1.601 1.548 1.435 1.213 0.912 0.745 0.430 0.000 
0.000 1.093 1.137 1.176 1.329 1.491 1.590 1.645 1.671 1.680 1.680 1.680 1.674 1.659 1.635 1.602 1.557 1.497 1.424 1.365 1.331 1.319 1.319 1.334 1.378 1.463 1.568 1.639 1.671 1.674 1.660 1.626 1.562 1.477 1.395 1.314 1.226 1.158 1.117 1.086 1.007 0.782 0.584 0.552 0.707 1.045 1.242 1.301 1.340 1.391 1.463 1.521 1.544 1.543 1.516 1.464 1.444 1.451 1.461 1.471 1.467 1.431 1.334 1.187 1.097 1.055 1.033 1.022 1.041 1.149 1.461 1.696 1.704 1.675 1.666 1.669 1.685 1.689 1.689 1.685 1.675 1.672 1.681 1.691 1.693 1.690 1.685 1.677 1.660 1.628 1.586 1.565 1.557 1.551 1.528 1.468 1.350 1.155 0.980 0.907 0.896 0.923 1.001 1.096 1.195 1.302 1.419 1.520 1.593 1.636 1.655 1.659 1.655 1.633 1.576 1.457 1.222 0.822 0.515 0.241 0.000 
0.000 1.106 1.155 1.216 1.413 1.565 1.643 1.677 1.690 1.693 1.693 1.694 1.692 1.687 1.680 1.669 1.654 1.633 1.603 1.574 1.557 1.552 1.552 1.558 1.577 1.613 1.658 1.688 1.695 1.703 1.682 1.624 1.520 1.383 1.268 1.190 1.124 1.067 1.008 0.949 0.864 0.692 0.543 0.508 0.561 0.776 0.962 1.051 1.138 1.241 1.362 1.474 1.546 1.581 1.588 1.570 1.567 1.590 1.613 1.616 1.603 1.553 1.428 1.261 1.171 1.149 1.152 1.125 1.076 1.092 1.251 1.539 1.662 1.681 1.682 1.690 1.695 1.696 1.696 1.695 1.692 1.690 1.696 1.697 1.697 1.695 1.694 1.685 1.662 1.601 1.511 1.478 1.493 1.531 1.544 1.508 1.399 1.188 0.948 0.845 0.849 0.952 1.139 1.272 1.357 1.437 1.521 1.595 1.647 1.674 1.684 1.686 1.684 1.673 1.633 1.526 1.287 0.827 0.385 0.133 0.000 
0.000 1.121 1.174 1.311 1.480 1.613 1.678 1.697 1.700 1.700 1.700 1.700 1.700 1.700 1.700 1.700 1.700 1.699 1.693 1.683 1.675 1.672 1.672 1.673 1.679 1.689 1.697 1.700 1.700 1.698 1.685 1.626 1.493 1.322 1.186 1.117 1.080 1.021 0.932 0.845 0.795 0.778 0.774 0.773 0.776 0.789 0.818 0.870 0.953 1.062 1.194 1.349 1.507 1.619 1.652 1.637 1.627 1.642 1.669 1.689 1.687 1.634 1.503 1.340 1.259 1.320 1.425 1.444 1.354 1.269 1.305 1.449 1.598 1.675 1.697 1.700 1.700 1.700 1.700 1.700 1.700 1.700 1.700 1.700 1.700 1.700 1.699 1.691 1.654 1.563 1.435 1.353 1.389 1.506 1.600 1.602 1.497 1.270 0.954 0.719 0.740 0.997 1.283 1.449 1.508 1.538 1.582 1.635 1.676 1.695 1.699 1.700 1.700 1.700 1.697 1.659 1.448 0.934 0.357 0.109 0.000 
0.000 1.133 1.190 1.332 1.500 1.624 1.682 1.698 1.700 1.700 1.700 1.700 1.700 1.700 1.700 1.700 1.700 1.700 1.700 1.699 1.698 1.698 1.698 1.698 1.699 1.699 1.700 1.700 1.700 1.698 1.680 1.614 1.475 1.305 1.176 1.112 1.071 1.000 0.893 0.793 0.739 0.722 0.719 0.719 0.720 0.723 0.735 0.771 0.850 0.972 1.126 1.307 1.489 1.622 1.677 1.683 1.682 1.686 1.693 1.697 1.687 1.628 1.489 1.330 1.271 1.359 1.479 1.488 1.378 1.282 1.321 1.469 1.613 1.682 1.698 1.700 1.700 1.700 1.700 1.700 1.700 1.700 1.700 1.700 1.700 1.700 1.699 1.688 1.643 1.534 1.389 1.305 1.357 1.498 1.619 1.651 1.572 1.344 1.006 0.763 0.811 1.109 1.423 1.595 1.649 1.662 1.673 1.685 1.695 1.699 1.700 1.700 1.700 1.700 1.697 1.659 1.449 0.935 0.357 0.107 0.000 
0.000 0.000 0.000 0.000 0.000 0.000 0.000 0.000 0.000 0.000 0.000 0.000 0.000 0.000 0.000 0.000 0.000 0.000 0.000 0.000 0.000 0.000 0.000 0.000 0.000 0.000 0.000 0.000 0.000 0.000 0.000 0.000 0.000 0.000 0.000 0.000 0.000 0.000 0.000 0.000 0.000 0.000 0.000 0.000 0.000 0.000 0.000 0.000 0.000 0.000 0.000 0.000 0.000 0.000 0.000 0.000 0.000 0.000 0.000 0.000 0.000 0.000 0.000 0.000 0.000 0.000 0.000 0.000 0.000 0.000 0.000 0.000 0.000 0.000 0.000 0.000 0.000 0.000 0.000 0.000 0.000 0.000 0.000 0.000 0.000 0.000 0.000 0.000 0.000 0.000 0.000 0.000 0.000 0.000 0.000 0.000 0.000 0.000 0.000 0.000 0.000 0.000 0.000 0.000 0.000 0.000 0.000 0.000 0.000 0.000 0.000 0.000 0.000 0.000 0.000 0.000 0.000 0.000 0.000 0.000 0.000 
