ncols 121
nrows 121
xllcenter 614385.88
yllcenter 1276940.75
cellsize 92.28
NODATA_value -9999.000
0.000 0.000 0.000 0.000 0.000 0.000 0.000 0.000 0.000 0.000 0.000 0.000 0.000 0.000 0.000 0.000 0.000 0.000 0.000 0.000 0.000 0.000 0.000 0.000 0.000 0.000 0.000 0.000 0.000 0.000 0.000 0.000 0.000 0.000 0.000 0.000 0.000 0.000 0.000 0.000 0.000 0.000 0.000 0.000 0.000 0.000 0.000 0.000 0.000 0.000 0.000 0.000 0.000 0.000 0.000 0.000 0.000 0.000 0.000 0.000 0.000 0.000 0.000 0.000 0.000 0.000 0.000 0.000 0.000 0.000 0.000 0.000 0.000 0.000 0.000 0.000 0.000 0.000 0.000 0.000 0.000 0.000 0.000 0.000 0.000 0.000 0.000 0.000 0.000 0.000 0.000 0.000 0.000 0.000 0.000 0.000 0.000 0.000 0.000 0.000 0.000 0.000 0.000 0.000 0.000 0.000 0.000 0.000 0.000 0.000 0.000 0.000 0.000 0.000 0.000 0.000 0.000 0.000 0.000 0.000 0.000 
0.000 0.000 0.005 0.066 0.328 0.746 0.995 1.050 1.055 1.055 1.055 1.056 1.056 1.056 1.056 1.056 1.056 1.056 1.056 1.057 1.057 1.057 1.057 1.057 1.057 1.057 1.057 1.058 1.058 1.058 1.058 1.058 1.058 1.058 1.059 1.059 1.059 1.059 1.058 1.056 1.052 1.050 1.051 1.054 1.057 1.059 1.060 1.060 1.060 1.061 1.061 1.060 1.059 1.056 1.053 1.051 1.053 1.057 1.059 1.060 1.060 1.061 1.061 1.052 1.009 0.944 0.942 1.007 1.052 1.062 1.063 1.063 1.063 1.063 1.060 1.056 1.055 1.067 1.100 1.138 1.143 1.079 0.986 0.972 1.024 1.057 1.065 1.065 1.065 1.066 1.066 1.066 1.066 1.066 1.066 1.066 1.066 1.067 1.067 1.067 1.067 1.067 1.067 1.067 1.067 1.067 1.054 1.004 0.950 0.962 0.962 0.882 0.789 0.779 0.862 0.970 1.036 1.056 1.057 1.017 0.000 
0.000 0.000 0.008 0.081 0.364 0.800 1.056 1.112 1.117 1.117 1.117 1.118 1.118 1.119 1.119 1.119 1.119 1.120 1.120 1.120 1.121 1.121 1.121 1.122 1.122 1.122 1.123 1.123 1.124 1.124 1.124 1.125 1.125 1.125 1.126 1.126 1.126 1.125 1.120 1.106 1.085 1.070 1.074 1.094 1.114 1.125 1.129 1.130 1.130 1.130 1.130 1.128 1.119 1.101 1.079 1.070 1.082 1.103 1.115 1.112 1.112 1.124 1.132 1.132 1.120 1.101 1.101 1.120 1.133 1.136 1.137 1.137 1.137 1.132 1.117 1.086 1.057 1.058 1.101 1.160 1.194 1.179 1.140 1.124 1.132 1.140 1.142 1.142 1.143 1.143 1.143 1.144 1.144 1.144 1.144 1.145 1.145 1.145 1.146 1.146 1.147 1.147 1.147 1.148 1.148 1.148 1.146 1.135 1.119 1.100 1.031 0.899 0.783 0.784 0.899 1.030 1.094 1.099 1.088 1.016 0.000 
0.000 0.002 0.022 0.048 0.214 0.575 0.909 1.055 1.102 1.119 1.129 1.136 1.140 1.143 1.145 1.147 1.149 1.150 1.151 1.151 1.152 1.153 1.153 1.153 1.154 1.154 1.154 1.155 1.155 1.155 1.155 1.155 1.155 1.155 1.155 1.154 1.153 1.152 1.149 1.139 1.119 1.098 1.093 1.102 1.124 1.140 1.149 1.153 1.155 1.156 1.156 1.155 1.151 1.138 1.114 1.097 1.097 1.112 1.129 1.133 1.135 1.139 1.150 1.153 1.151 1.139 1.132 1.136 1.149 1.156 1.157 1.158 1.157 1.154 1.144 1.121 1.087 1.074 1.087 1.137 1.182 1.191 1.175 1.152 1.148 1.153 1.157 1.158 1.159 1.159 1.159 1.159 1.158 1.158 1.158 1.159 1.159 1.160 1.161 1.164 1.167 1.170 1.173 1.174 1.175 1.175 1.175 1.170 1.158 1.139 1.100 1.003 0.869 0.826 0.862 0.978 1.068 1.103 1.114 1.011 0.000 
0.000 0.004 0.051 0.082 0.254 0.558 0.833 0.992 1.080 1.129 1.158 1.178 1.192 1.202 1.209 1.214 1.217 1.220 1.222 1.224 1.225 1.226 1.227 1.228 1.228 1.228 1.229 1.229 1.229 1.229 1.228 1.226 1.225 1.225 1.223 1.221 1.217 1.212 1.205 1.196 1.178 1.162 1.157 1.159 1.172 1.187 1.199 1.207 1.212 1.215 1.215 1.215 1.211 1.202 1.182 1.166 1.161 1.165 1.174 1.181 1.187 1.191 1.199 1.204 1.206 1.204 1.200 1.198 1.200 1.204 1.205 1.205 1.202 1.198 1.186 1.164 1.140 1.132 1.135 1.160 1.190 1.203 1.206 1.198 1.194 1.193 1.194 1.196 1.197 1.196 1.195 1.193 1.192 1.191 1.191 1.191 1.192 1.194 1.198 1.205 1.214 1.224 1.231 1.236 1.239 1.239 1.239 1.236 1.227 1.206 1.167 1.092 1.005 0.971 0.970 1.010 1.070 1.111 1.131 1.000 0.000 
0.000 0.010 0.083 0.121 0.296 0.570 0.815 0.975 1.079 1.149 1.200 1.238 1.265 1.285 1.298 1.307 1.313 1.317 1.321 1.324 1.327 1.329 1.331 1.331 1.331 1.331 1.333 1.333 1.333 1.333 1.329 1.325 1.325 1.324 1.321 1.316 1.309 1.298 1.285 1.271 1.258 1.250 1.247 1.246 1.249 1.259 1.273 1.286 1.294 1.298 1.301 1.299 1.297 1.289 1.275 1.259 1.249 1.244 1.244 1.248 1.252 1.256 1.260 1.266 1.272 1.275 1.275 1.274 1.273 1.273 1.272 1.270 1.265 1.254 1.239 1.223 1.211 1.205 1.203 1.207 1.220 1.233 1.245 1.251 1.252 1.251 1.251 1.251 1.251 1.250 1.247 1.243 1.239 1.238 1.237 1.237 1.239 1.243 1.251 1.264 1.282 1.301 1.314 1.323 1.328 1.329 1.328 1.326 1.316 1.296 1.260 1.207 1.146 1.103 1.082 1.078 1.093 1.117 1.133 0.989 0.000 
0.000 0.050 0.138 0.170 0.351 0.602 0.818 0.975 1.091 1.181 1.251 1.303 1.341 1.368 1.386 1.397 1.405 1.411 1.417 1.421 1.424 1.426 1.428 1.430 1.432 1.433 1.432 1.432 1.432 1.432 1.424 1.426 1.425 1.423 1.419 1.413 1.403 1.389 1.372 1.357 1.348 1.342 1.340 1.340 1.342 1.348 1.360 1.372 1.380 1.384 1.386 1.382 1.379 1.370 1.354 1.334 1.318 1.308 1.303 1.302 1.303 1.305 1.308 1.313 1.321 1.327 1.331 1.333 1.333 1.333 1.332 1.330 1.325 1.315 1.301 1.288 1.280 1.275 1.273 1.271 1.272 1.281 1.296 1.308 1.313 1.315 1.315 1.315 1.315 1.314 1.310 1.305 1.299 1.297 1.296 1.296 1.299 1.306 1.318 1.336 1.361 1.383 1.399 1.409 1.415 1.414 1.413 1.410 1.402 1.380 1.350 1.308 1.254 1.200 1.160 1.134 1.123 1.122 1.124 0.983 0.000 
0.000 0.244 0.337 0.284 0.451 0.663 0.842 0.991 1.115 1.217 1.295 1.356 1.400 1.431 1.453 1.467 1.474 1.483 1.490 1.493 1.496 1.497 1.499 1.501 1.503 1.503 1.503 1.504 1.505 1.507 1.501 1.502 1.501 1.499 1.494 1.487 1.476 1.461 1.443 1.429 1.421 1.416 1.415 1.415 1.417 1.422 1.431 1.441 1.447 1.449 1.450 1.446 1.439 1.427 1.411 1.388 1.366 1.351 1.342 1.338 1.337 1.338 1.340 1.345 1.354 1.364 1.371 1.375 1.377 1.377 1.376 1.374 1.370 1.362 1.351 1.341 1.335 1.332 1.330 1.330 1.332 1.338 1.350 1.360 1.365 1.367 1.368 1.368 1.368 1.367 1.365 1.361 1.357 1.354 1.354 1.356 1.362 1.371 1.384 1.402 1.426 1.449 1.465 1.475 1.480 1.478 1.477 1.473 1.464 1.444 1.418 1.380 1.333 1.276 1.218 1.172 1.140 1.120 1.109 0.982 0.000 
0.000 0.637 0.731 0.557 0.649 0.771 0.893 1.019 1.142 1.245 1.329 1.393 1.442 1.477 1.502 1.518 1.527 1.537 1.542 1.546 1.547 1.549 1.549 1.551 1.553 1.553 1.554 1.555 1.557 1.558 1.557 1.556 1.556 1.554 1.550 1.542 1.531 1.516 1.498 1.485 1.477 1.473 1.472 1.472 1.474 1.478 1.485 1.492 1.496 1.497 1.497 1.493 1.485 1.472 1.451 1.422 1.399 1.380 1.368 1.362 1.360 1.360 1.362 1.367 1.376 1.388 1.399 1.405 1.407 1.408 1.408 1.407 1.404 1.398 1.389 1.381 1.377 1.375 1.375 1.376 1.379 1.384 1.394 1.402 1.406 1.408 1.409 1.409 1.409 1.408 1.407 1.406 1.402 1.400 1.401 1.407 1.414 1.423 1.438 1.456 1.478 1.498 1.515 1.525 1.527 1.525 1.523 1.518 1.508 1.492 1.467 1.430 1.389 1.332 1.263 1.199 1.149 1.118 1.097 0.981 0.000 
0.000 0.981 1.055 0.900 0.869 0.894 0.953 1.046 1.162 1.269 1.355 1.422 1.473 1.511 1.537 1.554 1.566 1.574 1.579 1.582 1.583 1.584 1.584 1.584 1.585 1.586 1.586 1.590 1.593 1.594 1.595 1.594 1.594 1.592 1.588 1.582 1.571 1.557 1.540 1.527 1.520 1.516 1.515 1.515 1.516 1.519 1.524 1.529 1.531 1.531 1.530 1.526 1.516 1.500 1.477 1.445 1.419 1.398 1.385 1.378 1.376 1.375 1.377 1.382 1.391 1.405 1.418 1.425 1.430 1.431 1.431 1.431 1.429 1.424 1.418 1.412 1.409 1.409 1.409 1.411 1.414 1.420 1.428 1.434 1.438 1.440 1.441 1.441 1.441 1.440 1.439 1.439 1.438 1.438 1.443 1.448 1.456 1.467 1.481 1.500 1.519 1.535 1.548 1.562 1.560 1.558 1.556 1.550 1.540 1.525 1.502 1.468 1.428 1.371 1.298 1.220 1.158 1.114 1.087 0.990 0.000 
0.000 1.081 1.090 1.028 0.963 0.962 0.996 1.072 1.182 1.292 1.378 1.446 1.498 1.536 1.563 1.581 1.592 1.600 1.604 1.606 1.607 1.607 1.606 1.605 1.603 1.604 1.609 1.612 1.616 1.618 1.619 1.619 1.619 1.618 1.615 1.609 1.600 1.587 1.571 1.559 1.551 1.547 1.545 1.545 1.545 1.547 1.551 1.554 1.555 1.554 1.552 1.547 1.536 1.519 1.493 1.460 1.431 1.410 1.397 1.390 1.387 1.386 1.387 1.392 1.403 1.418 1.432 1.441 1.446 1.449 1.449 1.449 1.447 1.445 1.441 1.437 1.435 1.435 1.435 1.437 1.441 1.447 1.454 1.459 1.462 1.463 1.464 1.465 1.465 1.465 1.464 1.461 1.465 1.473 1.479 1.486 1.494 1.505 1.518 1.534 1.550 1.564 1.575 1.584 1.581 1.580 1.579 1.572 1.563 1.549 1.528 1.497 1.455 1.399 1.328 1.242 1.166 1.110 1.076 1.010 0.000 
0.000 1.042 0.945 1.007 0.976 0.987 1.029 1.102 1.206 1.314 1.400 1.467 1.518 1.555 1.582 1.600 1.610 1.617 1.620 1.621 1.621 1.621 1.620 1.619 1.620 1.621 1.622 1.625 1.629 1.632 1.634 1.635 1.635 1.634 1.631 1.626 1.619 1.608 1.594 1.581 1.573 1.568 1.566 1.565 1.565 1.566 1.568 1.570 1.570 1.569 1.566 1.560 1.549 1.530 1.503 1.467 1.439 1.419 1.405 1.398 1.395 1.395 1.396 1.402 1.413 1.429 1.444 1.453 1.459 1.462 1.464 1.463 1.462 1.461 1.458 1.455 1.455 1.455 1.455 1.458 1.463 1.469 1.474 1.477 1.480 1.481 1.482 1.482 1.483 1.483 1.483 1.484 1.491 1.498 1.505 1.512 1.522 1.533 1.546 1.559 1.573 1.585 1.597 1.595 1.595 1.594 1.594 1.587 1.580 1.567 1.547 1.517 1.477 1.423 1.353 1.266 1.178 1.108 1.064 1.029 0.000 
0.000 1.003 0.815 0.889 0.941 0.993 1.057 1.138 1.238 1.339 1.422 1.486 1.535 1.571 1.596 1.612 1.622 1.627 1.629 1.630 1.629 1.628 1.628 1.628 1.628 1.629 1.630 1.632 1.636 1.640 1.642 1.643 1.643 1.643 1.641 1.637 1.631 1.622 1.609 1.597 1.588 1.582 1.579 1.577 1.577 1.578 1.578 1.579 1.578 1.577 1.572 1.567 1.556 1.537 1.509 1.473 1.442 1.424 1.410 1.404 1.403 1.403 1.404 1.411 1.423 1.440 1.455 1.464 1.471 1.474 1.476 1.477 1.477 1.475 1.473 1.471 1.471 1.472 1.473 1.476 1.481 1.486 1.490 1.492 1.494 1.495 1.496 1.496 1.496 1.497 1.498 1.500 1.507 1.514 1.523 1.533 1.543 1.555 1.566 1.578 1.589 1.600 1.607 1.605 1.605 1.605 1.603 1.599 1.592 1.580 1.561 1.533 1.495 1.443 1.377 1.293 1.197 1.116 1.061 1.050 0.000 
0.000 0.992 0.766 0.810 0.896 0.990 1.082 1.176 1.275 1.368 1.445 1.506 1.552 1.584 1.606 1.621 1.630 1.633 1.634 1.633 1.633 1.630 1.632 1.633 1.633 1.632 1.633 1.634 1.638 1.643 1.646 1.647 1.647 1.647 1.646 1.644 1.639 1.631 1.620 1.607 1.598 1.591 1.587 1.585 1.583 1.583 1.583 1.583 1.582 1.580 1.576 1.571 1.560 1.542 1.515 1.479 1.444 1.418 1.407 1.409 1.410 1.411 1.413 1.420 1.433 1.451 1.466 1.476 1.482 1.486 1.487 1.488 1.488 1.487 1.486 1.486 1.486 1.488 1.490 1.494 1.497 1.501 1.504 1.505 1.506 1.507 1.507 1.507 1.507 1.508 1.510 1.512 1.520 1.527 1.536 1.548 1.560 1.571 1.581 1.591 1.601 1.609 1.610 1.612 1.612 1.612 1.611 1.607 1.601 1.590 1.572 1.546 1.510 1.461 1.398 1.319 1.228 1.147 1.090 1.073 0.000 
0.000 0.998 0.774 0.795 0.884 0.993 1.105 1.213 1.312 1.398 1.470 1.526 1.567 1.596 1.616 1.627 1.633 1.634 1.634 1.634 1.634 1.632 1.633 1.637 1.635 1.633 1.633 1.635 1.639 1.644 1.647 1.648 1.649 1.649 1.648 1.646 1.641 1.635 1.625 1.615 1.604 1.595 1.590 1.587 1.585 1.585 1.584 1.584 1.583 1.581 1.578 1.572 1.562 1.545 1.521 1.487 1.452 1.427 1.422 1.420 1.420 1.421 1.424 1.431 1.444 1.462 1.477 1.487 1.494 1.498 1.499 1.500 1.501 1.501 1.501 1.501 1.502 1.503 1.506 1.510 1.513 1.516 1.518 1.518 1.517 1.517 1.516 1.516 1.517 1.518 1.520 1.522 1.530 1.536 1.547 1.560 1.573 1.583 1.592 1.600 1.607 1.612 1.615 1.618 1.618 1.618 1.617 1.613 1.607 1.598 1.582 1.558 1.524 1.477 1.415 1.340 1.268 1.209 1.156 1.095 0.000 
0.000 1.017 0.843 0.822 0.898 1.007 1.134 1.248 1.347 1.429 1.495 1.546 1.583 1.608 1.624 1.633 1.636 1.637 1.637 1.637 1.636 1.634 1.634 1.638 1.636 1.630 1.631 1.634 1.639 1.643 1.647 1.648 1.649 1.649 1.648 1.645 1.642 1.636 1.628 1.617 1.605 1.597 1.591 1.587 1.586 1.585 1.584 1.584 1.583 1.581 1.578 1.573 1.564 1.550 1.528 1.498 1.468 1.449 1.443 1.439 1.437 1.438 1.442 1.448 1.460 1.477 1.491 1.501 1.507 1.511 1.512 1.513 1.514 1.515 1.517 1.517 1.518 1.520 1.523 1.526 1.528 1.530 1.531 1.530 1.528 1.526 1.525 1.525 1.526 1.527 1.528 1.531 1.536 1.543 1.555 1.569 1.582 1.591 1.599 1.605 1.611 1.616 1.620 1.622 1.624 1.623 1.621 1.618 1.613 1.605 1.591 1.569 1.537 1.491 1.428 1.353 1.293 1.254 1.223 1.097 0.000 
0.000 1.054 0.985 0.915 0.960 1.046 1.166 1.282 1.382 1.461 1.521 1.566 1.599 1.620 1.633 1.639 1.641 1.642 1.642 1.641 1.638 1.635 1.634 1.634 1.633 1.626 1.628 1.631 1.636 1.641 1.645 1.647 1.647 1.647 1.646 1.643 1.640 1.636 1.629 1.619 1.606 1.597 1.590 1.586 1.584 1.583 1.582 1.581 1.580 1.579 1.577 1.572 1.566 1.555 1.540 1.518 1.495 1.483 1.475 1.470 1.467 1.467 1.468 1.473 1.482 1.496 1.509 1.518 1.523 1.526 1.528 1.529 1.531 1.533 1.535 1.536 1.535 1.538 1.542 1.545 1.546 1.547 1.546 1.544 1.538 1.536 1.534 1.533 1.535 1.536 1.536 1.538 1.542 1.550 1.561 1.575 1.587 1.596 1.603 1.609 1.614 1.619 1.623 1.626 1.628 1.627 1.625 1.623 1.619 1.611 1.600 1.580 1.549 1.503 1.440 1.363 1.303 1.267 1.253 1.078 0.000 
0.000 1.092 1.124 1.062 1.073 1.118 1.208 1.321 1.418 1.491 1.547 1.588 1.616 1.633 1.642 1.646 1.647 1.647 1.647 1.645 1.640 1.635 1.631 1.628 1.625 1.623 1.624 1.626 1.631 1.637 1.641 1.643 1.644 1.644 1.641 1.639 1.638 1.634 1.628 1.619 1.606 1.596 1.588 1.583 1.579 1.577 1.576 1.575 1.575 1.574 1.573 1.571 1.569 1.565 1.560 1.550 1.540 1.533 1.526 1.520 1.516 1.512 1.509 1.510 1.514 1.522 1.532 1.539 1.543 1.546 1.548 1.550 1.552 1.555 1.559 1.561 1.560 1.563 1.567 1.568 1.569 1.568 1.565 1.560 1.551 1.546 1.543 1.542 1.544 1.544 1.543 1.545 1.549 1.557 1.567 1.579 1.589 1.597 1.605 1.611 1.617 1.621 1.626 1.629 1.631 1.631 1.629 1.627 1.623 1.618 1.608 1.589 1.558 1.513 1.451 1.372 1.306 1.264 1.243 1.060 0.000 
0.000 1.119 1.200 1.167 1.171 1.201 1.266 1.366 1.459 1.527 1.576 1.610 1.631 1.644 1.652 1.654 1.653 1.653 1.652 1.648 1.641 1.632 1.625 1.621 1.619 1.618 1.618 1.619 1.623 1.628 1.633 1.637 1.638 1.639 1.640 1.639 1.635 1.630 1.623 1.614 1.604 1.592 1.582 1.575 1.570 1.567 1.566 1.565 1.564 1.565 1.566 1.568 1.573 1.582 1.593 1.602 1.606 1.605 1.602 1.598 1.591 1.582 1.571 1.562 1.558 1.559 1.563 1.567 1.570 1.572 1.574 1.576 1.580 1.585 1.591 1.595 1.597 1.599 1.601 1.602 1.601 1.597 1.590 1.579 1.567 1.559 1.555 1.552 1.552 1.551 1.552 1.553 1.557 1.563 1.573 1.582 1.590 1.597 1.606 1.613 1.619 1.624 1.628 1.631 1.633 1.635 1.635 1.632 1.627 1.625 1.615 1.596 1.565 1.520 1.458 1.377 1.304 1.252 1.219 1.041 0.000 
0.000 1.138 1.236 1.221 1.236 1.274 1.338 1.423 1.500 1.558 1.600 1.627 1.644 1.654 1.658 1.659 1.659 1.658 1.655 1.649 1.639 1.627 1.617 1.612 1.611 1.609 1.610 1.611 1.612 1.616 1.622 1.627 1.630 1.633 1.634 1.633 1.630 1.624 1.617 1.608 1.598 1.585 1.572 1.562 1.555 1.551 1.549 1.548 1.549 1.550 1.554 1.562 1.576 1.602 1.640 1.677 1.701 1.712 1.715 1.712 1.704 1.687 1.661 1.634 1.617 1.607 1.603 1.602 1.603 1.604 1.606 1.609 1.615 1.624 1.636 1.645 1.650 1.652 1.653 1.652 1.648 1.641 1.627 1.608 1.590 1.577 1.569 1.564 1.562 1.561 1.561 1.562 1.565 1.572 1.579 1.587 1.593 1.600 1.608 1.614 1.620 1.626 1.633 1.639 1.640 1.639 1.639 1.640 1.638 1.632 1.620 1.601 1.570 1.525 1.462 1.380 1.297 1.236 1.198 1.021 0.000 
0.000 1.155 1.262 1.258 1.283 1.333 1.392 1.462 1.532 1.583 1.618 1.641 1.654 1.660 1.662 1.663 1.664 1.662 1.657 1.650 1.640 1.626 1.613 1.604 1.600 1.600 1.600 1.600 1.600 1.603 1.609 1.615 1.620 1.623 1.624 1.622 1.620 1.616 1.610 1.601 1.590 1.575 1.558 1.544 1.534 1.529 1.526 1.526 1.527 1.530 1.537 1.550 1.573 1.613 1.684 1.775 1.838 1.868 1.878 1.877 1.866 1.839 1.790 1.734 1.694 1.669 1.653 1.646 1.643 1.643 1.645 1.650 1.661 1.678 1.700 1.718 1.727 1.729 1.729 1.727 1.720 1.706 1.683 1.651 1.622 1.603 1.589 1.581 1.576 1.573 1.573 1.573 1.575 1.581 1.587 1.593 1.598 1.604 1.610 1.616 1.622 1.627 1.634 1.639 1.641 1.642 1.642 1.641 1.638 1.635 1.624 1.605 1.574 1.528 1.464 1.378 1.287 1.220 1.179 1.002 0.000 
0.000 1.173 1.288 1.287 1.318 1.370 1.421 1.490 1.554 1.603 1.630 1.648 1.659 1.664 1.666 1.667 1.666 1.663 1.657 1.648 1.641 1.626 1.612 1.602 1.596 1.592 1.589 1.589 1.589 1.591 1.595 1.602 1.607 1.611 1.612 1.610 1.608 1.605 1.599 1.591 1.578 1.561 1.539 1.522 1.509 1.502 1.498 1.498 1.499 1.504 1.514 1.531 1.560 1.609 1.701 1.867 2.026 2.092 2.110 2.110 2.094 2.048 1.967 1.868 1.794 1.745 1.714 1.697 1.689 1.687 1.689 1.697 1.713 1.741 1.781 1.821 1.839 1.842 1.842 1.838 1.827 1.804 1.766 1.714 1.670 1.639 1.618 1.604 1.596 1.589 1.588 1.587 1.588 1.592 1.596 1.601 1.602 1.608 1.613 1.618 1.623 1.628 1.634 1.639 1.643 1.644 1.644 1.643 1.640 1.637 1.626 1.607 1.576 1.530 1.464 1.376 1.277 1.203 1.160 0.990 0.000 
0.000 1.193 1.313 1.313 1.343 1.390 1.445 1.513 1.569 1.615 1.636 1.650 1.660 1.667 1.670 1.670 1.668 1.663 1.656 1.647 1.641 1.625 1.609 1.597 1.589 1.584 1.581 1.579 1.579 1.579 1.583 1.589 1.594 1.597 1.597 1.597 1.595 1.592 1.587 1.578 1.564 1.545 1.519 1.500 1.487 1.479 1.475 1.473 1.473 1.476 1.485 1.501 1.530 1.582 1.685 1.899 2.248 2.404 2.436 2.431 2.399 2.318 2.183 2.032 1.917 1.838 1.787 1.757 1.740 1.733 1.733 1.738 1.754 1.788 1.842 1.911 1.978 2.004 2.005 2.000 1.983 1.947 1.888 1.807 1.738 1.691 1.658 1.637 1.624 1.612 1.606 1.605 1.604 1.605 1.608 1.610 1.608 1.613 1.616 1.620 1.624 1.628 1.633 1.639 1.643 1.645 1.646 1.645 1.643 1.638 1.628 1.609 1.578 1.531 1.464 1.373 1.269 1.189 1.141 0.986 0.000 
0.000 1.213 1.332 1.333 1.354 1.398 1.465 1.530 1.581 1.619 1.640 1.654 1.664 1.669 1.671 1.671 1.668 1.662 1.654 1.650 1.638 1.621 1.603 1.590 1.581 1.575 1.572 1.570 1.568 1.569 1.572 1.577 1.581 1.582 1.583 1.582 1.581 1.577 1.572 1.562 1.548 1.527 1.501 1.482 1.469 1.461 1.457 1.454 1.452 1.449 1.450 1.457 1.474 1.506 1.586 1.835 2.364 2.669 2.753 2.747 2.684 2.548 2.351 2.166 2.031 1.936 1.870 1.826 1.801 1.781 1.773 1.772 1.780 1.814 1.871 1.949 2.071 2.189 2.232 2.228 2.204 2.150 2.061 1.939 1.834 1.762 1.714 1.681 1.660 1.641 1.630 1.626 1.623 1.622 1.622 1.620 1.619 1.620 1.620 1.622 1.625 1.628 1.633 1.638 1.643 1.646 1.647 1.646 1.645 1.639 1.629 1.610 1.579 1.532 1.465 1.372 1.262 1.178 1.124 0.982 0.000 
0.000 1.217 1.326 1.337 1.360 1.407 1.475 1.539 1.587 1.620 1.642 1.657 1.666 1.670 1.671 1.671 1.667 1.663 1.659 1.650 1.633 1.613 1.595 1.581 1.571 1.565 1.561 1.560 1.561 1.561 1.562 1.565 1.567 1.568 1.568 1.567 1.565 1.562 1.555 1.545 1.529 1.507 1.484 1.467 1.455 1.447 1.443 1.442 1.437 1.430 1.421 1.408 1.389 1.361 1.337 1.497 2.060 2.694 2.932 2.934 2.858 2.690 2.450 2.251 2.112 2.016 1.948 1.899 1.862 1.825 1.811 1.798 1.800 1.803 1.838 1.926 2.077 2.301 2.447 2.484 2.464 2.399 2.271 2.088 1.934 1.829 1.760 1.717 1.690 1.671 1.658 1.650 1.645 1.642 1.638 1.635 1.630 1.628 1.627 1.627 1.627 1.629 1.633 1.638 1.643 1.645 1.647 1.647 1.645 1.640 1.630 1.611 1.580 1.532 1.466 1.371 1.258 1.168 1.109 0.980 0.000 
0.000 1.187 1.275 1.321 1.357 1.409 1.478 1.543 1.589 1.620 1.643 1.658 1.666 1.670 1.672 1.672 1.671 1.667 1.662 1.642 1.624 1.602 1.583 1.569 1.559 1.553 1.550 1.549 1.550 1.550 1.551 1.551 1.552 1.552 1.552 1.551 1.549 1.545 1.538 1.526 1.509 1.487 1.468 1.454 1.444 1.438 1.434 1.432 1.427 1.418 1.403 1.377 1.329 1.241 1.069 0.885 1.068 1.774 2.488 2.866 2.913 2.745 2.488 2.290 2.161 2.071 2.006 1.956 1.910 1.866 1.840 1.820 1.820 1.811 1.791 1.776 1.873 2.192 2.529 2.649 2.651 2.581 2.421 2.197 2.003 1.870 1.784 1.734 1.708 1.694 1.685 1.678 1.672 1.667 1.662 1.654 1.644 1.637 1.633 1.631 1.630 1.631 1.633 1.638 1.643 1.645 1.647 1.647 1.645 1.641 1.631 1.612 1.581 1.532 1.466 1.373 1.257 1.161 1.098 0.979 0.000 
0.000 1.133 1.196 1.268 1.334 1.405 1.477 1.536 1.583 1.620 1.643 1.658 1.667 1.670 1.669 1.670 1.670 1.667 1.660 1.638 1.616 1.590 1.569 1.554 1.544 1.538 1.535 1.534 1.534 1.535 1.535 1.536 1.534 1.534 1.534 1.534 1.531 1.527 1.519 1.507 1.489 1.469 1.452 1.441 1.435 1.431 1.429 1.425 1.421 1.413 1.396 1.365 1.306 1.198 1.002 0.699 0.506 0.567 0.982 1.678 2.363 2.622 2.476 2.294 2.182 2.105 2.040 1.987 1.942 1.901 1.863 1.838 1.830 1.821 1.802 1.762 1.708 1.799 2.158 2.539 2.713 2.658 2.492 2.263 2.043 1.890 1.792 1.738 1.714 1.708 1.709 1.708 1.706 1.701 1.692 1.676 1.658 1.647 1.639 1.636 1.634 1.634 1.635 1.639 1.643 1.645 1.646 1.646 1.644 1.641 1.631 1.610 1.579 1.533 1.467 1.376 1.259 1.157 1.088 0.978 0.000 
0.000 1.085 1.131 1.196 1.287 1.389 1.471 1.535 1.584 1.619 1.643 1.656 1.663 1.666 1.669 1.669 1.668 1.664 1.653 1.636 1.611 1.583 1.557 1.538 1.527 1.520 1.516 1.514 1.514 1.513 1.514 1.514 1.512 1.513 1.513 1.512 1.510 1.506 1.498 1.486 1.468 1.450 1.437 1.430 1.426 1.426 1.424 1.422 1.419 1.412 1.395 1.362 1.302 1.190 0.999 0.715 0.464 0.332 0.306 0.514 1.182 2.017 2.296 2.251 2.180 2.124 2.055 1.995 1.958 1.925 1.884 1.842 1.828 1.833 1.844 1.820 1.754 1.647 1.548 1.723 2.120 2.479 2.487 2.291 2.059 1.894 1.791 1.735 1.712 1.709 1.725 1.743 1.745 1.739 1.720 1.691 1.668 1.654 1.645 1.640 1.638 1.638 1.638 1.640 1.643 1.645 1.645 1.644 1.642 1.638 1.628 1.610 1.579 1.534 1.470 1.381 1.265 1.155 1.079 0.990 0.000 
0.000 1.063 1.105 1.150 1.247 1.364 1.458 1.529 1.580 1.616 1.641 1.655 1.664 1.668 1.669 1.668 1.664 1.658 1.646 1.629 1.607 1.579 1.550 1.525 1.508 1.497 1.492 1.488 1.487 1.486 1.486 1.486 1.485 1.486 1.485 1.485 1.483 1.480 1.473 1.463 1.445 1.432 1.423 1.418 1.417 1.419 1.419 1.421 1.419 1.413 1.397 1.364 1.299 1.191 1.024 0.774 0.524 0.369 0.313 0.347 0.677 1.458 1.950 2.099 2.114 2.077 2.024 1.984 1.958 1.938 1.899 1.826 1.799 1.819 1.911 1.954 1.893 1.731 1.478 1.294 1.286 1.657 2.150 2.233 2.058 1.886 1.781 1.722 1.695 1.690 1.722 1.777 1.785 1.771 1.735 1.699 1.674 1.658 1.649 1.644 1.642 1.641 1.641 1.642 1.643 1.644 1.643 1.642 1.641 1.639 1.628 1.609 1.580 1.537 1.475 1.390 1.278 1.162 1.077 1.015 0.000 
0.000 1.062 1.108 1.138 1.227 1.346 1.447 1.522 1.575 1.612 1.638 1.654 1.663 1.666 1.667 1.665 1.660 1.652 1.640 1.624 1.602 1.578 1.548 1.518 1.493 1.474 1.462 1.456 1.453 1.451 1.450 1.450 1.450 1.451 1.450 1.451 1.450 1.449 1.444 1.436 1.421 1.413 1.408 1.406 1.408 1.411 1.417 1.422 1.422 1.419 1.406 1.376 1.320 1.227 1.085 0.876 0.655 0.514 0.455 0.459 0.639 1.143 1.558 1.734 1.788 1.827 1.900 1.944 1.946 1.920 1.815 1.706 1.647 1.657 1.846 2.067 2.045 1.891 1.596 1.320 1.183 1.183 1.544 1.921 1.962 1.850 1.752 1.691 1.651 1.638 1.679 1.780 1.815 1.787 1.740 1.701 1.676 1.661 1.651 1.646 1.644 1.643 1.642 1.643 1.644 1.644 1.644 1.642 1.640 1.637 1.626 1.608 1.579 1.538 1.481 1.403 1.301 1.188 1.101 1.039 0.000 
0.000 1.069 1.120 1.143 1.222 1.336 1.441 1.519 1.573 1.611 1.635 1.652 1.661 1.664 1.664 1.662 1.657 1.649 1.636 1.621 1.600 1.576 1.547 1.515 1.485 1.457 1.436 1.421 1.412 1.407 1.406 1.405 1.406 1.406 1.407 1.409 1.410 1.410 1.409 1.403 1.396 1.392 1.391 1.393 1.397 1.404 1.416 1.427 1.432 1.431 1.424 1.403 1.362 1.291 1.183 1.024 0.853 0.743 0.697 0.692 0.774 1.030 1.286 1.424 1.525 1.656 1.815 1.914 1.943 1.891 1.597 1.384 1.277 1.236 1.395 1.851 2.072 1.978 1.742 1.455 1.277 1.214 1.281 1.558 1.709 1.732 1.690 1.641 1.599 1.559 1.534 1.610 1.757 1.784 1.739 1.699 1.676 1.661 1.653 1.647 1.644 1.643 1.643 1.643 1.643 1.644 1.644 1.642 1.638 1.632 1.622 1.605 1.578 1.538 1.483 1.411 1.326 1.240 1.164 1.062 0.000 
0.000 1.077 1.134 1.154 1.225 1.332 1.438 1.517 1.574 1.612 1.634 1.650 1.658 1.661 1.663 1.662 1.656 1.647 1.634 1.619 1.599 1.574 1.546 1.515 1.482 1.448 1.417 1.393 1.375 1.364 1.358 1.355 1.354 1.355 1.356 1.359 1.363 1.367 1.368 1.366 1.365 1.367 1.371 1.377 1.386 1.398 1.415 1.434 1.447 1.454 1.454 1.446 1.424 1.382 1.313 1.210 1.094 1.017 0.979 0.965 0.984 1.073 1.198 1.294 1.384 1.514 1.721 1.890 1.942 1.745 1.195 0.905 0.756 0.643 0.636 0.992 1.608 1.895 1.786 1.548 1.369 1.294 1.291 1.375 1.483 1.562 1.590 1.586 1.573 1.548 1.510 1.496 1.592 1.714 1.715 1.691 1.673 1.661 1.653 1.648 1.645 1.643 1.642 1.642 1.642 1.642 1.642 1.640 1.635 1.626 1.615 1.600 1.575 1.537 1.483 1.411 1.339 1.285 1.236 1.082 0.000 
0.000 1.086 1.150 1.168 1.233 1.332 1.435 1.515 1.571 1.607 1.636 1.647 1.655 1.658 1.660 1.659 1.653 1.645 1.633 1.618 1.598 1.574 1.547 1.516 1.482 1.445 1.407 1.373 1.347 1.329 1.318 1.312 1.310 1.309 1.310 1.312 1.317 1.324 1.330 1.330 1.335 1.343 1.353 1.364 1.377 1.393 1.413 1.437 1.460 1.478 1.490 1.497 1.493 1.478 1.446 1.393 1.325 1.277 1.248 1.228 1.207 1.182 1.167 1.178 1.217 1.303 1.452 1.565 1.547 1.211 0.682 0.476 0.374 0.267 0.192 0.221 0.632 1.299 1.638 1.557 1.392 1.301 1.275 1.283 1.339 1.429 1.509 1.555 1.570 1.559 1.533 1.521 1.545 1.644 1.667 1.670 1.665 1.659 1.652 1.648 1.644 1.642 1.641 1.640 1.639 1.638 1.637 1.633 1.628 1.621 1.611 1.597 1.571 1.533 1.479 1.406 1.338 1.295 1.275 1.103 0.000 
0.000 1.097 1.168 1.183 1.243 1.336 1.434 1.506 1.562 1.607 1.632 1.643 1.651 1.653 1.654 1.654 1.649 1.642 1.632 1.617 1.598 1.575 1.548 1.517 1.483 1.445 1.402 1.360 1.327 1.303 1.287 1.278 1.274 1.273 1.273 1.275 1.279 1.287 1.296 1.300 1.310 1.323 1.337 1.353 1.370 1.390 1.414 1.439 1.467 1.493 1.517 1.537 1.552 1.560 1.561 1.553 1.536 1.524 1.512 1.492 1.444 1.341 1.167 1.040 0.989 0.954 0.904 0.803 0.656 0.441 0.250 0.182 0.133 0.081 0.048 0.033 0.100 0.480 1.073 1.387 1.352 1.262 1.210 1.198 1.220 1.306 1.454 1.550 1.584 1.589 1.580 1.573 1.581 1.616 1.647 1.657 1.658 1.656 1.652 1.647 1.643 1.640 1.638 1.636 1.634 1.631 1.629 1.626 1.622 1.622 1.613 1.593 1.565 1.525 1.470 1.397 1.330 1.289 1.269 1.104 0.000 
0.000 1.112 1.190 1.201 1.256 1.343 1.436 1.507 1.562 1.604 1.621 1.633 1.641 1.647 1.648 1.647 1.645 1.640 1.631 1.618 1.600 1.577 1.551 1.520 1.487 1.448 1.402 1.354 1.313 1.283 1.263 1.252 1.246 1.244 1.244 1.245 1.248 1.255 1.265 1.276 1.289 1.305 1.323 1.344 1.366 1.390 1.416 1.443 1.472 1.503 1.534 1.566 1.597 1.627 1.660 1.697 1.737 1.771 1.791 1.785 1.734 1.574 1.210 0.901 0.806 0.766 0.700 0.545 0.308 0.136 0.064 0.042 0.028 0.018 0.015 0.018 0.021 0.100 0.452 0.968 1.161 1.127 1.071 1.052 1.068 1.179 1.427 1.586 1.643 1.658 1.659 1.647 1.636 1.638 1.650 1.656 1.656 1.654 1.650 1.644 1.639 1.635 1.632 1.629 1.627 1.627 1.625 1.620 1.615 1.610 1.601 1.583 1.554 1.513 1.456 1.381 1.313 1.268 1.242 1.086 0.000 
0.000 1.128 1.214 1.222 1.272 1.354 1.442 1.512 1.563 1.596 1.616 1.630 1.639 1.642 1.642 1.642 1.641 1.638 1.631 1.619 1.603 1.582 1.556 1.526 1.490 1.449 1.404 1.352 1.306 1.270 1.246 1.231 1.223 1.220 1.219 1.220 1.222 1.229 1.239 1.253 1.270 1.290 1.312 1.338 1.364 1.391 1.418 1.447 1.478 1.512 1.548 1.588 1.630 1.680 1.742 1.823 1.929 2.038 2.135 2.197 2.166 1.982 1.435 0.871 0.728 0.719 0.668 0.507 0.253 0.090 0.028 0.014 0.011 0.011 0.014 0.020 0.027 0.043 0.172 0.559 0.822 0.854 0.825 0.800 0.813 1.047 1.494 1.711 1.791 1.800 1.777 1.741 1.703 1.677 1.664 1.660 1.657 1.653 1.647 1.639 1.632 1.626 1.622 1.618 1.616 1.615 1.612 1.608 1.602 1.593 1.582 1.566 1.538 1.495 1.435 1.356 1.282 1.232 1.208 1.068 0.000 
0.000 1.144 1.240 1.245 1.292 1.367 1.449 1.512 1.558 1.590 1.612 1.626 1.638 1.639 1.638 1.639 1.639 1.637 1.631 1.622 1.607 1.589 1.564 1.535 1.499 1.457 1.409 1.354 1.303 1.262 1.233 1.214 1.204 1.199 1.197 1.198 1.200 1.206 1.216 1.232 1.252 1.276 1.304 1.335 1.364 1.392 1.421 1.453 1.486 1.521 1.560 1.604 1.655 1.719 1.804 1.921 2.092 2.354 2.688 2.981 3.130 3.144 2.684 1.802 1.240 0.966 0.747 0.504 0.253 0.095 0.031 0.015 0.015 0.018 0.028 0.039 0.048 0.060 0.113 0.318 0.539 0.598 0.590 0.562 0.628 1.138 1.845 2.072 2.102 2.022 1.914 1.830 1.766 1.718 1.688 1.671 1.660 1.650 1.641 1.631 1.621 1.612 1.606 1.602 1.599 1.595 1.592 1.587 1.580 1.571 1.558 1.538 1.509 1.467 1.405 1.319 1.236 1.181 1.152 1.014 0.000 
0.000 1.161 1.265 1.269 1.312 1.378 1.452 1.509 1.550 1.581 1.604 1.621 1.634 1.637 1.635 1.638 1.638 1.637 1.633 1.626 1.614 1.598 1.576 1.548 1.513 1.470 1.419 1.360 1.304 1.258 1.223 1.200 1.187 1.180 1.177 1.177 1.179 1.184 1.195 1.212 1.235 1.266 1.300 1.333 1.363 1.396 1.428 1.461 1.495 1.531 1.571 1.616 1.669 1.741 1.846 1.983 2.202 2.545 3.079 3.756 4.348 4.758 4.787 4.288 3.408 2.355 1.338 0.681 0.354 0.190 0.097 0.052 0.041 0.048 0.071 0.098 0.112 0.122 0.148 0.253 0.421 0.489 0.487 0.481 0.706 1.764 2.673 2.704 2.499 2.234 2.028 1.892 1.808 1.754 1.715 1.687 1.665 1.648 1.633 1.618 1.604 1.593 1.584 1.578 1.573 1.568 1.563 1.558 1.551 1.541 1.526 1.505 1.475 1.432 1.371 1.283 1.185 1.116 1.079 0.927 0.000 
0.000 1.180 1.289 1.293 1.329 1.384 1.450 1.502 1.541 1.572 1.596 1.614 1.627 1.634 1.635 1.638 1.638 1.637 1.635 1.631 1.623 1.610 1.591 1.564 1.530 1.486 1.432 1.370 1.308 1.257 1.216 1.188 1.171 1.162 1.158 1.158 1.159 1.164 1.174 1.192 1.217 1.250 1.290 1.328 1.362 1.398 1.433 1.468 1.503 1.540 1.579 1.622 1.676 1.752 1.865 2.021 2.270 2.658 3.245 4.058 4.756 5.157 5.280 5.175 4.602 3.446 2.029 1.087 0.633 0.435 0.304 0.202 0.148 0.140 0.164 0.209 0.241 0.251 0.258 0.306 0.417 0.475 0.475 0.502 0.920 2.260 3.073 2.982 2.692 2.365 2.125 1.959 1.855 1.791 1.745 1.706 1.674 1.646 1.621 1.598 1.580 1.565 1.553 1.545 1.538 1.531 1.526 1.520 1.513 1.504 1.491 1.472 1.444 1.404 1.345 1.261 1.152 1.059 1.017 0.839 0.000 
0.000 1.199 1.310 1.312 1.338 1.385 1.446 1.495 1.534 1.564 1.589 1.608 1.622 1.631 1.636 1.639 1.640 1.640 1.638 1.636 1.630 1.619 1.602 1.578 1.545 1.503 1.450 1.384 1.316 1.259 1.213 1.177 1.155 1.144 1.139 1.138 1.139 1.143 1.153 1.172 1.201 1.237 1.278 1.320 1.359 1.398 1.436 1.473 1.509 1.546 1.586 1.624 1.679 1.756 1.869 2.039 2.299 2.715 3.345 4.151 4.775 5.069 5.142 5.054 4.549 3.449 2.141 1.275 0.811 0.581 0.444 0.344 0.283 0.265 0.276 0.318 0.377 0.422 0.436 0.450 0.503 0.527 0.525 0.573 1.007 2.221 2.994 2.978 2.744 2.445 2.207 2.035 1.918 1.838 1.778 1.729 1.686 1.648 1.611 1.579 1.553 1.534 1.519 1.508 1.500 1.494 1.489 1.484 1.479 1.472 1.461 1.445 1.420 1.382 1.327 1.249 1.140 1.024 0.949 0.798 0.000 
0.000 1.206 1.310 1.318 1.339 1.383 1.441 1.491 1.529 1.559 1.584 1.604 1.620 1.631 1.638 1.643 1.645 1.642 1.642 1.640 1.636 1.627 1.612 1.589 1.558 1.519 1.467 1.402 1.329 1.265 1.213 1.170 1.139 1.126 1.119 1.118 1.118 1.122 1.132 1.151 1.180 1.218 1.262 1.309 1.355 1.397 1.437 1.476 1.513 1.547 1.588 1.628 1.682 1.759 1.870 2.039 2.311 2.742 3.391 4.091 4.510 4.628 4.547 4.150 3.376 2.450 1.688 1.171 0.812 0.590 0.455 0.367 0.322 0.314 0.331 0.372 0.443 0.539 0.623 0.655 0.670 0.669 0.667 0.705 1.027 1.862 2.586 2.794 2.697 2.488 2.274 2.112 1.991 1.899 1.824 1.761 1.705 1.654 1.608 1.568 1.534 1.509 1.491 1.479 1.470 1.465 1.461 1.457 1.453 1.447 1.438 1.424 1.402 1.366 1.314 1.239 1.139 1.019 0.912 0.804 0.000 
0.000 1.183 1.269 1.307 1.335 1.379 1.436 1.484 1.523 1.555 1.582 1.603 1.619 1.631 1.639 1.645 1.648 1.645 1.645 1.644 1.639 1.632 1.619 1.599 1.571 1.533 1.484 1.421 1.347 1.274 1.214 1.165 1.127 1.108 1.098 1.095 1.095 1.098 1.107 1.126 1.154 1.194 1.244 1.300 1.351 1.395 1.437 1.476 1.514 1.549 1.589 1.634 1.688 1.761 1.865 2.023 2.281 2.694 3.230 3.559 3.622 3.436 2.734 1.689 0.947 0.640 0.548 0.522 0.472 0.397 0.337 0.305 0.299 0.313 0.342 0.386 0.455 0.568 0.747 0.848 0.859 0.847 0.836 0.871 1.102 1.636 2.232 2.543 2.593 2.493 2.325 2.186 2.075 1.979 1.892 1.810 1.735 1.668 1.612 1.563 1.524 1.494 1.473 1.459 1.450 1.444 1.440 1.437 1.434 1.429 1.421 1.409 1.389 1.355 1.304 1.232 1.136 1.035 0.946 0.811 0.000 
0.000 1.133 1.195 1.261 1.314 1.370 1.428 1.478 1.519 1.553 1.580 1.602 1.619 1.631 1.640 1.646 1.648 1.648 1.646 1.645 1.643 1.637 1.626 1.609 1.582 1.546 1.500 1.439 1.366 1.287 1.219 1.163 1.122 1.093 1.077 1.070 1.069 1.071 1.079 1.096 1.124 1.166 1.221 1.285 1.342 1.391 1.435 1.475 1.514 1.553 1.594 1.641 1.697 1.765 1.853 1.973 2.150 2.404 2.602 2.646 2.608 2.209 1.135 0.302 0.084 0.064 0.071 0.087 0.105 0.116 0.123 0.137 0.177 0.256 0.328 0.374 0.426 0.522 0.776 0.983 1.003 0.954 0.910 0.939 1.143 1.612 2.166 2.464 2.522 2.462 2.355 2.262 2.179 2.092 1.996 1.889 1.784 1.695 1.623 1.565 1.520 1.486 1.462 1.446 1.437 1.431 1.427 1.424 1.421 1.417 1.411 1.400 1.380 1.348 1.299 1.228 1.130 1.046 0.999 0.839 0.000 
0.000 1.085 1.128 1.190 1.268 1.349 1.417 1.471 1.516 1.552 1.580 1.602 1.619 1.633 1.642 1.647 1.649 1.648 1.647 1.647 1.646 1.642 1.633 1.617 1.593 1.559 1.515 1.456 1.383 1.301 1.227 1.166 1.118 1.083 1.061 1.049 1.046 1.046 1.051 1.065 1.092 1.134 1.193 1.263 1.327 1.382 1.430 1.474 1.515 1.558 1.604 1.655 1.713 1.777 1.845 1.914 1.984 2.073 2.138 2.148 2.052 1.623 0.629 0.098 0.025 0.019 0.020 0.023 0.032 0.045 0.061 0.083 0.128 0.210 0.280 0.311 0.326 0.389 0.699 1.044 1.086 1.001 0.918 0.930 1.114 1.586 2.193 2.487 2.497 2.414 2.345 2.353 2.324 2.254 2.151 2.016 1.863 1.738 1.643 1.573 1.521 1.483 1.457 1.439 1.429 1.423 1.419 1.416 1.413 1.410 1.404 1.395 1.374 1.345 1.298 1.228 1.126 1.037 0.999 0.890 0.000 
0.000 1.060 1.097 1.140 1.225 1.323 1.404 1.466 1.515 1.552 1.580 1.603 1.621 1.635 1.644 1.649 1.651 1.651 1.651 1.651 1.650 1.647 1.639 1.625 1.603 1.573 1.533 1.471 1.401 1.320 1.239 1.172 1.119 1.078 1.050 1.034 1.028 1.027 1.031 1.042 1.065 1.103 1.161 1.234 1.307 1.367 1.420 1.469 1.518 1.568 1.621 1.680 1.745 1.807 1.859 1.894 1.911 1.912 1.877 1.806 1.668 1.313 0.542 0.109 0.029 0.020 0.020 0.022 0.029 0.043 0.065 0.100 0.152 0.218 0.264 0.276 0.268 0.301 0.605 1.037 1.107 1.011 0.872 0.825 0.944 1.400 2.169 2.552 2.514 2.349 2.293 2.423 2.524 2.479 2.377 2.204 1.982 1.804 1.677 1.587 1.526 1.484 1.455 1.437 1.426 1.419 1.415 1.412 1.409 1.406 1.401 1.392 1.372 1.344 1.300 1.232 1.133 1.021 0.954 0.940 0.000 
0.000 1.058 1.096 1.125 1.203 1.306 1.395 1.463 1.515 1.554 1.583 1.603 1.624 1.638 1.648 1.653 1.655 1.655 1.655 1.656 1.656 1.653 1.645 1.632 1.613 1.585 1.551 1.485 1.421 1.342 1.256 1.182 1.122 1.076 1.045 1.026 1.017 1.015 1.017 1.025 1.044 1.079 1.131 1.201 1.279 1.347 1.407 1.464 1.522 1.581 1.646 1.721 1.801 1.864 1.900 1.910 1.887 1.788 1.644 1.516 1.364 1.088 0.532 0.154 0.059 0.041 0.038 0.040 0.048 0.070 0.110 0.165 0.221 0.264 0.287 0.288 0.275 0.286 0.518 0.976 1.080 0.986 0.774 0.587 0.556 0.820 1.628 2.365 2.431 2.238 2.170 2.340 2.694 2.750 2.631 2.385 2.091 1.872 1.717 1.609 1.535 1.487 1.456 1.436 1.424 1.418 1.414 1.411 1.408 1.405 1.400 1.390 1.372 1.345 1.307 1.244 1.154 1.038 0.946 0.994 0.000 
0.000 1.064 1.108 1.127 1.196 1.295 1.390 1.462 1.517 1.557 1.586 1.605 1.628 1.642 1.653 1.659 1.661 1.662 1.663 1.663 1.662 1.658 1.651 1.640 1.622 1.598 1.564 1.505 1.441 1.365 1.278 1.197 1.130 1.079 1.044 1.022 1.013 1.009 1.010 1.016 1.032 1.061 1.107 1.170 1.247 1.323 1.391 1.456 1.521 1.590 1.670 1.768 1.878 1.959 1.994 1.993 1.914 1.642 1.389 1.234 1.101 0.908 0.529 0.224 0.130 0.107 0.094 0.090 0.100 0.140 0.213 0.282 0.326 0.346 0.351 0.347 0.337 0.337 0.446 0.790 0.935 0.887 0.690 0.419 0.278 0.282 0.677 1.544 2.008 1.947 1.855 2.067 2.771 2.941 2.791 2.482 2.155 1.918 1.750 1.630 1.548 1.494 1.459 1.437 1.425 1.417 1.413 1.410 1.408 1.405 1.400 1.392 1.379 1.355 1.320 1.268 1.194 1.101 1.033 1.049 0.000 
0.000 1.072 1.121 1.137 1.196 1.288 1.385 1.462 1.520 1.562 1.591 1.613 1.633 1.647 1.658 1.666 1.668 1.669 1.669 1.668 1.667 1.664 1.658 1.648 1.633 1.611 1.579 1.531 1.467 1.392 1.307 1.219 1.145 1.088 1.049 1.024 1.012 1.008 1.008 1.012 1.025 1.051 1.091 1.148 1.219 1.297 1.373 1.445 1.518 1.593 1.682 1.795 1.944 2.089 2.173 2.200 1.986 1.392 1.057 0.931 0.857 0.772 0.546 0.326 0.265 0.250 0.225 0.208 0.218 0.278 0.382 0.450 0.476 0.483 0.484 0.476 0.464 0.463 0.501 0.647 0.738 0.725 0.588 0.343 0.182 0.118 0.165 0.593 1.217 1.401 1.348 1.545 2.484 2.983 2.831 2.513 2.184 1.945 1.773 1.650 1.563 1.504 1.465 1.441 1.426 1.418 1.414 1.411 1.408 1.406 1.400 1.393 1.382 1.362 1.333 1.291 1.246 1.206 1.172 1.105 0.000 
0.000 1.080 1.135 1.150 1.202 1.284 1.381 1.461 1.522 1.566 1.599 1.623 1.640 1.653 1.663 1.671 1.673 1.673 1.673 1.672 1.671 1.669 1.665 1.657 1.644 1.626 1.601 1.553 1.494 1.424 1.342 1.249 1.168 1.105 1.060 1.027 1.013 1.008 1.008 1.012 1.024 1.047 1.083 1.135 1.200 1.275 1.353 1.431 1.509 1.590 1.684 1.806 1.974 2.185 2.338 2.368 1.778 0.892 0.646 0.649 0.694 0.715 0.627 0.525 0.518 0.542 0.539 0.520 0.482 0.524 0.626 0.695 0.715 0.716 0.703 0.667 0.638 0.622 0.613 0.631 0.640 0.596 0.468 0.274 0.138 0.076 0.061 0.170 0.634 1.038 1.123 1.186 1.823 2.671 2.736 2.501 2.192 1.959 1.791 1.668 1.579 1.517 1.474 1.446 1.431 1.422 1.416 1.413 1.410 1.409 1.403 1.395 1.384 1.367 1.340 1.303 1.275 1.265 1.272 1.122 0.000 
0.000 1.090 1.151 1.162 1.209 1.282 1.375 1.459 1.522 1.568 1.603 1.629 1.650 1.660 1.666 1.672 1.675 1.677 1.677 1.677 1.676 1.675 1.671 1.666 1.656 1.640 1.622 1.576 1.524 1.461 1.384 1.290 1.198 1.124 1.069 1.035 1.018 1.012 1.011 1.014 1.025 1.046 1.080 1.128 1.188 1.258 1.334 1.413 1.495 1.581 1.680 1.806 1.978 2.211 2.400 2.405 1.504 0.554 0.429 0.491 0.609 0.716 0.783 0.833 0.935 1.095 1.181 1.152 0.975 0.908 0.954 1.013 1.034 1.025 0.973 0.886 0.808 0.752 0.701 0.654 0.593 0.495 0.353 0.206 0.108 0.061 0.051 0.096 0.439 0.970 1.158 1.199 1.425 2.089 2.415 2.365 2.172 1.965 1.804 1.684 1.596 1.532 1.487 1.456 1.438 1.427 1.421 1.417 1.414 1.410 1.406 1.397 1.386 1.369 1.344 1.309 1.287 1.281 1.293 1.100 0.000 
0.000 1.102 1.170 1.176 1.214 1.276 1.364 1.453 1.520 1.569 1.605 1.631 1.648 1.658 1.667 1.673 1.676 1.678 1.680 1.680 1.680 1.679 1.677 1.672 1.664 1.652 1.635 1.600 1.556 1.501 1.429 1.338 1.235 1.151 1.089 1.053 1.030 1.021 1.019 1.021 1.029 1.048 1.080 1.125 1.181 1.246 1.317 1.393 1.473 1.562 1.665 1.796 1.971 2.192 2.358 2.346 1.448 0.515 0.389 0.450 0.578 0.728 0.884 1.043 1.241 1.458 1.581 1.585 1.431 1.333 1.353 1.403 1.413 1.385 1.308 1.135 0.951 0.856 0.772 0.676 0.553 0.406 0.263 0.153 0.087 0.058 0.053 0.127 0.550 1.160 1.374 1.399 1.476 1.787 2.084 2.144 2.091 1.962 1.814 1.697 1.611 1.547 1.501 1.470 1.449 1.436 1.428 1.422 1.417 1.412 1.407 1.398 1.386 1.369 1.344 1.312 1.288 1.277 1.270 1.079 0.000 
0.000 1.114 1.189 1.188 1.209 1.261 1.346 1.443 1.516 1.568 1.605 1.631 1.646 1.658 1.668 1.674 1.679 1.683 1.684 1.684 1.684 1.682 1.680 1.677 1.672 1.662 1.645 1.618 1.580 1.531 1.467 1.385 1.281 1.188 1.122 1.079 1.052 1.038 1.034 1.035 1.041 1.056 1.085 1.126 1.178 1.238 1.303 1.371 1.445 1.532 1.636 1.769 1.936 2.086 2.150 2.113 1.479 0.633 0.424 0.462 0.577 0.738 0.931 1.144 1.352 1.526 1.645 1.699 1.675 1.658 1.686 1.730 1.773 1.799 1.748 1.509 1.159 0.964 0.846 0.694 0.509 0.332 0.200 0.118 0.077 0.063 0.108 0.425 1.162 1.687 1.737 1.690 1.688 1.783 1.974 2.051 2.028 1.950 1.821 1.707 1.623 1.561 1.516 1.484 1.462 1.447 1.437 1.429 1.422 1.415 1.407 1.398 1.387 1.368 1.343 1.312 1.282 1.258 1.241 1.048 0.000 
0.000 1.090 1.172 1.180 1.186 1.231 1.320 1.427 1.507 1.564 1.604 1.630 1.647 1.660 1.670 1.676 1.680 1.687 1.688 1.687 1.686 1.684 1.683 1.681 1.677 1.670 1.654 1.629 1.597 1.555 1.499 1.425 1.331 1.236 1.165 1.116 1.084 1.066 1.060 1.059 1.062 1.074 1.097 1.132 1.179 1.235 1.293 1.350 1.415 1.492 1.590 1.719 1.850 1.921 1.936 1.908 1.614 0.966 0.579 0.521 0.600 0.754 0.963 1.193 1.388 1.536 1.647 1.731 1.796 1.850 1.894 1.947 2.030 2.119 2.177 2.113 1.794 1.374 0.997 0.710 0.466 0.278 0.158 0.101 0.082 0.110 0.381 1.195 1.937 2.091 1.999 1.910 1.883 1.897 1.982 2.029 2.014 1.942 1.822 1.713 1.633 1.573 1.529 1.497 1.474 1.458 1.446 1.436 1.427 1.419 1.412 1.402 1.386 1.366 1.341 1.309 1.269 1.237 1.218 1.008 0.000 
0.000 0.909 0.993 1.103 1.119 1.180 1.287 1.404 1.493 1.556 1.600 1.629 1.650 1.664 1.673 1.678 1.682 1.689 1.689 1.689 1.689 1.687 1.684 1.681 1.682 1.676 1.658 1.636 1.607 1.571 1.522 1.458 1.380 1.292 1.217 1.163 1.127 1.107 1.097 1.094 1.095 1.102 1.119 1.146 1.186 1.235 1.286 1.336 1.391 1.454 1.534 1.639 1.737 1.795 1.817 1.814 1.751 1.446 0.996 0.687 0.675 0.793 0.994 1.220 1.400 1.536 1.642 1.733 1.817 1.896 1.977 2.071 2.194 2.315 2.403 2.442 2.330 1.901 1.254 0.744 0.430 0.237 0.131 0.092 0.097 0.222 0.802 1.809 2.249 2.249 2.172 2.069 2.016 2.007 2.067 2.072 2.029 1.936 1.818 1.718 1.642 1.585 1.541 1.509 1.485 1.468 1.454 1.443 1.432 1.422 1.412 1.399 1.383 1.362 1.335 1.299 1.252 1.216 1.197 0.968 0.000 
0.000 0.528 0.608 0.864 0.969 1.099 1.243 1.373 1.472 1.543 1.593 1.627 1.650 1.666 1.675 1.682 1.686 1.689 1.689 1.689 1.691 1.689 1.684 1.682 1.683 1.678 1.662 1.641 1.614 1.580 1.536 1.485 1.422 1.347 1.279 1.224 1.185 1.161 1.147 1.141 1.139 1.142 1.151 1.170 1.200 1.240 1.283 1.329 1.376 1.428 1.490 1.566 1.647 1.709 1.746 1.762 1.762 1.723 1.535 1.099 0.854 0.894 1.043 1.244 1.415 1.542 1.640 1.729 1.815 1.904 2.004 2.118 2.283 2.433 2.495 2.497 2.387 2.007 1.335 0.742 0.400 0.204 0.107 0.080 0.094 0.263 1.007 2.048 2.370 2.369 2.322 2.214 2.134 2.136 2.225 2.188 2.071 1.935 1.818 1.720 1.650 1.595 1.553 1.521 1.496 1.477 1.462 1.449 1.437 1.425 1.412 1.398 1.381 1.358 1.327 1.284 1.233 1.197 1.178 0.956 0.000 
0.000 0.182 0.257 0.496 0.739 0.986 1.185 1.339 1.451 1.531 1.587 1.625 1.650 1.666 1.677 1.684 1.688 1.690 1.689 1.687 1.685 1.684 1.684 1.683 1.682 1.676 1.663 1.645 1.621 1.587 1.550 1.507 1.455 1.396 1.342 1.296 1.258 1.230 1.212 1.200 1.194 1.192 1.195 1.205 1.224 1.251 1.286 1.326 1.369 1.414 1.461 1.518 1.584 1.646 1.694 1.726 1.744 1.753 1.737 1.500 1.161 1.088 1.140 1.281 1.434 1.554 1.649 1.730 1.811 1.898 1.998 2.116 2.305 2.502 2.561 2.531 2.370 1.971 1.296 0.706 0.364 0.172 0.079 0.055 0.070 0.238 1.007 2.146 2.491 2.507 2.471 2.358 2.285 2.308 2.355 2.258 2.090 1.936 1.821 1.727 1.659 1.606 1.564 1.532 1.507 1.487 1.470 1.455 1.442 1.428 1.414 1.398 1.379 1.354 1.319 1.273 1.218 1.178 1.157 0.973 0.000 
0.000 0.040 0.112 0.272 0.588 0.908 1.145 1.317 1.439 1.525 1.583 1.623 1.649 1.666 1.678 1.685 1.689 1.691 1.690 1.686 1.684 1.683 1.684 1.683 1.682 1.673 1.661 1.644 1.623 1.597 1.565 1.524 1.478 1.436 1.395 1.360 1.332 1.306 1.283 1.271 1.260 1.252 1.247 1.251 1.257 1.271 1.295 1.328 1.365 1.404 1.446 1.492 1.545 1.601 1.651 1.692 1.720 1.734 1.733 1.659 1.441 1.324 1.301 1.360 1.477 1.591 1.675 1.744 1.807 1.872 1.948 2.038 2.201 2.427 2.530 2.503 2.278 1.748 1.075 0.577 0.287 0.130 0.053 0.030 0.035 0.157 0.846 2.166 2.674 2.697 2.667 2.564 2.479 2.441 2.395 2.268 2.093 1.941 1.825 1.738 1.670 1.617 1.575 1.543 1.517 1.496 1.478 1.462 1.447 1.431 1.416 1.399 1.378 1.350 1.313 1.262 1.204 1.160 1.136 0.989 0.000 
0.000 0.049 0.115 0.214 0.533 0.876 1.127 1.308 1.435 1.523 1.582 1.622 1.649 1.667 1.679 1.686 1.689 1.691 1.691 1.689 1.686 1.684 1.683 1.685 1.678 1.668 1.657 1.644 1.628 1.606 1.575 1.537 1.497 1.465 1.435 1.410 1.388 1.369 1.351 1.340 1.328 1.316 1.307 1.302 1.302 1.307 1.317 1.338 1.367 1.402 1.440 1.481 1.526 1.574 1.617 1.656 1.684 1.698 1.699 1.681 1.601 1.491 1.448 1.472 1.548 1.641 1.708 1.756 1.792 1.816 1.807 1.661 1.478 1.498 1.615 1.679 1.498 0.971 0.487 0.255 0.136 0.066 0.029 0.017 0.019 0.078 0.588 2.002 2.814 2.884 2.854 2.755 2.631 2.519 2.405 2.265 2.095 1.949 1.836 1.750 1.682 1.629 1.587 1.554 1.527 1.505 1.486 1.469 1.452 1.436 1.419 1.400 1.377 1.348 1.310 1.255 1.192 1.144 1.115 1.000 0.000 
0.000 0.222 0.279 0.264 0.536 0.871 1.124 1.307 1.436 1.524 1.583 1.622 1.649 1.667 1.678 1.685 1.689 1.691 1.692 1.692 1.691 1.685 1.685 1.686 1.676 1.664 1.654 1.645 1.633 1.611 1.581 1.546 1.511 1.487 1.465 1.447 1.432 1.418 1.407 1.397 1.387 1.377 1.366 1.356 1.350 1.347 1.348 1.359 1.378 1.405 1.439 1.478 1.520 1.559 1.592 1.619 1.639 1.651 1.656 1.650 1.616 1.547 1.526 1.549 1.613 1.686 1.731 1.757 1.768 1.765 1.601 1.031 0.534 0.380 0.381 0.429 0.400 0.216 0.083 0.051 0.038 0.025 0.014 0.010 0.011 0.041 0.360 1.666 2.827 2.992 2.948 2.845 2.717 2.579 2.430 2.269 2.103 1.963 1.852 1.766 1.697 1.643 1.600 1.566 1.538 1.515 1.495 1.476 1.458 1.441 1.424 1.405 1.382 1.352 1.308 1.249 1.181 1.131 1.099 1.005 0.000 
0.000 0.573 0.618 0.475 0.629 0.885 1.128 1.309 1.439 1.526 1.584 1.623 1.649 1.666 1.678 1.685 1.689 1.691 1.692 1.692 1.693 1.687 1.686 1.686 1.675 1.659 1.650 1.650 1.635 1.612 1.584 1.551 1.525 1.506 1.489 1.476 1.466 1.458 1.450 1.443 1.436 1.428 1.418 1.408 1.398 1.388 1.386 1.391 1.400 1.418 1.444 1.479 1.520 1.554 1.578 1.593 1.601 1.606 1.605 1.600 1.581 1.552 1.548 1.577 1.650 1.710 1.738 1.755 1.757 1.729 1.361 0.561 0.156 0.064 0.049 0.052 0.050 0.026 0.011 0.011 0.012 0.010 0.007 0.006 0.006 0.020 0.205 1.248 2.660 3.013 2.961 2.871 2.759 2.626 2.473 2.298 2.130 1.990 1.877 1.786 1.715 1.658 1.614 1.578 1.550 1.526 1.504 1.485 1.466 1.449 1.432 1.413 1.388 1.356 1.310 1.245 1.170 1.117 1.087 1.010 0.000 
0.000 0.889 0.924 0.799 0.834 0.951 1.141 1.314 1.437 1.524 1.585 1.623 1.649 1.666 1.677 1.685 1.690 1.690 1.692 1.693 1.692 1.689 1.685 1.674 1.664 1.655 1.652 1.652 1.635 1.612 1.584 1.556 1.536 1.520 1.508 1.499 1.493 1.488 1.484 1.480 1.476 1.470 1.463 1.453 1.443 1.433 1.430 1.430 1.433 1.442 1.459 1.487 1.523 1.555 1.574 1.581 1.581 1.573 1.555 1.537 1.526 1.523 1.534 1.575 1.665 1.719 1.729 1.709 1.683 1.612 1.084 0.300 0.046 0.012 0.006 0.006 0.007 0.005 0.005 0.006 0.006 0.005 0.003 0.003 0.003 0.008 0.091 0.771 2.199 2.872 2.921 2.866 2.780 2.671 2.531 2.362 2.185 2.036 1.913 1.814 1.736 1.676 1.629 1.592 1.562 1.537 1.515 1.494 1.475 1.458 1.444 1.424 1.397 1.362 1.314 1.247 1.162 1.100 1.072 1.010 0.000 
0.000 1.025 1.059 0.998 1.002 1.056 1.176 1.330 1.448 1.534 1.591 1.625 1.650 1.668 1.680 1.687 1.691 1.690 1.693 1.693 1.692 1.690 1.685 1.677 1.668 1.664 1.662 1.649 1.634 1.612 1.585 1.563 1.545 1.532 1.523 1.517 1.514 1.512 1.510 1.509 1.508 1.505 1.500 1.493 1.486 1.481 1.478 1.475 1.474 1.477 1.486 1.505 1.533 1.560 1.576 1.580 1.577 1.556 1.509 1.460 1.441 1.446 1.472 1.530 1.625 1.671 1.650 1.567 1.494 1.370 0.799 0.180 0.027 0.006 0.003 0.003 0.003 0.004 0.005 0.005 0.004 0.003 0.002 0.001 0.001 0.002 0.026 0.311 1.358 2.440 2.788 2.825 2.785 2.712 2.605 2.455 2.275 2.107 1.966 1.853 1.765 1.698 1.647 1.607 1.575 1.549 1.527 1.506 1.487 1.470 1.457 1.437 1.410 1.373 1.323 1.254 1.162 1.080 1.038 1.006 0.000 
0.000 1.057 1.094 1.081 1.095 1.147 1.242 1.368 1.471 1.546 1.598 1.630 1.653 1.671 1.685 1.690 1.690 1.692 1.693 1.693 1.692 1.690 1.686 1.681 1.674 1.669 1.663 1.645 1.635 1.615 1.591 1.569 1.553 1.543 1.536 1.532 1.531 1.530 1.531 1.532 1.532 1.533 1.532 1.529 1.525 1.523 1.522 1.520 1.519 1.521 1.524 1.534 1.553 1.574 1.586 1.589 1.584 1.554 1.474 1.364 1.299 1.274 1.274 1.293 1.308 1.277 1.236 1.193 1.134 0.999 0.575 0.161 0.037 0.009 0.003 0.003 0.003 0.004 0.005 0.005 0.004 0.002 0.001 0.001 0.001 0.001 0.006 0.085 0.566 1.640 2.443 2.700 2.770 2.746 2.679 2.556 2.395 2.210 2.040 1.905 1.801 1.723 1.665 1.622 1.589 1.563 1.540 1.521 1.503 1.487 1.471 1.452 1.426 1.389 1.338 1.268 1.173 1.078 1.011 1.002 0.000 
0.000 1.067 1.109 1.114 1.148 1.211 1.306 1.415 1.500 1.560 1.602 1.634 1.659 1.673 1.682 1.687 1.690 1.692 1.693 1.693 1.692 1.690 1.687 1.683 1.678 1.671 1.663 1.644 1.636 1.617 1.594 1.575 1.562 1.553 1.547 1.545 1.545 1.546 1.547 1.548 1.550 1.554 1.558 1.560 1.559 1.558 1.557 1.558 1.560 1.562 1.567 1.573 1.583 1.597 1.611 1.621 1.623 1.576 1.458 1.270 1.108 0.994 0.915 0.858 0.778 0.686 0.660 0.686 0.692 0.632 0.429 0.189 0.072 0.025 0.008 0.004 0.004 0.005 0.006 0.006 0.005 0.003 0.001 0.001 0.000 0.000 0.002 0.022 0.194 0.854 1.841 2.442 2.693 2.771 2.734 2.646 2.509 2.311 2.106 1.949 1.830 1.744 1.681 1.635 1.602 1.576 1.555 1.537 1.521 1.505 1.488 1.469 1.445 1.410 1.361 1.293 1.199 1.099 1.032 1.011 0.000 
0.000 1.075 1.122 1.135 1.182 1.256 1.354 1.450 1.523 1.577 1.616 1.644 1.665 1.679 1.686 1.688 1.690 1.692 1.693 1.693 1.692 1.690 1.686 1.684 1.681 1.673 1.662 1.649 1.637 1.620 1.599 1.581 1.570 1.563 1.559 1.557 1.557 1.558 1.559 1.560 1.563 1.569 1.578 1.585 1.589 1.589 1.584 1.587 1.592 1.596 1.602 1.609 1.618 1.631 1.649 1.672 1.689 1.636 1.477 1.230 0.993 0.792 0.634 0.514 0.426 0.372 0.368 0.397 0.410 0.392 0.316 0.191 0.094 0.040 0.015 0.007 0.005 0.005 0.006 0.006 0.005 0.003 0.001 0.001 0.000 0.000 0.001 0.006 0.057 0.343 1.100 1.986 2.557 2.780 2.784 2.734 2.597 2.372 2.144 1.975 1.850 1.759 1.694 1.648 1.614 1.589 1.569 1.553 1.537 1.523 1.507 1.489 1.467 1.438 1.395 1.333 1.248 1.152 1.081 1.033 0.000 
0.000 1.083 1.136 1.152 1.206 1.285 1.385 1.473 1.540 1.590 1.626 1.653 1.669 1.679 1.684 1.687 1.689 1.690 1.694 1.693 1.692 1.689 1.686 1.683 1.680 1.673 1.664 1.652 1.639 1.624 1.605 1.589 1.579 1.572 1.569 1.569 1.568 1.567 1.566 1.567 1.572 1.580 1.591 1.601 1.607 1.610 1.608 1.613 1.618 1.623 1.630 1.637 1.648 1.662 1.682 1.709 1.725 1.699 1.539 1.253 0.964 0.705 0.476 0.311 0.218 0.186 0.189 0.215 0.230 0.228 0.208 0.159 0.096 0.044 0.017 0.008 0.006 0.006 0.006 0.006 0.005 0.003 0.001 0.001 0.000 0.000 0.000 0.002 0.013 0.092 0.417 1.219 2.269 2.842 2.899 2.828 2.652 2.391 2.158 1.988 1.863 1.771 1.706 1.659 1.627 1.602 1.583 1.567 1.553 1.540 1.526 1.511 1.492 1.467 1.431 1.381 1.312 1.228 1.145 1.055 0.000 
0.000 1.093 1.151 1.167 1.221 1.302 1.403 1.488 1.551 1.598 1.631 1.654 1.669 1.679 1.684 1.687 1.689 1.689 1.694 1.692 1.691 1.689 1.686 1.683 1.678 1.672 1.664 1.654 1.642 1.629 1.612 1.599 1.589 1.582 1.577 1.574 1.572 1.570 1.570 1.573 1.578 1.588 1.601 1.612 1.620 1.625 1.629 1.634 1.639 1.645 1.651 1.659 1.670 1.684 1.705 1.733 1.753 1.757 1.637 1.349 1.023 0.706 0.423 0.218 0.114 0.086 0.086 0.099 0.114 0.119 0.115 0.103 0.078 0.042 0.016 0.007 0.006 0.006 0.006 0.006 0.005 0.003 0.001 0.001 0.000 0.000 0.000 0.001 0.002 0.014 0.095 0.463 1.588 2.778 2.998 2.891 2.670 2.390 2.160 1.992 1.870 1.781 1.716 1.671 1.640 1.616 1.597 1.582 1.568 1.556 1.544 1.530 1.513 1.489 1.456 1.411 1.356 1.289 1.217 1.095 0.000 
0.000 1.094 1.156 1.175 1.228 1.314 1.417 1.498 1.559 1.602 1.633 1.655 1.669 1.678 1.684 1.687 1.688 1.689 1.690 1.690 1.689 1.688 1.686 1.682 1.676 1.671 1.664 1.655 1.644 1.633 1.621 1.610 1.600 1.592 1.586 1.578 1.572 1.571 1.573 1.577 1.584 1.594 1.607 1.620 1.630 1.637 1.643 1.649 1.655 1.660 1.667 1.675 1.685 1.699 1.720 1.751 1.789 1.807 1.743 1.551 1.249 0.850 0.448 0.185 0.070 0.041 0.038 0.041 0.048 0.053 0.056 0.056 0.053 0.036 0.014 0.006 0.004 0.004 0.004 0.004 0.004 0.002 0.001 0.001 0.000 0.000 0.000 0.000 0.001 0.002 0.015 0.139 0.915 2.462 3.003 2.887 2.658 2.376 2.156 1.993 1.873 1.788 1.727 1.684 1.653 1.630 1.613 1.598 1.586 1.574 1.561 1.547 1.529 1.504 1.470 1.424 1.379 1.333 1.282 1.153 0.000 
0.000 1.061 1.116 1.165 1.228 1.324 1.426 1.505 1.562 1.604 1.634 1.655 1.668 1.677 1.682 1.685 1.686 1.686 1.687 1.687 1.687 1.686 1.684 1.681 1.676 1.671 1.664 1.657 1.648 1.639 1.630 1.619 1.608 1.601 1.594 1.586 1.573 1.574 1.577 1.582 1.589 1.598 1.611 1.624 1.635 1.645 1.653 1.660 1.666 1.672 1.678 1.685 1.694 1.708 1.730 1.764 1.814 1.863 1.895 1.900 1.751 1.349 0.705 0.225 0.061 0.031 0.024 0.023 0.023 0.024 0.028 0.034 0.036 0.028 0.011 0.004 0.002 0.002 0.002 0.002 0.002 0.001 0.001 0.001 0.001 0.001 0.001 0.001 0.001 0.001 0.007 0.064 0.561 2.006 2.783 2.768 2.584 2.332 2.135 1.984 1.872 1.793 1.738 1.698 1.669 1.647 1.630 1.616 1.603 1.591 1.577 1.562 1.542 1.514 1.475 1.426 1.385 1.358 1.336 1.211 0.000 
0.000 1.017 1.063 1.123 1.219 1.331 1.431 1.508 1.564 1.605 1.634 1.654 1.667 1.675 1.679 1.682 1.682 1.682 1.683 1.684 1.684 1.683 1.681 1.678 1.674 1.670 1.664 1.658 1.651 1.645 1.637 1.624 1.613 1.602 1.596 1.591 1.577 1.579 1.582 1.587 1.593 1.602 1.612 1.623 1.635 1.649 1.659 1.667 1.674 1.679 1.685 1.691 1.699 1.713 1.736 1.772 1.827 1.901 2.001 2.162 2.318 2.197 1.529 0.619 0.159 0.055 0.037 0.028 0.023 0.020 0.023 0.028 0.027 0.019 0.007 0.002 0.001 0.001 0.001 0.001 0.001 0.002 0.001 0.001 0.001 0.001 0.001 0.001 0.001 0.001 0.008 0.070 0.444 1.469 2.214 2.411 2.364 2.221 2.088 1.970 1.862 1.796 1.750 1.716 1.690 1.669 1.652 1.637 1.622 1.608 1.592 1.574 1.550 1.519 1.477 1.423 1.382 1.363 1.365 1.215 0.000 
0.000 1.048 1.106 1.118 1.218 1.332 1.432 1.509 1.565 1.605 1.633 1.652 1.664 1.671 1.675 1.677 1.678 1.680 1.681 1.681 1.680 1.677 1.675 1.673 1.671 1.667 1.663 1.657 1.651 1.645 1.636 1.627 1.617 1.605 1.594 1.587 1.586 1.586 1.589 1.593 1.601 1.607 1.613 1.622 1.635 1.651 1.663 1.672 1.678 1.684 1.689 1.693 1.700 1.714 1.738 1.777 1.834 1.917 2.040 2.232 2.532 2.780 2.671 1.899 0.917 0.441 0.302 0.232 0.176 0.106 0.049 0.033 0.025 0.014 0.005 0.002 0.001 0.001 0.001 0.001 0.004 0.006 0.007 0.007 0.004 0.002 0.002 0.002 0.002 0.003 0.015 0.103 0.457 1.141 1.630 1.862 1.955 1.981 1.944 1.867 1.810 1.793 1.768 1.740 1.718 1.699 1.681 1.662 1.644 1.626 1.606 1.583 1.556 1.521 1.475 1.418 1.371 1.348 1.343 1.165 0.000 
0.000 1.127 1.207 1.176 1.234 1.329 1.430 1.510 1.565 1.605 1.630 1.647 1.659 1.665 1.669 1.670 1.671 1.671 1.670 1.667 1.666 1.667 1.666 1.666 1.664 1.662 1.659 1.655 1.651 1.645 1.638 1.630 1.620 1.608 1.600 1.595 1.593 1.594 1.596 1.600 1.607 1.611 1.615 1.624 1.637 1.653 1.666 1.675 1.681 1.685 1.689 1.692 1.699 1.712 1.740 1.779 1.836 1.920 2.046 2.240 2.539 2.886 3.094 2.999 2.412 1.848 1.635 1.533 1.353 0.943 0.440 0.167 0.055 0.015 0.005 0.002 0.002 0.002 0.004 0.012 0.038 0.055 0.060 0.052 0.020 0.006 0.004 0.004 0.005 0.008 0.036 0.171 0.532 1.039 1.362 1.542 1.660 1.710 1.708 1.707 1.723 1.764 1.785 1.773 1.758 1.741 1.720 1.694 1.669 1.643 1.618 1.590 1.558 1.520 1.471 1.409 1.346 1.301 1.273 1.115 0.000 
0.000 1.171 1.260 1.246 1.269 1.333 1.427 1.509 1.565 1.603 1.630 1.645 1.653 1.656 1.659 1.661 1.660 1.658 1.654 1.652 1.652 1.653 1.653 1.656 1.656 1.654 1.652 1.651 1.648 1.644 1.639 1.632 1.624 1.615 1.608 1.604 1.603 1.604 1.605 1.608 1.613 1.617 1.619 1.627 1.642 1.656 1.668 1.677 1.682 1.686 1.689 1.687 1.697 1.711 1.740 1.779 1.834 1.916 2.038 2.222 2.495 2.818 3.022 3.082 3.007 2.819 2.761 2.749 2.679 2.353 1.653 0.886 0.377 0.117 0.026 0.018 0.018 0.026 0.055 0.153 0.306 0.381 0.385 0.289 0.099 0.018 0.007 0.006 0.008 0.023 0.090 0.283 0.643 1.013 1.244 1.395 1.492 1.544 1.568 1.602 1.662 1.767 1.815 1.819 1.813 1.793 1.759 1.721 1.688 1.657 1.627 1.595 1.560 1.518 1.465 1.394 1.309 1.239 1.198 1.068 0.000 
0.000 1.165 1.244 1.260 1.285 1.340 1.428 1.508 1.563 1.601 1.626 1.639 1.645 1.645 1.647 1.647 1.645 1.640 1.635 1.633 1.633 1.634 1.634 1.634 1.635 1.639 1.641 1.642 1.642 1.641 1.638 1.633 1.628 1.621 1.616 1.613 1.612 1.612 1.613 1.615 1.619 1.623 1.625 1.633 1.647 1.662 1.672 1.679 1.683 1.686 1.688 1.686 1.697 1.710 1.738 1.773 1.824 1.897 2.006 2.162 2.384 2.640 2.821 2.916 2.934 2.900 2.884 2.864 2.831 2.740 2.529 2.076 1.469 0.806 0.328 0.184 0.181 0.235 0.401 0.762 1.095 1.201 1.141 0.851 0.340 0.064 0.012 0.009 0.015 0.053 0.178 0.433 0.764 1.028 1.192 1.290 1.359 1.410 1.452 1.500 1.588 1.768 1.883 1.893 1.878 1.835 1.782 1.737 1.700 1.667 1.633 1.598 1.561 1.517 1.458 1.380 1.283 1.201 1.148 1.024 0.000 
0.000 1.127 1.185 1.239 1.284 1.349 1.435 1.507 1.560 1.596 1.618 1.629 1.633 1.633 1.633 1.630 1.625 1.618 1.611 1.609 1.610 1.610 1.610 1.611 1.614 1.620 1.626 1.631 1.633 1.635 1.635 1.633 1.631 1.626 1.622 1.620 1.619 1.619 1.620 1.621 1.625 1.629 1.634 1.642 1.654 1.668 1.677 1.682 1.685 1.683 1.685 1.689 1.698 1.709 1.733 1.760 1.800 1.859 1.940 2.052 2.199 2.372 2.527 2.650 2.737 2.784 2.803 2.803 2.786 2.744 2.687 2.601 2.434 2.052 1.487 1.116 1.028 1.087 1.284 1.592 1.749 1.771 1.706 1.448 0.794 0.212 0.043 0.026 0.038 0.108 0.299 0.611 0.888 1.070 1.178 1.232 1.258 1.280 1.309 1.368 1.491 1.796 1.997 1.986 1.929 1.854 1.792 1.745 1.706 1.672 1.637 1.604 1.565 1.515 1.453 1.370 1.268 1.181 1.124 0.981 0.000 
0.000 1.081 1.119 1.184 1.262 1.348 1.433 1.503 1.554 1.587 1.606 1.615 1.618 1.618 1.616 1.612 1.603 1.597 1.594 1.591 1.588 1.588 1.589 1.592 1.597 1.604 1.611 1.617 1.622 1.627 1.630 1.633 1.632 1.628 1.627 1.626 1.625 1.625 1.626 1.627 1.629 1.634 1.641 1.650 1.661 1.672 1.680 1.684 1.685 1.683 1.688 1.693 1.699 1.709 1.722 1.739 1.765 1.802 1.854 1.925 2.018 2.129 2.243 2.353 2.462 2.560 2.628 2.669 2.687 2.686 2.665 2.627 2.610 2.596 2.505 2.338 2.169 2.012 1.938 1.957 1.976 1.988 1.988 1.905 1.422 0.638 0.240 0.165 0.190 0.313 0.550 0.843 1.041 1.145 1.196 1.212 1.200 1.155 1.100 1.121 1.266 1.718 2.049 2.032 1.945 1.857 1.794 1.747 1.708 1.673 1.639 1.604 1.565 1.514 1.450 1.366 1.260 1.170 1.110 0.963 0.000 
0.000 1.052 1.081 1.130 1.221 1.331 1.424 1.493 1.541 1.574 1.593 1.601 1.603 1.603 1.601 1.596 1.587 1.580 1.575 1.573 1.572 1.572 1.574 1.578 1.585 1.594 1.600 1.606 1.612 1.620 1.624 1.625 1.627 1.630 1.630 1.630 1.630 1.630 1.631 1.631 1.634 1.638 1.646 1.656 1.667 1.676 1.682 1.685 1.683 1.688 1.692 1.695 1.698 1.703 1.710 1.721 1.735 1.757 1.790 1.835 1.894 1.964 2.041 2.121 2.205 2.290 2.380 2.466 2.531 2.571 2.589 2.593 2.601 2.633 2.663 2.631 2.474 2.250 2.132 2.090 2.088 2.102 2.140 2.191 2.100 1.629 1.143 1.021 1.086 1.214 1.290 1.274 1.267 1.259 1.240 1.220 1.189 1.124 1.033 0.984 1.016 1.462 1.988 2.018 1.940 1.853 1.793 1.747 1.708 1.673 1.639 1.607 1.566 1.514 1.450 1.366 1.257 1.162 1.098 0.970 0.000 
0.000 1.037 1.061 1.098 1.179 1.298 1.407 1.483 1.534 1.566 1.582 1.588 1.591 1.591 1.589 1.584 1.575 1.568 1.563 1.562 1.562 1.562 1.564 1.569 1.577 1.587 1.594 1.598 1.606 1.616 1.622 1.627 1.630 1.632 1.633 1.633 1.634 1.634 1.634 1.635 1.638 1.643 1.650 1.661 1.671 1.678 1.682 1.684 1.684 1.689 1.692 1.694 1.697 1.700 1.705 1.710 1.717 1.729 1.749 1.777 1.813 1.855 1.904 1.958 2.017 2.080 2.151 2.234 2.322 2.403 2.461 2.501 2.533 2.561 2.572 2.546 2.430 2.257 2.163 2.132 2.130 2.147 2.200 2.316 2.459 2.504 2.417 2.402 2.427 2.370 2.151 1.806 1.557 1.393 1.296 1.250 1.200 1.135 1.057 1.006 1.000 1.253 1.769 1.906 1.888 1.833 1.784 1.742 1.706 1.672 1.639 1.600 1.560 1.515 1.452 1.367 1.257 1.156 1.088 0.977 0.000 
0.000 0.998 1.014 1.063 1.142 1.269 1.389 1.472 1.525 1.556 1.572 1.577 1.581 1.582 1.580 1.575 1.567 1.560 1.557 1.556 1.556 1.556 1.559 1.564 1.572 1.582 1.589 1.593 1.603 1.614 1.622 1.628 1.632 1.634 1.635 1.636 1.635 1.635 1.636 1.637 1.640 1.645 1.653 1.665 1.675 1.679 1.681 1.682 1.684 1.688 1.691 1.693 1.695 1.698 1.702 1.707 1.708 1.714 1.727 1.741 1.761 1.785 1.814 1.848 1.888 1.933 1.986 2.049 2.124 2.207 2.284 2.346 2.385 2.401 2.403 2.383 2.325 2.225 2.159 2.136 2.135 2.154 2.211 2.324 2.508 2.676 2.758 2.765 2.712 2.573 2.334 2.012 1.706 1.482 1.367 1.300 1.236 1.177 1.126 1.099 1.097 1.238 1.616 1.759 1.783 1.781 1.761 1.731 1.699 1.669 1.639 1.605 1.567 1.520 1.457 1.373 1.262 1.154 1.078 0.989 0.000 
0.000 0.952 0.959 1.012 1.115 1.253 1.373 1.457 1.512 1.544 1.562 1.570 1.575 1.575 1.573 1.569 1.563 1.557 1.554 1.553 1.553 1.554 1.556 1.561 1.569 1.579 1.586 1.593 1.603 1.613 1.622 1.628 1.632 1.635 1.636 1.637 1.636 1.636 1.637 1.639 1.641 1.646 1.654 1.667 1.677 1.680 1.683 1.678 1.685 1.688 1.689 1.691 1.693 1.696 1.700 1.705 1.712 1.713 1.714 1.719 1.728 1.740 1.757 1.778 1.803 1.834 1.872 1.919 1.976 2.043 2.106 2.153 2.182 2.194 2.197 2.188 2.175 2.147 2.123 2.114 2.119 2.143 2.200 2.305 2.466 2.601 2.659 2.665 2.623 2.505 2.302 2.021 1.742 1.555 1.450 1.367 1.303 1.263 1.245 1.244 1.259 1.344 1.559 1.669 1.709 1.727 1.727 1.706 1.687 1.665 1.641 1.612 1.576 1.529 1.468 1.385 1.276 1.160 1.074 1.007 0.000 
0.000 0.974 0.990 1.003 1.107 1.240 1.358 1.442 1.498 1.534 1.554 1.565 1.569 1.570 1.569 1.566 1.560 1.555 1.553 1.552 1.552 1.553 1.556 1.560 1.568 1.577 1.585 1.594 1.604 1.613 1.621 1.627 1.632 1.634 1.637 1.637 1.635 1.636 1.638 1.639 1.641 1.646 1.655 1.667 1.677 1.681 1.684 1.679 1.688 1.689 1.689 1.691 1.693 1.695 1.699 1.703 1.706 1.705 1.705 1.705 1.708 1.713 1.722 1.734 1.750 1.771 1.797 1.830 1.872 1.924 1.970 2.003 2.023 2.034 2.036 2.035 2.033 2.035 2.042 2.052 2.068 2.097 2.152 2.241 2.351 2.421 2.445 2.446 2.425 2.353 2.212 1.989 1.753 1.605 1.512 1.444 1.397 1.378 1.372 1.375 1.392 1.446 1.555 1.636 1.675 1.696 1.699 1.685 1.677 1.663 1.644 1.619 1.585 1.541 1.483 1.404 1.300 1.184 1.094 1.024 0.000 
0.000 1.039 1.074 1.050 1.118 1.230 1.344 1.429 1.487 1.525 1.547 1.559 1.564 1.566 1.566 1.565 1.558 1.555 1.553 1.552 1.552 1.553 1.556 1.560 1.568 1.576 1.585 1.597 1.606 1.613 1.620 1.626 1.632 1.633 1.631 1.632 1.635 1.635 1.634 1.635 1.640 1.646 1.656 1.667 1.674 1.679 1.682 1.684 1.689 1.691 1.692 1.690 1.693 1.696 1.697 1.699 1.699 1.698 1.696 1.696 1.696 1.698 1.702 1.709 1.718 1.731 1.749 1.772 1.802 1.839 1.872 1.896 1.911 1.919 1.923 1.924 1.926 1.929 1.937 1.952 1.975 2.007 2.055 2.117 2.167 2.190 2.197 2.195 2.184 2.152 2.082 1.934 1.732 1.623 1.557 1.511 1.480 1.469 1.466 1.469 1.481 1.513 1.571 1.630 1.663 1.677 1.681 1.677 1.671 1.663 1.648 1.625 1.593 1.551 1.495 1.420 1.329 1.233 1.149 1.044 0.000 
0.000 1.078 1.125 1.115 1.149 1.226 1.332 1.417 1.477 1.516 1.540 1.554 1.561 1.563 1.563 1.563 1.558 1.555 1.554 1.554 1.554 1.555 1.557 1.561 1.568 1.575 1.585 1.599 1.608 1.612 1.617 1.624 1.633 1.635 1.636 1.637 1.635 1.634 1.632 1.633 1.637 1.645 1.656 1.666 1.673 1.677 1.681 1.685 1.689 1.692 1.694 1.691 1.693 1.694 1.694 1.694 1.693 1.692 1.691 1.690 1.690 1.690 1.691 1.695 1.700 1.707 1.719 1.735 1.756 1.782 1.805 1.822 1.833 1.840 1.843 1.845 1.847 1.850 1.855 1.864 1.879 1.903 1.937 1.976 2.002 2.014 2.017 2.014 2.001 1.980 1.945 1.844 1.701 1.635 1.590 1.559 1.543 1.536 1.535 1.537 1.545 1.564 1.597 1.635 1.660 1.671 1.673 1.673 1.671 1.664 1.650 1.629 1.596 1.558 1.501 1.424 1.343 1.277 1.217 1.067 0.000 
0.000 1.089 1.131 1.137 1.165 1.229 1.324 1.408 1.467 1.508 1.534 1.549 1.557 1.561 1.562 1.561 1.559 1.558 1.557 1.556 1.556 1.557 1.558 1.561 1.567 1.574 1.583 1.590 1.597 1.605 1.609 1.615 1.624 1.631 1.633 1.633 1.632 1.630 1.627 1.627 1.631 1.642 1.658 1.667 1.672 1.675 1.679 1.684 1.688 1.691 1.693 1.693 1.692 1.692 1.692 1.692 1.690 1.689 1.688 1.687 1.686 1.686 1.686 1.687 1.689 1.693 1.701 1.711 1.726 1.743 1.759 1.771 1.779 1.785 1.789 1.791 1.792 1.794 1.797 1.804 1.815 1.830 1.852 1.876 1.891 1.897 1.898 1.894 1.881 1.853 1.805 1.749 1.692 1.647 1.616 1.596 1.588 1.586 1.586 1.587 1.594 1.606 1.624 1.646 1.662 1.670 1.674 1.674 1.672 1.665 1.653 1.632 1.598 1.561 1.499 1.422 1.345 1.291 1.259 1.090 0.000 
0.000 1.083 1.102 1.131 1.166 1.230 1.321 1.401 1.458 1.500 1.527 1.544 1.554 1.559 1.561 1.560 1.560 1.562 1.560 1.558 1.557 1.557 1.559 1.562 1.566 1.572 1.579 1.580 1.581 1.588 1.597 1.604 1.610 1.616 1.618 1.619 1.619 1.622 1.612 1.613 1.618 1.637 1.658 1.670 1.671 1.670 1.677 1.682 1.686 1.690 1.692 1.694 1.692 1.690 1.690 1.690 1.690 1.686 1.686 1.686 1.685 1.684 1.683 1.682 1.683 1.685 1.690 1.696 1.705 1.716 1.727 1.735 1.742 1.747 1.751 1.753 1.754 1.755 1.757 1.762 1.770 1.781 1.796 1.810 1.818 1.821 1.821 1.818 1.809 1.785 1.756 1.726 1.689 1.657 1.635 1.623 1.621 1.622 1.623 1.627 1.633 1.639 1.646 1.658 1.667 1.673 1.675 1.675 1.673 1.667 1.656 1.635 1.600 1.557 1.495 1.419 1.343 1.290 1.260 1.087 0.000 
0.000 1.066 1.050 1.093 1.151 1.231 1.321 1.395 1.450 1.491 1.520 1.539 1.550 1.557 1.561 1.564 1.565 1.564 1.561 1.558 1.557 1.557 1.559 1.561 1.565 1.570 1.575 1.577 1.577 1.581 1.589 1.598 1.602 1.604 1.604 1.605 1.607 1.611 1.592 1.589 1.589 1.586 1.593 1.605 1.627 1.656 1.674 1.681 1.685 1.690 1.692 1.693 1.691 1.690 1.689 1.689 1.689 1.685 1.686 1.685 1.684 1.683 1.683 1.679 1.679 1.681 1.683 1.686 1.690 1.696 1.704 1.710 1.717 1.720 1.723 1.727 1.726 1.727 1.730 1.735 1.742 1.750 1.759 1.767 1.771 1.772 1.772 1.770 1.765 1.753 1.737 1.714 1.687 1.666 1.650 1.643 1.644 1.647 1.650 1.660 1.664 1.665 1.665 1.670 1.677 1.678 1.677 1.676 1.673 1.667 1.657 1.639 1.598 1.553 1.494 1.416 1.337 1.279 1.241 1.060 0.000 
0.000 1.057 1.022 1.055 1.134 1.232 1.321 1.391 1.444 1.484 1.513 1.533 1.547 1.555 1.559 1.561 1.560 1.558 1.555 1.556 1.556 1.556 1.557 1.559 1.562 1.567 1.571 1.574 1.576 1.578 1.583 1.590 1.589 1.588 1.588 1.588 1.591 1.591 1.578 1.571 1.561 1.565 1.580 1.586 1.608 1.638 1.664 1.683 1.686 1.691 1.691 1.690 1.689 1.689 1.689 1.688 1.686 1.686 1.685 1.683 1.683 1.683 1.682 1.678 1.678 1.681 1.677 1.676 1.677 1.681 1.686 1.691 1.697 1.697 1.701 1.705 1.705 1.708 1.713 1.718 1.723 1.729 1.735 1.739 1.741 1.742 1.742 1.741 1.737 1.730 1.720 1.705 1.687 1.674 1.667 1.661 1.657 1.662 1.671 1.686 1.684 1.682 1.686 1.688 1.683 1.682 1.681 1.678 1.674 1.667 1.656 1.638 1.598 1.552 1.492 1.412 1.327 1.261 1.219 1.032 0.000 
0.000 1.078 1.061 1.059 1.135 1.234 1.321 1.389 1.441 1.479 1.508 1.529 1.543 1.551 1.555 1.556 1.555 1.553 1.551 1.552 1.553 1.553 1.554 1.554 1.557 1.561 1.567 1.571 1.573 1.575 1.577 1.578 1.575 1.571 1.569 1.568 1.568 1.565 1.563 1.565 1.577 1.583 1.582 1.583 1.599 1.625 1.651 1.683 1.679 1.677 1.681 1.685 1.686 1.686 1.688 1.688 1.684 1.684 1.683 1.682 1.682 1.682 1.681 1.680 1.679 1.679 1.674 1.667 1.668 1.670 1.672 1.675 1.680 1.680 1.683 1.688 1.692 1.696 1.701 1.705 1.710 1.714 1.718 1.720 1.722 1.722 1.722 1.721 1.719 1.715 1.709 1.699 1.688 1.679 1.671 1.666 1.664 1.676 1.689 1.696 1.694 1.696 1.695 1.690 1.687 1.684 1.682 1.679 1.674 1.665 1.653 1.633 1.600 1.552 1.490 1.403 1.311 1.241 1.198 1.011 0.000 
0.000 1.128 1.154 1.114 1.162 1.242 1.323 1.388 1.439 1.477 1.505 1.526 1.538 1.545 1.548 1.548 1.548 1.546 1.545 1.544 1.545 1.545 1.546 1.548 1.550 1.553 1.558 1.567 1.567 1.568 1.568 1.565 1.560 1.552 1.545 1.541 1.539 1.536 1.538 1.545 1.558 1.572 1.574 1.578 1.592 1.617 1.647 1.673 1.675 1.676 1.678 1.680 1.682 1.683 1.686 1.686 1.682 1.683 1.682 1.681 1.681 1.681 1.681 1.681 1.679 1.674 1.669 1.661 1.661 1.660 1.661 1.664 1.665 1.666 1.670 1.675 1.681 1.687 1.692 1.696 1.700 1.703 1.705 1.707 1.708 1.708 1.708 1.708 1.707 1.705 1.701 1.696 1.689 1.682 1.676 1.674 1.676 1.689 1.697 1.696 1.698 1.697 1.695 1.692 1.690 1.686 1.682 1.679 1.672 1.664 1.652 1.631 1.598 1.550 1.484 1.391 1.293 1.221 1.177 0.995 0.000 
0.000 1.182 1.245 1.209 1.226 1.265 1.326 1.389 1.439 1.476 1.503 1.521 1.532 1.537 1.539 1.539 1.538 1.535 1.532 1.530 1.530 1.531 1.532 1.535 1.539 1.539 1.548 1.558 1.559 1.558 1.555 1.549 1.541 1.531 1.518 1.507 1.503 1.502 1.504 1.510 1.523 1.542 1.553 1.565 1.582 1.609 1.640 1.658 1.667 1.670 1.673 1.676 1.677 1.679 1.681 1.682 1.681 1.683 1.683 1.680 1.679 1.679 1.680 1.680 1.677 1.671 1.664 1.657 1.654 1.652 1.652 1.654 1.654 1.656 1.660 1.665 1.672 1.680 1.684 1.688 1.690 1.693 1.694 1.696 1.696 1.697 1.697 1.697 1.697 1.696 1.695 1.692 1.689 1.685 1.683 1.683 1.687 1.694 1.701 1.702 1.699 1.697 1.696 1.694 1.691 1.690 1.687 1.681 1.675 1.667 1.651 1.628 1.594 1.544 1.474 1.378 1.276 1.202 1.156 0.980 0.000 
0.000 1.224 1.302 1.278 1.280 1.295 1.334 1.390 1.439 1.474 1.498 1.514 1.523 1.526 1.527 1.526 1.523 1.518 1.512 1.508 1.508 1.508 1.509 1.514 1.518 1.522 1.533 1.538 1.539 1.538 1.536 1.529 1.518 1.500 1.480 1.466 1.459 1.458 1.459 1.464 1.475 1.493 1.514 1.538 1.564 1.596 1.625 1.644 1.655 1.661 1.664 1.666 1.670 1.673 1.676 1.677 1.679 1.682 1.681 1.677 1.677 1.677 1.678 1.677 1.674 1.668 1.660 1.652 1.647 1.645 1.645 1.645 1.646 1.649 1.653 1.657 1.664 1.676 1.677 1.679 1.682 1.683 1.684 1.685 1.686 1.686 1.687 1.688 1.688 1.689 1.689 1.689 1.688 1.687 1.686 1.688 1.691 1.695 1.698 1.699 1.698 1.697 1.696 1.694 1.692 1.690 1.687 1.682 1.674 1.665 1.649 1.624 1.588 1.535 1.461 1.363 1.260 1.185 1.137 0.985 0.000 
0.000 1.241 1.314 1.305 1.302 1.315 1.348 1.396 1.440 1.471 1.492 1.505 1.511 1.513 1.512 1.509 1.502 1.491 1.481 1.475 1.474 1.474 1.476 1.480 1.487 1.498 1.508 1.513 1.514 1.514 1.512 1.504 1.490 1.466 1.436 1.415 1.404 1.400 1.399 1.402 1.412 1.430 1.457 1.492 1.537 1.576 1.605 1.626 1.641 1.648 1.653 1.658 1.665 1.669 1.671 1.672 1.674 1.679 1.678 1.677 1.677 1.677 1.676 1.674 1.671 1.664 1.656 1.649 1.643 1.639 1.638 1.639 1.642 1.644 1.647 1.651 1.659 1.670 1.669 1.671 1.673 1.674 1.674 1.675 1.675 1.676 1.676 1.678 1.679 1.681 1.684 1.686 1.687 1.687 1.687 1.690 1.691 1.694 1.696 1.697 1.697 1.697 1.696 1.694 1.692 1.689 1.686 1.682 1.675 1.663 1.646 1.620 1.582 1.527 1.453 1.352 1.246 1.170 1.122 1.013 0.000 
0.000 1.218 1.277 1.300 1.305 1.325 1.363 1.408 1.444 1.469 1.485 1.494 1.497 1.497 1.494 1.486 1.472 1.452 1.438 1.429 1.426 1.430 1.430 1.434 1.444 1.459 1.474 1.482 1.484 1.484 1.482 1.474 1.456 1.425 1.384 1.353 1.334 1.325 1.321 1.323 1.332 1.350 1.381 1.427 1.486 1.536 1.574 1.602 1.622 1.637 1.645 1.653 1.663 1.667 1.669 1.665 1.668 1.673 1.675 1.677 1.677 1.677 1.675 1.672 1.667 1.661 1.653 1.646 1.642 1.639 1.637 1.637 1.640 1.643 1.642 1.647 1.656 1.660 1.661 1.662 1.663 1.664 1.664 1.663 1.664 1.664 1.665 1.667 1.669 1.673 1.678 1.682 1.685 1.687 1.688 1.689 1.691 1.693 1.694 1.695 1.695 1.695 1.695 1.693 1.691 1.688 1.686 1.683 1.674 1.661 1.642 1.615 1.577 1.522 1.448 1.348 1.237 1.156 1.110 1.077 0.000 
0.000 1.161 1.205 1.261 1.293 1.329 1.374 1.416 1.446 1.466 1.478 1.483 1.483 1.481 1.473 1.457 1.431 1.402 1.382 1.372 1.368 1.370 1.369 1.373 1.386 1.407 1.430 1.443 1.448 1.449 1.446 1.437 1.416 1.381 1.326 1.278 1.248 1.232 1.229 1.229 1.233 1.249 1.282 1.336 1.408 1.476 1.529 1.568 1.598 1.623 1.646 1.655 1.658 1.662 1.664 1.660 1.662 1.666 1.670 1.673 1.674 1.674 1.672 1.669 1.665 1.660 1.652 1.646 1.641 1.638 1.637 1.636 1.638 1.642 1.640 1.646 1.653 1.655 1.651 1.652 1.652 1.651 1.652 1.650 1.650 1.650 1.651 1.653 1.657 1.663 1.670 1.676 1.681 1.684 1.686 1.688 1.690 1.691 1.692 1.693 1.693 1.693 1.693 1.692 1.691 1.691 1.688 1.682 1.673 1.657 1.638 1.611 1.573 1.519 1.446 1.347 1.233 1.146 1.098 1.069 0.000 
0.000 1.102 1.136 1.194 1.260 1.324 1.377 1.419 1.447 1.461 1.469 1.471 1.470 1.463 1.447 1.420 1.380 1.339 1.313 1.299 1.293 1.291 1.292 1.299 1.314 1.343 1.376 1.397 1.406 1.406 1.403 1.393 1.368 1.323 1.256 1.187 1.141 1.117 1.106 1.103 1.108 1.125 1.161 1.220 1.301 1.391 1.464 1.522 1.568 1.604 1.632 1.644 1.649 1.653 1.655 1.656 1.655 1.658 1.664 1.668 1.669 1.669 1.669 1.667 1.664 1.659 1.653 1.645 1.641 1.638 1.637 1.637 1.638 1.639 1.640 1.643 1.647 1.647 1.641 1.641 1.639 1.636 1.634 1.633 1.632 1.633 1.634 1.636 1.641 1.649 1.659 1.667 1.674 1.679 1.683 1.686 1.688 1.689 1.689 1.689 1.690 1.690 1.690 1.689 1.689 1.686 1.680 1.671 1.662 1.652 1.634 1.607 1.569 1.517 1.446 1.350 1.234 1.141 1.088 1.062 0.000 
0.000 1.071 1.103 1.145 1.225 1.311 1.375 1.419 1.445 1.455 1.461 1.461 1.456 1.443 1.417 1.375 1.317 1.264 1.229 1.210 1.201 1.199 1.200 1.209 1.229 1.266 1.310 1.337 1.352 1.358 1.356 1.345 1.317 1.265 1.184 1.095 1.032 0.995 0.978 0.974 0.977 0.992 1.030 1.088 1.174 1.283 1.384 1.464 1.527 1.573 1.604 1.624 1.637 1.639 1.644 1.648 1.648 1.652 1.658 1.661 1.663 1.664 1.664 1.663 1.661 1.658 1.652 1.646 1.641 1.639 1.638 1.637 1.638 1.639 1.641 1.641 1.639 1.637 1.633 1.629 1.622 1.616 1.611 1.609 1.608 1.608 1.610 1.613 1.620 1.632 1.644 1.654 1.664 1.672 1.678 1.682 1.684 1.685 1.686 1.685 1.685 1.685 1.686 1.686 1.685 1.682 1.677 1.671 1.662 1.649 1.631 1.604 1.567 1.517 1.448 1.357 1.244 1.145 1.083 1.059 0.000 
0.000 1.065 1.099 1.127 1.202 1.296 1.368 1.413 1.438 1.449 1.452 1.450 1.441 1.420 1.381 1.322 1.244 1.177 1.133 1.107 1.096 1.093 1.095 1.106 1.132 1.179 1.239 1.282 1.303 1.310 1.311 1.301 1.271 1.215 1.127 1.022 0.945 0.899 0.876 0.870 0.872 0.885 0.920 0.979 1.070 1.192 1.314 1.410 1.485 1.537 1.577 1.603 1.618 1.623 1.632 1.638 1.642 1.647 1.652 1.656 1.657 1.657 1.658 1.658 1.658 1.656 1.652 1.647 1.643 1.641 1.640 1.639 1.639 1.639 1.638 1.637 1.634 1.630 1.623 1.612 1.599 1.588 1.580 1.576 1.576 1.576 1.578 1.582 1.589 1.599 1.612 1.633 1.650 1.661 1.668 1.674 1.678 1.680 1.681 1.682 1.682 1.681 1.681 1.680 1.679 1.677 1.674 1.669 1.659 1.646 1.627 1.601 1.566 1.519 1.456 1.373 1.267 1.167 1.099 1.074 0.000 
0.000 1.060 1.095 1.120 1.186 1.282 1.358 1.406 1.431 1.441 1.442 1.438 1.424 1.392 1.339 1.260 1.161 1.081 1.026 0.994 0.979 0.976 0.979 0.994 1.031 1.096 1.177 1.231 1.259 1.268 1.271 1.261 1.232 1.174 1.082 0.968 0.882 0.829 0.804 0.796 0.797 0.809 0.842 0.902 0.997 1.128 1.266 1.374 1.457 1.513 1.558 1.587 1.602 1.613 1.622 1.629 1.635 1.640 1.646 1.650 1.653 1.649 1.651 1.653 1.654 1.653 1.653 1.650 1.647 1.645 1.643 1.643 1.641 1.640 1.638 1.636 1.632 1.623 1.608 1.590 1.572 1.557 1.546 1.540 1.538 1.537 1.538 1.542 1.551 1.564 1.588 1.612 1.630 1.645 1.655 1.663 1.669 1.673 1.676 1.678 1.678 1.677 1.675 1.673 1.672 1.670 1.668 1.664 1.656 1.642 1.624 1.599 1.566 1.524 1.469 1.398 1.310 1.219 1.153 1.120 0.000 
0.000 1.022 1.050 1.101 1.171 1.272 1.350 1.398 1.422 1.431 1.431 1.424 1.403 1.360 1.290 1.187 1.068 0.976 0.914 0.880 0.866 0.863 0.867 0.890 0.942 1.028 1.125 1.189 1.222 1.234 1.235 1.227 1.200 1.144 1.052 0.932 0.841 0.785 0.757 0.749 0.749 0.760 0.792 0.853 0.951 1.090 1.244 1.358 1.440 1.501 1.546 1.577 1.595 1.606 1.615 1.622 1.627 1.632 1.638 1.643 1.646 1.642 1.645 1.649 1.651 1.652 1.652 1.651 1.650 1.649 1.648 1.646 1.645 1.643 1.640 1.637 1.633 1.616 1.597 1.573 1.549 1.531 1.520 1.512 1.508 1.506 1.507 1.510 1.517 1.531 1.552 1.579 1.604 1.624 1.638 1.648 1.656 1.663 1.668 1.670 1.671 1.668 1.665 1.664 1.663 1.663 1.662 1.659 1.651 1.638 1.620 1.597 1.568 1.533 1.490 1.436 1.368 1.295 1.237 1.191 0.000 
0.000 0.977 0.998 1.053 1.157 1.267 1.344 1.389 1.412 1.418 1.417 1.406 1.377 1.321 1.233 1.109 0.974 0.871 0.806 0.772 0.759 0.757 0.766 0.800 0.870 0.976 1.084 1.154 1.192 1.206 1.208 1.200 1.175 1.122 1.034 0.912 0.819 0.762 0.733 0.723 0.723 0.734 0.765 0.826 0.925 1.066 1.222 1.345 1.435 1.497 1.540 1.571 1.595 1.600 1.608 1.614 1.617 1.622 1.627 1.632 1.635 1.636 1.639 1.644 1.647 1.650 1.651 1.652 1.651 1.651 1.650 1.649 1.648 1.646 1.643 1.639 1.633 1.613 1.591 1.564 1.534 1.513 1.500 1.491 1.486 1.485 1.486 1.487 1.494 1.505 1.523 1.547 1.575 1.599 1.617 1.630 1.640 1.649 1.656 1.660 1.662 1.664 1.661 1.657 1.657 1.657 1.657 1.652 1.644 1.633 1.617 1.597 1.574 1.548 1.520 1.487 1.443 1.390 1.335 1.283 0.000 
0.000 1.006 1.037 1.048 1.155 1.265 1.338 1.380 1.399 1.403 1.400 1.384 1.344 1.274 1.165 1.018 0.873 0.770 0.705 0.672 0.661 0.662 0.679 0.728 0.815 0.939 1.053 1.127 1.168 1.185 1.187 1.181 1.158 1.108 1.024 0.905 0.811 0.753 0.723 0.714 0.714 0.724 0.755 0.815 0.914 1.055 1.215 1.343 1.436 1.498 1.540 1.571 1.593 1.596 1.601 1.605 1.607 1.609 1.613 1.617 1.622 1.626 1.632 1.638 1.643 1.646 1.649 1.651 1.651 1.651 1.651 1.650 1.649 1.648 1.646 1.641 1.631 1.613 1.590 1.560 1.527 1.504 1.487 1.478 1.475 1.473 1.473 1.474 1.479 1.489 1.503 1.523 1.548 1.572 1.592 1.608 1.620 1.630 1.639 1.646 1.651 1.655 1.656 1.655 1.655 1.654 1.651 1.645 1.636 1.626 1.612 1.596 1.580 1.567 1.558 1.540 1.519 1.490 1.447 1.405 0.000 
0.000 1.079 1.129 1.100 1.167 1.266 1.334 1.370 1.384 1.386 1.380 1.355 1.303 1.213 1.081 0.913 0.772 0.674 0.612 0.580 0.572 0.580 0.613 0.678 0.779 0.912 1.030 1.107 1.152 1.170 1.174 1.169 1.149 1.101 1.019 0.905 0.810 0.752 0.722 0.713 0.713 0.723 0.753 0.814 0.913 1.053 1.218 1.349 1.444 1.506 1.547 1.577 1.590 1.592 1.594 1.594 1.594 1.594 1.596 1.600 1.605 1.611 1.620 1.629 1.635 1.640 1.645 1.649 1.651 1.651 1.651 1.650 1.648 1.649 1.649 1.643 1.632 1.616 1.593 1.556 1.523 1.501 1.484 1.475 1.470 1.468 1.468 1.469 1.472 1.480 1.490 1.506 1.527 1.547 1.565 1.583 1.597 1.605 1.617 1.628 1.637 1.644 1.649 1.652 1.652 1.649 1.644 1.636 1.628 1.617 1.605 1.594 1.586 1.581 1.581 1.576 1.576 1.576 1.564 1.541 0.000 
0.000 1.127 1.189 1.173 1.206 1.276 1.335 1.363 1.371 1.370 1.356 1.320 1.251 1.143 0.990 0.812 0.674 0.582 0.522 0.494 0.492 0.519 0.571 0.648 0.755 0.893 1.014 1.095 1.141 1.162 1.167 1.164 1.145 1.100 1.020 0.908 0.815 0.757 0.728 0.718 0.718 0.728 0.758 0.819 0.917 1.058 1.229 1.369 1.467 1.528 1.565 1.585 1.591 1.590 1.585 1.579 1.576 1.575 1.575 1.577 1.582 1.590 1.601 1.614 1.623 1.626 1.637 1.645 1.649 1.651 1.651 1.650 1.648 1.649 1.651 1.644 1.632 1.614 1.585 1.551 1.523 1.501 1.484 1.474 1.469 1.467 1.467 1.468 1.470 1.475 1.485 1.498 1.510 1.522 1.539 1.555 1.569 1.577 1.590 1.605 1.618 1.629 1.637 1.641 1.642 1.640 1.633 1.627 1.618 1.608 1.599 1.592 1.589 1.589 1.591 1.598 1.612 1.637 1.653 1.646 0.000 
0.000 1.149 1.219 1.215 1.244 1.298 1.340 1.359 1.363 1.358 1.337 1.288 1.206 1.084 0.916 0.732 0.589 0.493 0.446 0.429 0.435 0.481 0.547 0.629 0.739 0.880 1.005 1.089 1.138 1.160 1.165 1.162 1.145 1.102 1.026 0.920 0.831 0.775 0.747 0.737 0.738 0.747 0.777 0.836 0.934 1.075 1.255 1.408 1.514 1.574 1.599 1.604 1.598 1.586 1.573 1.561 1.553 1.549 1.548 1.548 1.552 1.559 1.571 1.588 1.601 1.608 1.625 1.637 1.645 1.650 1.651 1.651 1.649 1.650 1.650 1.644 1.632 1.614 1.588 1.555 1.526 1.503 1.487 1.477 1.471 1.469 1.469 1.469 1.471 1.474 1.485 1.497 1.503 1.509 1.517 1.529 1.539 1.549 1.562 1.578 1.594 1.607 1.616 1.621 1.623 1.622 1.617 1.618 1.609 1.600 1.594 1.591 1.590 1.591 1.596 1.608 1.631 1.667 1.691 1.691 0.000 
0.000 1.167 1.243 1.242 1.272 1.316 1.347 1.359 1.360 1.350 1.322 1.266 1.174 1.040 0.858 0.671 0.527 0.435 0.401 0.394 0.405 0.462 0.534 0.617 0.727 0.871 1.000 1.088 1.138 1.160 1.166 1.163 1.147 1.109 1.042 0.947 0.866 0.814 0.788 0.779 0.780 0.789 0.817 0.875 0.970 1.111 1.300 1.464 1.567 1.622 1.633 1.620 1.602 1.580 1.558 1.538 1.524 1.516 1.513 1.512 1.514 1.520 1.531 1.549 1.569 1.590 1.612 1.629 1.642 1.651 1.652 1.652 1.652 1.651 1.648 1.643 1.635 1.617 1.593 1.564 1.534 1.511 1.496 1.486 1.480 1.476 1.475 1.474 1.478 1.487 1.492 1.496 1.499 1.498 1.501 1.506 1.513 1.521 1.532 1.547 1.564 1.578 1.588 1.594 1.597 1.599 1.600 1.604 1.597 1.591 1.588 1.588 1.588 1.591 1.597 1.610 1.637 1.675 1.698 1.699 0.000 
0.000 1.187 1.266 1.266 1.294 1.327 1.348 1.362 1.359 1.345 1.312 1.251 1.154 1.013 0.825 0.634 0.495 0.416 0.385 0.380 0.395 0.456 0.525 0.608 0.720 0.867 0.999 1.089 1.141 1.163 1.168 1.167 1.155 1.127 1.073 0.995 0.926 0.883 0.861 0.853 0.854 0.862 0.888 0.942 1.032 1.167 1.346 1.503 1.595 1.624 1.626 1.621 1.600 1.571 1.541 1.517 1.500 1.490 1.486 1.484 1.485 1.489 1.498 1.516 1.543 1.575 1.605 1.627 1.641 1.651 1.654 1.655 1.655 1.654 1.654 1.649 1.638 1.621 1.604 1.579 1.551 1.528 1.513 1.503 1.497 1.493 1.490 1.491 1.493 1.495 1.488 1.489 1.489 1.489 1.487 1.486 1.488 1.492 1.499 1.511 1.527 1.541 1.552 1.559 1.564 1.568 1.582 1.582 1.581 1.580 1.580 1.582 1.584 1.588 1.595 1.609 1.636 1.675 1.700 1.700 0.000 
0.000 1.210 1.290 1.288 1.308 1.334 1.351 1.362 1.357 1.341 1.306 1.244 1.143 1.001 0.814 0.632 0.498 0.420 0.388 0.383 0.399 0.453 0.518 0.602 0.718 0.867 1.000 1.093 1.149 1.172 1.175 1.174 1.172 1.157 1.123 1.070 1.021 0.991 0.975 0.969 0.969 0.976 0.998 1.044 1.123 1.239 1.381 1.491 1.563 1.600 1.615 1.613 1.591 1.556 1.523 1.501 1.485 1.476 1.471 1.469 1.469 1.472 1.481 1.496 1.526 1.569 1.604 1.628 1.644 1.653 1.657 1.659 1.659 1.658 1.654 1.649 1.640 1.629 1.621 1.603 1.577 1.556 1.542 1.534 1.527 1.522 1.519 1.515 1.510 1.504 1.495 1.495 1.491 1.484 1.474 1.466 1.462 1.462 1.465 1.473 1.485 1.496 1.507 1.516 1.524 1.535 1.552 1.555 1.560 1.564 1.568 1.572 1.576 1.581 1.588 1.602 1.626 1.667 1.699 1.699 0.000 
0.000 1.224 1.300 1.300 1.313 1.338 1.353 1.357 1.354 1.339 1.305 1.239 1.138 0.998 0.813 0.640 0.521 0.446 0.409 0.402 0.413 0.455 0.515 0.601 0.718 0.869 1.005 1.101 1.159 1.183 1.187 1.193 1.202 1.204 1.196 1.178 1.160 1.150 1.144 1.140 1.138 1.141 1.155 1.190 1.250 1.332 1.403 1.455 1.497 1.523 1.540 1.569 1.562 1.530 1.504 1.488 1.479 1.472 1.466 1.464 1.464 1.467 1.474 1.493 1.525 1.570 1.609 1.635 1.652 1.661 1.665 1.666 1.665 1.662 1.657 1.651 1.644 1.642 1.639 1.622 1.604 1.592 1.583 1.578 1.573 1.568 1.560 1.548 1.534 1.520 1.512 1.505 1.495 1.482 1.464 1.447 1.436 1.431 1.430 1.432 1.438 1.444 1.453 1.464 1.475 1.494 1.510 1.524 1.535 1.544 1.551 1.557 1.562 1.567 1.573 1.582 1.598 1.637 1.691 1.687 0.000 
0.000 1.208 1.273 1.296 1.314 1.338 1.352 1.355 1.353 1.339 1.303 1.240 1.142 1.001 0.818 0.661 0.555 0.490 0.453 0.439 0.443 0.467 0.519 0.603 0.722 0.877 1.015 1.110 1.167 1.191 1.208 1.229 1.250 1.270 1.290 1.308 1.331 1.361 1.379 1.380 1.371 1.363 1.369 1.388 1.424 1.455 1.466 1.451 1.421 1.403 1.407 1.465 1.483 1.486 1.483 1.482 1.479 1.474 1.468 1.464 1.466 1.466 1.474 1.493 1.528 1.578 1.624 1.654 1.671 1.680 1.682 1.682 1.678 1.670 1.662 1.655 1.652 1.651 1.650 1.629 1.616 1.624 1.636 1.639 1.637 1.628 1.613 1.590 1.567 1.549 1.535 1.520 1.503 1.482 1.455 1.428 1.408 1.397 1.392 1.390 1.390 1.392 1.397 1.407 1.423 1.447 1.475 1.497 1.512 1.522 1.530 1.536 1.540 1.543 1.544 1.545 1.551 1.575 1.632 1.601 0.000 
0.000 1.158 1.206 1.264 1.303 1.334 1.351 1.356 1.354 1.341 1.309 1.249 1.153 1.014 0.839 0.695 0.598 0.537 0.503 0.488 0.487 0.500 0.541 0.618 0.737 0.894 1.033 1.124 1.176 1.204 1.241 1.274 1.306 1.337 1.369 1.406 1.459 1.532 1.591 1.626 1.645 1.646 1.645 1.651 1.657 1.637 1.579 1.486 1.399 1.356 1.356 1.390 1.423 1.453 1.470 1.481 1.486 1.486 1.481 1.474 1.472 1.471 1.479 1.500 1.542 1.604 1.659 1.693 1.710 1.716 1.716 1.711 1.699 1.682 1.669 1.662 1.661 1.653 1.616 1.590 1.602 1.648 1.692 1.700 1.694 1.677 1.653 1.625 1.599 1.577 1.557 1.535 1.511 1.483 1.447 1.410 1.382 1.363 1.352 1.348 1.347 1.343 1.347 1.359 1.380 1.415 1.453 1.479 1.497 1.507 1.512 1.514 1.514 1.510 1.501 1.484 1.457 1.432 1.435 1.313 0.000 
0.000 1.100 1.133 1.198 1.271 1.322 1.349 1.358 1.358 1.348 1.320 1.265 1.175 1.045 0.881 0.747 0.654 0.594 0.562 0.549 0.547 0.556 0.587 0.655 0.768 0.924 1.064 1.152 1.192 1.225 1.277 1.318 1.353 1.387 1.422 1.464 1.529 1.618 1.696 1.764 1.858 1.961 1.994 1.995 1.978 1.911 1.731 1.550 1.432 1.384 1.365 1.370 1.407 1.441 1.464 1.487 1.511 1.520 1.516 1.502 1.489 1.487 1.494 1.520 1.574 1.659 1.727 1.766 1.782 1.784 1.779 1.762 1.733 1.703 1.681 1.668 1.667 1.622 1.522 1.509 1.546 1.642 1.735 1.740 1.726 1.705 1.677 1.649 1.623 1.598 1.572 1.545 1.516 1.483 1.442 1.396 1.358 1.331 1.315 1.306 1.304 1.300 1.304 1.320 1.350 1.396 1.441 1.470 1.487 1.498 1.502 1.501 1.495 1.481 1.453 1.408 1.337 1.232 1.152 0.902 0.000 
0.000 1.066 1.094 1.142 1.235 1.311 1.351 1.366 1.367 1.361 1.339 1.292 1.213 1.097 0.949 0.821 0.731 0.673 0.642 0.631 0.630 0.637 0.663 0.722 0.824 0.972 1.109 1.194 1.228 1.255 1.317 1.360 1.392 1.422 1.452 1.490 1.546 1.619 1.691 1.782 1.958 2.239 2.415 2.444 2.425 2.270 1.883 1.622 1.503 1.445 1.419 1.414 1.421 1.441 1.463 1.489 1.533 1.577 1.580 1.549 1.514 1.505 1.513 1.551 1.634 1.756 1.846 1.892 1.906 1.904 1.886 1.843 1.786 1.739 1.705 1.680 1.660 1.601 1.507 1.475 1.452 1.496 1.619 1.713 1.733 1.715 1.690 1.662 1.635 1.608 1.581 1.551 1.519 1.482 1.438 1.386 1.337 1.302 1.280 1.268 1.261 1.262 1.273 1.295 1.331 1.386 1.436 1.468 1.483 1.495 1.498 1.496 1.486 1.461 1.420 1.351 1.252 1.114 0.992 0.666 0.000 
0.000 1.061 1.089 1.122 1.219 1.308 1.358 1.381 1.387 1.385 1.371 1.335 1.271 1.174 1.046 0.924 0.838 0.782 0.753 0.742 0.741 0.748 0.771 0.821 0.910 1.043 1.170 1.247 1.286 1.313 1.367 1.404 1.427 1.445 1.463 1.496 1.542 1.585 1.646 1.759 1.974 2.374 2.761 2.872 2.823 2.565 2.026 1.699 1.573 1.510 1.470 1.447 1.443 1.449 1.464 1.484 1.520 1.585 1.613 1.578 1.522 1.508 1.518 1.571 1.698 1.893 2.031 2.094 2.107 2.095 2.046 1.958 1.863 1.795 1.743 1.699 1.655 1.593 1.526 1.474 1.416 1.365 1.383 1.519 1.682 1.714 1.693 1.668 1.642 1.615 1.586 1.554 1.519 1.481 1.437 1.381 1.321 1.275 1.247 1.232 1.229 1.230 1.247 1.275 1.321 1.384 1.435 1.468 1.485 1.496 1.499 1.496 1.484 1.453 1.400 1.313 1.190 1.058 0.958 0.614 0.000 
0.000 1.066 1.098 1.123 1.215 1.314 1.376 1.408 1.421 1.423 1.416 1.394 1.349 1.277 1.175 1.065 0.983 0.931 0.903 0.892 0.891 0.897 0.916 0.958 1.032 1.144 1.256 1.333 1.374 1.401 1.431 1.452 1.461 1.459 1.459 1.470 1.491 1.524 1.586 1.708 1.930 2.332 2.874 3.098 3.032 2.703 2.126 1.755 1.602 1.520 1.478 1.460 1.454 1.453 1.460 1.464 1.484 1.554 1.594 1.562 1.515 1.498 1.511 1.567 1.714 1.988 2.190 2.272 2.290 2.263 2.184 2.072 1.949 1.850 1.777 1.716 1.661 1.605 1.547 1.487 1.428 1.390 1.387 1.495 1.671 1.693 1.685 1.669 1.647 1.619 1.587 1.553 1.518 1.481 1.437 1.381 1.310 1.250 1.214 1.197 1.193 1.200 1.222 1.260 1.319 1.387 1.440 1.475 1.495 1.503 1.505 1.501 1.487 1.454 1.394 1.288 1.138 1.015 0.951 0.604 0.000 
0.000 1.074 1.110 1.132 1.222 1.334 1.409 1.452 1.473 1.480 1.480 1.472 1.450 1.407 1.337 1.247 1.173 1.125 1.099 1.089 1.087 1.091 1.106 1.138 1.194 1.281 1.374 1.437 1.474 1.495 1.504 1.503 1.490 1.464 1.439 1.422 1.415 1.431 1.484 1.583 1.746 2.010 2.516 2.930 2.994 2.704 2.138 1.759 1.594 1.513 1.478 1.465 1.460 1.454 1.443 1.407 1.372 1.399 1.474 1.480 1.472 1.467 1.452 1.478 1.625 1.967 2.212 2.303 2.327 2.309 2.246 2.146 2.011 1.883 1.791 1.727 1.674 1.624 1.573 1.521 1.478 1.446 1.466 1.575 1.662 1.675 1.675 1.668 1.649 1.621 1.585 1.549 1.515 1.483 1.441 1.384 1.306 1.227 1.180 1.159 1.155 1.169 1.198 1.253 1.328 1.400 1.454 1.491 1.515 1.520 1.521 1.517 1.502 1.466 1.399 1.282 1.104 0.960 0.904 0.564 0.000 
0.000 1.082 1.122 1.148 1.250 1.376 1.462 1.515 1.543 1.556 1.560 1.559 1.550 1.527 1.487 1.431 1.379 1.343 1.324 1.314 1.311 1.312 1.321 1.342 1.380 1.440 1.506 1.549 1.571 1.576 1.570 1.549 1.508 1.453 1.403 1.356 1.315 1.296 1.308 1.350 1.380 1.339 1.461 1.799 2.150 2.237 1.959 1.677 1.540 1.481 1.463 1.466 1.469 1.464 1.446 1.402 1.365 1.377 1.435 1.462 1.471 1.456 1.399 1.312 1.316 1.486 1.649 1.771 1.909 2.070 2.211 2.173 2.046 1.892 1.795 1.727 1.688 1.649 1.611 1.579 1.555 1.539 1.569 1.642 1.667 1.674 1.674 1.668 1.651 1.619 1.575 1.539 1.512 1.487 1.450 1.397 1.313 1.206 1.138 1.113 1.111 1.130 1.183 1.264 1.352 1.426 1.484 1.524 1.548 1.553 1.554 1.549 1.533 1.494 1.423 1.299 1.093 0.865 0.745 0.430 0.000 
0.000 1.093 1.137 1.173 1.311 1.454 1.543 1.595 1.620 1.629 1.629 1.630 1.626 1.616 1.596 1.568 1.540 1.518 1.505 1.494 1.489 1.489 1.492 1.504 1.527 1.565 1.608 1.635 1.645 1.644 1.628 1.585 1.513 1.423 1.349 1.278 1.206 1.160 1.144 1.142 1.093 0.888 0.705 0.694 0.914 1.295 1.470 1.431 1.399 1.396 1.420 1.464 1.492 1.498 1.488 1.472 1.471 1.484 1.498 1.506 1.501 1.474 1.399 1.264 1.167 1.128 1.142 1.167 1.225 1.406 1.810 2.070 2.019 1.879 1.779 1.724 1.698 1.675 1.655 1.639 1.628 1.628 1.642 1.667 1.678 1.678 1.678 1.673 1.655 1.611 1.551 1.517 1.504 1.495 1.475 1.428 1.337 1.189 1.074 1.039 1.041 1.084 1.184 1.299 1.394 1.471 1.532 1.575 1.597 1.606 1.609 1.605 1.591 1.556 1.485 1.357 1.131 0.782 0.515 0.241 0.000 
0.000 1.106 1.155 1.218 1.413 1.557 1.632 1.662 1.674 1.677 1.676 1.677 1.676 1.673 1.667 1.658 1.648 1.639 1.629 1.617 1.610 1.608 1.609 1.614 1.627 1.647 1.670 1.685 1.690 1.688 1.671 1.609 1.504 1.365 1.253 1.174 1.113 1.063 1.014 0.969 0.896 0.738 0.587 0.549 0.601 0.840 1.029 1.094 1.157 1.239 1.339 1.444 1.525 1.569 1.579 1.578 1.582 1.601 1.617 1.611 1.591 1.543 1.435 1.287 1.203 1.187 1.201 1.188 1.154 1.165 1.356 1.682 1.805 1.785 1.736 1.714 1.701 1.692 1.685 1.680 1.677 1.675 1.684 1.689 1.690 1.689 1.690 1.684 1.662 1.597 1.500 1.463 1.474 1.512 1.527 1.495 1.396 1.210 0.989 0.895 0.913 1.030 1.225 1.370 1.456 1.515 1.568 1.614 1.648 1.664 1.668 1.668 1.662 1.646 1.600 1.486 1.246 0.805 0.385 0.133 0.000 
0.000 1.121 1.174 1.311 1.480 1.613 1.678 1.697 1.700 1.700 1.700 1.700 1.700 1.700 1.700 1.700 1.700 1.699 1.693 1.683 1.675 1.672 1.672 1.673 1.679 1.689 1.697 1.700 1.700 1.698 1.685 1.626 1.493 1.322 1.186 1.117 1.080 1.021 0.932 0.845 0.795 0.778 0.774 0.773 0.776 0.789 0.818 0.870 0.953 1.062 1.194 1.349 1.507 1.619 1.652 1.637 1.627 1.642 1.669 1.689 1.687 1.634 1.503 1.340 1.259 1.320 1.425 1.444 1.354 1.269 1.305 1.449 1.598 1.675 1.697 1.700 1.700 1.700 1.700 1.700 1.700 1.700 1.700 1.700 1.700 1.700 1.699 1.691 1.654 1.563 1.435 1.353 1.389 1.506 1.600 1.602 1.497 1.270 0.954 0.719 0.740 0.997 1.283 1.449 1.508 1.538 1.582 1.635 1.676 1.695 1.699 1.700 1.700 1.700 1.697 1.659 1.448 0.934 0.357 0.109 0.000 
0.000 1.133 1.190 1.332 1.500 1.624 1.682 1.698 1.700 1.700 1.700 1.700 1.700 1.700 1.700 1.700 1.700 1.700 1.700 1.699 1.698 1.698 1.698 1.698 1.699 1.699 1.700 1.700 1.700 1.698 1.680 1.614 1.475 1.305 1.176 1.112 1.071 1.000 0.893 0.793 0.739 0.722 0.719 0.719 0.720 0.723 0.735 0.771 0.850 0.972 1.126 1.307 1.489 1.622 1.677 1.683 1.682 1.686 1.693 1.697 1.687 1.628 1.489 1.330 1.271 1.359 1.479 1.488 1.378 1.282 1.321 1.469 1.613 1.682 1.698 1.700 1.700 1.700 1.700 1.700 1.700 1.700 1.700 1.700 1.700 1.700 1.699 1.688 1.643 1.534 1.389 1.305 1.357 1.498 1.619 1.651 1.572 1.344 1.006 0.763 0.811 1.109 1.423 1.595 1.649 1.662 1.673 1.685 1.695 1.699 1.700 1.700 1.700 1.700 1.697 1.659 1.449 0.935 0.357 0.107 0.000 
0.000 0.000 0.000 0.000 0.000 0.000 0.000 0.000 0.000 0.000 0.000 0.000 0.000 0.000 0.000 0.000 0.000 0.000 0.000 0.000 0.000 0.000 0.000 0.000 0.000 0.000 0.000 0.000 0.000 0.000 0.000 0.000 0.000 0.000 0.000 0.000 0.000 0.000 0.000 0.000 0.000 0.000 0.000 0.000 0.000 0.000 0.000 0.000 0.000 0.000 0.000 0.000 0.000 0.000 0.000 0.000 0.000 0.000 0.000 0.000 0.000 0.000 0.000 0.000 0.000 0.000 0.000 0.000 0.000 0.000 0.000 0.000 0.000 0.000 0.000 0.000 0.000 0.000 0.000 0.000 0.000 0.000 0.000 0.000 0.000 0.000 0.000 0.000 0.000 0.000 0.000 0.000 0.000 0.000 0.000 0.000 0.000 0.000 0.000 0.000 0.000 0.000 0.000 0.000 0.000 0.000 0.000 0.000 0.000 0.000 0.000 0.000 0.000 0.000 0.000 0.000 0.000 0.000 0.000 0.000 0.000 
