ncols 121
nrows 121
xllcenter 614385.88
yllcenter 1276940.75
cellsize 92.28
NODATA_value -9999.000
180 180 180 180 180 180 180 180 180 180 180 180 180 180 180 180 180 180 180 180 180 180 180 180 180 180 180 180 180 180 180 180 180 180 180 180 180 180 180 180 180 180 180 180 180 180 180 180 180 180 180 180 180 180 180 180 180 180 180 180 180 180 180 180 180 180 180 180 180 180 180 180 180 180 180 180 180 180 180 180 180 180 180 180 180 180 180 180 180 180 180 180 180 180 180 180 180 180 180 180 180 180 180 180 180 180 180 180 180 180 180 180 180 180 180 180 180 180 180 180 180 
180 -124 187 181 179 178 177 176 171 163 156 157 173 179 170 166 175 190 177 156 156 179 186 176 169 174 171 160 149 150 165 181 171 159 163 164 169 193 213 218 219 215 208 203 201 199 197 198 192 176 171 188 199 183 156 165 188 196 187 175 176 181 184 188 189 185 182 175 175 189 194 183 175 185 196 196 191 187 183 181 182 181 181 181 181 180 178 178 180 186 189 189 186 187 191 190 188 187 191 194 192 183 178 180 180 181 182 182 184 181 166 160 170 182 180 165 165 176 192 130 180 
180 -124 188 184 181 179 177 175 169 161 155 156 171 182 171 161 163 176 174 164 168 180 186 168 156 163 168 163 150 140 140 166 178 164 156 159 164 180 199 203 204 205 201 199 197 192 187 185 186 179 169 172 184 179 155 155 171 184 186 181 183 185 182 183 190 190 184 180 175 183 195 190 178 182 198 203 197 190 185 181 181 180 181 183 183 185 183 177 174 181 189 189 187 186 193 198 193 189 193 201 202 194 180 179 185 186 189 191 192 195 185 169 168 177 183 171 160 163 170 130 180 
180 -124 188 190 184 180 175 172 168 161 153 151 163 180 178 167 163 164 164 162 171 184 190 172 152 150 155 154 156 151 139 142 165 175 164 158 162 179 196 192 185 185 185 186 186 181 176 172 172 175 177 175 179 178 163 154 164 174 179 182 187 189 186 183 187 190 187 188 186 180 187 194 187 183 192 201 202 194 185 181 180 179 178 179 180 188 192 183 169 168 176 177 175 173 178 189 192 189 190 198 200 195 182 168 172 177 181 189 193 200 197 176 168 170 178 181 163 160 159 130 180 
180 -124 185 194 192 183 177 168 165 159 154 150 157 171 178 174 173 171 168 165 169 181 189 179 162 156 158 151 157 165 158 145 141 146 147 145 154 173 193 198 191 180 180 183 186 186 184 177 171 172 181 186 189 189 178 165 163 168 172 176 183 186 187 188 187 184 182 186 196 191 181 185 187 185 188 191 193 191 186 180 178 180 179 176 170 178 195 195 179 168 169 168 168 165 164 171 181 188 193 198 200 195 188 173 165 165 167 180 192 198 203 186 168 169 173 182 178 169 164 130 180 
180 -124 184 187 192 185 183 173 169 166 161 159 163 172 181 185 183 179 181 176 173 180 185 182 173 171 171 159 155 166 165 159 146 131 121 115 131 157 172 186 189 181 180 185 187 190 193 193 188 182 182 189 193 197 192 178 167 165 166 166 171 175 179 185 184 177 169 170 185 194 185 174 177 179 182 186 185 185 186 186 181 178 179 177 168 163 182 195 190 180 181 182 176 168 159 158 162 172 189 201 205 202 195 186 173 167 161 167 187 199 205 196 173 172 180 187 192 187 185 130 180 
180 -124 186 181 184 182 182 181 176 176 173 171 176 177 179 187 190 182 183 183 174 176 182 180 178 181 183 168 160 170 162 155 155 146 129 114 118 151 170 174 176 176 173 181 189 193 199 200 198 193 187 185 190 195 196 186 175 171 171 168 168 168 172 179 180 173 163 160 170 181 182 173 169 170 176 182 184 187 189 193 192 185 181 178 171 164 175 190 192 187 186 194 191 182 168 159 157 157 171 192 204 206 199 192 183 175 165 164 179 194 203 200 182 175 183 191 195 196 198 130 180 
180 -124 186 182 179 179 177 181 180 181 179 177 179 177 174 180 185 180 179 183 176 174 179 180 180 182 185 172 174 184 171 153 155 154 138 123 119 138 167 174 173 171 169 174 182 187 197 203 201 194 187 180 181 186 192 189 179 174 176 178 175 177 181 186 186 178 167 162 167 177 179 175 172 171 175 180 182 183 190 198 200 192 185 181 173 166 173 188 191 185 184 196 202 198 187 176 174 172 178 190 199 202 197 187 185 182 170 162 175 192 199 197 188 176 175 186 192 194 197 130 180 
180 -124 185 183 180 183 181 179 180 180 178 173 173 176 173 172 175 174 177 183 181 178 179 175 179 181 180 162 166 187 186 165 155 159 149 132 127 135 156 168 175 176 171 171 176 176 176 187 193 190 181 176 174 176 182 187 186 182 178 180 180 179 187 194 192 183 170 163 165 173 178 179 178 180 181 184 180 175 178 186 193 192 184 181 175 162 165 180 189 188 184 191 203 205 198 182 172 172 181 198 207 207 199 185 182 188 180 167 171 187 194 194 191 187 176 173 181 183 187 130 180 
180 -124 183 182 184 189 194 185 179 178 176 170 165 166 168 171 172 170 171 179 184 181 179 174 174 180 179 155 151 178 190 178 161 162 158 148 146 153 163 170 172 177 178 178 183 182 172 169 177 184 182 181 182 177 176 180 183 190 190 190 190 180 179 191 193 186 176 166 162 165 170 174 175 178 182 182 180 178 174 172 178 183 183 179 176 165 156 165 176 184 186 183 187 191 188 177 160 152 153 173 196 205 199 186 185 194 194 184 183 192 195 190 188 189 183 171 170 176 178 130 180 
180 -124 182 176 180 189 199 193 180 177 174 170 166 163 164 170 175 173 170 173 178 182 181 175 169 178 184 167 148 169 186 183 167 164 162 161 164 169 172 174 172 173 174 177 185 189 186 175 174 181 183 183 187 185 177 175 178 184 192 200 205 192 176 179 188 188 186 180 173 169 169 170 171 169 173 174 171 171 177 178 178 180 179 180 179 171 158 154 159 167 178 178 171 168 166 165 157 150 147 152 170 183 182 170 177 192 195 194 193 195 197 192 190 188 185 178 176 181 180 130 180 
180 -124 184 172 171 183 193 192 181 180 178 172 171 168 165 168 174 177 174 172 171 180 184 174 165 173 185 185 155 162 176 182 173 165 159 162 172 177 177 175 171 168 171 174 180 184 186 183 178 177 178 179 184 187 180 171 170 176 185 203 212 202 183 175 178 178 180 184 182 179 178 177 176 172 171 173 172 170 173 180 182 184 181 178 180 175 161 148 146 153 162 167 165 165 166 164 162 158 154 154 163 172 168 152 153 171 180 182 181 182 185 181 181 187 190 187 185 189 190 130 180 
180 -124 193 182 173 179 187 188 184 182 184 178 176 176 173 171 172 175 174 172 172 178 183 172 164 167 177 191 171 162 170 180 180 170 161 160 171 176 179 177 173 167 169 178 181 184 183 183 181 179 176 176 180 184 183 175 164 162 176 194 203 200 189 177 175 177 177 179 182 181 183 186 184 181 179 179 180 181 178 179 184 185 184 180 180 178 168 153 143 145 154 167 171 171 175 170 167 163 158 157 164 171 168 156 147 148 158 167 169 164 169 170 166 177 189 188 181 182 185 130 180 
180 -124 194 195 189 186 187 187 182 186 188 185 179 178 179 178 177 171 165 169 175 177 181 174 168 170 171 187 182 171 178 183 182 173 167 165 171 174 177 177 174 169 170 179 183 184 186 183 182 182 181 179 179 182 178 172 166 163 159 167 184 192 188 182 178 178 182 185 186 185 182 186 190 187 185 186 188 189 183 178 183 187 187 186 184 182 178 167 157 155 158 167 175 177 176 177 177 175 166 162 165 166 164 164 159 147 150 163 171 166 166 171 167 169 188 195 185 177 175 130 180 
180 -124 186 192 192 187 188 188 182 188 192 191 184 179 180 183 181 170 158 163 173 173 175 175 171 178 170 177 186 173 180 187 188 178 169 169 175 174 174 175 176 172 175 182 183 183 186 186 184 183 181 179 178 181 175 163 161 159 151 154 169 182 185 183 181 178 181 184 186 189 186 181 183 184 184 186 190 192 188 180 180 184 184 188 191 187 182 178 171 170 173 174 173 172 171 172 175 179 175 172 176 166 159 166 165 155 154 163 170 170 169 171 166 156 171 192 199 196 190 130 180 
180 -124 179 178 188 185 186 187 184 188 195 196 189 180 179 183 182 175 160 166 179 175 170 167 168 181 177 167 178 168 174 180 182 180 175 173 176 178 175 175 178 179 180 189 189 184 185 187 185 185 184 181 173 175 184 174 159 158 160 163 171 181 185 183 182 179 178 180 180 185 189 185 180 176 175 180 187 190 188 182 182 183 181 184 191 191 185 180 176 174 176 177 176 169 164 163 168 174 172 168 181 177 163 170 172 165 163 171 172 170 170 171 164 154 156 175 193 206 208 130 180 
180 -124 186 184 193 193 190 189 183 184 190 192 189 181 178 181 180 174 158 162 183 185 173 162 160 175 183 171 172 167 168 171 167 171 173 175 175 177 174 173 182 189 187 192 199 193 185 184 183 182 187 191 184 172 180 189 180 174 176 175 177 183 187 187 184 181 178 177 176 179 185 187 185 179 173 174 184 188 185 180 182 183 177 180 188 190 187 184 184 180 178 177 177 175 172 169 170 174 171 162 171 178 168 172 176 168 162 172 177 172 170 173 169 160 153 162 180 203 211 130 180 
180 -124 188 193 197 199 193 189 179 176 181 184 186 181 176 178 180 177 165 155 171 184 182 177 171 176 182 177 176 173 171 172 166 166 172 176 177 170 165 168 177 190 193 192 199 201 191 185 178 172 180 196 202 195 190 190 190 184 183 184 181 180 184 185 185 185 180 176 176 178 182 184 185 184 181 176 181 188 189 185 182 184 178 176 183 188 187 183 186 192 190 185 181 180 180 184 185 186 180 168 167 174 167 167 173 168 161 162 172 175 170 169 169 160 148 144 162 185 198 130 180 
180 -124 178 188 189 187 182 180 174 170 175 182 185 184 184 181 178 180 177 167 171 181 183 189 192 191 188 181 180 182 177 175 173 174 181 184 186 177 160 158 167 182 192 190 193 199 195 187 179 166 162 179 198 211 210 201 194 186 183 185 185 182 183 185 185 185 183 178 180 183 183 183 182 184 185 183 181 185 188 189 188 188 184 181 184 187 186 181 178 186 192 191 186 180 179 184 190 197 196 182 175 178 176 173 177 175 173 171 173 176 175 167 168 161 143 135 147 163 176 130 180 
180 -124 173 176 176 178 182 179 176 174 177 185 188 180 187 194 186 183 181 178 173 176 176 180 188 194 193 186 178 182 180 173 171 177 186 189 188 184 173 158 159 175 187 190 191 197 195 189 182 174 164 166 182 208 219 208 197 190 184 185 186 184 183 186 186 187 187 182 180 187 187 182 179 183 187 186 182 182 184 186 187 190 192 187 186 189 189 185 176 177 185 188 185 180 176 180 186 191 199 196 185 183 186 190 195 193 193 191 183 182 188 182 173 166 149 139 148 162 169 130 180 
180 -124 173 173 179 187 199 197 184 181 180 185 195 178 175 193 196 193 187 181 171 166 165 167 173 179 182 187 180 176 177 167 160 168 180 183 181 174 177 173 159 172 186 188 191 198 197 186 178 174 167 164 179 203 220 215 200 190 186 186 187 184 184 190 192 186 188 187 183 187 189 184 179 178 185 188 188 185 184 184 184 186 194 196 192 188 189 189 184 182 188 191 187 180 176 179 184 187 186 190 187 184 182 184 197 198 196 201 191 179 190 202 195 178 158 143 146 161 173 130 180 
180 -124 180 178 181 184 202 208 191 180 182 184 193 183 165 180 190 196 193 184 176 168 162 158 163 171 173 183 183 177 176 167 152 153 164 170 172 163 164 181 176 175 189 191 190 196 196 181 169 169 163 154 165 197 220 217 203 192 189 189 188 188 182 190 201 196 191 192 185 186 193 192 186 180 180 183 187 191 193 190 184 184 191 198 202 198 192 188 184 185 190 194 188 177 173 179 183 183 182 178 178 179 181 180 188 195 191 191 187 175 178 201 210 194 177 163 157 161 171 130 180 
180 -124 190 181 177 179 186 197 195 178 179 182 186 185 170 174 182 188 190 185 180 178 173 164 160 162 165 173 184 181 184 185 174 163 167 172 170 165 157 168 179 184 192 192 190 194 193 180 166 169 164 154 159 190 220 221 205 195 192 194 192 191 184 187 204 207 197 196 191 186 193 204 204 195 187 180 175 180 192 198 192 184 186 197 205 206 200 191 184 187 193 194 188 176 166 172 184 186 182 176 166 164 170 175 181 192 195 193 184 171 170 188 206 201 187 187 185 182 177 130 180 
180 -124 193 183 173 173 173 188 193 190 187 182 181 181 176 180 181 182 186 187 186 183 181 177 170 165 165 166 176 172 177 190 195 188 183 186 179 168 160 163 170 179 190 190 186 189 191 180 165 166 170 162 162 186 223 234 220 204 195 195 197 192 186 184 196 203 203 203 198 191 193 206 217 216 213 208 190 171 172 187 197 193 180 185 203 213 211 200 182 181 194 198 195 188 173 167 179 189 186 180 168 155 156 164 173 184 193 199 190 177 172 180 195 196 184 190 197 199 196 130 180 
180 -124 199 189 176 170 174 177 188 200 201 192 181 177 181 188 186 185 187 191 195 189 183 184 183 179 176 175 176 161 155 168 183 186 180 181 179 168 159 161 165 173 187 187 180 181 187 180 170 165 170 165 158 176 217 238 236 225 213 202 199 189 181 187 193 194 196 200 202 200 202 208 212 214 221 229 228 209 181 171 181 196 191 181 191 208 216 213 198 182 185 190 188 190 187 173 172 182 186 183 176 161 153 158 168 176 185 191 191 188 183 185 193 190 177 182 191 196 202 130 180 
180 -124 197 201 194 181 174 170 175 189 199 198 184 174 182 190 189 185 186 194 200 195 185 183 185 185 182 180 184 173 153 150 159 169 169 169 175 169 164 163 165 171 183 187 179 174 180 178 170 166 171 175 162 161 193 228 239 236 229 224 217 203 181 177 187 191 186 188 190 192 202 214 214 205 205 221 234 235 222 200 181 185 198 193 187 202 216 216 208 201 194 188 182 178 184 181 176 177 181 182 184 172 155 156 163 168 182 190 187 184 190 192 193 187 174 179 188 192 196 130 180 
180 -124 179 198 204 193 179 176 173 175 186 191 180 173 179 191 186 176 181 188 193 194 186 182 182 181 181 178 181 183 180 171 165 167 167 166 172 174 172 173 173 174 182 186 180 172 169 168 165 165 167 169 164 159 175 200 224 234 234 233 232 226 205 185 180 178 178 183 184 176 178 198 210 207 194 193 211 228 231 228 216 196 192 196 194 200 210 216 215 213 208 200 192 185 184 186 185 182 181 178 180 178 163 153 161 159 167 191 196 185 185 192 191 178 167 173 184 190 194 130 180 
180 -124 159 180 197 197 183 186 186 184 187 188 179 170 167 180 180 169 176 185 182 186 185 183 180 178 180 180 176 171 179 194 190 181 172 164 163 170 172 176 178 178 185 188 179 171 165 159 152 152 160 158 151 158 164 168 180 213 233 237 237 231 219 205 196 189 184 186 194 188 176 194 215 214 197 181 183 201 215 225 234 229 206 193 192 197 203 206 213 219 214 206 199 194 191 191 189 187 183 182 180 178 174 163 160 159 155 173 194 188 180 188 195 175 156 161 174 183 190 130 180 
180 -124 160 159 178 189 177 177 184 184 191 196 191 182 171 167 168 157 162 181 183 180 183 185 183 177 179 183 179 167 156 174 187 188 180 167 159 161 164 171 177 178 183 185 179 170 164 159 149 141 147 150 148 146 142 137 135 165 217 233 228 228 223 208 202 198 199 196 192 195 193 199 220 229 219 192 174 175 184 197 223 239 233 210 194 195 197 194 208 223 225 214 204 198 193 192 190 187 184 184 186 187 185 177 168 164 160 160 176 183 173 178 193 187 160 153 161 169 184 130 180 
180 -124 181 156 161 178 171 160 163 162 168 184 190 190 186 175 175 168 158 170 179 178 178 183 186 178 177 183 185 176 160 157 166 176 178 173 162 161 164 169 174 177 180 181 178 169 164 162 152 130 126 145 152 148 140 123 114 120 171 217 227 228 217 202 201 204 202 196 181 181 195 205 215 231 236 220 190 177 166 162 190 228 239 230 213 203 197 191 204 223 234 232 219 207 199 196 196 190 181 178 181 182 184 179 169 167 166 164 170 179 170 168 183 190 173 157 157 159 170 130 180 
180 -124 197 180 159 175 182 177 173 162 152 162 172 178 182 176 179 188 180 174 176 178 178 179 183 181 177 181 185 183 176 168 161 162 167 170 163 158 164 171 176 177 177 177 177 173 168 164 157 137 116 127 142 153 154 134 121 120 138 190 220 222 209 201 202 203 199 191 168 155 185 213 216 221 235 235 216 197 184 160 159 197 226 232 225 214 203 190 192 209 228 238 234 218 206 200 200 199 189 176 172 172 171 168 162 165 166 166 173 179 173 162 172 195 196 180 171 170 164 130 180 
180 -124 185 199 185 184 190 192 197 190 174 176 180 181 180 171 168 182 188 183 178 177 179 181 181 180 178 181 184 184 180 178 170 160 161 165 162 157 164 172 178 180 179 173 170 174 173 169 162 155 146 136 137 147 160 157 137 133 133 156 188 204 208 209 208 208 213 208 177 139 168 213 218 217 228 236 231 217 206 188 168 184 209 221 225 220 209 195 186 183 195 222 231 224 211 202 199 197 192 183 173 170 167 160 151 155 164 164 168 174 172 161 158 177 198 203 196 193 177 130 180 
180 -124 172 186 194 193 189 186 194 197 189 192 203 205 195 178 165 172 180 182 181 176 175 182 183 180 178 180 183 183 180 179 178 168 162 164 163 161 170 176 180 183 183 177 170 173 171 169 164 163 173 170 154 145 149 159 155 150 143 142 153 167 191 210 212 208 212 217 205 173 166 204 220 219 225 234 236 229 218 206 185 189 210 218 221 222 217 209 200 183 169 189 213 215 207 205 202 197 192 187 180 176 176 171 161 153 158 161 165 172 173 169 164 164 173 182 189 193 188 130 180 
180 -124 176 174 178 183 186 179 186 190 178 183 200 209 206 192 176 173 178 180 183 178 171 178 187 182 178 181 185 183 180 178 179 176 168 163 160 160 172 182 184 184 181 179 180 179 174 168 159 160 177 184 174 166 154 147 151 154 159 153 147 138 153 187 202 193 197 213 215 199 184 194 210 221 231 237 238 235 228 221 202 189 206 220 224 224 217 210 207 197 177 169 187 196 192 198 205 204 197 190 187 183 181 179 176 171 171 176 180 181 177 170 175 178 174 162 158 167 177 130 180 
180 -124 180 176 173 167 173 176 181 187 175 164 177 191 198 193 184 180 179 180 181 181 175 173 185 184 178 178 188 184 181 181 180 178 175 167 160 159 167 179 186 185 175 170 180 183 174 167 158 155 164 173 167 173 179 168 144 133 141 151 149 125 114 138 174 170 149 158 179 193 199 202 209 222 233 235 236 239 238 231 218 198 195 212 224 220 210 203 204 201 186 166 164 176 179 184 197 204 201 193 187 183 183 182 179 180 183 185 187 189 189 185 178 181 182 169 150 147 158 130 180 
180 -124 184 182 181 172 162 161 171 182 178 157 160 183 195 190 184 181 180 181 181 180 179 178 181 182 178 172 187 186 178 181 183 180 176 169 164 166 166 173 182 183 173 162 170 179 169 155 151 152 151 155 144 147 170 186 165 122 106 119 127 109 88 91 117 138 124 111 114 129 153 172 189 220 240 241 240 243 241 234 219 204 200 199 196 191 185 186 197 207 205 188 172 170 169 173 187 198 196 191 188 185 183 183 176 170 175 181 179 175 177 184 188 187 187 180 159 146 144 130 180 
180 -124 190 192 195 192 174 157 157 173 187 175 157 173 195 192 185 183 184 183 180 173 175 180 180 180 176 170 180 187 176 176 181 182 178 170 159 170 173 170 176 180 178 170 167 174 168 155 147 149 147 146 135 123 138 168 183 146 104 105 109 99 81 76 86 105 116 109 100 94 100 113 117 153 215 238 241 243 244 237 225 213 197 187 176 162 153 156 173 193 212 217 207 185 167 161 173 192 195 186 182 183 182 183 183 169 155 157 163 162 159 161 173 185 187 183 173 158 142 130 180 
180 -124 184 189 200 205 194 172 160 165 182 186 166 161 182 189 183 187 194 193 187 173 171 181 184 183 181 177 177 188 180 176 176 180 176 173 162 165 178 175 173 178 180 184 181 176 173 165 157 155 157 155 145 127 126 141 173 170 131 119 124 119 105 96 94 94 99 107 110 100 87 89 92 99 138 185 207 220 228 234 227 212 199 189 185 179 159 139 138 152 177 207 221 209 184 162 160 180 192 188 180 178 181 184 190 189 172 156 152 153 153 151 154 169 180 180 179 178 157 130 180 
180 -124 180 170 180 194 195 182 171 169 175 181 175 162 172 185 182 186 200 206 199 183 173 182 190 185 184 189 187 190 186 188 187 189 180 171 168 167 181 184 174 171 175 181 186 181 177 175 171 164 163 166 160 142 138 139 153 169 157 147 154 158 158 152 139 124 104 99 112 115 101 88 89 98 123 152 167 178 183 192 199 204 208 209 209 212 201 174 152 141 141 163 198 213 201 177 162 175 191 194 185 177 175 180 193 202 196 181 168 162 159 157 157 164 174 178 179 185 182 130 180 
180 -124 194 172 165 174 183 179 178 182 184 183 180 174 171 179 184 183 192 206 206 192 173 177 187 183 176 185 194 192 186 191 196 198 194 176 168 168 178 187 179 166 169 174 176 174 173 175 182 174 165 168 169 158 157 160 165 172 167 166 170 174 183 185 176 170 158 132 124 133 131 119 108 108 127 158 172 168 164 170 185 199 210 217 221 227 226 212 198 184 161 143 160 194 204 190 171 170 187 197 195 182 169 162 173 195 205 195 183 183 183 176 171 173 176 174 173 176 187 130 180 
180 -124 200 189 178 178 181 174 171 183 189 188 183 179 168 169 183 178 179 193 199 202 185 175 181 181 170 173 187 189 179 183 194 195 199 186 168 165 173 180 180 168 165 173 176 174 166 162 173 180 169 169 178 178 182 186 188 190 179 164 168 179 183 184 186 191 192 180 163 161 162 159 155 147 150 174 198 201 191 185 191 199 212 219 222 226 229 222 211 210 203 172 149 167 194 197 183 169 175 188 193 187 177 163 153 166 192 200 188 186 197 197 187 181 180 179 173 170 176 130 180 
180 -124 187 192 193 195 191 181 175 176 181 183 182 178 167 163 173 175 179 187 190 199 205 194 189 188 180 172 181 185 172 173 182 181 191 195 182 166 170 175 181 179 172 172 178 183 175 165 162 172 172 170 174 175 185 195 196 198 190 173 169 173 174 179 187 193 199 197 186 180 183 185 188 190 189 200 218 229 225 212 207 207 214 222 220 221 227 223 210 207 211 204 176 160 175 193 194 181 171 181 190 187 183 179 165 159 176 192 183 174 189 204 201 187 176 178 185 180 174 130 180 
180 -124 177 185 192 200 197 185 183 184 181 179 175 170 167 159 162 168 181 192 184 187 205 205 199 197 198 191 180 185 176 172 175 175 178 192 195 178 170 170 175 185 182 177 175 181 185 186 180 178 178 171 167 165 160 165 172 185 198 189 166 155 151 164 186 197 202 205 200 185 171 179 204 212 207 212 226 233 231 222 209 208 214 220 217 211 216 220 214 212 214 210 196 175 165 173 184 186 178 177 188 188 184 186 178 162 169 191 185 163 168 189 203 194 171 164 174 181 173 130 180 
180 -124 179 181 186 191 190 178 176 184 184 182 176 167 167 162 153 156 173 188 173 169 186 195 192 187 197 211 188 177 176 175 179 182 181 187 196 189 176 169 162 173 180 177 168 168 177 183 189 186 186 181 166 158 150 139 137 147 176 188 170 145 127 130 162 190 200 205 206 196 178 175 196 213 212 216 228 226 222 218 206 202 214 222 222 216 212 215 209 214 226 222 206 190 176 173 177 181 182 177 181 187 185 185 183 168 159 180 194 175 162 173 192 196 176 156 158 167 166 130 180 
180 -124 190 188 188 186 191 185 178 180 187 191 189 184 176 174 159 148 165 182 170 150 162 178 177 166 171 209 199 179 177 172 170 176 186 189 196 193 180 174 163 160 166 170 166 157 164 171 176 179 180 178 170 161 151 134 128 128 142 166 169 147 126 113 121 153 180 184 189 204 206 186 175 188 210 218 223 226 222 215 208 203 218 232 234 230 230 226 213 209 227 230 216 199 189 183 184 186 187 182 178 181 182 182 182 174 161 164 189 190 172 171 183 191 187 171 163 169 170 130 180 
180 -124 192 191 198 195 194 197 193 184 184 193 193 198 191 181 170 160 168 187 187 159 151 164 167 152 148 187 200 189 190 178 161 159 175 181 190 195 185 180 178 171 168 168 169 161 158 164 166 172 175 177 176 167 156 135 129 134 136 143 153 146 134 121 110 114 136 150 156 171 174 160 145 162 192 198 205 225 231 226 211 199 214 234 239 236 236 233 222 214 224 229 218 200 190 185 184 187 188 186 178 174 179 184 185 178 168 163 179 192 184 178 181 193 198 193 181 183 186 130 180 
180 -124 176 178 194 198 194 196 197 186 175 180 180 184 192 181 166 165 169 182 197 182 163 165 170 156 146 174 186 182 195 187 166 157 170 179 184 188 184 178 180 187 187 179 170 167 164 164 163 167 173 173 176 176 164 141 129 138 144 145 147 144 137 132 126 120 111 109 111 123 128 124 114 121 153 175 180 207 230 234 225 205 208 229 235 236 236 233 223 218 227 232 224 202 186 181 180 183 186 186 186 181 179 187 193 186 169 156 169 190 193 184 177 180 197 204 192 184 192 130 180 
180 -124 166 167 178 190 186 181 187 186 172 168 171 169 182 179 160 157 162 163 179 185 172 169 175 165 159 178 180 165 180 188 173 166 174 183 188 190 184 176 171 179 192 195 181 168 166 166 167 167 169 170 170 173 163 146 135 144 150 145 143 137 128 133 137 134 118 103 109 129 132 115 106 109 136 169 171 180 205 223 225 216 220 230 237 239 241 240 231 221 228 238 237 220 195 182 177 178 183 183 184 185 180 183 193 192 174 154 155 179 196 195 178 164 180 193 186 178 182 130 180 
180 -124 169 170 178 192 190 175 175 187 181 172 172 173 184 188 171 159 164 163 165 173 173 169 170 162 162 180 186 168 174 183 176 171 173 179 184 189 189 182 170 167 180 198 197 180 173 171 170 171 172 170 171 170 152 130 130 154 170 160 141 130 114 117 127 119 110 101 107 131 142 131 118 117 143 189 208 204 202 207 208 211 224 233 236 237 241 244 239 226 220 230 238 231 211 192 183 179 180 182 180 180 177 175 182 188 178 156 145 162 187 200 191 165 164 181 182 175 168 130 180 
180 -124 176 170 178 194 199 189 181 192 194 187 185 180 187 197 187 172 176 180 176 173 173 175 170 163 162 177 187 178 176 177 174 175 172 171 173 179 186 188 178 168 167 185 202 197 184 175 173 175 178 173 176 181 157 117 102 129 171 183 164 139 118 111 122 120 107 99 103 126 144 139 131 122 128 164 210 229 228 215 206 213 220 225 223 216 218 224 222 213 207 214 230 233 222 204 192 185 181 182 184 185 180 175 177 184 183 168 146 142 161 181 190 180 166 168 175 182 173 130 180 
180 -123 194 175 168 180 189 192 187 194 192 188 189 189 189 199 194 177 174 179 184 181 178 183 178 170 170 179 185 184 183 171 167 170 174 173 178 180 182 190 185 170 162 168 188 196 195 184 175 173 175 173 171 182 176 136 103 101 139 175 180 164 141 126 135 142 131 111 108 122 141 149 143 127 111 112 152 197 218 214 202 214 223 217 210 195 181 186 190 193 196 199 215 230 229 217 201 190 181 179 183 189 190 184 179 184 189 182 166 150 147 158 174 185 184 175 171 179 186 130 180 
180 -124 206 192 175 178 177 182 194 199 188 171 175 185 187 192 194 186 176 173 177 183 186 183 182 176 183 184 182 178 191 182 172 171 176 177 178 185 183 189 191 178 163 162 173 183 190 190 181 178 172 164 157 164 169 148 127 115 121 155 180 183 175 164 165 168 149 128 121 116 117 133 145 133 113 95 98 128 167 191 201 212 215 208 202 196 182 178 185 191 194 196 203 217 223 217 206 192 180 177 180 185 190 188 182 183 196 197 185 173 167 164 166 177 191 189 175 174 186 130 180 
180 -124 198 207 197 195 181 175 197 209 198 168 158 170 179 183 191 197 190 179 177 184 192 187 180 174 184 190 181 173 192 194 179 176 172 175 175 177 177 180 185 182 170 164 170 178 179 183 180 178 175 161 151 151 151 132 117 112 110 130 169 189 193 195 195 196 187 160 143 134 118 115 132 135 116 102 94 100 117 144 188 215 214 208 200 199 199 191 192 195 193 197 202 204 204 203 199 191 180 178 181 180 183 185 178 176 190 202 195 181 176 175 174 176 184 186 174 167 172 130 180 
180 -124 174 191 199 205 190 169 193 211 208 187 160 168 184 183 183 197 202 185 173 186 193 188 180 175 174 186 178 170 187 206 190 178 164 164 172 171 172 174 178 179 174 168 168 174 176 173 171 171 173 164 150 160 156 133 117 102 92 100 136 166 182 193 200 206 212 206 193 178 150 132 135 143 136 123 118 112 106 122 167 212 220 216 208 206 211 210 206 199 193 197 205 199 193 194 195 188 180 180 184 183 179 179 177 174 179 193 194 181 169 170 173 173 175 178 174 165 160 130 180 
180 -124 161 162 177 197 194 169 188 210 212 206 178 166 183 182 177 186 200 184 166 181 189 180 176 178 173 178 172 167 185 205 200 190 174 162 167 175 180 179 181 184 180 171 168 173 177 174 171 170 172 170 155 163 171 146 137 126 102 94 118 144 149 162 177 186 201 212 216 216 201 181 175 171 166 155 146 137 117 120 163 213 229 226 221 215 212 211 210 205 195 195 199 199 194 190 192 187 180 181 185 185 180 174 172 173 175 182 187 178 162 161 170 171 169 169 172 171 162 130 180 
180 -124 168 157 160 178 186 174 178 196 203 206 195 171 170 173 165 170 188 190 173 175 183 175 171 178 183 173 165 163 188 203 197 199 198 176 167 174 183 184 179 184 187 179 171 170 178 181 175 167 165 165 156 158 179 163 146 146 125 106 107 128 134 132 137 146 154 169 191 208 210 209 213 207 192 179 165 160 141 121 151 211 233 231 230 225 216 208 199 195 191 187 190 196 195 189 187 185 183 184 187 187 179 171 168 167 169 175 183 177 163 156 164 170 170 166 164 169 167 130 180 
180 -124 173 164 160 166 170 166 167 174 180 187 195 191 183 175 171 170 170 181 188 191 188 182 181 187 192 178 157 147 178 204 195 189 205 191 169 170 179 180 173 176 184 181 176 173 174 178 175 166 158 155 150 146 168 178 161 149 133 116 109 114 120 122 120 121 124 133 149 169 187 206 218 221 212 192 177 180 182 162 161 203 223 223 225 222 215 209 199 185 182 184 194 204 202 193 187 183 185 189 189 188 185 176 171 171 173 176 182 180 173 165 166 171 166 160 158 163 162 130 180 
180 -124 169 170 171 173 171 172 178 185 180 177 183 198 207 190 179 180 171 169 186 201 197 186 190 197 202 188 171 145 151 187 192 187 194 192 173 167 175 176 173 175 180 183 186 184 178 176 177 173 165 160 157 148 147 162 175 171 151 122 108 111 118 124 126 122 120 120 128 141 150 181 211 222 223 206 179 174 184 188 204 220 214 214 216 218 217 211 202 188 179 188 201 210 208 199 192 186 186 191 190 188 189 187 182 180 180 181 185 184 180 177 173 174 170 158 154 161 160 130 180 
180 -124 173 172 178 184 183 184 192 203 200 184 175 190 212 203 184 189 182 166 181 200 198 179 184 195 200 187 184 176 155 169 178 180 186 190 180 174 176 173 173 182 180 175 186 195 187 177 173 174 172 166 165 159 146 139 152 172 179 164 142 132 128 131 134 131 129 132 129 126 118 138 192 220 226 217 188 170 174 190 217 221 217 221 223 222 220 217 209 197 189 190 197 205 206 200 195 192 189 190 189 188 193 195 189 184 184 186 188 187 183 188 189 181 176 166 158 164 164 130 180 
180 -124 165 166 171 175 174 175 187 198 201 189 174 183 204 205 189 191 189 167 174 194 193 179 181 182 193 186 181 192 172 169 171 170 181 181 180 182 180 171 167 180 180 168 179 194 187 173 168 163 161 157 155 155 151 138 132 143 164 175 173 175 169 159 155 143 131 139 143 132 112 106 147 198 218 221 206 185 176 201 222 221 225 229 229 226 222 220 219 213 203 198 198 201 202 197 194 198 195 190 186 183 190 197 193 186 184 187 191 188 180 184 200 200 186 170 160 164 163 130 180 
180 -124 155 153 157 159 157 152 168 185 191 185 177 180 189 197 193 197 197 169 157 176 180 178 185 180 181 188 182 191 179 170 177 173 178 180 178 181 184 174 165 170 175 163 169 192 190 171 163 155 151 153 152 146 148 147 138 139 147 157 163 175 191 191 182 170 152 141 141 136 128 111 114 138 190 216 210 202 199 213 234 240 240 231 224 227 230 227 226 221 212 201 193 192 191 183 180 192 200 194 185 183 186 191 189 181 181 187 191 186 172 167 189 207 200 181 164 161 160 130 180 
180 -124 168 160 165 168 165 153 156 174 185 185 186 181 177 178 186 198 203 184 161 164 167 167 180 182 171 182 177 184 187 179 187 187 180 183 183 178 183 183 174 170 168 159 157 177 189 176 166 160 150 150 156 156 150 152 147 155 159 158 161 163 175 196 200 189 179 169 154 127 117 114 119 123 134 172 183 182 193 214 238 247 246 239 232 229 234 234 232 227 219 211 198 184 178 170 164 175 195 197 185 181 184 183 179 174 171 175 183 185 174 159 169 198 207 193 177 171 167 130 180 
180 -124 187 176 171 178 184 182 169 164 167 185 191 184 178 169 179 192 197 193 178 173 178 179 181 178 170 187 177 178 191 189 193 195 191 187 185 180 178 185 183 178 172 163 160 163 177 178 171 170 159 151 149 154 149 142 137 140 155 159 164 166 160 172 192 196 199 197 179 151 116 100 100 110 109 122 140 142 147 179 217 238 240 242 243 238 234 233 231 229 224 223 221 207 187 171 158 164 183 190 185 182 186 184 176 170 172 172 175 178 174 163 159 179 198 197 185 176 174 130 180 
180 -123 203 192 173 168 176 192 192 175 162 174 186 183 173 171 182 190 189 194 189 177 183 195 194 181 171 187 190 176 189 192 193 194 192 191 189 185 179 184 184 180 175 171 173 180 185 182 173 171 165 153 140 142 145 130 120 118 125 134 140 149 151 142 147 171 192 199 196 182 149 113 99 100 97 95 105 122 121 127 162 217 237 238 240 238 231 226 225 226 221 218 220 219 207 191 168 160 174 182 179 179 187 191 187 180 181 183 183 178 175 172 165 171 183 187 185 180 172 130 180 
180 -124 209 207 187 163 158 170 188 184 179 185 189 181 163 167 180 189 187 189 194 175 167 186 194 188 181 182 197 178 184 192 189 189 186 186 186 192 193 194 188 180 180 182 182 192 203 198 182 169 167 163 146 135 144 140 119 111 112 118 123 124 120 115 109 116 147 167 171 175 166 135 110 109 105 96 94 104 120 116 120 171 224 233 228 227 229 227 228 232 229 220 214 209 204 195 182 168 174 182 180 178 182 187 189 188 186 187 187 183 175 173 176 179 183 182 181 186 177 130 180 
180 -124 206 206 197 176 160 154 165 177 185 199 202 193 174 169 180 188 185 187 196 189 169 171 182 189 194 185 194 191 180 183 186 187 180 180 170 180 195 208 203 181 175 181 178 189 212 214 199 180 168 165 159 142 143 149 132 113 110 115 118 114 102 89 90 96 112 136 142 155 151 130 105 102 112 106 104 109 122 126 118 122 172 217 227 233 236 233 233 235 236 230 224 214 201 191 183 173 172 180 182 179 180 182 183 182 183 184 182 183 181 178 181 186 187 179 169 177 180 130 180 
180 -124 203 203 198 190 176 164 156 165 185 200 206 200 194 194 196 193 190 189 193 196 190 180 177 185 199 193 185 193 182 174 178 182 183 184 170 162 169 192 206 187 164 168 166 165 189 210 210 198 181 168 164 157 145 143 143 125 112 110 115 115 105 80 74 88 100 110 125 145 146 132 105 87 92 103 110 125 131 133 128 121 136 179 222 238 242 240 238 236 232 229 227 221 206 192 186 183 178 180 184 181 177 175 176 177 176 178 175 174 180 184 186 190 190 183 166 159 163 130 180 
180 -124 198 205 201 201 195 176 163 162 175 188 199 198 192 201 209 206 204 200 198 193 196 188 178 178 189 197 180 182 180 173 172 179 178 186 190 175 157 164 189 187 164 149 154 151 156 175 200 208 199 177 161 160 153 136 132 131 117 113 111 110 109 86 59 65 80 86 99 121 136 127 110 91 74 78 91 116 131 127 123 116 118 134 172 213 232 239 242 238 232 227 224 223 217 203 194 193 193 195 199 198 194 187 184 185 183 179 173 165 171 180 182 187 190 186 177 167 157 130 180 
180 -124 191 202 201 206 209 189 166 168 172 174 179 184 177 182 195 202 206 207 206 199 194 190 182 183 180 189 183 179 183 186 180 178 171 179 199 195 176 166 177 183 178 162 151 152 153 157 174 196 202 190 165 156 157 143 128 129 120 113 114 104 102 97 67 52 56 58 68 89 107 109 100 94 79 66 74 97 114 106 101 100 96 102 111 143 186 219 237 236 232 229 228 230 226 215 205 199 200 205 214 213 205 199 192 191 192 187 179 172 175 184 184 182 184 185 183 179 172 130 180 
180 -124 180 190 185 196 207 197 177 171 169 167 173 179 166 157 168 178 187 198 209 205 190 190 192 201 196 193 198 192 192 199 199 184 170 173 194 197 190 184 180 177 182 189 183 179 167 152 160 186 196 197 182 160 158 155 144 137 136 128 120 105 96 94 89 72 59 51 46 64 84 96 96 93 94 80 71 85 101 99 90 94 97 95 93 100 128 173 221 236 234 231 229 231 229 226 220 204 192 200 220 223 208 193 186 184 186 185 175 172 184 196 192 184 181 181 181 185 183 130 180 
180 -124 175 178 172 179 186 185 182 177 171 162 167 186 178 159 160 165 173 183 201 213 191 181 200 212 214 210 211 206 198 199 203 193 172 169 190 197 188 189 187 173 174 186 195 204 201 172 152 169 190 198 197 176 158 162 161 153 150 152 150 122 103 93 91 94 81 67 59 67 80 93 96 86 84 87 78 76 94 105 98 96 103 106 105 107 113 138 196 230 234 233 230 223 220 227 228 211 192 201 216 213 206 195 187 185 187 183 170 160 177 196 197 187 180 180 175 176 186 130 180 
180 -124 177 171 167 170 172 168 174 180 173 162 164 181 183 170 164 165 172 173 181 202 194 174 195 212 217 213 214 214 206 197 192 188 173 163 176 196 193 188 188 172 165 178 185 198 212 203 176 167 180 193 200 187 160 158 165 163 160 158 170 159 129 112 99 104 108 97 89 91 95 95 94 81 75 76 77 81 95 111 111 107 102 106 116 127 133 133 163 205 222 229 228 220 213 215 214 200 192 203 205 204 199 195 190 189 190 186 172 159 167 188 197 191 182 182 180 171 174 130 180 
180 -124 166 165 162 169 171 166 176 189 174 160 166 175 181 171 162 160 170 170 165 169 176 172 185 198 205 208 216 216 211 201 195 192 188 171 164 179 190 191 189 173 159 169 180 183 202 209 191 175 179 192 197 192 174 165 163 160 158 157 165 177 162 140 125 123 130 132 125 109 101 99 93 81 77 83 84 93 107 118 120 117 112 104 101 115 138 139 141 173 203 218 221 215 207 206 203 195 190 193 210 216 204 190 185 184 184 185 183 176 171 183 193 191 185 181 183 180 174 130 180 
180 -124 158 168 166 174 176 165 177 203 198 167 162 167 176 173 164 155 160 168 168 160 158 161 172 184 183 184 210 215 209 204 207 201 205 195 172 164 177 186 187 173 148 152 170 172 181 200 197 182 181 191 194 190 184 184 179 170 162 158 160 172 175 164 151 146 140 141 148 137 115 109 104 93 86 95 96 100 116 132 131 124 119 106 92 89 113 125 123 143 175 194 204 205 204 206 210 212 207 208 220 225 217 197 186 184 181 174 178 187 186 184 189 187 184 183 182 185 180 130 180 
180 -124 163 174 185 192 190 170 165 197 211 194 180 171 163 169 173 165 166 170 172 170 163 163 170 180 177 160 191 212 207 200 200 210 212 212 193 169 168 175 179 179 156 138 150 163 167 182 192 190 186 184 187 182 183 192 196 190 179 167 163 170 171 168 165 163 149 132 140 146 135 126 122 110 100 104 106 104 119 140 144 136 124 106 93 86 89 105 109 118 142 160 180 192 196 199 212 227 230 226 226 225 217 206 190 184 184 177 176 187 192 192 193 191 183 181 180 187 186 130 180 
180 -124 166 164 183 201 203 186 166 183 203 201 200 194 174 165 174 180 183 179 178 179 173 169 168 174 174 160 179 206 204 195 185 196 202 212 207 188 179 186 182 185 178 164 157 166 167 170 181 185 186 182 178 169 174 188 195 199 196 182 169 171 176 172 167 169 163 143 131 140 143 145 142 128 116 113 119 118 125 147 157 151 137 116 98 95 97 103 105 106 123 138 153 171 177 183 200 220 232 234 234 228 220 213 200 184 174 172 180 194 202 204 203 197 189 182 176 182 190 130 180 
180 -124 164 150 159 184 195 189 176 172 190 194 198 202 194 181 174 176 184 180 172 178 177 174 175 171 169 158 169 198 192 180 164 166 176 187 199 192 175 182 184 189 196 192 182 173 173 180 187 186 185 184 175 157 160 175 180 186 192 188 178 171 175 179 176 174 169 163 152 147 147 155 164 155 140 129 128 132 134 148 164 159 151 130 114 109 109 115 114 108 111 118 127 145 148 154 171 189 204 217 231 234 225 215 208 194 180 172 176 191 198 203 203 196 187 184 182 182 187 130 180 
180 -124 176 153 143 161 173 169 169 168 173 183 188 194 196 194 183 177 173 173 167 169 171 173 182 178 169 164 175 194 190 179 170 158 164 175 189 185 174 172 173 163 181 195 198 179 169 177 195 196 196 196 186 158 148 160 164 169 178 182 178 168 165 169 174 180 177 173 170 161 155 162 174 174 163 152 147 144 138 142 161 165 156 138 123 122 121 125 130 121 112 111 110 119 132 141 142 149 164 186 213 229 224 213 207 196 183 178 182 189 189 187 190 189 179 176 185 192 192 130 180 
180 -124 191 171 151 153 165 164 162 168 170 171 171 177 185 196 187 176 169 170 168 171 168 168 178 180 170 164 175 195 202 194 191 186 181 185 199 193 177 171 182 168 159 175 183 171 159 168 180 188 199 205 202 180 160 164 170 171 174 176 179 176 167 163 165 175 181 178 175 165 157 162 176 180 173 162 159 156 147 141 149 166 164 151 137 139 141 142 150 148 135 122 111 117 131 144 149 150 154 167 188 205 212 211 209 195 177 178 185 185 181 179 188 190 174 162 170 187 194 130 180 
180 -124 185 179 165 164 175 178 174 171 172 170 161 156 163 182 186 172 165 163 170 174 175 171 171 175 171 175 166 177 199 204 198 196 193 194 205 206 183 163 167 176 164 159 161 159 145 154 159 158 175 199 203 192 177 179 187 192 192 183 184 189 187 177 168 168 177 177 176 167 156 156 168 172 166 161 160 159 148 138 136 147 162 163 152 153 158 158 162 163 151 138 128 132 149 167 178 170 162 165 179 196 207 206 203 194 186 189 189 190 191 191 194 195 180 158 155 172 179 131 180 
180 -124 173 175 166 168 180 188 190 184 174 168 160 156 154 166 182 177 168 161 168 174 180 187 181 174 174 188 176 160 174 193 194 190 189 192 195 206 192 167 153 162 166 161 155 158 150 152 162 148 143 171 189 192 182 184 195 205 206 195 189 195 199 195 183 173 173 175 176 173 165 158 160 169 165 163 162 165 160 149 146 147 161 169 165 160 162 161 159 160 152 139 134 141 158 178 197 197 174 158 170 193 203 202 195 187 189 199 206 205 200 198 197 197 188 170 157 167 171 130 180 
180 -124 167 167 159 152 165 178 188 196 190 174 164 162 161 165 176 182 175 161 159 169 173 187 193 183 183 199 188 165 155 165 169 166 169 174 178 189 192 177 162 163 172 176 165 162 168 171 181 172 151 158 174 181 175 184 196 208 203 195 191 201 198 199 192 185 181 177 175 172 171 172 168 170 168 165 171 174 173 167 165 168 172 173 173 168 165 166 165 160 152 144 140 144 155 165 181 201 203 186 173 179 191 191 184 180 182 190 205 215 209 199 196 198 191 170 149 150 163 130 180 
180 -124 166 165 155 142 144 151 164 188 200 184 166 162 164 166 168 175 183 176 155 158 155 164 182 190 195 214 208 188 174 176 176 168 164 171 176 177 189 189 182 177 181 188 182 168 171 172 183 192 180 170 168 165 158 167 192 207 200 184 190 202 200 199 199 191 189 186 180 177 171 173 174 173 174 165 166 173 177 178 173 172 176 177 174 173 168 170 174 168 154 149 142 140 145 146 151 176 201 205 198 189 190 190 181 175 177 172 171 190 204 198 194 199 205 191 156 132 129 130 180 
180 -124 173 173 168 159 151 146 150 168 191 189 169 161 160 162 162 158 175 184 166 159 151 144 148 169 188 208 229 216 203 198 206 209 201 199 194 191 197 201 206 204 198 201 200 185 175 170 176 190 194 182 171 159 146 144 169 188 191 176 184 195 199 201 201 194 193 194 185 178 176 173 172 171 173 173 171 173 174 178 180 178 176 178 178 183 181 172 164 157 149 148 140 127 124 126 126 144 172 187 190 193 192 191 186 184 187 179 160 158 172 184 184 186 201 206 188 166 141 130 180 
180 -124 185 181 184 189 188 165 151 159 176 188 179 171 165 165 171 161 168 184 183 172 157 143 133 139 162 174 209 216 210 200 206 217 218 218 208 197 199 202 213 222 217 215 217 208 187 173 178 190 203 192 172 162 150 139 151 162 168 163 164 178 187 196 199 190 191 197 194 183 184 179 176 174 171 171 174 177 172 171 178 183 182 177 173 177 182 169 155 153 142 128 126 126 131 136 137 142 160 171 169 171 176 182 188 191 193 198 195 183 178 183 181 181 188 194 191 185 180 130 180 
180 -124 191 181 179 192 206 197 168 164 179 192 190 186 177 169 175 176 173 178 189 192 172 151 143 140 153 156 171 185 186 180 183 191 205 214 207 191 185 177 189 213 222 227 225 217 198 172 175 195 202 199 179 166 158 151 157 159 151 154 156 163 178 191 193 187 192 199 196 188 190 192 187 189 184 173 168 172 171 163 162 172 181 178 167 163 169 163 144 137 138 134 135 146 159 161 157 157 166 171 164 157 159 161 182 203 199 199 209 212 202 192 191 193 191 193 183 171 186 130 180 
180 -124 189 187 175 175 190 200 185 170 180 195 194 192 188 175 169 178 175 166 173 190 183 159 156 155 159 155 155 172 168 159 165 170 171 188 198 194 180 149 132 147 176 209 221 214 195 164 161 193 201 194 185 172 162 160 166 171 159 153 157 153 165 182 187 179 187 200 196 187 189 189 183 193 206 199 183 172 175 172 164 161 168 177 170 162 159 164 158 153 154 149 142 143 155 166 160 149 150 160 163 163 163 158 168 196 201 189 199 214 208 199 195 196 198 199 199 180 169 130 180 
180 -124 178 190 185 176 183 194 187 170 174 190 190 183 184 181 173 172 174 164 159 176 182 169 165 168 166 155 147 163 171 164 165 173 170 173 185 202 205 175 131 117 125 156 185 197 191 155 142 179 203 196 189 182 170 165 172 176 173 163 161 158 162 168 172 169 177 194 194 185 192 190 172 170 196 209 203 189 183 187 182 174 171 174 176 174 170 167 167 166 168 162 148 142 141 141 141 140 145 157 160 154 155 157 165 182 191 174 171 195 208 209 205 198 191 191 203 200 180 130 180 
180 -124 171 181 181 176 184 200 197 174 166 182 187 178 174 179 179 177 182 178 168 171 175 166 168 175 177 173 163 163 166 165 169 180 174 166 170 191 212 206 169 137 129 147 171 183 187 167 146 166 199 204 200 192 182 177 184 178 176 172 166 170 168 170 170 170 175 187 188 183 194 197 181 172 184 200 202 192 189 195 194 185 180 178 180 178 178 175 171 169 168 163 151 142 145 147 146 151 160 171 170 155 149 149 157 176 190 182 159 162 184 202 209 206 194 185 195 204 197 130 180 
180 -124 166 171 174 170 170 188 202 188 168 175 185 178 169 173 179 182 189 197 192 180 174 163 162 170 173 174 184 185 181 172 166 180 181 170 151 152 181 196 185 160 147 153 173 180 187 177 165 172 187 194 197 196 188 190 197 188 181 182 172 176 175 173 170 173 184 194 188 182 192 194 180 180 193 202 201 191 190 197 199 190 184 183 184 181 178 177 175 171 171 165 159 158 160 164 164 157 158 172 189 179 163 159 160 171 179 189 185 162 159 178 193 199 196 184 184 196 197 130 180 
180 -124 178 178 172 165 163 167 186 196 184 178 181 179 172 170 171 173 183 195 202 194 182 173 171 170 167 156 164 174 176 173 163 163 173 182 166 144 159 178 185 179 174 176 180 177 179 183 174 179 182 180 177 181 174 186 194 191 177 189 189 183 178 167 165 168 176 188 187 182 194 190 168 174 195 205 199 192 194 199 200 192 185 186 191 189 183 181 180 177 176 173 164 164 170 172 172 163 154 158 175 185 174 164 159 161 160 166 186 184 166 166 178 187 192 187 180 185 185 130 180 
180 -124 180 185 183 173 170 168 178 190 194 189 183 179 176 175 174 166 170 180 190 193 190 190 192 189 179 164 156 156 157 156 153 144 148 171 180 164 164 177 184 192 196 201 199 183 171 180 176 174 180 179 177 173 168 180 180 173 162 171 181 179 176 164 157 155 159 173 178 170 184 190 171 164 181 193 190 186 200 206 200 193 182 184 194 197 189 187 186 184 186 188 180 171 171 173 168 162 150 147 152 156 158 156 151 153 152 145 165 185 180 171 173 186 192 188 179 177 181 130 180 
180 -124 176 180 186 187 181 178 183 192 199 197 190 183 176 176 181 181 181 180 183 188 186 196 207 207 199 188 179 176 166 167 173 166 150 159 183 178 172 174 174 190 205 212 212 191 176 181 178 170 177 180 181 172 175 187 189 170 160 165 175 178 175 165 159 157 152 160 173 165 166 173 171 168 175 184 178 174 194 206 199 189 179 181 193 200 190 186 189 186 187 196 197 186 180 176 169 159 149 142 142 143 144 153 156 162 166 154 154 172 177 169 163 171 186 193 194 189 182 130 180 
180 -124 182 175 178 190 187 178 178 188 196 195 190 185 179 170 173 186 199 202 187 178 177 185 203 210 208 204 196 194 184 171 183 202 194 178 193 188 176 171 164 178 196 205 214 197 181 184 185 181 188 186 181 172 172 195 208 190 171 178 186 191 189 181 171 166 166 164 169 170 168 160 153 162 167 172 172 170 183 197 198 187 175 176 190 201 194 186 190 189 187 192 196 190 184 179 175 168 163 160 161 159 148 154 162 167 176 172 167 179 180 169 156 152 166 182 195 203 195 130 180 
180 -124 196 179 168 181 188 179 176 182 187 188 181 180 187 181 165 168 192 214 205 172 157 161 178 194 199 199 193 189 191 176 168 195 215 205 201 198 172 153 158 170 169 179 202 208 194 185 182 180 192 195 186 177 170 184 208 205 179 177 189 195 196 190 182 170 174 181 175 168 171 173 154 153 165 171 177 178 179 186 190 180 174 179 190 198 193 186 189 195 196 194 191 188 184 183 180 176 174 176 185 191 177 163 160 160 173 176 169 180 191 189 180 162 154 166 184 200 198 130 180 
180 -124 206 188 170 171 179 178 178 185 189 187 174 167 178 189 179 162 171 200 213 191 160 150 159 176 186 189 189 179 176 176 165 172 202 215 206 202 182 151 140 154 157 158 179 206 209 198 183 179 190 192 186 187 178 173 192 202 183 167 184 193 195 192 187 169 166 190 190 169 166 177 172 163 159 163 185 199 193 188 190 176 161 173 192 200 191 178 184 191 195 195 194 190 186 187 184 180 171 166 176 192 191 176 164 163 167 166 165 174 186 193 200 194 168 153 162 183 197 130 180 
180 -124 202 188 174 173 169 168 180 191 192 187 173 158 162 172 170 156 157 175 200 199 177 161 160 173 188 190 194 189 175 171 167 167 189 216 222 214 202 180 157 158 163 152 161 188 201 198 184 178 197 192 178 189 196 178 175 187 181 162 179 194 194 189 189 179 155 175 196 180 165 172 175 171 159 153 175 199 199 194 197 189 162 163 188 201 191 176 177 182 185 192 197 196 196 198 197 190 178 158 153 173 180 174 167 160 160 163 165 170 173 179 194 203 195 174 166 183 197 130 180 
180 -124 188 183 177 185 177 159 166 190 194 186 176 163 160 164 159 147 147 162 187 197 186 170 164 169 182 190 189 191 178 169 159 151 164 198 221 226 222 206 187 177 176 163 160 172 187 189 178 181 199 189 164 186 204 197 184 179 173 167 173 189 191 187 185 183 163 158 179 187 179 178 169 165 163 156 171 197 201 193 197 202 176 154 174 197 192 184 184 181 183 189 193 192 195 203 211 207 197 179 153 152 166 169 177 181 169 156 157 164 165 166 180 194 198 193 181 184 197 131 180 
180 -124 178 175 176 193 195 172 157 173 186 182 173 169 170 173 172 160 154 164 183 195 189 178 169 168 171 181 181 184 186 184 173 148 132 145 181 205 214 210 194 181 190 192 178 174 189 183 168 186 205 196 151 168 202 205 196 185 172 172 179 183 189 186 184 185 176 167 171 173 176 191 186 171 166 159 161 190 206 200 205 210 191 154 150 175 190 190 198 192 183 189 197 189 187 197 210 213 209 200 185 160 152 159 174 190 192 177 167 167 167 169 178 187 187 186 180 173 175 130 180 
180 -124 181 166 162 185 203 198 181 174 183 183 177 176 180 186 188 182 177 180 192 197 189 182 176 177 175 176 181 179 183 192 196 185 157 133 146 177 192 199 191 181 194 211 204 190 194 190 163 175 210 214 167 156 192 200 193 184 171 177 187 187 186 189 190 192 189 182 181 172 169 183 194 181 181 176 157 159 174 187 215 218 203 173 154 154 173 192 205 199 179 173 184 185 181 194 208 216 215 210 208 192 155 142 158 178 189 188 185 185 179 175 178 186 186 179 173 172 164 130 180 
180 -124 190 176 163 175 195 203 201 190 185 186 185 186 189 197 201 195 190 197 207 207 196 186 178 183 186 181 175 171 170 176 182 189 185 162 150 173 190 188 184 186 197 218 218 202 195 198 173 157 194 221 197 168 192 202 194 184 173 180 192 196 190 193 198 201 201 194 185 169 162 169 186 193 189 179 163 152 151 161 196 214 209 186 170 158 156 182 205 207 195 185 179 175 169 176 195 212 213 207 209 214 190 146 136 152 165 173 180 187 193 187 179 181 189 190 185 186 185 130 180 
180 -124 185 181 174 180 196 201 197 190 177 173 176 176 178 187 196 194 187 205 220 216 202 192 178 178 188 194 182 168 164 166 168 176 187 183 166 177 187 176 166 179 199 219 225 212 200 205 193 166 169 209 217 189 199 215 206 194 190 186 191 198 190 183 195 208 206 200 189 170 156 153 167 191 186 180 170 160 155 159 174 198 204 191 183 181 158 155 184 193 182 181 187 185 177 169 180 198 203 200 199 207 211 192 165 153 146 149 155 167 185 190 185 182 187 194 194 192 194 130 180 
180 -124 174 175 174 178 191 193 190 186 174 164 164 163 162 170 178 180 182 206 224 220 208 198 183 170 176 196 198 181 175 179 180 176 185 197 180 179 189 175 157 164 190 216 224 220 206 206 208 192 177 194 221 213 199 209 213 206 208 205 195 197 194 175 180 203 207 201 191 169 156 157 166 179 180 172 160 155 168 175 164 173 187 184 178 191 180 155 162 174 165 154 153 164 175 172 175 188 192 199 204 209 209 206 203 192 160 142 142 143 162 179 176 170 180 192 192 185 185 130 180 
180 -124 159 162 168 179 184 183 186 185 177 173 175 175 167 164 172 179 187 212 222 217 207 200 189 172 167 190 200 189 179 186 192 188 186 202 200 178 183 176 158 156 179 209 221 220 216 204 206 205 191 185 213 224 209 197 200 204 205 212 206 197 202 187 180 190 200 199 192 166 146 155 167 174 178 171 156 146 159 180 176 161 162 169 173 179 176 164 161 171 177 176 162 149 158 171 173 178 177 179 196 217 212 201 202 207 191 164 157 157 162 174 171 157 164 186 187 173 167 130 180 
180 -124 146 143 147 163 181 185 183 178 172 170 177 186 182 164 160 168 188 213 214 208 200 197 190 176 171 191 197 190 178 183 191 187 183 198 212 195 177 175 162 154 171 200 215 221 224 208 204 209 204 188 201 220 209 195 194 199 194 197 202 196 199 200 197 191 186 185 186 167 141 141 157 171 175 168 165 156 151 173 183 162 153 158 170 173 168 168 173 177 174 181 181 159 154 177 184 179 167 158 177 200 202 192 193 197 196 181 171 172 180 186 177 159 159 183 191 177 166 130 180 
180 -124 151 138 136 142 166 189 189 177 165 156 160 164 168 161 147 141 159 196 209 205 200 199 192 178 174 197 204 191 185 185 192 183 173 185 201 203 186 179 177 169 166 189 211 216 225 213 199 214 217 203 201 216 212 198 197 197 196 194 192 186 189 199 198 199 194 189 181 177 162 154 156 165 161 154 170 168 151 159 175 158 141 149 164 176 178 176 180 185 179 172 170 159 151 172 193 192 171 149 166 189 195 184 185 194 187 187 189 181 179 189 187 166 159 178 195 189 183 130 180 
180 -124 166 158 161 160 162 180 190 183 166 153 152 153 145 136 121 112 127 174 207 208 201 203 204 192 183 198 209 196 194 196 199 190 175 185 196 194 184 181 186 184 176 182 207 216 220 214 191 207 225 217 207 210 214 206 202 203 204 202 194 187 189 197 196 201 202 201 193 186 177 177 181 176 159 138 155 167 163 167 182 172 147 146 156 164 161 158 169 184 181 169 161 151 150 160 182 196 184 156 157 184 194 184 191 201 193 181 188 196 192 193 193 173 156 167 184 180 175 130 180 
180 -124 172 171 178 184 178 182 187 181 166 154 150 149 141 131 119 105 111 152 195 205 196 196 204 205 199 201 208 201 199 205 205 199 182 183 197 196 188 184 185 186 172 163 189 213 217 211 198 207 224 225 219 212 207 205 206 202 204 204 199 195 203 211 212 203 204 206 201 192 188 181 183 188 182 157 153 175 183 189 202 205 185 171 171 170 158 143 141 153 168 166 154 146 147 149 165 189 190 169 157 179 193 188 190 207 209 191 188 193 192 198 205 193 167 163 175 168 155 130 180 
180 -124 173 177 181 185 180 184 189 178 164 155 151 152 155 158 150 132 122 142 174 185 177 174 181 191 192 193 203 205 204 201 201 197 192 182 181 187 191 194 195 198 185 154 159 192 207 203 191 213 232 227 220 223 216 206 206 203 202 196 191 194 209 215 218 209 204 204 203 196 193 187 181 186 193 187 173 182 184 187 204 217 207 196 192 191 183 163 152 153 166 165 152 143 146 149 156 183 193 182 172 183 187 165 161 194 208 198 195 194 190 196 206 204 192 185 190 180 158 130 180 
180 -124 168 176 188 188 180 186 197 183 166 162 160 162 161 165 168 161 148 151 164 165 155 150 153 165 170 169 196 214 209 201 198 192 194 186 175 175 184 191 200 213 206 170 147 170 200 199 183 202 225 223 210 212 214 218 217 211 203 194 182 191 204 211 214 208 200 206 204 199 196 191 188 191 203 205 182 177 195 203 203 210 206 197 201 199 199 190 175 171 176 176 167 156 154 155 165 185 194 189 183 193 199 172 135 149 178 190 192 190 186 196 202 201 194 190 199 200 184 130 180 
180 -124 164 165 180 188 182 189 205 200 183 178 182 181 169 157 156 156 154 155 162 162 152 145 145 153 161 151 186 223 223 211 198 193 192 192 180 172 178 189 200 216 216 189 148 145 185 206 196 190 200 201 202 202 196 204 223 223 209 193 175 189 197 201 205 208 200 201 202 200 198 188 175 181 203 215 192 161 182 218 229 229 215 200 202 198 191 194 188 187 189 183 174 164 154 155 174 188 188 186 187 188 194 186 154 143 158 177 189 186 179 190 199 198 189 189 197 202 197 130 180 
180 -124 167 156 162 171 172 180 200 207 192 181 188 201 194 168 156 153 154 160 167 173 170 158 147 150 152 128 151 211 225 218 201 193 192 189 180 171 175 187 208 217 214 197 161 129 145 197 212 190 194 204 206 205 200 203 216 224 218 203 186 192 202 203 203 205 200 200 202 198 201 194 171 159 186 200 172 141 152 185 215 233 235 226 212 197 185 187 185 188 195 198 185 168 145 135 165 186 183 183 187 185 191 194 176 155 156 168 179 179 180 193 202 195 185 188 192 196 198 130 180 
180 -124 196 185 167 161 161 169 186 199 190 169 170 196 209 192 170 168 171 173 176 179 182 181 167 155 145 123 116 162 197 209 200 190 187 186 180 172 173 182 210 225 222 205 178 137 134 177 192 201 204 211 216 212 202 209 224 228 224 214 209 204 213 215 213 210 207 208 208 204 207 206 183 162 179 199 182 138 113 123 160 194 218 227 217 205 191 183 186 188 194 200 200 184 160 136 148 173 178 185 193 192 194 199 192 173 168 174 172 171 175 191 202 196 185 185 188 191 195 130 180 
180 -124 200 210 196 175 165 170 185 197 194 167 152 173 204 207 187 178 186 188 181 174 177 188 191 182 168 145 127 139 162 186 192 187 183 176 179 179 177 187 210 227 223 215 200 163 158 181 198 205 206 210 218 218 208 218 230 231 225 218 222 216 215 226 227 219 214 213 216 207 209 215 193 159 176 209 204 181 145 113 133 164 170 182 203 210 196 185 187 189 194 199 204 199 183 161 153 161 171 182 190 191 193 201 193 173 172 178 172 165 173 184 184 178 181 192 194 193 200 130 180 
180 -124 175 202 203 179 162 167 184 200 204 185 159 160 187 205 198 185 190 195 188 175 170 176 188 193 189 174 164 160 160 169 181 183 183 169 166 178 180 190 212 226 225 223 212 181 182 198 211 206 202 202 205 210 206 217 232 234 227 219 221 215 211 228 235 227 224 224 218 214 214 213 201 168 164 198 209 198 175 131 138 159 167 174 191 202 195 181 188 194 195 198 200 197 190 189 182 167 166 180 184 181 180 188 191 175 167 172 166 159 172 183 180 165 160 184 200 202 203 130 180 
180 -124 143 171 190 181 160 152 170 196 210 203 181 169 174 188 194 194 195 193 182 172 176 183 183 183 187 180 177 177 169 170 174 176 181 176 160 159 167 183 206 223 226 226 224 209 196 203 209 211 204 199 197 198 194 201 216 218 219 215 214 204 208 227 232 228 225 227 227 232 228 219 200 178 175 187 202 202 179 151 150 165 174 184 194 198 194 177 178 191 197 202 199 196 194 199 195 185 175 176 180 176 172 174 179 173 168 170 164 159 176 189 185 172 154 159 179 197 198 130 180 
180 -124 144 148 168 174 167 161 166 188 208 211 196 183 175 173 183 199 204 192 170 156 165 184 194 188 184 178 183 186 175 169 169 174 177 178 171 165 165 171 184 210 222 223 230 233 213 207 208 213 210 202 199 200 200 208 213 208 204 207 210 201 196 216 220 222 225 225 231 237 239 231 207 187 188 185 189 193 183 168 172 184 185 186 194 201 197 184 179 190 200 204 200 189 196 212 205 194 195 188 177 174 172 172 176 180 184 179 158 150 170 188 187 174 158 155 165 181 187 130 180 
180 -124 184 167 166 169 163 159 167 184 202 212 205 191 177 164 172 200 212 199 174 153 152 164 185 195 193 176 185 203 195 179 168 170 174 179 184 182 176 182 184 193 214 227 239 240 223 208 212 215 215 215 212 207 204 218 230 226 216 207 207 203 197 210 212 204 200 196 207 222 234 235 218 195 196 197 197 190 174 167 185 192 184 185 200 204 199 194 191 195 208 214 210 194 196 208 202 184 194 203 197 190 182 180 182 179 191 202 186 151 150 169 177 164 152 156 168 172 181 130 180 
180 -124 202 193 181 176 170 155 159 173 190 204 207 201 191 174 171 196 212 203 183 164 159 167 170 183 195 176 181 212 214 204 184 167 171 185 196 193 181 173 177 193 218 239 245 237 222 203 213 215 213 221 229 223 211 214 230 235 232 223 201 196 205 212 214 209 203 193 184 190 202 213 215 203 198 199 197 200 184 168 185 194 182 177 193 205 197 186 179 186 205 217 218 216 213 210 202 180 169 175 184 196 197 194 193 179 177 197 203 187 165 166 170 160 147 148 165 170 174 130 180 
180 -178 -124 -124 -124 -124 -124 -124 -124 -124 -124 -124 -124 -124 -124 -124 -124 -124 -123 -124 -124 -124 -124 -124 -124 -125 -124 -124 -124 -124 -124 -124 -124 -125 -125 -125 -125 -124 -125 -125 -124 -124 -124 -123 -123 -123 -124 -124 -124 -124 -124 -124 -123 -124 -124 -124 -124 -124 -124 -124 -124 -124 -124 -124 -124 -124 -124 -124 -124 -124 -124 -124 -124 -124 -124 -124 -124 -124 -124 -124 -124 -124 -124 -124 -124 -124 -124 -124 -124 -124 -124 -124 -124 -124 -123 -123 -123 -124 -124 -124 -124 -124 -124 -124 -124 -124 -124 -124 -124 -124 -124 -124 -124 -124 -124 -124 -124 -124 -124 2 180 
180 180 180 180 180 180 180 180 180 180 180 180 180 180 180 180 180 180 180 180 180 180 180 180 180 180 180 180 180 180 180 180 180 180 180 180 180 180 180 180 180 180 180 180 180 180 180 180 180 180 180 180 180 180 180 180 180 180 180 180 180 180 180 180 180 180 180 180 180 180 180 180 180 180 180 180 180 180 180 180 180 180 180 180 180 180 180 180 180 180 180 180 180 180 180 180 180 180 180 180 180 180 180 180 180 180 180 180 180 180 180 180 180 180 180 180 180 180 180 180 180 
