ncols 121
nrows 121
xllcenter 614385.88
yllcenter 1276940.75
cellsize 92.28
NODATA_value -9999.000
0.000 0.000 0.000 0.000 0.000 0.000 0.000 0.000 0.000 0.000 0.000 0.000 0.000 0.000 0.000 0.000 0.000 0.000 0.000 0.000 0.000 0.000 0.000 0.000 0.000 0.000 0.000 0.000 0.000 0.000 0.000 0.000 0.000 0.000 0.000 0.000 0.000 0.000 0.000 0.000 0.000 0.000 0.000 0.000 0.000 0.000 0.000 0.000 0.000 0.000 0.000 0.000 0.000 0.000 0.000 0.000 0.000 0.000 0.000 0.000 0.000 0.000 0.000 0.000 0.000 0.000 0.000 0.000 0.000 0.000 0.000 0.000 0.000 0.000 0.000 0.000 0.000 0.000 0.000 0.000 0.000 0.000 0.000 0.000 0.000 0.000 0.000 0.000 0.000 0.000 0.000 0.000 0.000 0.000 0.000 0.000 0.000 0.000 0.000 0.000 0.000 0.000 0.000 0.000 0.000 0.000 0.000 0.000 0.000 0.000 0.000 0.000 0.000 0.000 0.000 0.000 0.000 0.000 0.000 0.000 0.000 
0.000 0.000 0.005 0.066 0.328 0.746 0.995 1.050 1.055 1.055 1.055 1.056 1.056 1.056 1.056 1.056 1.056 1.056 1.056 1.057 1.057 1.057 1.057 1.057 1.057 1.057 1.057 1.058 1.058 1.058 1.058 1.058 1.058 1.058 1.059 1.059 1.059 1.059 1.058 1.056 1.052 1.050 1.051 1.054 1.057 1.059 1.060 1.060 1.060 1.061 1.061 1.060 1.059 1.056 1.053 1.051 1.053 1.057 1.059 1.060 1.060 1.061 1.061 1.052 1.009 0.944 0.942 1.007 1.052 1.062 1.063 1.063 1.063 1.063 1.060 1.056 1.055 1.067 1.100 1.138 1.143 1.079 0.986 0.972 1.024 1.057 1.065 1.065 1.065 1.066 1.066 1.066 1.066 1.066 1.066 1.066 1.066 1.067 1.067 1.067 1.067 1.067 1.067 1.067 1.067 1.067 1.054 1.004 0.950 0.962 0.962 0.882 0.789 0.779 0.862 0.970 1.036 1.056 1.057 1.017 0.000 
0.000 0.000 0.008 0.081 0.364 0.800 1.056 1.112 1.117 1.117 1.117 1.118 1.118 1.119 1.119 1.119 1.119 1.120 1.120 1.120 1.121 1.121 1.121 1.122 1.122 1.122 1.123 1.123 1.124 1.124 1.124 1.125 1.125 1.125 1.126 1.126 1.126 1.125 1.120 1.106 1.085 1.070 1.074 1.094 1.114 1.125 1.129 1.130 1.130 1.130 1.130 1.128 1.119 1.101 1.079 1.070 1.082 1.103 1.115 1.112 1.112 1.124 1.132 1.132 1.120 1.101 1.101 1.120 1.133 1.136 1.137 1.137 1.137 1.132 1.117 1.086 1.057 1.058 1.101 1.160 1.194 1.179 1.140 1.124 1.132 1.140 1.142 1.142 1.143 1.143 1.143 1.144 1.144 1.144 1.144 1.145 1.145 1.145 1.146 1.146 1.147 1.147 1.147 1.148 1.148 1.148 1.146 1.135 1.119 1.100 1.031 0.899 0.783 0.784 0.899 1.030 1.094 1.099 1.088 1.016 0.000 
0.000 0.002 0.022 0.048 0.220 0.590 0.928 1.075 1.122 1.140 1.148 1.153 1.155 1.157 1.158 1.159 1.160 1.160 1.161 1.161 1.162 1.162 1.163 1.163 1.164 1.164 1.164 1.165 1.165 1.165 1.166 1.166 1.166 1.166 1.166 1.166 1.166 1.164 1.159 1.148 1.126 1.105 1.100 1.110 1.135 1.155 1.165 1.168 1.169 1.170 1.169 1.167 1.160 1.144 1.119 1.103 1.104 1.121 1.141 1.147 1.148 1.155 1.169 1.177 1.178 1.170 1.165 1.168 1.177 1.180 1.180 1.179 1.176 1.169 1.152 1.122 1.085 1.072 1.086 1.134 1.180 1.194 1.183 1.169 1.169 1.177 1.181 1.182 1.182 1.181 1.179 1.173 1.167 1.164 1.162 1.162 1.162 1.164 1.166 1.171 1.178 1.185 1.189 1.191 1.193 1.194 1.195 1.193 1.183 1.166 1.124 1.023 0.888 0.841 0.875 0.990 1.076 1.105 1.114 1.011 0.000 
0.000 0.004 0.051 0.085 0.275 0.608 0.900 1.060 1.146 1.194 1.223 1.240 1.251 1.258 1.262 1.266 1.268 1.270 1.271 1.272 1.274 1.275 1.276 1.277 1.277 1.277 1.278 1.278 1.278 1.277 1.276 1.275 1.275 1.275 1.274 1.272 1.267 1.259 1.249 1.232 1.210 1.196 1.193 1.197 1.216 1.241 1.259 1.267 1.269 1.269 1.267 1.262 1.251 1.231 1.210 1.200 1.199 1.208 1.225 1.239 1.249 1.258 1.272 1.285 1.296 1.301 1.300 1.298 1.296 1.294 1.290 1.282 1.268 1.246 1.210 1.166 1.134 1.122 1.125 1.149 1.183 1.210 1.230 1.246 1.258 1.266 1.271 1.273 1.272 1.267 1.257 1.238 1.220 1.209 1.203 1.201 1.202 1.205 1.213 1.229 1.251 1.273 1.288 1.299 1.306 1.311 1.314 1.314 1.311 1.295 1.260 1.188 1.097 1.049 1.035 1.064 1.101 1.121 1.131 1.000 0.000 
0.000 0.010 0.083 0.129 0.335 0.648 0.907 1.077 1.190 1.265 1.314 1.347 1.371 1.388 1.399 1.406 1.410 1.414 1.417 1.419 1.421 1.423 1.424 1.425 1.426 1.425 1.426 1.426 1.425 1.424 1.419 1.418 1.419 1.418 1.416 1.411 1.402 1.388 1.366 1.338 1.316 1.306 1.304 1.307 1.320 1.346 1.373 1.389 1.396 1.398 1.397 1.390 1.376 1.357 1.341 1.334 1.330 1.330 1.335 1.342 1.348 1.354 1.361 1.373 1.389 1.400 1.406 1.408 1.407 1.404 1.398 1.385 1.363 1.329 1.281 1.229 1.197 1.183 1.179 1.184 1.203 1.233 1.270 1.306 1.332 1.348 1.355 1.356 1.354 1.345 1.326 1.298 1.272 1.257 1.251 1.249 1.251 1.257 1.274 1.302 1.342 1.381 1.408 1.428 1.440 1.446 1.449 1.449 1.446 1.434 1.406 1.361 1.300 1.248 1.208 1.178 1.157 1.142 1.133 0.989 0.000 
0.000 0.050 0.138 0.182 0.409 0.708 0.942 1.109 1.229 1.316 1.379 1.426 1.461 1.485 1.501 1.510 1.517 1.521 1.526 1.528 1.530 1.531 1.533 1.534 1.534 1.534 1.534 1.534 1.534 1.534 1.528 1.528 1.528 1.526 1.522 1.516 1.504 1.485 1.457 1.421 1.396 1.384 1.382 1.384 1.395 1.420 1.453 1.478 1.491 1.496 1.497 1.492 1.483 1.469 1.452 1.438 1.425 1.412 1.404 1.400 1.400 1.402 1.406 1.416 1.436 1.454 1.465 1.470 1.470 1.468 1.461 1.447 1.423 1.389 1.345 1.301 1.269 1.249 1.240 1.238 1.245 1.267 1.305 1.349 1.381 1.399 1.407 1.408 1.406 1.395 1.373 1.339 1.312 1.297 1.292 1.291 1.294 1.305 1.327 1.364 1.416 1.464 1.498 1.521 1.535 1.541 1.543 1.543 1.540 1.527 1.506 1.471 1.424 1.369 1.311 1.248 1.191 1.149 1.124 0.983 0.000 
0.000 0.244 0.337 0.298 0.523 0.790 0.985 1.129 1.246 1.342 1.418 1.477 1.519 1.549 1.568 1.580 1.586 1.592 1.596 1.598 1.599 1.599 1.599 1.600 1.600 1.600 1.600 1.600 1.602 1.604 1.600 1.600 1.598 1.596 1.593 1.585 1.573 1.552 1.520 1.479 1.450 1.436 1.432 1.433 1.443 1.466 1.503 1.535 1.553 1.562 1.563 1.561 1.554 1.542 1.525 1.504 1.479 1.454 1.434 1.423 1.419 1.418 1.421 1.431 1.451 1.476 1.491 1.498 1.500 1.498 1.492 1.477 1.454 1.424 1.391 1.362 1.338 1.320 1.308 1.303 1.304 1.316 1.343 1.383 1.414 1.432 1.439 1.440 1.437 1.427 1.404 1.371 1.347 1.334 1.330 1.330 1.335 1.349 1.375 1.417 1.473 1.523 1.558 1.582 1.594 1.599 1.601 1.600 1.597 1.584 1.565 1.533 1.490 1.435 1.366 1.283 1.205 1.147 1.109 0.982 0.000 
0.000 0.637 0.731 0.574 0.716 0.880 1.011 1.131 1.247 1.350 1.437 1.504 1.554 1.588 1.610 1.623 1.630 1.636 1.638 1.639 1.639 1.637 1.636 1.635 1.636 1.636 1.636 1.638 1.641 1.643 1.643 1.643 1.642 1.640 1.636 1.629 1.616 1.595 1.562 1.518 1.486 1.470 1.465 1.465 1.474 1.496 1.533 1.570 1.592 1.603 1.606 1.605 1.600 1.588 1.567 1.538 1.504 1.467 1.441 1.426 1.420 1.419 1.422 1.431 1.452 1.480 1.499 1.507 1.509 1.508 1.502 1.488 1.467 1.444 1.424 1.407 1.395 1.386 1.379 1.375 1.374 1.377 1.389 1.414 1.439 1.454 1.460 1.461 1.459 1.449 1.430 1.401 1.380 1.370 1.368 1.370 1.376 1.392 1.421 1.465 1.519 1.563 1.595 1.617 1.627 1.631 1.633 1.632 1.627 1.616 1.596 1.563 1.522 1.463 1.387 1.295 1.207 1.142 1.097 0.981 0.000 
0.000 0.981 1.055 0.910 0.900 0.944 1.019 1.118 1.234 1.348 1.444 1.519 1.574 1.611 1.635 1.648 1.656 1.660 1.661 1.661 1.659 1.655 1.652 1.650 1.650 1.650 1.651 1.656 1.661 1.665 1.667 1.667 1.667 1.666 1.662 1.656 1.643 1.623 1.591 1.547 1.512 1.494 1.489 1.489 1.496 1.517 1.554 1.593 1.616 1.627 1.631 1.630 1.624 1.610 1.586 1.551 1.509 1.466 1.436 1.418 1.410 1.408 1.411 1.421 1.444 1.476 1.498 1.507 1.510 1.508 1.502 1.489 1.469 1.454 1.445 1.439 1.436 1.437 1.437 1.435 1.434 1.434 1.437 1.447 1.462 1.472 1.477 1.477 1.476 1.468 1.452 1.431 1.416 1.408 1.408 1.410 1.419 1.438 1.468 1.510 1.554 1.588 1.615 1.635 1.642 1.646 1.647 1.646 1.641 1.630 1.610 1.576 1.532 1.470 1.392 1.296 1.202 1.133 1.087 0.990 0.000 
0.000 1.081 1.090 1.030 0.968 0.969 1.009 1.089 1.202 1.334 1.443 1.526 1.585 1.624 1.648 1.662 1.668 1.671 1.671 1.670 1.667 1.661 1.657 1.654 1.652 1.653 1.657 1.662 1.670 1.676 1.679 1.680 1.680 1.679 1.676 1.670 1.659 1.641 1.611 1.569 1.534 1.515 1.509 1.509 1.515 1.534 1.570 1.608 1.631 1.641 1.643 1.642 1.635 1.618 1.590 1.551 1.501 1.449 1.410 1.387 1.377 1.374 1.377 1.390 1.421 1.462 1.488 1.500 1.504 1.503 1.498 1.484 1.468 1.459 1.456 1.458 1.464 1.472 1.477 1.478 1.477 1.477 1.477 1.479 1.485 1.490 1.492 1.493 1.491 1.485 1.473 1.460 1.455 1.455 1.458 1.463 1.476 1.494 1.518 1.548 1.578 1.604 1.626 1.639 1.645 1.651 1.652 1.650 1.646 1.636 1.615 1.581 1.533 1.470 1.389 1.290 1.193 1.120 1.076 1.010 0.000 
0.000 1.042 0.945 1.006 0.968 0.970 1.000 1.069 1.179 1.320 1.442 1.531 1.592 1.632 1.656 1.668 1.674 1.675 1.675 1.673 1.668 1.661 1.656 1.654 1.653 1.654 1.657 1.663 1.672 1.680 1.684 1.686 1.686 1.686 1.683 1.678 1.668 1.653 1.627 1.588 1.554 1.535 1.529 1.529 1.534 1.552 1.586 1.620 1.640 1.647 1.649 1.647 1.638 1.618 1.586 1.538 1.474 1.408 1.359 1.329 1.321 1.320 1.329 1.355 1.401 1.446 1.474 1.487 1.492 1.492 1.487 1.475 1.465 1.461 1.461 1.465 1.477 1.491 1.500 1.505 1.506 1.506 1.505 1.505 1.506 1.507 1.507 1.506 1.503 1.499 1.492 1.490 1.495 1.501 1.510 1.518 1.529 1.543 1.558 1.575 1.594 1.613 1.631 1.636 1.644 1.651 1.653 1.650 1.647 1.636 1.615 1.581 1.531 1.465 1.382 1.284 1.189 1.113 1.064 1.029 0.000 
0.000 1.003 0.815 0.885 0.921 0.951 0.995 1.066 1.174 1.317 1.444 1.536 1.597 1.636 1.659 1.671 1.676 1.677 1.676 1.673 1.665 1.657 1.651 1.649 1.649 1.650 1.653 1.660 1.671 1.680 1.685 1.688 1.688 1.688 1.686 1.681 1.674 1.661 1.639 1.605 1.574 1.556 1.549 1.549 1.555 1.571 1.601 1.629 1.644 1.649 1.650 1.648 1.637 1.612 1.569 1.503 1.417 1.345 1.300 1.281 1.281 1.285 1.303 1.341 1.396 1.442 1.469 1.482 1.486 1.485 1.481 1.472 1.464 1.461 1.462 1.468 1.481 1.499 1.511 1.518 1.522 1.524 1.524 1.523 1.522 1.521 1.518 1.515 1.511 1.508 1.507 1.509 1.517 1.530 1.546 1.559 1.569 1.577 1.585 1.594 1.603 1.616 1.625 1.628 1.639 1.647 1.649 1.649 1.646 1.636 1.615 1.580 1.530 1.462 1.377 1.282 1.192 1.115 1.061 1.050 0.000 
0.000 0.992 0.766 0.805 0.870 0.933 0.995 1.071 1.179 1.322 1.451 1.543 1.604 1.640 1.661 1.671 1.676 1.677 1.673 1.667 1.656 1.644 1.639 1.637 1.636 1.637 1.641 1.652 1.667 1.679 1.685 1.688 1.688 1.688 1.687 1.684 1.677 1.665 1.647 1.621 1.595 1.580 1.574 1.574 1.578 1.590 1.612 1.634 1.646 1.650 1.649 1.645 1.630 1.596 1.537 1.452 1.362 1.300 1.269 1.263 1.263 1.271 1.296 1.340 1.398 1.443 1.469 1.482 1.485 1.485 1.480 1.471 1.464 1.462 1.463 1.469 1.482 1.501 1.515 1.524 1.529 1.532 1.534 1.533 1.533 1.530 1.526 1.519 1.515 1.513 1.513 1.517 1.529 1.547 1.569 1.584 1.594 1.599 1.602 1.605 1.608 1.613 1.613 1.616 1.626 1.638 1.643 1.644 1.642 1.633 1.614 1.580 1.531 1.463 1.376 1.288 1.208 1.140 1.090 1.073 0.000 
0.000 0.998 0.774 0.790 0.858 0.931 1.005 1.090 1.201 1.344 1.468 1.555 1.611 1.644 1.662 1.670 1.673 1.671 1.665 1.656 1.641 1.628 1.622 1.620 1.617 1.618 1.623 1.638 1.660 1.675 1.683 1.686 1.688 1.688 1.687 1.684 1.677 1.667 1.652 1.632 1.612 1.599 1.594 1.593 1.595 1.603 1.618 1.635 1.645 1.648 1.647 1.639 1.617 1.575 1.507 1.417 1.336 1.287 1.266 1.259 1.260 1.271 1.300 1.351 1.410 1.452 1.476 1.487 1.490 1.490 1.485 1.474 1.467 1.465 1.465 1.471 1.483 1.500 1.514 1.523 1.530 1.535 1.538 1.539 1.538 1.535 1.529 1.521 1.515 1.514 1.515 1.519 1.533 1.553 1.580 1.598 1.608 1.611 1.612 1.611 1.609 1.607 1.607 1.609 1.617 1.631 1.639 1.641 1.640 1.633 1.615 1.583 1.535 1.468 1.384 1.306 1.244 1.197 1.156 1.095 0.000 
0.000 1.017 0.843 0.817 0.875 0.950 1.035 1.132 1.252 1.388 1.498 1.574 1.622 1.649 1.663 1.668 1.669 1.667 1.660 1.649 1.633 1.619 1.611 1.608 1.605 1.603 1.610 1.626 1.650 1.668 1.678 1.683 1.684 1.684 1.683 1.680 1.674 1.665 1.653 1.638 1.623 1.613 1.606 1.604 1.604 1.608 1.619 1.633 1.641 1.642 1.640 1.629 1.604 1.559 1.491 1.403 1.330 1.286 1.267 1.262 1.265 1.282 1.322 1.383 1.439 1.476 1.496 1.505 1.507 1.505 1.499 1.486 1.476 1.472 1.471 1.475 1.482 1.496 1.509 1.520 1.529 1.536 1.540 1.541 1.540 1.537 1.530 1.520 1.514 1.512 1.513 1.518 1.531 1.554 1.584 1.605 1.615 1.618 1.618 1.615 1.608 1.605 1.605 1.607 1.614 1.629 1.638 1.641 1.640 1.635 1.619 1.591 1.546 1.486 1.410 1.340 1.289 1.253 1.223 1.097 0.000 
0.000 1.054 0.985 0.912 0.944 1.007 1.098 1.209 1.338 1.456 1.544 1.602 1.637 1.656 1.665 1.668 1.668 1.665 1.658 1.646 1.631 1.615 1.605 1.599 1.598 1.596 1.603 1.618 1.642 1.661 1.671 1.676 1.677 1.677 1.674 1.670 1.666 1.660 1.651 1.641 1.630 1.620 1.612 1.607 1.606 1.608 1.615 1.626 1.631 1.632 1.629 1.618 1.593 1.551 1.487 1.401 1.334 1.297 1.283 1.281 1.289 1.316 1.369 1.439 1.489 1.519 1.534 1.539 1.539 1.536 1.527 1.511 1.495 1.486 1.483 1.482 1.484 1.494 1.505 1.514 1.525 1.534 1.540 1.542 1.540 1.537 1.531 1.519 1.511 1.507 1.507 1.512 1.526 1.552 1.585 1.607 1.619 1.622 1.621 1.617 1.609 1.605 1.605 1.607 1.613 1.629 1.638 1.643 1.643 1.640 1.629 1.607 1.571 1.521 1.457 1.388 1.324 1.278 1.253 1.078 0.000 
0.000 1.092 1.124 1.062 1.072 1.117 1.206 1.330 1.448 1.536 1.596 1.634 1.655 1.665 1.669 1.670 1.669 1.664 1.657 1.646 1.631 1.615 1.602 1.595 1.592 1.593 1.598 1.612 1.634 1.652 1.661 1.665 1.666 1.664 1.659 1.654 1.651 1.648 1.645 1.639 1.631 1.622 1.614 1.606 1.602 1.601 1.604 1.609 1.613 1.614 1.613 1.604 1.584 1.548 1.490 1.412 1.358 1.330 1.321 1.323 1.337 1.375 1.442 1.511 1.553 1.576 1.586 1.588 1.588 1.583 1.571 1.552 1.530 1.512 1.501 1.495 1.492 1.496 1.504 1.513 1.522 1.533 1.540 1.543 1.541 1.538 1.531 1.518 1.507 1.502 1.502 1.507 1.521 1.549 1.584 1.607 1.618 1.622 1.622 1.620 1.613 1.608 1.607 1.609 1.616 1.630 1.642 1.649 1.651 1.651 1.646 1.631 1.604 1.562 1.506 1.432 1.348 1.282 1.243 1.060 0.000 
0.000 1.119 1.200 1.172 1.193 1.251 1.345 1.452 1.535 1.595 1.634 1.657 1.669 1.674 1.676 1.675 1.670 1.665 1.657 1.647 1.633 1.617 1.602 1.593 1.589 1.589 1.593 1.605 1.625 1.641 1.648 1.651 1.650 1.645 1.639 1.634 1.631 1.630 1.630 1.631 1.628 1.622 1.612 1.600 1.588 1.582 1.579 1.580 1.583 1.587 1.590 1.588 1.578 1.553 1.506 1.448 1.409 1.392 1.389 1.394 1.413 1.455 1.518 1.570 1.602 1.619 1.627 1.629 1.629 1.626 1.618 1.602 1.578 1.552 1.531 1.516 1.508 1.506 1.509 1.514 1.523 1.534 1.541 1.544 1.544 1.541 1.533 1.519 1.506 1.502 1.501 1.506 1.520 1.549 1.584 1.606 1.617 1.621 1.624 1.623 1.619 1.615 1.614 1.616 1.623 1.638 1.652 1.660 1.663 1.665 1.662 1.650 1.627 1.590 1.536 1.460 1.362 1.276 1.219 1.041 0.000 
0.000 1.138 1.236 1.235 1.279 1.358 1.453 1.533 1.592 1.633 1.659 1.674 1.680 1.682 1.681 1.678 1.674 1.668 1.660 1.650 1.638 1.622 1.604 1.591 1.585 1.584 1.587 1.597 1.613 1.626 1.632 1.632 1.630 1.625 1.617 1.614 1.613 1.613 1.615 1.619 1.619 1.616 1.605 1.585 1.560 1.544 1.537 1.535 1.537 1.545 1.559 1.570 1.575 1.568 1.547 1.516 1.498 1.492 1.492 1.497 1.513 1.543 1.583 1.615 1.636 1.648 1.654 1.656 1.656 1.654 1.649 1.639 1.623 1.599 1.572 1.549 1.534 1.526 1.523 1.524 1.530 1.538 1.546 1.549 1.549 1.547 1.539 1.523 1.510 1.505 1.505 1.509 1.523 1.551 1.585 1.607 1.619 1.625 1.626 1.626 1.624 1.622 1.624 1.629 1.637 1.651 1.665 1.673 1.677 1.676 1.672 1.662 1.641 1.605 1.552 1.474 1.368 1.266 1.198 1.021 0.000 
0.000 1.155 1.262 1.275 1.340 1.431 1.514 1.578 1.625 1.656 1.674 1.684 1.687 1.688 1.685 1.683 1.680 1.673 1.666 1.657 1.645 1.628 1.604 1.586 1.579 1.577 1.578 1.584 1.595 1.607 1.613 1.615 1.614 1.611 1.605 1.603 1.602 1.602 1.604 1.607 1.607 1.603 1.588 1.558 1.515 1.487 1.474 1.472 1.475 1.491 1.521 1.553 1.577 1.597 1.615 1.628 1.634 1.638 1.639 1.639 1.637 1.637 1.646 1.655 1.663 1.669 1.672 1.673 1.672 1.671 1.668 1.661 1.652 1.638 1.619 1.596 1.575 1.561 1.552 1.549 1.549 1.553 1.559 1.561 1.561 1.558 1.550 1.535 1.522 1.517 1.516 1.520 1.533 1.560 1.591 1.612 1.623 1.627 1.628 1.627 1.625 1.625 1.627 1.633 1.645 1.660 1.673 1.679 1.681 1.682 1.678 1.668 1.647 1.613 1.558 1.478 1.367 1.254 1.179 1.002 0.000 
0.000 1.173 1.288 1.306 1.381 1.472 1.545 1.604 1.644 1.669 1.681 1.688 1.691 1.691 1.690 1.688 1.686 1.680 1.673 1.664 1.655 1.637 1.610 1.587 1.573 1.565 1.564 1.565 1.573 1.586 1.598 1.603 1.605 1.604 1.600 1.598 1.596 1.596 1.597 1.597 1.595 1.586 1.559 1.515 1.460 1.428 1.416 1.416 1.425 1.451 1.495 1.538 1.573 1.612 1.673 1.769 1.835 1.851 1.851 1.836 1.797 1.745 1.712 1.695 1.688 1.686 1.685 1.685 1.684 1.682 1.677 1.671 1.668 1.665 1.663 1.653 1.635 1.618 1.605 1.596 1.589 1.586 1.585 1.584 1.582 1.579 1.571 1.558 1.547 1.541 1.541 1.545 1.557 1.578 1.603 1.618 1.626 1.629 1.628 1.626 1.624 1.624 1.627 1.634 1.648 1.665 1.676 1.682 1.684 1.684 1.681 1.670 1.650 1.615 1.560 1.478 1.362 1.241 1.160 0.990 0.000 
0.000 1.193 1.313 1.332 1.406 1.496 1.566 1.620 1.653 1.676 1.684 1.689 1.692 1.694 1.695 1.693 1.690 1.685 1.678 1.670 1.660 1.640 1.611 1.582 1.562 1.551 1.548 1.549 1.556 1.571 1.588 1.597 1.600 1.601 1.600 1.597 1.595 1.593 1.592 1.590 1.583 1.568 1.530 1.473 1.417 1.388 1.379 1.380 1.395 1.431 1.482 1.526 1.565 1.607 1.680 1.865 2.096 2.175 2.170 2.124 2.025 1.885 1.791 1.739 1.713 1.702 1.698 1.696 1.695 1.691 1.680 1.673 1.674 1.682 1.698 1.712 1.717 1.706 1.692 1.677 1.661 1.644 1.631 1.621 1.614 1.609 1.603 1.595 1.587 1.582 1.581 1.585 1.593 1.606 1.621 1.627 1.630 1.631 1.625 1.621 1.620 1.620 1.624 1.632 1.648 1.666 1.678 1.683 1.685 1.685 1.681 1.671 1.650 1.615 1.559 1.475 1.353 1.226 1.141 0.986 0.000 
0.000 1.213 1.332 1.352 1.417 1.509 1.580 1.628 1.658 1.677 1.686 1.691 1.694 1.695 1.695 1.695 1.692 1.689 1.684 1.676 1.661 1.640 1.609 1.575 1.552 1.541 1.538 1.539 1.545 1.561 1.582 1.594 1.599 1.600 1.599 1.597 1.594 1.592 1.589 1.584 1.572 1.549 1.507 1.442 1.389 1.364 1.358 1.362 1.382 1.426 1.478 1.515 1.544 1.569 1.623 1.837 2.270 2.534 2.574 2.516 2.351 2.093 1.900 1.794 1.742 1.719 1.710 1.707 1.709 1.701 1.677 1.671 1.673 1.689 1.716 1.751 1.802 1.837 1.832 1.814 1.784 1.743 1.704 1.677 1.659 1.650 1.643 1.636 1.629 1.624 1.622 1.623 1.626 1.632 1.637 1.637 1.635 1.628 1.617 1.611 1.609 1.610 1.614 1.626 1.645 1.665 1.678 1.684 1.686 1.685 1.681 1.671 1.650 1.613 1.555 1.465 1.337 1.209 1.124 0.982 0.000 
0.000 1.217 1.326 1.357 1.423 1.515 1.584 1.630 1.659 1.677 1.687 1.692 1.695 1.696 1.696 1.696 1.694 1.692 1.687 1.676 1.660 1.637 1.605 1.569 1.545 1.533 1.531 1.532 1.540 1.558 1.579 1.592 1.598 1.599 1.599 1.597 1.594 1.591 1.586 1.577 1.561 1.532 1.484 1.419 1.373 1.352 1.349 1.356 1.379 1.428 1.479 1.505 1.511 1.492 1.445 1.569 2.046 2.598 2.800 2.780 2.614 2.319 2.040 1.869 1.779 1.740 1.726 1.725 1.725 1.707 1.675 1.669 1.674 1.678 1.692 1.733 1.814 1.956 2.032 2.026 1.982 1.906 1.817 1.755 1.717 1.693 1.677 1.665 1.658 1.653 1.650 1.649 1.649 1.651 1.650 1.646 1.636 1.620 1.605 1.597 1.595 1.597 1.603 1.617 1.640 1.663 1.677 1.684 1.685 1.685 1.681 1.670 1.648 1.610 1.548 1.453 1.323 1.195 1.109 0.980 0.000 
0.000 1.187 1.275 1.341 1.419 1.511 1.581 1.629 1.659 1.676 1.687 1.693 1.695 1.696 1.696 1.696 1.694 1.690 1.685 1.669 1.655 1.632 1.598 1.562 1.539 1.528 1.525 1.526 1.535 1.554 1.576 1.590 1.596 1.598 1.599 1.597 1.594 1.590 1.582 1.569 1.548 1.514 1.462 1.402 1.365 1.349 1.347 1.355 1.382 1.435 1.482 1.500 1.498 1.454 1.293 1.066 1.171 1.757 2.381 2.697 2.668 2.446 2.148 1.939 1.824 1.769 1.749 1.746 1.740 1.714 1.687 1.681 1.690 1.691 1.676 1.643 1.692 1.907 2.137 2.213 2.198 2.116 1.979 1.859 1.781 1.731 1.699 1.682 1.674 1.670 1.668 1.668 1.668 1.666 1.662 1.653 1.636 1.614 1.598 1.590 1.589 1.590 1.597 1.612 1.638 1.661 1.676 1.683 1.685 1.684 1.680 1.669 1.645 1.606 1.542 1.447 1.315 1.185 1.098 0.979 0.000 
0.000 1.133 1.196 1.284 1.393 1.497 1.572 1.621 1.654 1.675 1.687 1.693 1.695 1.695 1.694 1.694 1.693 1.688 1.681 1.663 1.646 1.623 1.589 1.554 1.533 1.522 1.519 1.521 1.528 1.546 1.570 1.585 1.591 1.595 1.595 1.594 1.591 1.585 1.575 1.558 1.532 1.494 1.440 1.390 1.362 1.350 1.350 1.360 1.392 1.449 1.490 1.502 1.496 1.443 1.279 0.959 0.708 0.668 0.988 1.566 2.141 2.356 2.187 1.981 1.871 1.813 1.783 1.772 1.762 1.743 1.730 1.728 1.740 1.751 1.738 1.695 1.657 1.677 1.888 2.137 2.268 2.231 2.109 1.954 1.833 1.757 1.712 1.688 1.679 1.678 1.682 1.686 1.686 1.682 1.674 1.658 1.635 1.611 1.596 1.589 1.587 1.588 1.595 1.611 1.637 1.661 1.674 1.681 1.683 1.683 1.679 1.666 1.643 1.603 1.540 1.446 1.313 1.179 1.088 0.978 0.000 
0.000 1.085 1.131 1.205 1.336 1.468 1.555 1.615 1.653 1.675 1.686 1.692 1.693 1.694 1.695 1.693 1.690 1.683 1.672 1.656 1.634 1.608 1.574 1.544 1.525 1.515 1.513 1.513 1.519 1.534 1.556 1.572 1.579 1.583 1.584 1.584 1.581 1.574 1.561 1.541 1.510 1.467 1.418 1.381 1.363 1.357 1.358 1.373 1.413 1.471 1.504 1.511 1.497 1.436 1.297 1.041 0.713 0.498 0.440 0.595 1.150 1.868 2.089 1.991 1.903 1.866 1.837 1.821 1.822 1.825 1.826 1.817 1.823 1.869 1.917 1.894 1.813 1.668 1.526 1.569 1.832 2.121 2.146 2.012 1.866 1.772 1.717 1.688 1.677 1.677 1.692 1.707 1.707 1.701 1.685 1.661 1.634 1.612 1.597 1.590 1.588 1.590 1.597 1.613 1.638 1.661 1.674 1.680 1.680 1.682 1.677 1.665 1.642 1.603 1.540 1.447 1.315 1.175 1.079 0.990 0.000 
0.000 1.063 1.105 1.159 1.292 1.440 1.541 1.608 1.648 1.672 1.685 1.691 1.695 1.696 1.695 1.692 1.686 1.676 1.661 1.640 1.615 1.585 1.554 1.530 1.513 1.504 1.501 1.501 1.504 1.514 1.531 1.545 1.554 1.557 1.559 1.559 1.557 1.551 1.537 1.515 1.479 1.436 1.398 1.375 1.366 1.365 1.369 1.391 1.436 1.496 1.527 1.531 1.516 1.471 1.379 1.198 0.898 0.621 0.501 0.521 0.823 1.520 1.874 1.927 1.894 1.859 1.866 1.922 1.959 1.980 1.958 1.870 1.846 1.908 2.125 2.244 2.167 1.934 1.587 1.335 1.265 1.538 1.930 2.004 1.881 1.776 1.717 1.682 1.661 1.658 1.698 1.737 1.739 1.722 1.692 1.662 1.635 1.615 1.602 1.596 1.595 1.597 1.603 1.618 1.642 1.662 1.673 1.679 1.680 1.682 1.677 1.665 1.642 1.604 1.543 1.453 1.326 1.181 1.077 1.015 0.000 
0.000 1.062 1.108 1.147 1.273 1.426 1.534 1.604 1.646 1.670 1.684 1.691 1.694 1.694 1.693 1.689 1.680 1.665 1.643 1.617 1.586 1.555 1.528 1.508 1.495 1.486 1.481 1.477 1.476 1.479 1.488 1.498 1.506 1.509 1.512 1.515 1.515 1.511 1.498 1.476 1.441 1.406 1.382 1.370 1.366 1.368 1.377 1.403 1.450 1.511 1.550 1.564 1.563 1.547 1.497 1.391 1.195 0.950 0.799 0.754 0.894 1.345 1.624 1.695 1.705 1.750 1.915 2.121 2.212 2.211 2.033 1.825 1.757 1.795 2.109 2.487 2.514 2.331 1.924 1.485 1.258 1.239 1.522 1.818 1.845 1.769 1.709 1.666 1.626 1.604 1.649 1.728 1.761 1.735 1.694 1.663 1.640 1.624 1.615 1.611 1.611 1.612 1.618 1.631 1.649 1.664 1.673 1.678 1.681 1.681 1.677 1.665 1.644 1.608 1.551 1.468 1.350 1.208 1.101 1.039 0.000 
0.000 1.069 1.120 1.152 1.268 1.421 1.532 1.603 1.646 1.671 1.683 1.690 1.693 1.693 1.691 1.686 1.673 1.654 1.627 1.597 1.563 1.534 1.509 1.489 1.473 1.459 1.448 1.436 1.426 1.420 1.419 1.422 1.426 1.430 1.435 1.445 1.451 1.450 1.443 1.427 1.402 1.380 1.368 1.363 1.363 1.369 1.383 1.411 1.455 1.516 1.564 1.589 1.597 1.593 1.572 1.519 1.419 1.273 1.164 1.120 1.137 1.295 1.443 1.510 1.586 1.739 2.057 2.412 2.540 2.425 1.925 1.603 1.456 1.410 1.648 2.267 2.599 2.529 2.256 1.829 1.493 1.352 1.391 1.592 1.697 1.712 1.682 1.643 1.596 1.544 1.511 1.568 1.699 1.729 1.691 1.664 1.649 1.640 1.636 1.635 1.635 1.637 1.641 1.648 1.659 1.668 1.675 1.678 1.679 1.678 1.675 1.664 1.645 1.613 1.562 1.488 1.386 1.267 1.164 1.062 0.000 
0.000 1.077 1.134 1.164 1.271 1.421 1.532 1.605 1.649 1.673 1.683 1.689 1.691 1.691 1.690 1.684 1.669 1.648 1.620 1.587 1.552 1.524 1.500 1.479 1.459 1.438 1.415 1.387 1.355 1.331 1.318 1.313 1.312 1.316 1.326 1.346 1.368 1.379 1.381 1.376 1.366 1.357 1.353 1.353 1.357 1.366 1.384 1.413 1.457 1.516 1.569 1.602 1.617 1.620 1.613 1.589 1.539 1.460 1.382 1.331 1.315 1.337 1.388 1.451 1.546 1.738 2.118 2.537 2.670 2.371 1.573 1.182 0.962 0.780 0.761 1.214 2.035 2.466 2.377 2.090 1.765 1.567 1.490 1.502 1.563 1.615 1.626 1.609 1.578 1.531 1.479 1.464 1.547 1.661 1.671 1.660 1.655 1.655 1.655 1.655 1.656 1.656 1.657 1.659 1.663 1.668 1.673 1.675 1.675 1.673 1.670 1.662 1.645 1.615 1.568 1.499 1.405 1.313 1.236 1.082 0.000 
0.000 1.086 1.150 1.179 1.281 1.424 1.533 1.605 1.648 1.673 1.686 1.688 1.689 1.689 1.688 1.681 1.666 1.645 1.618 1.583 1.550 1.522 1.498 1.476 1.454 1.430 1.399 1.357 1.302 1.255 1.227 1.214 1.212 1.215 1.228 1.256 1.294 1.321 1.333 1.335 1.335 1.335 1.336 1.340 1.347 1.360 1.382 1.413 1.457 1.514 1.569 1.607 1.628 1.635 1.634 1.624 1.598 1.554 1.495 1.437 1.389 1.356 1.347 1.376 1.456 1.627 1.925 2.174 2.190 1.736 0.976 0.654 0.480 0.325 0.229 0.267 0.805 1.730 2.231 2.157 1.899 1.669 1.541 1.498 1.503 1.533 1.561 1.572 1.565 1.536 1.495 1.481 1.505 1.599 1.636 1.651 1.659 1.664 1.667 1.668 1.668 1.667 1.665 1.663 1.663 1.666 1.668 1.667 1.667 1.666 1.663 1.658 1.643 1.615 1.570 1.502 1.407 1.324 1.275 1.103 0.000 
0.000 1.097 1.168 1.197 1.297 1.434 1.536 1.601 1.644 1.673 1.682 1.683 1.686 1.685 1.683 1.677 1.664 1.645 1.618 1.584 1.551 1.524 1.501 1.478 1.455 1.429 1.395 1.345 1.275 1.211 1.172 1.154 1.149 1.152 1.165 1.195 1.242 1.277 1.296 1.304 1.310 1.315 1.321 1.328 1.339 1.355 1.380 1.412 1.454 1.509 1.566 1.608 1.634 1.644 1.646 1.641 1.626 1.595 1.548 1.490 1.428 1.346 1.251 1.222 1.238 1.264 1.266 1.163 0.977 0.653 0.349 0.233 0.159 0.097 0.065 0.055 0.146 0.667 1.519 1.975 1.910 1.693 1.535 1.463 1.443 1.453 1.505 1.554 1.565 1.554 1.538 1.534 1.543 1.580 1.623 1.649 1.663 1.670 1.673 1.674 1.673 1.671 1.667 1.663 1.660 1.657 1.657 1.656 1.656 1.660 1.658 1.650 1.637 1.612 1.569 1.501 1.405 1.320 1.269 1.104 0.000 
0.000 1.112 1.190 1.218 1.318 1.448 1.543 1.604 1.644 1.668 1.671 1.673 1.676 1.678 1.676 1.671 1.662 1.646 1.622 1.591 1.561 1.535 1.511 1.489 1.465 1.437 1.398 1.344 1.267 1.193 1.147 1.124 1.117 1.119 1.130 1.159 1.206 1.245 1.268 1.281 1.291 1.300 1.309 1.321 1.335 1.354 1.380 1.411 1.451 1.503 1.561 1.607 1.635 1.650 1.654 1.653 1.644 1.617 1.572 1.525 1.468 1.362 1.125 0.981 0.991 1.037 1.022 0.875 0.552 0.234 0.095 0.055 0.039 0.032 0.036 0.046 0.056 0.171 0.700 1.482 1.746 1.642 1.463 1.347 1.311 1.331 1.462 1.566 1.592 1.596 1.595 1.596 1.598 1.605 1.628 1.652 1.667 1.674 1.676 1.676 1.675 1.671 1.666 1.658 1.650 1.646 1.642 1.641 1.641 1.641 1.639 1.635 1.626 1.604 1.563 1.496 1.396 1.302 1.242 1.086 0.000 
0.000 1.128 1.214 1.244 1.345 1.468 1.554 1.610 1.643 1.657 1.660 1.663 1.666 1.667 1.667 1.664 1.659 1.648 1.631 1.607 1.582 1.558 1.536 1.513 1.487 1.456 1.413 1.352 1.268 1.190 1.140 1.114 1.106 1.106 1.115 1.140 1.182 1.221 1.247 1.264 1.277 1.290 1.303 1.318 1.335 1.355 1.380 1.411 1.450 1.501 1.558 1.605 1.635 1.654 1.663 1.666 1.662 1.642 1.613 1.590 1.568 1.472 1.156 0.892 0.894 0.989 1.009 0.873 0.496 0.173 0.055 0.030 0.028 0.032 0.046 0.062 0.076 0.104 0.314 0.947 1.358 1.385 1.258 1.096 1.034 1.158 1.489 1.643 1.673 1.666 1.654 1.647 1.641 1.640 1.645 1.659 1.671 1.675 1.676 1.676 1.673 1.668 1.659 1.645 1.633 1.625 1.620 1.618 1.618 1.617 1.617 1.616 1.610 1.590 1.551 1.482 1.374 1.268 1.208 1.068 0.000 
0.000 1.144 1.240 1.270 1.371 1.485 1.561 1.609 1.634 1.645 1.649 1.650 1.653 1.653 1.653 1.655 1.656 1.652 1.644 1.631 1.615 1.596 1.576 1.554 1.529 1.495 1.445 1.374 1.279 1.195 1.141 1.113 1.104 1.104 1.110 1.130 1.166 1.203 1.229 1.249 1.267 1.283 1.301 1.319 1.338 1.358 1.382 1.413 1.452 1.501 1.558 1.603 1.637 1.660 1.673 1.682 1.693 1.719 1.774 1.850 2.001 2.172 1.941 1.519 1.352 1.320 1.224 0.933 0.509 0.198 0.072 0.044 0.047 0.066 0.104 0.128 0.139 0.152 0.238 0.575 0.921 1.000 0.947 0.811 0.817 1.187 1.736 1.894 1.855 1.762 1.699 1.673 1.662 1.657 1.658 1.665 1.672 1.675 1.675 1.674 1.668 1.658 1.642 1.623 1.605 1.595 1.589 1.588 1.588 1.591 1.592 1.591 1.586 1.569 1.530 1.456 1.337 1.219 1.152 1.014 0.000 
0.000 1.161 1.265 1.294 1.393 1.496 1.563 1.602 1.621 1.628 1.630 1.631 1.633 1.634 1.635 1.642 1.652 1.656 1.655 1.651 1.643 1.631 1.616 1.597 1.572 1.534 1.480 1.404 1.302 1.211 1.151 1.119 1.107 1.105 1.110 1.125 1.152 1.185 1.213 1.235 1.257 1.280 1.303 1.324 1.344 1.367 1.392 1.421 1.458 1.504 1.559 1.603 1.636 1.663 1.685 1.703 1.742 1.823 1.989 2.282 2.744 3.374 3.714 3.649 3.431 3.051 2.300 1.352 0.786 0.481 0.280 0.166 0.142 0.173 0.254 0.304 0.311 0.305 0.327 0.480 0.730 0.814 0.782 0.715 0.857 1.715 2.432 2.391 2.073 1.839 1.724 1.675 1.661 1.660 1.663 1.668 1.671 1.673 1.672 1.667 1.657 1.638 1.613 1.587 1.567 1.556 1.552 1.552 1.556 1.564 1.568 1.568 1.562 1.544 1.501 1.418 1.286 1.154 1.079 0.927 0.000 
0.000 1.180 1.289 1.317 1.408 1.501 1.559 1.590 1.602 1.606 1.606 1.607 1.608 1.613 1.620 1.634 1.650 1.659 1.663 1.663 1.660 1.654 1.642 1.623 1.597 1.557 1.501 1.422 1.321 1.231 1.169 1.133 1.115 1.110 1.111 1.121 1.140 1.167 1.195 1.221 1.246 1.274 1.306 1.334 1.358 1.384 1.410 1.438 1.472 1.515 1.563 1.603 1.634 1.662 1.689 1.719 1.782 1.906 2.126 2.489 3.000 3.642 4.185 4.503 4.616 4.400 3.517 2.239 1.530 1.209 0.923 0.646 0.486 0.464 0.540 0.620 0.634 0.611 0.569 0.592 0.723 0.782 0.747 0.723 1.023 2.124 2.740 2.585 2.151 1.873 1.739 1.680 1.661 1.660 1.664 1.667 1.668 1.667 1.664 1.653 1.632 1.600 1.566 1.537 1.519 1.510 1.508 1.512 1.524 1.539 1.545 1.546 1.539 1.518 1.471 1.383 1.241 1.094 1.017 0.839 0.000 
0.000 1.199 1.310 1.335 1.415 1.499 1.549 1.574 1.582 1.585 1.587 1.588 1.592 1.599 1.612 1.632 1.651 1.663 1.669 1.671 1.670 1.666 1.656 1.638 1.610 1.569 1.510 1.430 1.330 1.244 1.182 1.142 1.120 1.111 1.111 1.115 1.128 1.148 1.175 1.204 1.235 1.270 1.311 1.351 1.383 1.411 1.438 1.466 1.498 1.536 1.574 1.602 1.630 1.657 1.685 1.725 1.803 1.957 2.231 2.632 3.076 3.540 3.996 4.352 4.501 4.358 3.687 2.710 2.053 1.668 1.372 1.098 0.910 0.841 0.851 0.888 0.907 0.912 0.879 0.841 0.848 0.832 0.770 0.762 1.068 2.048 2.625 2.535 2.160 1.882 1.749 1.690 1.669 1.663 1.662 1.662 1.661 1.657 1.646 1.624 1.588 1.541 1.500 1.473 1.460 1.456 1.458 1.469 1.492 1.513 1.522 1.524 1.517 1.494 1.444 1.356 1.216 1.053 0.949 0.798 0.000 
0.000 1.206 1.310 1.341 1.415 1.491 1.536 1.558 1.567 1.571 1.575 1.579 1.584 1.594 1.609 1.632 1.653 1.664 1.673 1.675 1.675 1.672 1.664 1.645 1.616 1.574 1.513 1.431 1.333 1.250 1.189 1.146 1.119 1.108 1.105 1.105 1.112 1.126 1.148 1.178 1.215 1.259 1.311 1.364 1.408 1.442 1.470 1.498 1.525 1.554 1.581 1.601 1.624 1.647 1.673 1.715 1.800 1.979 2.293 2.673 2.957 3.138 3.231 3.200 3.064 2.940 2.798 2.485 2.077 1.703 1.411 1.174 1.028 0.985 0.988 0.998 1.022 1.067 1.112 1.102 1.065 0.969 0.867 0.848 1.043 1.656 2.181 2.281 2.108 1.880 1.758 1.701 1.677 1.667 1.662 1.657 1.651 1.640 1.620 1.586 1.536 1.477 1.435 1.411 1.402 1.401 1.408 1.428 1.464 1.490 1.501 1.503 1.497 1.472 1.420 1.332 1.200 1.043 0.912 0.804 0.000 
0.000 1.183 1.269 1.330 1.406 1.475 1.518 1.542 1.556 1.564 1.570 1.575 1.582 1.593 1.608 1.634 1.655 1.666 1.675 1.678 1.677 1.675 1.667 1.649 1.619 1.575 1.513 1.430 1.334 1.254 1.194 1.147 1.116 1.098 1.087 1.084 1.085 1.093 1.111 1.139 1.180 1.234 1.301 1.368 1.421 1.462 1.493 1.519 1.542 1.563 1.582 1.597 1.612 1.626 1.646 1.683 1.771 1.954 2.244 2.433 2.435 2.190 1.567 1.011 0.777 0.755 0.878 1.109 1.228 1.144 1.036 0.963 0.946 0.984 1.002 1.011 1.034 1.091 1.245 1.322 1.283 1.143 1.009 0.987 1.102 1.450 1.891 2.084 2.048 1.891 1.772 1.716 1.689 1.674 1.665 1.656 1.644 1.627 1.601 1.560 1.501 1.436 1.390 1.367 1.359 1.359 1.369 1.395 1.439 1.470 1.484 1.486 1.479 1.454 1.400 1.311 1.184 1.052 0.946 0.811 0.000 
0.000 1.133 1.195 1.280 1.375 1.449 1.498 1.529 1.548 1.560 1.568 1.575 1.583 1.595 1.612 1.638 1.659 1.668 1.674 1.678 1.678 1.676 1.668 1.650 1.621 1.576 1.513 1.428 1.335 1.258 1.198 1.149 1.110 1.077 1.056 1.045 1.042 1.045 1.057 1.082 1.125 1.191 1.278 1.361 1.424 1.471 1.504 1.529 1.549 1.566 1.578 1.586 1.591 1.595 1.603 1.625 1.677 1.785 1.905 1.923 1.882 1.524 0.672 0.180 0.091 0.093 0.118 0.200 0.284 0.335 0.372 0.421 0.553 0.788 0.921 0.944 0.948 0.996 1.265 1.492 1.464 1.272 1.079 1.044 1.136 1.432 1.856 2.063 2.055 1.934 1.812 1.752 1.719 1.696 1.677 1.660 1.643 1.622 1.591 1.546 1.484 1.414 1.366 1.340 1.332 1.333 1.343 1.372 1.420 1.455 1.470 1.472 1.465 1.440 1.388 1.297 1.169 1.061 0.999 0.839 0.000 
0.000 1.085 1.128 1.201 1.315 1.413 1.478 1.520 1.545 1.560 1.569 1.578 1.588 1.601 1.621 1.645 1.662 1.669 1.674 1.678 1.679 1.677 1.668 1.651 1.622 1.577 1.514 1.428 1.337 1.264 1.204 1.154 1.107 1.060 1.018 0.991 0.979 0.977 0.983 1.004 1.049 1.125 1.235 1.343 1.420 1.472 1.508 1.532 1.549 1.562 1.568 1.570 1.572 1.576 1.583 1.589 1.597 1.623 1.677 1.692 1.654 1.347 0.534 0.102 0.039 0.035 0.041 0.058 0.090 0.131 0.182 0.250 0.382 0.595 0.725 0.750 0.722 0.755 1.133 1.569 1.583 1.354 1.089 1.024 1.104 1.412 1.933 2.183 2.163 2.010 1.883 1.842 1.800 1.755 1.712 1.678 1.650 1.621 1.587 1.542 1.479 1.407 1.356 1.328 1.319 1.319 1.329 1.357 1.406 1.445 1.461 1.464 1.456 1.435 1.384 1.294 1.160 1.049 0.999 0.890 0.000 
0.000 1.060 1.097 1.150 1.270 1.388 1.466 1.515 1.545 1.562 1.576 1.587 1.600 1.616 1.636 1.654 1.666 1.673 1.677 1.680 1.680 1.677 1.669 1.652 1.624 1.580 1.518 1.432 1.346 1.275 1.215 1.162 1.110 1.054 0.994 0.946 0.918 0.909 0.910 0.925 0.967 1.047 1.172 1.310 1.407 1.469 1.507 1.531 1.546 1.554 1.556 1.558 1.563 1.574 1.582 1.585 1.582 1.577 1.588 1.588 1.554 1.320 0.599 0.130 0.048 0.041 0.045 0.057 0.080 0.123 0.189 0.283 0.422 0.577 0.655 0.662 0.605 0.613 0.993 1.566 1.634 1.390 1.039 0.886 0.924 1.240 1.928 2.335 2.301 2.057 1.912 1.935 1.954 1.891 1.799 1.721 1.669 1.628 1.588 1.541 1.479 1.407 1.354 1.326 1.315 1.315 1.324 1.350 1.398 1.439 1.456 1.460 1.453 1.433 1.385 1.297 1.165 1.031 0.954 0.940 0.000 
0.000 1.058 1.096 1.134 1.249 1.376 1.461 1.514 1.549 1.573 1.590 1.603 1.619 1.637 1.653 1.664 1.671 1.675 1.677 1.680 1.681 1.677 1.670 1.654 1.628 1.588 1.530 1.447 1.366 1.295 1.233 1.175 1.118 1.056 0.985 0.919 0.878 0.861 0.859 0.870 0.907 0.986 1.117 1.272 1.386 1.459 1.502 1.527 1.539 1.544 1.547 1.553 1.563 1.585 1.607 1.611 1.602 1.547 1.514 1.503 1.481 1.318 0.726 0.223 0.100 0.084 0.085 0.095 0.123 0.185 0.293 0.425 0.553 0.642 0.681 0.675 0.607 0.593 0.880 1.490 1.607 1.388 0.979 0.655 0.554 0.734 1.443 2.198 2.284 2.045 1.872 1.935 2.149 2.124 1.971 1.806 1.709 1.647 1.597 1.546 1.486 1.414 1.359 1.328 1.316 1.315 1.323 1.348 1.395 1.436 1.455 1.458 1.453 1.434 1.388 1.308 1.184 1.045 0.946 0.994 0.000 
0.000 1.064 1.108 1.136 1.243 1.373 1.463 1.521 1.562 1.591 1.611 1.626 1.643 1.656 1.665 1.671 1.674 1.676 1.678 1.679 1.680 1.677 1.671 1.658 1.636 1.601 1.551 1.479 1.401 1.328 1.263 1.199 1.135 1.066 0.984 0.907 0.856 0.832 0.828 0.836 0.871 0.948 1.078 1.243 1.366 1.445 1.491 1.515 1.526 1.532 1.540 1.552 1.576 1.629 1.691 1.713 1.681 1.497 1.412 1.401 1.396 1.274 0.796 0.339 0.213 0.196 0.191 0.194 0.232 0.344 0.521 0.655 0.730 0.767 0.774 0.763 0.710 0.676 0.792 1.238 1.421 1.310 0.972 0.566 0.348 0.315 0.624 1.451 1.921 1.844 1.678 1.784 2.273 2.347 2.151 1.903 1.763 1.680 1.618 1.563 1.504 1.435 1.374 1.338 1.323 1.321 1.327 1.349 1.393 1.435 1.455 1.461 1.459 1.442 1.400 1.331 1.227 1.111 1.033 1.049 0.000 
0.000 1.072 1.121 1.147 1.245 1.375 1.471 1.536 1.582 1.613 1.635 1.650 1.661 1.669 1.673 1.676 1.676 1.677 1.678 1.679 1.679 1.678 1.673 1.664 1.649 1.623 1.584 1.527 1.455 1.380 1.309 1.239 1.166 1.086 0.992 0.905 0.846 0.818 0.813 0.819 0.852 0.927 1.057 1.224 1.348 1.427 1.473 1.496 1.508 1.518 1.532 1.557 1.612 1.726 1.874 1.941 1.778 1.351 1.216 1.221 1.239 1.168 0.833 0.490 0.411 0.412 0.403 0.397 0.437 0.589 0.809 0.928 0.964 0.970 0.964 0.944 0.904 0.876 0.891 1.057 1.176 1.147 0.934 0.562 0.302 0.191 0.205 0.567 1.157 1.348 1.274 1.401 2.081 2.402 2.223 1.950 1.793 1.706 1.646 1.592 1.536 1.472 1.405 1.360 1.339 1.334 1.338 1.356 1.394 1.435 1.455 1.463 1.463 1.452 1.421 1.365 1.289 1.226 1.172 1.105 0.000 
0.000 1.080 1.135 1.162 1.255 1.387 1.488 1.558 1.604 1.633 1.653 1.667 1.675 1.679 1.679 1.678 1.678 1.677 1.677 1.677 1.678 1.679 1.677 1.673 1.664 1.647 1.621 1.574 1.515 1.448 1.374 1.296 1.211 1.118 1.007 0.907 0.844 0.815 0.808 0.814 0.845 0.919 1.046 1.208 1.329 1.405 1.448 1.471 1.487 1.502 1.522 1.562 1.651 1.834 2.065 2.112 1.589 0.940 0.839 0.941 1.068 1.094 0.946 0.775 0.754 0.809 0.856 0.859 0.824 0.903 1.055 1.143 1.173 1.170 1.128 1.068 1.032 1.018 1.021 1.053 1.076 1.028 0.859 0.553 0.291 0.156 0.114 0.191 0.618 1.038 1.115 1.137 1.596 2.192 2.193 1.961 1.801 1.719 1.665 1.619 1.571 1.516 1.449 1.395 1.367 1.358 1.358 1.369 1.398 1.435 1.456 1.464 1.465 1.457 1.434 1.389 1.327 1.289 1.272 1.122 0.000 
0.000 1.090 1.151 1.178 1.271 1.401 1.504 1.574 1.619 1.648 1.665 1.676 1.683 1.682 1.680 1.679 1.679 1.677 1.677 1.677 1.679 1.680 1.680 1.679 1.675 1.663 1.648 1.611 1.566 1.511 1.444 1.364 1.269 1.156 1.025 0.916 0.847 0.815 0.808 0.814 0.845 0.916 1.040 1.193 1.306 1.376 1.417 1.442 1.461 1.480 1.507 1.557 1.660 1.872 2.139 2.151 1.354 0.623 0.578 0.747 0.978 1.105 1.153 1.179 1.270 1.472 1.609 1.574 1.325 1.212 1.249 1.290 1.307 1.293 1.224 1.129 1.087 1.078 1.074 1.068 1.037 0.943 0.766 0.506 0.276 0.149 0.104 0.133 0.460 1.017 1.186 1.179 1.313 1.780 1.988 1.915 1.794 1.721 1.675 1.635 1.595 1.549 1.490 1.434 1.402 1.388 1.385 1.390 1.407 1.436 1.456 1.463 1.464 1.458 1.439 1.401 1.343 1.304 1.293 1.100 0.000 
0.000 1.102 1.170 1.196 1.283 1.405 1.510 1.582 1.628 1.656 1.672 1.680 1.682 1.680 1.680 1.681 1.679 1.677 1.677 1.678 1.680 1.683 1.684 1.684 1.682 1.675 1.664 1.639 1.606 1.561 1.501 1.423 1.325 1.200 1.053 0.934 0.859 0.823 0.814 0.819 0.849 0.918 1.038 1.176 1.276 1.340 1.378 1.404 1.427 1.450 1.482 1.540 1.652 1.866 2.107 2.109 1.327 0.583 0.523 0.676 0.927 1.124 1.275 1.418 1.584 1.789 1.901 1.874 1.614 1.432 1.411 1.421 1.421 1.399 1.333 1.193 1.109 1.105 1.104 1.080 1.003 0.856 0.650 0.426 0.251 0.149 0.115 0.180 0.641 1.307 1.501 1.447 1.415 1.576 1.772 1.806 1.763 1.715 1.678 1.645 1.610 1.570 1.519 1.467 1.431 1.411 1.405 1.405 1.413 1.433 1.452 1.459 1.461 1.456 1.439 1.404 1.350 1.300 1.270 1.079 0.000 
0.000 1.114 1.189 1.211 1.284 1.402 1.510 1.583 1.631 1.660 1.675 1.682 1.684 1.682 1.682 1.683 1.681 1.680 1.680 1.681 1.683 1.686 1.687 1.688 1.688 1.684 1.675 1.658 1.632 1.595 1.544 1.471 1.373 1.245 1.090 0.963 0.882 0.843 0.833 0.837 0.863 0.929 1.041 1.162 1.243 1.295 1.329 1.356 1.380 1.407 1.444 1.506 1.619 1.805 1.941 1.932 1.393 0.693 0.563 0.668 0.891 1.128 1.321 1.490 1.649 1.793 1.870 1.861 1.729 1.610 1.572 1.558 1.554 1.561 1.528 1.366 1.184 1.149 1.145 1.089 0.950 0.731 0.492 0.316 0.212 0.163 0.196 0.573 1.471 2.041 2.037 1.807 1.644 1.617 1.697 1.742 1.732 1.706 1.678 1.649 1.618 1.583 1.539 1.491 1.453 1.428 1.416 1.413 1.416 1.427 1.441 1.449 1.451 1.447 1.433 1.401 1.350 1.286 1.241 1.048 0.000 
0.000 1.090 1.172 1.207 1.271 1.389 1.504 1.581 1.630 1.660 1.677 1.684 1.685 1.685 1.687 1.686 1.683 1.685 1.685 1.686 1.688 1.690 1.689 1.692 1.693 1.690 1.683 1.668 1.649 1.620 1.574 1.507 1.414 1.291 1.135 1.005 0.922 0.881 0.869 0.872 0.895 0.953 1.053 1.156 1.221 1.261 1.288 1.310 1.334 1.360 1.398 1.457 1.554 1.691 1.774 1.783 1.561 1.027 0.723 0.718 0.870 1.115 1.333 1.503 1.638 1.726 1.767 1.783 1.761 1.722 1.704 1.705 1.736 1.817 1.901 1.867 1.692 1.498 1.313 1.096 0.847 0.571 0.355 0.240 0.196 0.217 0.512 1.517 2.464 2.614 2.405 2.026 1.785 1.704 1.708 1.729 1.721 1.701 1.676 1.650 1.622 1.591 1.553 1.509 1.470 1.441 1.424 1.416 1.415 1.418 1.428 1.434 1.434 1.431 1.417 1.391 1.343 1.271 1.218 1.008 0.000 
0.000 0.909 0.993 1.134 1.221 1.359 1.486 1.572 1.627 1.659 1.676 1.686 1.691 1.692 1.691 1.689 1.688 1.688 1.690 1.691 1.693 1.693 1.691 1.695 1.697 1.695 1.686 1.674 1.656 1.629 1.590 1.532 1.451 1.339 1.192 1.065 0.984 0.944 0.931 0.933 0.950 0.997 1.079 1.161 1.213 1.243 1.263 1.282 1.303 1.329 1.366 1.421 1.498 1.601 1.682 1.727 1.719 1.523 1.149 0.873 0.903 1.102 1.331 1.492 1.594 1.649 1.681 1.705 1.727 1.745 1.774 1.841 1.969 2.191 2.408 2.500 2.456 2.208 1.708 1.131 0.742 0.446 0.266 0.191 0.183 0.275 0.848 2.181 2.821 2.812 2.583 2.163 1.867 1.762 1.764 1.754 1.723 1.698 1.674 1.649 1.623 1.595 1.561 1.522 1.483 1.452 1.430 1.417 1.411 1.410 1.411 1.412 1.411 1.409 1.396 1.374 1.328 1.255 1.197 0.968 0.000 
0.000 0.528 0.608 0.896 1.093 1.293 1.447 1.551 1.616 1.654 1.675 1.686 1.691 1.694 1.694 1.694 1.693 1.691 1.693 1.693 1.695 1.695 1.694 1.696 1.699 1.697 1.688 1.677 1.660 1.633 1.597 1.548 1.482 1.389 1.266 1.152 1.078 1.039 1.026 1.025 1.035 1.066 1.122 1.178 1.215 1.237 1.252 1.268 1.287 1.313 1.352 1.404 1.470 1.547 1.622 1.688 1.746 1.785 1.659 1.255 1.039 1.128 1.321 1.468 1.558 1.611 1.645 1.673 1.703 1.742 1.805 1.916 2.138 2.494 2.751 2.836 2.799 2.525 1.881 1.127 0.670 0.366 0.197 0.141 0.148 0.269 0.947 2.365 2.895 2.887 2.704 2.288 1.939 1.837 1.849 1.796 1.732 1.696 1.672 1.647 1.624 1.598 1.567 1.531 1.494 1.460 1.435 1.419 1.410 1.406 1.404 1.402 1.400 1.395 1.383 1.357 1.310 1.236 1.178 0.956 0.000 
0.000 0.182 0.257 0.524 0.867 1.175 1.383 1.516 1.598 1.646 1.671 1.685 1.691 1.694 1.696 1.697 1.696 1.696 1.695 1.693 1.692 1.692 1.695 1.697 1.699 1.697 1.689 1.678 1.661 1.634 1.600 1.558 1.504 1.435 1.349 1.267 1.206 1.172 1.158 1.153 1.155 1.165 1.188 1.211 1.227 1.239 1.250 1.264 1.282 1.308 1.347 1.401 1.460 1.520 1.580 1.646 1.727 1.797 1.810 1.588 1.280 1.237 1.328 1.451 1.540 1.601 1.642 1.671 1.701 1.741 1.808 1.929 2.196 2.654 2.954 3.015 2.939 2.582 1.852 1.076 0.598 0.304 0.143 0.088 0.089 0.210 0.901 2.375 2.937 2.960 2.825 2.437 2.068 1.957 1.911 1.809 1.736 1.697 1.670 1.647 1.626 1.600 1.571 1.539 1.503 1.468 1.440 1.421 1.411 1.405 1.402 1.400 1.396 1.388 1.375 1.345 1.293 1.215 1.157 0.973 0.000 
0.000 0.040 0.112 0.295 0.699 1.083 1.334 1.491 1.585 1.639 1.668 1.684 1.691 1.695 1.698 1.699 1.698 1.699 1.697 1.693 1.692 1.692 1.695 1.697 1.698 1.694 1.686 1.675 1.657 1.633 1.601 1.562 1.517 1.469 1.417 1.371 1.336 1.313 1.299 1.295 1.292 1.286 1.277 1.264 1.252 1.249 1.254 1.264 1.281 1.307 1.348 1.404 1.460 1.507 1.552 1.604 1.676 1.743 1.767 1.707 1.509 1.404 1.392 1.449 1.536 1.611 1.661 1.696 1.723 1.748 1.784 1.869 2.093 2.552 2.915 2.992 2.869 2.366 1.558 0.889 0.479 0.234 0.103 0.059 0.056 0.132 0.728 2.254 3.014 3.091 3.015 2.713 2.321 2.099 1.944 1.814 1.740 1.698 1.670 1.648 1.627 1.602 1.575 1.545 1.511 1.476 1.447 1.426 1.414 1.408 1.404 1.400 1.395 1.386 1.370 1.335 1.277 1.195 1.136 0.989 0.000 
0.000 0.049 0.115 0.234 0.634 1.045 1.313 1.481 1.581 1.637 1.667 1.683 1.691 1.695 1.698 1.699 1.699 1.699 1.698 1.696 1.695 1.694 1.695 1.697 1.694 1.689 1.681 1.671 1.655 1.632 1.600 1.560 1.522 1.492 1.463 1.441 1.425 1.414 1.406 1.403 1.397 1.385 1.362 1.325 1.290 1.273 1.268 1.272 1.286 1.313 1.357 1.416 1.466 1.504 1.535 1.567 1.608 1.655 1.685 1.688 1.637 1.548 1.491 1.485 1.545 1.637 1.715 1.767 1.789 1.783 1.713 1.500 1.348 1.480 1.776 1.941 1.818 1.293 0.716 0.421 0.257 0.144 0.075 0.053 0.051 0.087 0.501 1.955 3.101 3.324 3.314 3.130 2.714 2.275 1.992 1.830 1.747 1.701 1.673 1.650 1.628 1.606 1.581 1.553 1.520 1.486 1.457 1.436 1.422 1.415 1.410 1.405 1.398 1.388 1.368 1.328 1.263 1.177 1.115 1.000 0.000 
0.000 0.222 0.279 0.282 0.632 1.039 1.310 1.479 1.581 1.637 1.668 1.683 1.691 1.695 1.698 1.699 1.699 1.699 1.699 1.699 1.699 1.695 1.697 1.698 1.692 1.687 1.678 1.667 1.652 1.627 1.592 1.553 1.524 1.505 1.491 1.482 1.478 1.477 1.476 1.474 1.468 1.453 1.424 1.377 1.329 1.301 1.291 1.292 1.302 1.330 1.379 1.437 1.480 1.509 1.529 1.545 1.562 1.586 1.615 1.638 1.639 1.597 1.563 1.561 1.609 1.708 1.816 1.893 1.917 1.889 1.598 0.892 0.453 0.343 0.400 0.504 0.492 0.323 0.179 0.145 0.127 0.093 0.065 0.057 0.058 0.071 0.294 1.494 3.024 3.460 3.517 3.441 3.117 2.548 2.104 1.875 1.763 1.708 1.677 1.655 1.634 1.613 1.590 1.562 1.530 1.497 1.471 1.451 1.439 1.431 1.425 1.419 1.411 1.397 1.370 1.324 1.248 1.161 1.099 1.005 0.000 
0.000 0.573 0.618 0.491 0.714 1.052 1.316 1.483 1.583 1.639 1.669 1.683 1.691 1.694 1.697 1.699 1.700 1.700 1.700 1.700 1.700 1.696 1.697 1.697 1.692 1.682 1.673 1.667 1.647 1.615 1.575 1.542 1.522 1.512 1.505 1.504 1.507 1.515 1.518 1.517 1.512 1.497 1.467 1.418 1.366 1.334 1.323 1.324 1.333 1.361 1.414 1.468 1.502 1.521 1.531 1.535 1.534 1.539 1.554 1.575 1.589 1.589 1.598 1.648 1.745 1.846 1.933 2.000 2.041 1.998 1.449 0.504 0.143 0.076 0.074 0.107 0.132 0.124 0.110 0.110 0.104 0.081 0.066 0.063 0.062 0.064 0.152 0.975 2.695 3.454 3.576 3.567 3.381 2.880 2.297 1.962 1.799 1.723 1.685 1.662 1.643 1.623 1.602 1.575 1.543 1.514 1.491 1.475 1.465 1.458 1.452 1.445 1.433 1.412 1.378 1.321 1.233 1.144 1.087 1.010 0.000 
0.000 0.889 0.924 0.815 0.905 1.111 1.341 1.493 1.586 1.643 1.672 1.685 1.689 1.694 1.696 1.699 1.700 1.700 1.701 1.701 1.700 1.698 1.696 1.691 1.686 1.679 1.672 1.665 1.639 1.601 1.561 1.535 1.521 1.514 1.512 1.513 1.521 1.534 1.541 1.542 1.538 1.525 1.498 1.453 1.404 1.374 1.365 1.366 1.377 1.409 1.462 1.506 1.529 1.538 1.540 1.536 1.522 1.506 1.503 1.511 1.527 1.554 1.600 1.692 1.847 1.958 1.994 2.033 2.071 2.000 1.283 0.341 0.078 0.044 0.045 0.066 0.103 0.123 0.129 0.130 0.112 0.080 0.065 0.060 0.056 0.052 0.069 0.491 1.956 3.141 3.504 3.568 3.490 3.167 2.577 2.102 1.861 1.749 1.698 1.671 1.652 1.634 1.614 1.589 1.556 1.531 1.512 1.500 1.491 1.486 1.484 1.476 1.461 1.435 1.392 1.325 1.222 1.124 1.072 1.010 0.000 
0.000 1.025 1.059 1.016 1.068 1.206 1.388 1.517 1.598 1.648 1.676 1.685 1.688 1.694 1.697 1.699 1.700 1.699 1.702 1.701 1.700 1.698 1.696 1.693 1.688 1.684 1.677 1.660 1.631 1.594 1.556 1.532 1.519 1.514 1.514 1.516 1.526 1.543 1.554 1.557 1.555 1.546 1.524 1.485 1.444 1.423 1.417 1.419 1.434 1.469 1.517 1.548 1.560 1.561 1.557 1.544 1.521 1.485 1.457 1.450 1.460 1.497 1.565 1.672 1.840 1.957 1.973 1.985 2.022 1.914 1.154 0.306 0.079 0.049 0.052 0.078 0.134 0.180 0.194 0.186 0.140 0.081 0.056 0.045 0.039 0.034 0.031 0.166 0.984 2.315 3.164 3.461 3.486 3.321 2.874 2.302 1.956 1.791 1.718 1.683 1.662 1.643 1.623 1.598 1.566 1.542 1.526 1.517 1.511 1.507 1.506 1.500 1.485 1.458 1.411 1.335 1.221 1.101 1.038 1.006 0.000 
0.000 1.057 1.094 1.098 1.160 1.289 1.442 1.548 1.614 1.655 1.678 1.686 1.689 1.695 1.699 1.700 1.698 1.700 1.701 1.701 1.700 1.699 1.697 1.695 1.691 1.686 1.675 1.655 1.629 1.591 1.555 1.531 1.519 1.515 1.515 1.518 1.527 1.545 1.561 1.568 1.569 1.564 1.549 1.520 1.492 1.481 1.480 1.484 1.500 1.532 1.565 1.583 1.588 1.588 1.581 1.562 1.531 1.481 1.413 1.373 1.363 1.377 1.411 1.467 1.539 1.575 1.606 1.701 1.776 1.671 1.083 0.390 0.139 0.081 0.080 0.105 0.167 0.228 0.249 0.242 0.186 0.095 0.053 0.035 0.026 0.020 0.018 0.040 0.332 1.259 2.417 3.142 3.395 3.359 3.087 2.549 2.091 1.854 1.747 1.698 1.671 1.650 1.629 1.604 1.573 1.548 1.534 1.526 1.523 1.521 1.520 1.516 1.504 1.478 1.431 1.352 1.231 1.097 1.011 1.002 0.000 
0.000 1.067 1.109 1.129 1.211 1.347 1.480 1.570 1.626 1.658 1.674 1.685 1.692 1.695 1.697 1.697 1.698 1.699 1.700 1.700 1.700 1.699 1.697 1.696 1.694 1.688 1.675 1.652 1.630 1.591 1.555 1.532 1.520 1.516 1.516 1.519 1.528 1.544 1.563 1.576 1.582 1.582 1.576 1.561 1.546 1.539 1.538 1.543 1.559 1.583 1.602 1.611 1.612 1.610 1.600 1.586 1.566 1.504 1.384 1.271 1.197 1.136 1.090 1.055 0.992 0.935 0.966 1.151 1.293 1.273 1.042 0.637 0.332 0.179 0.137 0.142 0.178 0.239 0.271 0.269 0.225 0.125 0.059 0.033 0.021 0.016 0.014 0.017 0.093 0.510 1.479 2.558 3.158 3.278 3.161 2.785 2.272 1.945 1.789 1.718 1.682 1.657 1.634 1.607 1.576 1.552 1.538 1.532 1.530 1.530 1.530 1.528 1.519 1.497 1.454 1.377 1.257 1.118 1.032 1.011 0.000 
0.000 1.075 1.122 1.148 1.244 1.387 1.508 1.586 1.635 1.663 1.679 1.689 1.695 1.699 1.699 1.698 1.698 1.699 1.700 1.700 1.700 1.698 1.696 1.696 1.696 1.689 1.674 1.654 1.630 1.593 1.558 1.535 1.524 1.520 1.519 1.522 1.530 1.544 1.563 1.580 1.592 1.599 1.600 1.596 1.591 1.586 1.584 1.592 1.606 1.621 1.630 1.633 1.632 1.625 1.612 1.605 1.606 1.551 1.396 1.208 1.061 0.925 0.790 0.673 0.588 0.553 0.590 0.753 0.918 0.971 0.926 0.766 0.528 0.317 0.221 0.200 0.204 0.244 0.280 0.281 0.242 0.142 0.062 0.030 0.018 0.015 0.015 0.018 0.036 0.173 0.684 1.726 2.744 3.115 3.133 2.935 2.471 2.066 1.851 1.747 1.697 1.665 1.638 1.609 1.579 1.555 1.542 1.537 1.535 1.537 1.539 1.539 1.533 1.517 1.480 1.413 1.306 1.173 1.081 1.033 0.000 
0.000 1.083 1.136 1.165 1.266 1.410 1.523 1.596 1.641 1.668 1.684 1.693 1.698 1.699 1.699 1.698 1.698 1.699 1.701 1.700 1.700 1.698 1.697 1.696 1.695 1.689 1.676 1.658 1.632 1.598 1.567 1.546 1.534 1.529 1.527 1.529 1.535 1.546 1.561 1.580 1.597 1.610 1.618 1.621 1.622 1.621 1.622 1.631 1.640 1.648 1.651 1.651 1.647 1.636 1.619 1.613 1.616 1.593 1.447 1.209 1.007 0.808 0.595 0.421 0.324 0.301 0.331 0.446 0.602 0.710 0.753 0.717 0.588 0.378 0.252 0.221 0.223 0.250 0.282 0.282 0.243 0.143 0.059 0.027 0.017 0.016 0.019 0.025 0.033 0.058 0.230 0.863 2.104 2.990 3.122 3.003 2.607 2.161 1.907 1.779 1.713 1.674 1.643 1.611 1.581 1.558 1.546 1.541 1.540 1.542 1.548 1.550 1.548 1.537 1.511 1.461 1.377 1.257 1.145 1.055 0.000 
0.000 1.093 1.151 1.181 1.281 1.422 1.530 1.601 1.645 1.670 1.685 1.694 1.697 1.698 1.699 1.699 1.699 1.699 1.700 1.699 1.699 1.699 1.698 1.696 1.692 1.687 1.679 1.663 1.641 1.611 1.584 1.565 1.553 1.546 1.542 1.541 1.544 1.550 1.561 1.578 1.597 1.615 1.629 1.638 1.644 1.647 1.651 1.658 1.663 1.666 1.667 1.665 1.658 1.644 1.626 1.618 1.618 1.617 1.519 1.276 1.022 0.776 0.505 0.287 0.177 0.153 0.166 0.226 0.329 0.438 0.523 0.571 0.546 0.393 0.244 0.207 0.209 0.236 0.261 0.259 0.220 0.130 0.055 0.025 0.019 0.020 0.027 0.035 0.038 0.038 0.066 0.316 1.337 2.777 3.137 3.022 2.655 2.205 1.935 1.796 1.724 1.681 1.647 1.614 1.585 1.563 1.550 1.546 1.545 1.549 1.557 1.562 1.562 1.556 1.538 1.500 1.433 1.331 1.217 1.095 0.000 
0.000 1.094 1.156 1.190 1.287 1.428 1.535 1.604 1.647 1.672 1.686 1.693 1.697 1.698 1.699 1.699 1.698 1.699 1.699 1.699 1.699 1.698 1.697 1.695 1.691 1.687 1.682 1.672 1.655 1.633 1.612 1.596 1.583 1.574 1.566 1.558 1.553 1.555 1.563 1.576 1.595 1.615 1.633 1.647 1.657 1.664 1.670 1.675 1.678 1.679 1.678 1.675 1.667 1.651 1.633 1.625 1.627 1.640 1.607 1.449 1.200 0.875 0.494 0.225 0.105 0.079 0.081 0.103 0.149 0.215 0.302 0.412 0.455 0.382 0.217 0.154 0.150 0.167 0.183 0.178 0.150 0.094 0.045 0.026 0.024 0.032 0.044 0.048 0.045 0.039 0.042 0.125 0.797 2.446 3.100 2.996 2.649 2.212 1.942 1.800 1.728 1.686 1.652 1.620 1.590 1.569 1.558 1.554 1.554 1.559 1.569 1.576 1.577 1.574 1.559 1.524 1.463 1.379 1.282 1.153 0.000 
0.000 1.061 1.116 1.178 1.288 1.430 1.537 1.606 1.648 1.672 1.686 1.693 1.696 1.698 1.698 1.697 1.696 1.697 1.698 1.698 1.698 1.698 1.697 1.695 1.693 1.690 1.685 1.679 1.669 1.655 1.642 1.628 1.615 1.604 1.589 1.573 1.562 1.562 1.566 1.574 1.589 1.611 1.633 1.650 1.664 1.674 1.681 1.685 1.687 1.687 1.687 1.683 1.675 1.658 1.642 1.639 1.647 1.684 1.751 1.786 1.664 1.297 0.677 0.227 0.084 0.056 0.053 0.057 0.072 0.106 0.189 0.337 0.394 0.349 0.185 0.100 0.083 0.084 0.088 0.088 0.079 0.056 0.035 0.028 0.033 0.058 0.081 0.083 0.065 0.045 0.044 0.094 0.561 2.038 2.866 2.842 2.572 2.192 1.937 1.799 1.728 1.688 1.657 1.628 1.600 1.581 1.571 1.568 1.569 1.574 1.585 1.592 1.594 1.590 1.573 1.534 1.470 1.399 1.336 1.211 0.000 
0.000 1.017 1.063 1.134 1.280 1.431 1.538 1.607 1.648 1.672 1.685 1.692 1.696 1.697 1.698 1.697 1.697 1.696 1.696 1.696 1.696 1.696 1.695 1.694 1.693 1.690 1.687 1.683 1.677 1.669 1.658 1.646 1.637 1.623 1.602 1.580 1.567 1.565 1.565 1.570 1.581 1.601 1.627 1.648 1.664 1.677 1.687 1.691 1.693 1.693 1.692 1.689 1.681 1.666 1.658 1.658 1.674 1.723 1.841 2.052 2.250 2.123 1.427 0.516 0.141 0.074 0.060 0.054 0.058 0.081 0.167 0.316 0.358 0.303 0.146 0.066 0.045 0.041 0.043 0.047 0.048 0.042 0.034 0.035 0.058 0.117 0.156 0.158 0.115 0.064 0.057 0.110 0.506 1.580 2.284 2.428 2.338 2.113 1.912 1.792 1.723 1.689 1.664 1.640 1.616 1.600 1.592 1.590 1.591 1.597 1.607 1.612 1.612 1.604 1.581 1.537 1.466 1.399 1.365 1.215 0.000 
0.000 1.048 1.106 1.130 1.276 1.430 1.538 1.607 1.649 1.672 1.685 1.691 1.695 1.696 1.697 1.697 1.697 1.696 1.694 1.692 1.692 1.692 1.692 1.692 1.692 1.690 1.687 1.684 1.679 1.673 1.665 1.658 1.649 1.635 1.612 1.586 1.570 1.565 1.563 1.565 1.575 1.592 1.616 1.642 1.662 1.678 1.688 1.694 1.696 1.695 1.694 1.692 1.686 1.676 1.673 1.676 1.692 1.742 1.859 2.093 2.451 2.694 2.529 1.670 0.749 0.394 0.298 0.241 0.190 0.127 0.185 0.299 0.317 0.236 0.096 0.040 0.026 0.024 0.025 0.033 0.041 0.043 0.045 0.063 0.130 0.210 0.232 0.218 0.161 0.096 0.085 0.177 0.602 1.320 1.721 1.865 1.903 1.886 1.800 1.710 1.677 1.687 1.675 1.657 1.639 1.627 1.621 1.621 1.622 1.626 1.631 1.631 1.627 1.613 1.584 1.533 1.453 1.380 1.343 1.165 0.000 
0.000 1.127 1.207 1.188 1.288 1.430 1.538 1.608 1.649 1.672 1.684 1.690 1.693 1.695 1.695 1.694 1.692 1.688 1.684 1.683 1.683 1.685 1.686 1.688 1.688 1.687 1.685 1.683 1.679 1.675 1.670 1.664 1.656 1.643 1.621 1.593 1.573 1.564 1.562 1.563 1.572 1.588 1.610 1.641 1.663 1.678 1.687 1.695 1.697 1.696 1.694 1.693 1.688 1.684 1.685 1.687 1.701 1.746 1.856 2.075 2.429 2.758 2.898 2.727 2.096 1.638 1.503 1.466 1.314 0.897 0.457 0.318 0.258 0.151 0.056 0.027 0.020 0.020 0.024 0.039 0.083 0.119 0.143 0.170 0.204 0.239 0.245 0.229 0.178 0.130 0.140 0.321 0.806 1.282 1.510 1.607 1.642 1.645 1.629 1.616 1.626 1.680 1.689 1.682 1.669 1.658 1.653 1.650 1.650 1.650 1.649 1.646 1.637 1.617 1.581 1.522 1.428 1.331 1.273 1.115 0.000 
0.000 1.171 1.260 1.260 1.319 1.433 1.539 1.608 1.649 1.672 1.685 1.690 1.692 1.691 1.691 1.688 1.681 1.674 1.671 1.671 1.671 1.673 1.675 1.679 1.681 1.680 1.679 1.678 1.676 1.673 1.670 1.665 1.659 1.647 1.627 1.599 1.576 1.565 1.562 1.564 1.571 1.587 1.609 1.641 1.664 1.679 1.688 1.695 1.697 1.696 1.695 1.691 1.691 1.690 1.691 1.693 1.704 1.741 1.829 2.005 2.301 2.617 2.782 2.791 2.643 2.489 2.495 2.626 2.804 2.602 1.810 0.919 0.391 0.145 0.054 0.033 0.031 0.040 0.082 0.226 0.537 0.727 0.770 0.652 0.343 0.220 0.208 0.201 0.171 0.160 0.244 0.534 0.980 1.283 1.444 1.523 1.556 1.563 1.562 1.568 1.591 1.674 1.716 1.717 1.707 1.690 1.679 1.673 1.669 1.666 1.662 1.656 1.643 1.618 1.575 1.504 1.392 1.271 1.198 1.068 0.000 
0.000 1.165 1.244 1.276 1.336 1.440 1.540 1.606 1.647 1.670 1.684 1.689 1.690 1.687 1.684 1.676 1.664 1.655 1.650 1.649 1.650 1.652 1.655 1.659 1.663 1.666 1.667 1.668 1.668 1.668 1.667 1.665 1.659 1.649 1.632 1.605 1.582 1.569 1.566 1.566 1.573 1.589 1.611 1.643 1.667 1.682 1.691 1.696 1.697 1.697 1.695 1.693 1.695 1.694 1.696 1.695 1.701 1.722 1.773 1.878 2.065 2.308 2.479 2.556 2.554 2.527 2.563 2.726 3.043 3.286 3.210 2.550 1.567 0.684 0.265 0.170 0.178 0.255 0.496 1.070 1.856 2.246 2.252 1.785 0.756 0.228 0.143 0.134 0.142 0.193 0.371 0.721 1.072 1.284 1.401 1.462 1.495 1.509 1.514 1.522 1.557 1.689 1.781 1.781 1.757 1.722 1.700 1.688 1.681 1.676 1.670 1.661 1.645 1.616 1.565 1.483 1.361 1.233 1.148 1.024 0.000 
0.000 1.127 1.185 1.253 1.335 1.445 1.540 1.603 1.643 1.667 1.680 1.685 1.684 1.680 1.672 1.656 1.637 1.624 1.616 1.614 1.615 1.618 1.622 1.629 1.636 1.641 1.645 1.648 1.652 1.656 1.660 1.661 1.658 1.650 1.636 1.614 1.591 1.579 1.575 1.575 1.581 1.596 1.620 1.649 1.671 1.685 1.693 1.697 1.698 1.696 1.695 1.696 1.697 1.697 1.698 1.695 1.697 1.704 1.725 1.772 1.857 1.984 2.104 2.199 2.283 2.361 2.453 2.623 2.928 3.265 3.422 3.358 2.916 2.054 1.299 0.972 0.945 1.065 1.396 1.982 2.621 2.923 2.960 2.622 1.412 0.380 0.132 0.115 0.134 0.232 0.484 0.859 1.139 1.297 1.372 1.408 1.426 1.434 1.429 1.436 1.499 1.735 1.900 1.879 1.803 1.744 1.713 1.697 1.688 1.681 1.674 1.663 1.645 1.610 1.553 1.465 1.339 1.211 1.124 0.981 0.000 
0.000 1.081 1.119 1.194 1.311 1.438 1.532 1.596 1.637 1.660 1.672 1.677 1.676 1.669 1.653 1.627 1.599 1.580 1.571 1.567 1.566 1.569 1.578 1.590 1.599 1.605 1.611 1.617 1.624 1.634 1.646 1.653 1.653 1.648 1.640 1.627 1.608 1.597 1.593 1.594 1.598 1.611 1.634 1.659 1.676 1.687 1.693 1.696 1.698 1.696 1.698 1.699 1.700 1.700 1.698 1.695 1.694 1.695 1.700 1.715 1.744 1.793 1.850 1.907 1.969 2.055 2.176 2.354 2.640 3.000 3.208 3.235 3.082 2.712 2.334 2.081 1.961 1.923 2.000 2.258 2.687 2.953 3.007 2.889 2.079 0.819 0.279 0.193 0.226 0.372 0.662 1.000 1.215 1.320 1.359 1.369 1.356 1.304 1.223 1.209 1.308 1.682 1.953 1.929 1.825 1.753 1.718 1.701 1.691 1.683 1.675 1.663 1.642 1.603 1.543 1.453 1.324 1.196 1.110 0.963 0.000 
0.000 1.052 1.081 1.139 1.266 1.412 1.516 1.586 1.630 1.654 1.665 1.667 1.664 1.651 1.626 1.585 1.548 1.527 1.518 1.515 1.517 1.526 1.541 1.556 1.566 1.573 1.577 1.582 1.590 1.605 1.627 1.642 1.651 1.653 1.650 1.642 1.627 1.617 1.614 1.613 1.616 1.626 1.644 1.665 1.679 1.688 1.693 1.695 1.693 1.697 1.701 1.701 1.700 1.699 1.697 1.696 1.694 1.691 1.689 1.687 1.688 1.695 1.710 1.732 1.761 1.804 1.875 1.994 2.197 2.502 2.746 2.859 2.863 2.731 2.546 2.374 2.230 2.155 2.161 2.296 2.615 2.849 2.917 2.871 2.555 1.697 1.036 0.865 0.916 1.077 1.215 1.281 1.328 1.352 1.359 1.356 1.334 1.268 1.150 1.063 1.069 1.449 1.894 1.919 1.827 1.753 1.718 1.702 1.692 1.684 1.675 1.663 1.640 1.599 1.539 1.447 1.315 1.186 1.098 0.970 0.000 
0.000 1.037 1.061 1.106 1.222 1.381 1.505 1.583 1.630 1.653 1.659 1.657 1.649 1.629 1.593 1.544 1.508 1.489 1.482 1.482 1.488 1.502 1.522 1.536 1.547 1.554 1.557 1.558 1.568 1.587 1.615 1.639 1.654 1.659 1.657 1.651 1.640 1.630 1.626 1.625 1.627 1.634 1.649 1.669 1.681 1.688 1.692 1.693 1.695 1.700 1.701 1.701 1.700 1.698 1.697 1.696 1.693 1.689 1.684 1.677 1.664 1.650 1.642 1.643 1.651 1.668 1.703 1.767 1.878 2.052 2.252 2.407 2.503 2.532 2.464 2.329 2.206 2.153 2.156 2.229 2.395 2.552 2.645 2.694 2.652 2.432 2.201 2.155 2.176 2.169 2.026 1.757 1.530 1.401 1.362 1.356 1.333 1.274 1.169 1.077 1.054 1.262 1.710 1.828 1.795 1.743 1.714 1.700 1.691 1.684 1.675 1.659 1.634 1.598 1.538 1.445 1.312 1.177 1.088 0.977 0.000 
0.000 0.998 1.014 1.072 1.186 1.360 1.497 1.582 1.627 1.647 1.651 1.647 1.637 1.613 1.569 1.519 1.485 1.470 1.465 1.467 1.475 1.493 1.514 1.529 1.538 1.545 1.547 1.548 1.560 1.580 1.611 1.637 1.652 1.657 1.658 1.655 1.645 1.635 1.631 1.630 1.631 1.637 1.650 1.670 1.683 1.687 1.688 1.690 1.694 1.699 1.700 1.700 1.699 1.699 1.698 1.697 1.693 1.690 1.685 1.674 1.657 1.633 1.615 1.606 1.604 1.609 1.625 1.658 1.717 1.811 1.940 2.065 2.158 2.215 2.231 2.190 2.122 2.076 2.056 2.055 2.084 2.147 2.225 2.332 2.451 2.508 2.497 2.492 2.465 2.392 2.225 1.935 1.638 1.444 1.383 1.366 1.341 1.295 1.220 1.161 1.146 1.259 1.587 1.705 1.721 1.714 1.703 1.694 1.688 1.683 1.676 1.663 1.640 1.602 1.540 1.446 1.313 1.173 1.078 0.989 0.000 
0.000 0.952 0.959 1.021 1.163 1.349 1.488 1.575 1.619 1.638 1.642 1.639 1.629 1.603 1.556 1.508 1.478 1.464 1.461 1.463 1.472 1.492 1.514 1.528 1.536 1.541 1.544 1.547 1.558 1.580 1.610 1.637 1.651 1.657 1.658 1.656 1.646 1.636 1.632 1.631 1.632 1.637 1.649 1.669 1.684 1.687 1.688 1.686 1.692 1.701 1.699 1.699 1.699 1.699 1.699 1.698 1.698 1.694 1.686 1.674 1.656 1.631 1.608 1.596 1.592 1.593 1.600 1.618 1.651 1.705 1.780 1.863 1.926 1.964 1.975 1.974 1.958 1.922 1.889 1.876 1.879 1.900 1.940 2.005 2.118 2.252 2.329 2.343 2.318 2.250 2.125 1.916 1.665 1.496 1.428 1.394 1.367 1.336 1.302 1.287 1.293 1.359 1.543 1.639 1.675 1.689 1.691 1.685 1.686 1.684 1.678 1.667 1.645 1.606 1.544 1.452 1.321 1.177 1.074 1.007 0.000 
0.000 0.974 0.990 1.012 1.155 1.341 1.479 1.564 1.611 1.630 1.635 1.633 1.623 1.597 1.552 1.506 1.478 1.465 1.463 1.465 1.476 1.498 1.518 1.531 1.539 1.542 1.545 1.551 1.562 1.583 1.613 1.638 1.651 1.656 1.657 1.654 1.645 1.636 1.631 1.629 1.629 1.634 1.646 1.666 1.681 1.687 1.689 1.687 1.695 1.701 1.698 1.698 1.698 1.698 1.699 1.699 1.697 1.693 1.686 1.676 1.658 1.633 1.610 1.597 1.592 1.593 1.597 1.610 1.633 1.667 1.712 1.760 1.795 1.816 1.822 1.822 1.816 1.798 1.779 1.772 1.772 1.778 1.795 1.829 1.887 1.970 2.023 2.040 2.037 2.008 1.942 1.824 1.650 1.536 1.479 1.442 1.416 1.402 1.397 1.400 1.412 1.452 1.544 1.617 1.659 1.677 1.682 1.682 1.685 1.685 1.680 1.669 1.648 1.611 1.553 1.465 1.343 1.200 1.094 1.024 0.000 
0.000 1.039 1.074 1.059 1.165 1.333 1.469 1.554 1.602 1.623 1.629 1.628 1.619 1.595 1.552 1.510 1.485 1.476 1.474 1.479 1.492 1.515 1.533 1.543 1.549 1.550 1.553 1.562 1.577 1.596 1.621 1.642 1.654 1.657 1.657 1.654 1.645 1.632 1.624 1.622 1.623 1.629 1.643 1.663 1.677 1.685 1.689 1.692 1.698 1.699 1.699 1.698 1.701 1.701 1.700 1.698 1.697 1.694 1.689 1.680 1.666 1.644 1.623 1.610 1.605 1.604 1.607 1.616 1.634 1.660 1.689 1.714 1.732 1.742 1.746 1.746 1.744 1.736 1.727 1.723 1.722 1.724 1.731 1.746 1.773 1.814 1.840 1.850 1.853 1.850 1.831 1.760 1.628 1.563 1.527 1.501 1.487 1.483 1.484 1.486 1.495 1.516 1.560 1.616 1.654 1.673 1.680 1.683 1.686 1.685 1.681 1.671 1.651 1.619 1.567 1.488 1.381 1.254 1.149 1.044 0.000 
0.000 1.078 1.125 1.127 1.195 1.327 1.460 1.545 1.593 1.615 1.622 1.622 1.615 1.594 1.558 1.524 1.506 1.501 1.502 1.510 1.526 1.547 1.559 1.565 1.568 1.568 1.570 1.580 1.595 1.609 1.628 1.645 1.659 1.663 1.663 1.659 1.643 1.624 1.615 1.613 1.616 1.626 1.643 1.662 1.675 1.684 1.690 1.695 1.698 1.700 1.701 1.699 1.700 1.700 1.699 1.698 1.698 1.695 1.692 1.686 1.677 1.663 1.647 1.638 1.634 1.633 1.634 1.638 1.648 1.665 1.683 1.697 1.706 1.711 1.713 1.713 1.712 1.709 1.705 1.703 1.703 1.703 1.706 1.712 1.723 1.740 1.750 1.755 1.758 1.756 1.750 1.707 1.624 1.595 1.577 1.564 1.557 1.554 1.553 1.553 1.558 1.570 1.591 1.625 1.655 1.673 1.681 1.686 1.688 1.687 1.684 1.674 1.655 1.627 1.576 1.504 1.408 1.305 1.217 1.067 0.000 
0.000 1.089 1.131 1.150 1.208 1.323 1.449 1.533 1.582 1.606 1.614 1.615 1.610 1.595 1.570 1.550 1.543 1.543 1.546 1.554 1.567 1.577 1.583 1.585 1.586 1.585 1.585 1.588 1.596 1.608 1.622 1.638 1.652 1.658 1.658 1.650 1.632 1.612 1.603 1.603 1.609 1.626 1.647 1.663 1.675 1.685 1.692 1.695 1.698 1.700 1.700 1.700 1.699 1.697 1.698 1.698 1.696 1.694 1.694 1.692 1.686 1.678 1.669 1.663 1.661 1.661 1.662 1.665 1.670 1.677 1.686 1.692 1.696 1.699 1.701 1.701 1.701 1.700 1.698 1.697 1.697 1.697 1.698 1.700 1.704 1.709 1.712 1.712 1.708 1.696 1.680 1.665 1.650 1.636 1.624 1.619 1.613 1.607 1.605 1.604 1.607 1.614 1.625 1.642 1.662 1.677 1.687 1.692 1.692 1.691 1.687 1.677 1.657 1.629 1.579 1.512 1.417 1.322 1.259 1.090 0.000 
0.000 1.083 1.102 1.141 1.206 1.316 1.435 1.517 1.566 1.593 1.604 1.606 1.604 1.596 1.584 1.577 1.576 1.578 1.582 1.585 1.591 1.594 1.595 1.595 1.596 1.595 1.595 1.595 1.595 1.602 1.614 1.626 1.632 1.634 1.632 1.626 1.615 1.603 1.590 1.591 1.601 1.625 1.652 1.666 1.674 1.685 1.694 1.696 1.697 1.699 1.700 1.701 1.698 1.695 1.696 1.697 1.697 1.695 1.696 1.695 1.693 1.688 1.682 1.679 1.678 1.678 1.678 1.680 1.682 1.685 1.689 1.691 1.693 1.695 1.697 1.698 1.698 1.697 1.697 1.696 1.696 1.696 1.696 1.697 1.698 1.699 1.698 1.697 1.692 1.680 1.673 1.674 1.674 1.673 1.671 1.662 1.650 1.645 1.642 1.643 1.645 1.649 1.653 1.662 1.676 1.685 1.691 1.694 1.694 1.693 1.690 1.680 1.658 1.627 1.580 1.515 1.419 1.322 1.260 1.087 0.000 
0.000 1.066 1.050 1.100 1.183 1.303 1.416 1.494 1.543 1.572 1.587 1.593 1.595 1.593 1.590 1.591 1.593 1.596 1.599 1.600 1.601 1.601 1.599 1.598 1.598 1.599 1.601 1.603 1.602 1.604 1.612 1.619 1.618 1.616 1.612 1.608 1.604 1.601 1.582 1.582 1.586 1.593 1.610 1.637 1.664 1.682 1.696 1.697 1.697 1.700 1.700 1.700 1.696 1.694 1.694 1.695 1.695 1.694 1.696 1.696 1.696 1.695 1.691 1.687 1.687 1.688 1.687 1.685 1.686 1.687 1.689 1.690 1.692 1.693 1.695 1.698 1.697 1.697 1.697 1.697 1.696 1.696 1.696 1.696 1.696 1.696 1.695 1.693 1.689 1.687 1.687 1.687 1.686 1.685 1.682 1.676 1.671 1.668 1.668 1.674 1.674 1.674 1.675 1.681 1.688 1.691 1.694 1.695 1.695 1.694 1.692 1.684 1.657 1.627 1.583 1.516 1.419 1.315 1.241 1.060 0.000 
0.000 1.057 1.022 1.060 1.159 1.286 1.390 1.462 1.509 1.540 1.560 1.573 1.581 1.586 1.590 1.594 1.598 1.601 1.603 1.605 1.605 1.602 1.599 1.597 1.597 1.599 1.603 1.607 1.609 1.607 1.608 1.609 1.602 1.596 1.592 1.590 1.591 1.590 1.580 1.579 1.583 1.590 1.602 1.621 1.654 1.676 1.692 1.700 1.699 1.701 1.699 1.696 1.694 1.692 1.692 1.692 1.691 1.692 1.695 1.695 1.697 1.697 1.695 1.693 1.694 1.695 1.689 1.686 1.686 1.687 1.687 1.688 1.691 1.690 1.693 1.697 1.696 1.697 1.697 1.698 1.698 1.698 1.698 1.697 1.697 1.696 1.695 1.693 1.692 1.692 1.692 1.692 1.692 1.691 1.691 1.685 1.680 1.681 1.688 1.696 1.692 1.690 1.692 1.693 1.692 1.694 1.696 1.696 1.696 1.694 1.691 1.683 1.659 1.630 1.585 1.515 1.414 1.300 1.219 1.032 0.000 
0.000 1.078 1.061 1.063 1.156 1.277 1.371 1.435 1.479 1.507 1.528 1.547 1.563 1.575 1.585 1.594 1.600 1.603 1.605 1.606 1.604 1.599 1.594 1.591 1.591 1.594 1.601 1.607 1.609 1.606 1.603 1.597 1.584 1.575 1.571 1.571 1.572 1.573 1.576 1.582 1.592 1.606 1.620 1.631 1.657 1.673 1.686 1.702 1.698 1.693 1.692 1.691 1.689 1.688 1.689 1.688 1.687 1.689 1.691 1.694 1.696 1.697 1.697 1.697 1.698 1.697 1.689 1.684 1.683 1.683 1.683 1.684 1.686 1.686 1.690 1.694 1.695 1.696 1.697 1.698 1.698 1.699 1.699 1.698 1.698 1.697 1.696 1.695 1.695 1.696 1.696 1.696 1.695 1.694 1.691 1.685 1.684 1.692 1.701 1.703 1.700 1.699 1.697 1.694 1.694 1.695 1.696 1.696 1.695 1.693 1.690 1.681 1.662 1.631 1.585 1.510 1.403 1.282 1.198 1.011 0.000 
0.000 1.128 1.154 1.117 1.177 1.274 1.359 1.420 1.461 1.489 1.509 1.527 1.543 1.560 1.577 1.590 1.598 1.601 1.602 1.601 1.596 1.587 1.581 1.579 1.580 1.584 1.595 1.605 1.606 1.604 1.599 1.586 1.568 1.555 1.549 1.548 1.549 1.552 1.560 1.572 1.588 1.607 1.625 1.639 1.659 1.674 1.686 1.699 1.698 1.694 1.690 1.686 1.683 1.682 1.683 1.683 1.681 1.684 1.687 1.690 1.694 1.696 1.697 1.698 1.699 1.695 1.687 1.678 1.675 1.673 1.672 1.675 1.676 1.678 1.682 1.688 1.693 1.696 1.697 1.698 1.698 1.699 1.699 1.698 1.698 1.698 1.697 1.697 1.697 1.698 1.698 1.698 1.697 1.695 1.691 1.688 1.690 1.701 1.704 1.703 1.702 1.700 1.698 1.697 1.697 1.696 1.696 1.696 1.695 1.693 1.689 1.680 1.662 1.630 1.581 1.502 1.388 1.263 1.177 0.995 0.000 
0.000 1.182 1.245 1.211 1.234 1.285 1.354 1.413 1.453 1.480 1.498 1.513 1.528 1.544 1.564 1.580 1.589 1.592 1.592 1.587 1.576 1.564 1.557 1.557 1.559 1.565 1.585 1.598 1.600 1.599 1.592 1.577 1.554 1.534 1.523 1.518 1.519 1.523 1.533 1.550 1.573 1.600 1.621 1.641 1.659 1.674 1.687 1.693 1.695 1.693 1.689 1.683 1.678 1.675 1.675 1.674 1.675 1.680 1.682 1.685 1.690 1.694 1.696 1.697 1.696 1.690 1.682 1.670 1.661 1.655 1.654 1.658 1.658 1.662 1.670 1.681 1.690 1.694 1.696 1.697 1.698 1.698 1.698 1.698 1.698 1.698 1.697 1.698 1.698 1.698 1.699 1.699 1.698 1.697 1.695 1.695 1.697 1.702 1.706 1.705 1.702 1.700 1.699 1.699 1.699 1.700 1.699 1.698 1.697 1.695 1.689 1.678 1.659 1.626 1.573 1.490 1.369 1.242 1.156 0.980 0.000 
0.000 1.224 1.302 1.280 1.285 1.306 1.354 1.412 1.452 1.477 1.494 1.506 1.517 1.530 1.547 1.563 1.570 1.572 1.570 1.559 1.541 1.526 1.520 1.519 1.524 1.538 1.567 1.583 1.589 1.589 1.584 1.569 1.543 1.509 1.487 1.477 1.476 1.479 1.490 1.511 1.541 1.576 1.608 1.634 1.654 1.671 1.683 1.688 1.690 1.690 1.687 1.681 1.675 1.670 1.668 1.668 1.669 1.675 1.679 1.682 1.687 1.692 1.694 1.694 1.691 1.684 1.672 1.654 1.638 1.629 1.627 1.627 1.630 1.637 1.651 1.669 1.684 1.693 1.693 1.695 1.696 1.697 1.697 1.697 1.697 1.697 1.697 1.697 1.697 1.698 1.699 1.699 1.699 1.699 1.698 1.698 1.699 1.701 1.702 1.702 1.701 1.700 1.700 1.700 1.700 1.700 1.700 1.699 1.697 1.695 1.688 1.676 1.655 1.619 1.560 1.471 1.344 1.220 1.137 0.985 0.000 
0.000 1.241 1.314 1.306 1.306 1.322 1.361 1.414 1.453 1.478 1.494 1.504 1.512 1.519 1.529 1.539 1.542 1.540 1.531 1.513 1.487 1.471 1.466 1.467 1.477 1.501 1.539 1.566 1.578 1.580 1.577 1.562 1.531 1.482 1.441 1.419 1.412 1.413 1.421 1.443 1.478 1.524 1.572 1.611 1.642 1.663 1.675 1.681 1.684 1.684 1.682 1.678 1.673 1.668 1.664 1.662 1.664 1.670 1.676 1.683 1.689 1.692 1.692 1.690 1.686 1.676 1.659 1.635 1.613 1.600 1.595 1.595 1.600 1.611 1.631 1.656 1.678 1.688 1.688 1.692 1.694 1.694 1.694 1.694 1.694 1.694 1.694 1.695 1.696 1.697 1.698 1.699 1.699 1.699 1.699 1.699 1.699 1.700 1.701 1.701 1.700 1.700 1.700 1.700 1.700 1.700 1.700 1.699 1.697 1.693 1.686 1.673 1.649 1.610 1.546 1.451 1.318 1.198 1.122 1.013 0.000 
0.000 1.218 1.277 1.301 1.310 1.335 1.377 1.426 1.461 1.484 1.498 1.506 1.510 1.512 1.512 1.510 1.504 1.493 1.473 1.441 1.412 1.397 1.391 1.394 1.411 1.447 1.504 1.547 1.567 1.572 1.569 1.554 1.517 1.452 1.380 1.336 1.316 1.312 1.316 1.336 1.375 1.431 1.500 1.563 1.609 1.641 1.660 1.671 1.677 1.680 1.679 1.677 1.673 1.667 1.661 1.657 1.659 1.664 1.673 1.684 1.690 1.691 1.690 1.688 1.682 1.670 1.650 1.622 1.597 1.584 1.577 1.576 1.582 1.596 1.619 1.649 1.671 1.680 1.684 1.687 1.689 1.689 1.689 1.688 1.688 1.688 1.689 1.690 1.693 1.695 1.697 1.698 1.699 1.699 1.699 1.699 1.699 1.700 1.700 1.700 1.700 1.700 1.700 1.700 1.700 1.700 1.700 1.700 1.697 1.691 1.682 1.668 1.644 1.602 1.537 1.438 1.300 1.178 1.110 1.077 0.000 
0.000 1.161 1.205 1.263 1.300 1.348 1.402 1.448 1.479 1.499 1.509 1.513 1.513 1.509 1.498 1.481 1.458 1.430 1.391 1.345 1.311 1.294 1.289 1.295 1.320 1.375 1.458 1.522 1.552 1.561 1.560 1.543 1.499 1.416 1.305 1.222 1.179 1.165 1.167 1.183 1.222 1.288 1.377 1.473 1.547 1.598 1.633 1.654 1.666 1.674 1.680 1.679 1.672 1.664 1.657 1.653 1.654 1.659 1.669 1.681 1.687 1.688 1.688 1.686 1.679 1.667 1.647 1.618 1.591 1.576 1.570 1.569 1.575 1.590 1.614 1.645 1.665 1.675 1.678 1.682 1.682 1.681 1.679 1.677 1.677 1.677 1.678 1.681 1.686 1.691 1.694 1.696 1.698 1.699 1.699 1.699 1.699 1.699 1.699 1.699 1.700 1.700 1.700 1.700 1.700 1.701 1.700 1.698 1.694 1.688 1.679 1.664 1.638 1.597 1.531 1.432 1.292 1.166 1.098 1.069 0.000 
0.000 1.102 1.136 1.197 1.274 1.361 1.432 1.481 1.509 1.523 1.529 1.529 1.524 1.511 1.486 1.449 1.404 1.349 1.281 1.216 1.175 1.156 1.153 1.164 1.201 1.280 1.398 1.488 1.534 1.549 1.548 1.531 1.480 1.384 1.235 1.091 1.006 0.970 0.961 0.968 1.002 1.075 1.191 1.332 1.448 1.531 1.590 1.627 1.650 1.665 1.673 1.673 1.668 1.660 1.652 1.649 1.649 1.652 1.661 1.673 1.681 1.684 1.685 1.683 1.678 1.668 1.648 1.617 1.589 1.575 1.569 1.569 1.574 1.588 1.614 1.644 1.662 1.670 1.673 1.675 1.674 1.669 1.662 1.659 1.658 1.658 1.660 1.664 1.673 1.682 1.689 1.693 1.695 1.697 1.698 1.698 1.698 1.698 1.698 1.698 1.698 1.698 1.699 1.699 1.699 1.697 1.693 1.690 1.688 1.684 1.675 1.659 1.633 1.592 1.527 1.430 1.292 1.161 1.088 1.062 0.000 
0.000 1.071 1.103 1.150 1.250 1.367 1.456 1.513 1.543 1.554 1.557 1.554 1.543 1.516 1.474 1.415 1.341 1.248 1.141 1.056 1.006 0.988 0.987 1.005 1.063 1.176 1.336 1.450 1.511 1.536 1.538 1.521 1.468 1.361 1.189 0.992 0.854 0.779 0.751 0.749 0.771 0.837 0.960 1.129 1.302 1.433 1.528 1.591 1.628 1.650 1.660 1.663 1.664 1.653 1.645 1.642 1.640 1.642 1.649 1.662 1.673 1.679 1.681 1.680 1.677 1.668 1.648 1.618 1.592 1.578 1.572 1.572 1.577 1.591 1.618 1.645 1.659 1.666 1.668 1.667 1.661 1.648 1.635 1.629 1.627 1.627 1.630 1.637 1.650 1.667 1.678 1.685 1.690 1.693 1.695 1.696 1.697 1.697 1.697 1.696 1.695 1.696 1.697 1.697 1.696 1.693 1.690 1.688 1.686 1.680 1.670 1.653 1.627 1.588 1.525 1.433 1.300 1.164 1.083 1.059 0.000 
0.000 1.065 1.099 1.134 1.238 1.373 1.473 1.535 1.567 1.579 1.581 1.576 1.557 1.519 1.460 1.378 1.271 1.132 0.993 0.898 0.849 0.834 0.837 0.868 0.948 1.097 1.290 1.425 1.498 1.524 1.528 1.512 1.457 1.345 1.160 0.924 0.745 0.639 0.591 0.580 0.589 0.635 0.734 0.894 1.105 1.301 1.442 1.537 1.596 1.626 1.645 1.653 1.654 1.641 1.633 1.628 1.627 1.628 1.634 1.648 1.663 1.673 1.678 1.679 1.677 1.669 1.652 1.625 1.601 1.588 1.583 1.583 1.588 1.600 1.625 1.646 1.658 1.663 1.662 1.656 1.642 1.618 1.595 1.583 1.579 1.579 1.583 1.593 1.612 1.635 1.656 1.673 1.683 1.687 1.690 1.692 1.693 1.694 1.695 1.696 1.696 1.696 1.696 1.695 1.694 1.691 1.689 1.686 1.681 1.673 1.661 1.644 1.619 1.582 1.525 1.441 1.319 1.187 1.099 1.074 0.000 
0.000 1.060 1.095 1.129 1.230 1.376 1.485 1.550 1.582 1.593 1.594 1.587 1.562 1.516 1.442 1.337 1.196 1.019 0.867 0.768 0.721 0.710 0.717 0.759 0.862 1.041 1.257 1.405 1.483 1.514 1.519 1.504 1.448 1.332 1.139 0.878 0.669 0.540 0.476 0.457 0.460 0.492 0.574 0.719 0.931 1.169 1.349 1.474 1.554 1.597 1.627 1.639 1.637 1.628 1.620 1.615 1.615 1.616 1.622 1.637 1.656 1.667 1.676 1.678 1.678 1.672 1.660 1.639 1.619 1.609 1.606 1.606 1.610 1.620 1.639 1.654 1.660 1.660 1.654 1.641 1.614 1.574 1.538 1.517 1.510 1.509 1.514 1.528 1.554 1.593 1.632 1.657 1.670 1.678 1.682 1.685 1.688 1.690 1.692 1.695 1.696 1.695 1.694 1.692 1.690 1.688 1.685 1.680 1.672 1.661 1.647 1.630 1.608 1.575 1.528 1.456 1.353 1.236 1.153 1.120 0.000 
0.000 1.022 1.050 1.111 1.222 1.379 1.492 1.558 1.590 1.600 1.600 1.590 1.562 1.507 1.419 1.290 1.117 0.913 0.755 0.658 0.615 0.607 0.618 0.672 0.795 1.000 1.233 1.389 1.473 1.506 1.510 1.495 1.438 1.319 1.119 0.845 0.617 0.473 0.400 0.377 0.377 0.402 0.473 0.608 0.817 1.075 1.280 1.420 1.510 1.567 1.601 1.616 1.619 1.615 1.611 1.609 1.607 1.608 1.614 1.629 1.650 1.664 1.675 1.680 1.680 1.678 1.672 1.660 1.647 1.640 1.638 1.638 1.641 1.648 1.657 1.664 1.665 1.657 1.643 1.620 1.577 1.518 1.471 1.444 1.432 1.429 1.433 1.448 1.480 1.534 1.591 1.625 1.648 1.662 1.669 1.674 1.678 1.681 1.685 1.689 1.691 1.691 1.690 1.687 1.685 1.682 1.678 1.669 1.656 1.642 1.627 1.611 1.593 1.569 1.534 1.481 1.402 1.308 1.237 1.191 0.000 
0.000 0.977 0.998 1.064 1.213 1.382 1.496 1.562 1.592 1.601 1.600 1.589 1.556 1.492 1.388 1.238 1.032 0.811 0.651 0.558 0.520 0.515 0.532 0.598 0.739 0.967 1.213 1.374 1.462 1.496 1.500 1.485 1.427 1.305 1.100 0.816 0.579 0.432 0.357 0.332 0.332 0.353 0.419 0.549 0.754 1.018 1.229 1.378 1.479 1.542 1.578 1.598 1.610 1.606 1.606 1.606 1.603 1.604 1.610 1.623 1.644 1.663 1.675 1.681 1.683 1.683 1.681 1.675 1.668 1.663 1.661 1.662 1.663 1.666 1.669 1.669 1.667 1.652 1.629 1.596 1.534 1.469 1.421 1.391 1.378 1.375 1.378 1.390 1.421 1.471 1.537 1.586 1.619 1.638 1.649 1.656 1.661 1.666 1.672 1.679 1.685 1.687 1.686 1.683 1.680 1.677 1.670 1.654 1.634 1.618 1.605 1.594 1.582 1.566 1.546 1.514 1.466 1.402 1.335 1.283 0.000 
0.000 1.006 1.037 1.059 1.213 1.386 1.500 1.563 1.591 1.599 1.597 1.581 1.539 1.462 1.340 1.165 0.931 0.704 0.549 0.463 0.431 0.429 0.453 0.533 0.690 0.938 1.192 1.357 1.448 1.483 1.488 1.472 1.413 1.288 1.077 0.787 0.553 0.410 0.337 0.314 0.314 0.334 0.399 0.527 0.729 0.988 1.202 1.357 1.463 1.528 1.566 1.591 1.604 1.602 1.603 1.604 1.601 1.602 1.607 1.619 1.639 1.660 1.674 1.681 1.684 1.685 1.685 1.684 1.680 1.677 1.675 1.675 1.676 1.676 1.675 1.672 1.663 1.644 1.614 1.572 1.499 1.438 1.390 1.362 1.349 1.346 1.348 1.360 1.388 1.435 1.495 1.545 1.581 1.605 1.619 1.628 1.635 1.642 1.650 1.662 1.674 1.681 1.683 1.683 1.681 1.674 1.662 1.639 1.617 1.600 1.590 1.582 1.576 1.570 1.564 1.551 1.530 1.498 1.447 1.405 0.000 
0.000 1.079 1.129 1.113 1.227 1.394 1.504 1.563 1.587 1.592 1.587 1.562 1.506 1.408 1.262 1.060 0.806 0.588 0.444 0.369 0.346 0.348 0.382 0.473 0.643 0.905 1.167 1.337 1.429 1.465 1.469 1.452 1.391 1.262 1.045 0.758 0.537 0.402 0.333 0.311 0.311 0.332 0.397 0.525 0.725 0.982 1.196 1.352 1.458 1.524 1.563 1.590 1.600 1.600 1.601 1.601 1.599 1.600 1.603 1.614 1.632 1.654 1.670 1.679 1.683 1.685 1.687 1.687 1.686 1.684 1.682 1.680 1.679 1.681 1.679 1.671 1.657 1.633 1.597 1.545 1.478 1.423 1.379 1.352 1.340 1.337 1.339 1.350 1.376 1.420 1.472 1.512 1.540 1.562 1.577 1.588 1.597 1.604 1.617 1.636 1.657 1.670 1.678 1.682 1.680 1.671 1.656 1.630 1.606 1.590 1.581 1.576 1.574 1.574 1.578 1.580 1.584 1.582 1.564 1.541 0.000 
0.000 1.127 1.189 1.191 1.273 1.413 1.510 1.560 1.577 1.578 1.566 1.527 1.447 1.322 1.143 0.907 0.652 0.459 0.337 0.280 0.268 0.278 0.322 0.421 0.597 0.866 1.133 1.306 1.399 1.435 1.440 1.422 1.359 1.227 1.011 0.737 0.532 0.403 0.338 0.317 0.318 0.341 0.408 0.536 0.734 0.986 1.198 1.353 1.460 1.527 1.566 1.589 1.598 1.600 1.600 1.598 1.596 1.596 1.599 1.606 1.621 1.642 1.660 1.673 1.680 1.682 1.686 1.687 1.688 1.687 1.686 1.682 1.674 1.676 1.679 1.668 1.648 1.616 1.574 1.524 1.470 1.418 1.377 1.352 1.340 1.337 1.339 1.350 1.376 1.418 1.464 1.493 1.509 1.518 1.525 1.534 1.542 1.551 1.569 1.600 1.633 1.656 1.669 1.674 1.673 1.667 1.650 1.625 1.601 1.585 1.577 1.575 1.575 1.578 1.588 1.602 1.623 1.642 1.653 1.646 0.000 
0.000 1.149 1.219 1.239 1.324 1.442 1.518 1.552 1.561 1.556 1.531 1.468 1.356 1.193 0.971 0.713 0.483 0.328 0.240 0.207 0.204 0.223 0.275 0.378 0.554 0.820 1.092 1.270 1.367 1.405 1.410 1.393 1.331 1.201 0.990 0.730 0.537 0.419 0.362 0.344 0.347 0.374 0.445 0.576 0.769 1.008 1.211 1.366 1.477 1.546 1.581 1.594 1.599 1.599 1.598 1.595 1.590 1.587 1.587 1.592 1.602 1.619 1.640 1.658 1.669 1.676 1.684 1.686 1.687 1.687 1.686 1.683 1.678 1.678 1.677 1.665 1.638 1.606 1.566 1.519 1.467 1.419 1.382 1.359 1.349 1.347 1.349 1.360 1.385 1.425 1.465 1.487 1.492 1.488 1.481 1.479 1.482 1.491 1.513 1.552 1.602 1.635 1.654 1.660 1.661 1.657 1.642 1.621 1.596 1.582 1.576 1.575 1.576 1.582 1.595 1.617 1.647 1.674 1.691 1.691 0.000 
0.000 1.167 1.243 1.269 1.360 1.460 1.520 1.543 1.544 1.529 1.482 1.390 1.244 1.040 0.787 0.546 0.357 0.236 0.177 0.158 0.160 0.186 0.243 0.347 0.520 0.783 1.061 1.247 1.347 1.386 1.392 1.376 1.317 1.191 0.983 0.738 0.564 0.463 0.417 0.406 0.412 0.446 0.524 0.657 0.842 1.055 1.245 1.404 1.514 1.582 1.606 1.607 1.602 1.599 1.595 1.589 1.578 1.567 1.562 1.562 1.567 1.580 1.601 1.627 1.647 1.664 1.676 1.680 1.684 1.686 1.685 1.683 1.680 1.678 1.676 1.665 1.635 1.603 1.563 1.518 1.471 1.430 1.399 1.381 1.374 1.373 1.377 1.389 1.415 1.449 1.476 1.487 1.486 1.473 1.451 1.440 1.439 1.445 1.465 1.505 1.563 1.608 1.632 1.643 1.645 1.643 1.633 1.617 1.593 1.580 1.575 1.575 1.578 1.586 1.602 1.625 1.657 1.684 1.698 1.699 0.000 
0.000 1.187 1.266 1.294 1.384 1.469 1.516 1.536 1.532 1.507 1.445 1.334 1.162 0.929 0.665 0.446 0.287 0.192 0.147 0.133 0.137 0.166 0.224 0.327 0.500 0.760 1.043 1.237 1.341 1.378 1.382 1.368 1.312 1.191 0.987 0.769 0.626 0.550 0.521 0.517 0.528 0.569 0.653 0.786 0.956 1.131 1.301 1.448 1.543 1.599 1.614 1.611 1.604 1.596 1.587 1.573 1.552 1.526 1.512 1.507 1.508 1.516 1.536 1.572 1.612 1.639 1.656 1.667 1.675 1.680 1.681 1.681 1.680 1.678 1.676 1.665 1.638 1.605 1.567 1.524 1.486 1.455 1.433 1.421 1.417 1.418 1.425 1.441 1.463 1.478 1.483 1.488 1.484 1.468 1.436 1.415 1.410 1.414 1.430 1.465 1.522 1.574 1.605 1.620 1.625 1.625 1.620 1.605 1.586 1.576 1.574 1.574 1.579 1.589 1.605 1.628 1.658 1.685 1.700 1.700 0.000 
0.000 1.210 1.290 1.316 1.398 1.473 1.512 1.528 1.522 1.493 1.426 1.304 1.118 0.866 0.608 0.410 0.268 0.180 0.138 0.126 0.131 0.157 0.214 0.318 0.491 0.751 1.037 1.234 1.343 1.378 1.379 1.366 1.316 1.202 1.014 0.840 0.739 0.699 0.691 0.696 0.708 0.749 0.833 0.959 1.097 1.222 1.344 1.455 1.534 1.579 1.605 1.611 1.603 1.587 1.569 1.544 1.504 1.455 1.424 1.412 1.410 1.416 1.438 1.483 1.546 1.593 1.623 1.642 1.655 1.664 1.670 1.673 1.675 1.675 1.672 1.663 1.645 1.617 1.585 1.547 1.520 1.497 1.481 1.474 1.473 1.476 1.485 1.498 1.510 1.512 1.508 1.508 1.495 1.471 1.432 1.402 1.391 1.391 1.401 1.428 1.479 1.533 1.571 1.591 1.599 1.602 1.599 1.589 1.576 1.570 1.569 1.571 1.578 1.590 1.606 1.626 1.651 1.680 1.699 1.699 0.000 
0.000 1.224 1.300 1.328 1.403 1.474 1.510 1.519 1.515 1.487 1.419 1.293 1.103 0.849 0.593 0.401 0.267 0.183 0.140 0.127 0.131 0.155 0.211 0.316 0.490 0.749 1.036 1.236 1.347 1.384 1.382 1.374 1.334 1.237 1.083 0.968 0.919 0.914 0.924 0.931 0.941 0.970 1.034 1.133 1.229 1.304 1.368 1.427 1.478 1.522 1.560 1.589 1.587 1.566 1.538 1.497 1.432 1.351 1.299 1.278 1.275 1.281 1.308 1.366 1.452 1.521 1.567 1.597 1.619 1.634 1.646 1.656 1.663 1.668 1.668 1.665 1.656 1.642 1.619 1.590 1.570 1.554 1.543 1.537 1.534 1.532 1.535 1.543 1.550 1.551 1.549 1.542 1.522 1.486 1.437 1.398 1.377 1.371 1.374 1.392 1.432 1.483 1.525 1.550 1.563 1.569 1.569 1.565 1.560 1.558 1.560 1.566 1.577 1.590 1.603 1.617 1.632 1.657 1.691 1.687 0.000 
0.000 1.208 1.273 1.322 1.401 1.472 1.507 1.516 1.512 1.486 1.418 1.294 1.106 0.851 0.595 0.404 0.273 0.193 0.151 0.137 0.139 0.159 0.214 0.319 0.493 0.753 1.040 1.240 1.352 1.394 1.404 1.402 1.376 1.307 1.206 1.151 1.136 1.136 1.141 1.147 1.152 1.167 1.215 1.292 1.351 1.385 1.402 1.411 1.412 1.419 1.446 1.507 1.524 1.522 1.503 1.460 1.382 1.279 1.210 1.179 1.173 1.178 1.208 1.275 1.376 1.457 1.509 1.543 1.567 1.587 1.606 1.624 1.641 1.656 1.665 1.669 1.668 1.661 1.640 1.611 1.601 1.606 1.611 1.608 1.595 1.581 1.577 1.579 1.583 1.585 1.585 1.577 1.556 1.516 1.458 1.404 1.369 1.351 1.346 1.354 1.378 1.419 1.459 1.487 1.507 1.519 1.525 1.529 1.532 1.537 1.546 1.560 1.574 1.585 1.591 1.594 1.592 1.599 1.632 1.601 0.000 
0.000 1.158 1.206 1.284 1.383 1.463 1.503 1.515 1.513 1.489 1.426 1.309 1.126 0.876 0.621 0.430 0.298 0.216 0.174 0.159 0.160 0.177 0.229 0.333 0.508 0.769 1.054 1.250 1.358 1.416 1.448 1.454 1.444 1.409 1.348 1.311 1.301 1.300 1.301 1.307 1.315 1.340 1.396 1.449 1.474 1.479 1.465 1.436 1.392 1.377 1.392 1.446 1.482 1.492 1.483 1.443 1.362 1.252 1.173 1.133 1.122 1.125 1.156 1.228 1.338 1.428 1.483 1.516 1.537 1.554 1.569 1.587 1.609 1.635 1.659 1.674 1.679 1.663 1.620 1.597 1.605 1.648 1.679 1.676 1.650 1.622 1.611 1.609 1.610 1.611 1.610 1.603 1.584 1.549 1.492 1.423 1.365 1.328 1.311 1.306 1.315 1.336 1.368 1.399 1.424 1.446 1.464 1.480 1.497 1.517 1.538 1.556 1.567 1.572 1.569 1.554 1.514 1.461 1.435 1.313 0.000 
0.000 1.100 1.133 1.211 1.337 1.442 1.498 1.517 1.517 1.499 1.445 1.341 1.175 0.944 0.694 0.497 0.356 0.266 0.219 0.202 0.202 0.216 0.265 0.367 0.540 0.801 1.084 1.271 1.372 1.444 1.492 1.504 1.502 1.485 1.445 1.410 1.396 1.390 1.385 1.389 1.428 1.514 1.591 1.626 1.630 1.606 1.518 1.449 1.407 1.398 1.405 1.438 1.477 1.488 1.478 1.438 1.360 1.255 1.171 1.123 1.107 1.109 1.138 1.212 1.330 1.424 1.480 1.513 1.532 1.545 1.556 1.569 1.587 1.616 1.649 1.673 1.684 1.642 1.546 1.525 1.562 1.654 1.721 1.719 1.687 1.656 1.639 1.632 1.630 1.629 1.626 1.618 1.601 1.568 1.517 1.444 1.364 1.301 1.261 1.240 1.232 1.232 1.246 1.273 1.309 1.351 1.395 1.435 1.472 1.508 1.535 1.551 1.557 1.556 1.542 1.503 1.421 1.275 1.152 0.902 0.000 
0.000 1.066 1.094 1.152 1.289 1.421 1.495 1.524 1.529 1.518 1.479 1.398 1.261 1.066 0.830 0.621 0.464 0.359 0.300 0.277 0.274 0.286 0.330 0.427 0.596 0.854 1.129 1.298 1.396 1.472 1.524 1.538 1.539 1.527 1.497 1.462 1.435 1.412 1.403 1.420 1.509 1.705 1.850 1.879 1.877 1.793 1.560 1.458 1.444 1.452 1.470 1.488 1.497 1.496 1.480 1.437 1.371 1.295 1.212 1.138 1.110 1.111 1.138 1.213 1.339 1.442 1.501 1.531 1.546 1.553 1.559 1.566 1.581 1.608 1.642 1.667 1.674 1.637 1.552 1.513 1.488 1.514 1.600 1.683 1.698 1.679 1.660 1.648 1.643 1.638 1.633 1.625 1.607 1.576 1.526 1.453 1.358 1.265 1.197 1.154 1.133 1.130 1.138 1.162 1.206 1.271 1.347 1.409 1.461 1.506 1.535 1.548 1.551 1.545 1.522 1.464 1.358 1.172 0.992 0.666 0.000 
0.000 1.061 1.089 1.131 1.266 1.411 1.497 1.537 1.549 1.548 1.529 1.478 1.383 1.235 1.033 0.815 0.634 0.506 0.430 0.395 0.388 0.396 0.433 0.522 0.681 0.926 1.181 1.339 1.441 1.509 1.550 1.561 1.560 1.546 1.513 1.476 1.439 1.408 1.402 1.433 1.551 1.830 2.149 2.246 2.210 2.011 1.644 1.503 1.494 1.508 1.520 1.520 1.519 1.512 1.488 1.434 1.382 1.347 1.296 1.199 1.137 1.129 1.153 1.233 1.378 1.513 1.581 1.606 1.611 1.604 1.585 1.579 1.586 1.609 1.638 1.655 1.657 1.639 1.589 1.533 1.469 1.409 1.406 1.522 1.666 1.691 1.673 1.659 1.650 1.643 1.636 1.626 1.608 1.578 1.528 1.454 1.347 1.227 1.139 1.086 1.063 1.058 1.067 1.094 1.148 1.231 1.326 1.402 1.463 1.509 1.537 1.549 1.550 1.539 1.507 1.435 1.308 1.119 0.958 0.614 0.000 
0.000 1.066 1.098 1.131 1.257 1.408 1.504 1.556 1.578 1.584 1.578 1.551 1.493 1.396 1.256 1.071 0.873 0.716 0.618 0.568 0.553 0.556 0.584 0.659 0.800 1.020 1.249 1.407 1.501 1.550 1.573 1.579 1.574 1.551 1.511 1.456 1.412 1.396 1.399 1.433 1.547 1.820 2.251 2.451 2.396 2.103 1.714 1.551 1.525 1.522 1.523 1.526 1.525 1.516 1.488 1.419 1.360 1.346 1.321 1.244 1.183 1.166 1.185 1.253 1.401 1.608 1.722 1.761 1.763 1.731 1.666 1.623 1.611 1.620 1.639 1.652 1.654 1.646 1.621 1.572 1.498 1.441 1.428 1.505 1.663 1.688 1.677 1.665 1.654 1.645 1.635 1.624 1.606 1.576 1.527 1.449 1.335 1.197 1.098 1.040 1.017 1.015 1.027 1.063 1.129 1.222 1.323 1.406 1.472 1.519 1.546 1.556 1.555 1.542 1.501 1.408 1.251 1.069 0.951 0.604 0.000 
0.000 1.074 1.110 1.140 1.259 1.414 1.519 1.579 1.608 1.618 1.617 1.605 1.573 1.514 1.425 1.304 1.149 0.989 0.871 0.805 0.779 0.777 0.794 0.850 0.962 1.143 1.341 1.476 1.552 1.588 1.598 1.596 1.580 1.545 1.492 1.422 1.371 1.355 1.360 1.388 1.449 1.589 1.938 2.272 2.336 2.099 1.719 1.554 1.515 1.509 1.517 1.525 1.524 1.508 1.463 1.366 1.279 1.269 1.288 1.259 1.227 1.214 1.200 1.223 1.345 1.601 1.749 1.808 1.820 1.808 1.767 1.716 1.670 1.651 1.649 1.654 1.657 1.656 1.646 1.618 1.568 1.529 1.550 1.605 1.668 1.681 1.677 1.668 1.656 1.643 1.630 1.615 1.596 1.569 1.521 1.445 1.329 1.177 1.066 1.008 0.988 0.990 1.011 1.058 1.131 1.228 1.334 1.424 1.494 1.540 1.565 1.572 1.570 1.554 1.505 1.394 1.200 1.001 0.904 0.564 0.000 
0.000 1.082 1.122 1.154 1.278 1.436 1.543 1.606 1.637 1.648 1.649 1.644 1.629 1.597 1.545 1.473 1.381 1.269 1.171 1.109 1.078 1.070 1.076 1.107 1.180 1.308 1.459 1.562 1.613 1.629 1.627 1.611 1.576 1.523 1.455 1.378 1.310 1.267 1.245 1.228 1.181 1.069 1.084 1.317 1.612 1.743 1.594 1.492 1.466 1.470 1.496 1.518 1.521 1.507 1.460 1.364 1.293 1.284 1.298 1.303 1.300 1.282 1.230 1.160 1.153 1.269 1.363 1.430 1.509 1.631 1.780 1.791 1.742 1.690 1.669 1.661 1.667 1.669 1.666 1.654 1.628 1.610 1.636 1.671 1.683 1.681 1.678 1.671 1.657 1.637 1.613 1.595 1.578 1.557 1.515 1.447 1.331 1.165 1.038 0.979 0.965 0.974 1.012 1.076 1.161 1.262 1.372 1.465 1.533 1.576 1.596 1.601 1.596 1.574 1.517 1.397 1.176 0.897 0.745 0.430 0.000 
0.000 1.093 1.137 1.176 1.325 1.483 1.583 1.638 1.665 1.673 1.673 1.673 1.666 1.651 1.627 1.591 1.545 1.485 1.427 1.390 1.369 1.363 1.365 1.380 1.419 1.491 1.582 1.643 1.668 1.670 1.658 1.621 1.558 1.473 1.394 1.315 1.228 1.159 1.118 1.085 1.000 0.776 0.591 0.566 0.731 1.068 1.257 1.308 1.343 1.386 1.448 1.503 1.526 1.527 1.502 1.451 1.433 1.435 1.432 1.432 1.425 1.389 1.297 1.165 1.086 1.051 1.043 1.043 1.070 1.194 1.533 1.768 1.760 1.706 1.681 1.676 1.682 1.684 1.683 1.678 1.666 1.663 1.674 1.687 1.689 1.687 1.683 1.675 1.657 1.622 1.578 1.556 1.548 1.542 1.519 1.462 1.348 1.162 1.004 0.942 0.935 0.966 1.048 1.144 1.239 1.342 1.447 1.533 1.593 1.627 1.642 1.644 1.637 1.612 1.552 1.428 1.194 0.809 0.515 0.241 0.000 
0.000 1.106 1.155 1.218 1.415 1.563 1.642 1.676 1.688 1.691 1.691 1.692 1.690 1.685 1.677 1.666 1.650 1.629 1.604 1.583 1.570 1.566 1.567 1.573 1.591 1.622 1.663 1.689 1.697 1.695 1.679 1.623 1.521 1.385 1.273 1.194 1.127 1.067 1.008 0.948 0.860 0.690 0.546 0.512 0.567 0.786 0.966 1.053 1.137 1.239 1.358 1.467 1.540 1.575 1.581 1.563 1.553 1.581 1.599 1.600 1.586 1.533 1.405 1.242 1.161 1.143 1.153 1.132 1.088 1.112 1.281 1.569 1.691 1.698 1.690 1.693 1.694 1.695 1.694 1.693 1.690 1.688 1.694 1.696 1.696 1.694 1.693 1.684 1.660 1.599 1.508 1.475 1.488 1.527 1.541 1.507 1.400 1.194 0.959 0.859 0.868 0.974 1.160 1.293 1.380 1.457 1.534 1.600 1.647 1.672 1.680 1.681 1.679 1.666 1.624 1.514 1.274 0.820 0.385 0.133 0.000 
0.000 1.121 1.174 1.311 1.480 1.613 1.678 1.697 1.700 1.700 1.700 1.700 1.700 1.700 1.700 1.700 1.700 1.699 1.693 1.683 1.675 1.672 1.672 1.673 1.679 1.689 1.697 1.700 1.700 1.698 1.685 1.626 1.493 1.322 1.186 1.117 1.080 1.021 0.932 0.845 0.795 0.778 0.774 0.773 0.776 0.789 0.818 0.870 0.953 1.062 1.194 1.349 1.507 1.619 1.652 1.637 1.627 1.642 1.669 1.689 1.687 1.634 1.503 1.340 1.259 1.320 1.425 1.444 1.354 1.269 1.305 1.449 1.598 1.675 1.697 1.700 1.700 1.700 1.700 1.700 1.700 1.700 1.700 1.700 1.700 1.700 1.699 1.691 1.654 1.563 1.435 1.353 1.389 1.506 1.600 1.602 1.497 1.270 0.954 0.719 0.740 0.997 1.283 1.449 1.508 1.538 1.582 1.635 1.676 1.695 1.699 1.700 1.700 1.700 1.697 1.659 1.448 0.934 0.357 0.109 0.000 
0.000 1.133 1.190 1.332 1.500 1.624 1.682 1.698 1.700 1.700 1.700 1.700 1.700 1.700 1.700 1.700 1.700 1.700 1.700 1.699 1.698 1.698 1.698 1.698 1.699 1.699 1.700 1.700 1.700 1.698 1.680 1.614 1.475 1.305 1.176 1.112 1.071 1.000 0.893 0.793 0.739 0.722 0.719 0.719 0.720 0.723 0.735 0.771 0.850 0.972 1.126 1.307 1.489 1.622 1.677 1.683 1.682 1.686 1.693 1.697 1.687 1.628 1.489 1.330 1.271 1.359 1.479 1.488 1.378 1.282 1.321 1.469 1.613 1.682 1.698 1.700 1.700 1.700 1.700 1.700 1.700 1.700 1.700 1.700 1.700 1.700 1.699 1.688 1.643 1.534 1.389 1.305 1.357 1.498 1.619 1.651 1.572 1.344 1.006 0.763 0.811 1.109 1.423 1.595 1.649 1.662 1.673 1.685 1.695 1.699 1.700 1.700 1.700 1.700 1.697 1.659 1.449 0.935 0.357 0.107 0.000 
0.000 0.000 0.000 0.000 0.000 0.000 0.000 0.000 0.000 0.000 0.000 0.000 0.000 0.000 0.000 0.000 0.000 0.000 0.000 0.000 0.000 0.000 0.000 0.000 0.000 0.000 0.000 0.000 0.000 0.000 0.000 0.000 0.000 0.000 0.000 0.000 0.000 0.000 0.000 0.000 0.000 0.000 0.000 0.000 0.000 0.000 0.000 0.000 0.000 0.000 0.000 0.000 0.000 0.000 0.000 0.000 0.000 0.000 0.000 0.000 0.000 0.000 0.000 0.000 0.000 0.000 0.000 0.000 0.000 0.000 0.000 0.000 0.000 0.000 0.000 0.000 0.000 0.000 0.000 0.000 0.000 0.000 0.000 0.000 0.000 0.000 0.000 0.000 0.000 0.000 0.000 0.000 0.000 0.000 0.000 0.000 0.000 0.000 0.000 0.000 0.000 0.000 0.000 0.000 0.000 0.000 0.000 0.000 0.000 0.000 0.000 0.000 0.000 0.000 0.000 0.000 0.000 0.000 0.000 0.000 0.000 
