ncols 121
nrows 121
xllcenter 614385.88
yllcenter 1276940.75
cellsize 92.28
NODATA_value -9999.000
0.000 0.000 0.005 0.065 0.322 0.733 0.978 1.032 1.036 1.036 1.036 1.036 1.036 1.036 1.036 1.036 1.036 1.036 1.036 1.036 1.036 1.036 1.036 1.036 1.036 1.036 1.036 1.036 1.036 1.036 1.036 1.036 1.036 1.036 1.036 1.036 1.036 1.036 1.036 1.036 1.036 1.035 1.035 1.036 1.036 1.036 1.036 1.036 1.036 1.036 1.036 1.036 1.036 1.036 1.035 1.035 1.035 1.036 1.036 1.036 1.036 1.036 1.035 1.018 0.943 0.829 0.826 0.939 1.017 1.035 1.036 1.036 1.036 1.036 1.036 1.036 1.038 1.048 1.070 1.093 1.083 0.983 0.846 0.848 0.956 1.022 1.035 1.036 1.036 1.036 1.036 1.036 1.036 1.036 1.036 1.036 1.036 1.036 1.036 1.036 1.036 1.036 1.036 1.036 1.036 1.034 1.008 0.904 0.795 0.848 0.934 0.918 0.861 0.848 0.896 0.967 1.014 1.032 1.035 1.017 0.000 
0.000 0.000 0.005 0.066 0.328 0.746 0.995 1.050 1.055 1.055 1.055 1.056 1.056 1.056 1.056 1.056 1.056 1.056 1.056 1.057 1.057 1.057 1.057 1.057 1.057 1.057 1.057 1.058 1.058 1.058 1.058 1.058 1.058 1.058 1.059 1.059 1.059 1.059 1.058 1.056 1.052 1.050 1.051 1.054 1.057 1.059 1.060 1.060 1.060 1.061 1.061 1.060 1.059 1.056 1.053 1.051 1.053 1.057 1.059 1.060 1.060 1.061 1.061 1.052 1.009 0.944 0.942 1.007 1.052 1.062 1.063 1.063 1.063 1.063 1.060 1.056 1.055 1.067 1.100 1.138 1.143 1.079 0.986 0.972 1.024 1.057 1.065 1.065 1.065 1.066 1.066 1.066 1.066 1.066 1.066 1.066 1.066 1.067 1.067 1.067 1.067 1.067 1.067 1.067 1.067 1.067 1.054 1.004 0.950 0.962 0.962 0.882 0.789 0.779 0.862 0.970 1.036 1.056 1.057 1.017 0.000 
0.000 0.000 0.008 0.081 0.364 0.800 1.056 1.112 1.117 1.117 1.117 1.118 1.118 1.119 1.119 1.119 1.119 1.120 1.120 1.120 1.121 1.121 1.121 1.122 1.122 1.122 1.123 1.123 1.124 1.124 1.124 1.125 1.125 1.125 1.126 1.126 1.126 1.125 1.120 1.106 1.085 1.070 1.074 1.094 1.114 1.125 1.129 1.130 1.130 1.130 1.130 1.128 1.119 1.101 1.079 1.070 1.082 1.103 1.115 1.112 1.112 1.124 1.132 1.132 1.120 1.101 1.101 1.120 1.133 1.136 1.137 1.137 1.137 1.132 1.117 1.086 1.057 1.058 1.101 1.160 1.194 1.179 1.140 1.124 1.132 1.140 1.142 1.142 1.143 1.143 1.143 1.144 1.144 1.144 1.144 1.145 1.145 1.145 1.146 1.146 1.147 1.147 1.147 1.148 1.148 1.148 1.146 1.135 1.119 1.100 1.031 0.899 0.783 0.784 0.899 1.030 1.094 1.099 1.088 1.016 0.000 
0.000 0.002 0.022 0.383 0.856 1.185 1.299 1.319 1.319 1.319 1.320 1.322 1.323 1.324 1.325 1.326 1.326 1.327 1.328 1.328 1.329 1.330 1.330 1.331 1.332 1.333 1.333 1.334 1.335 1.336 1.337 1.337 1.338 1.339 1.340 1.340 1.337 1.322 1.275 1.187 1.155 1.147 1.149 1.248 1.313 1.340 1.347 1.349 1.349 1.349 1.343 1.317 1.252 1.168 1.149 1.143 1.186 1.248 1.238 1.222 1.243 1.320 1.353 1.360 1.361 1.362 1.363 1.363 1.363 1.364 1.365 1.364 1.352 1.305 1.208 1.123 1.096 1.093 1.114 1.159 1.192 1.281 1.340 1.366 1.373 1.375 1.376 1.377 1.377 1.378 1.378 1.377 1.376 1.376 1.376 1.377 1.377 1.378 1.379 1.382 1.384 1.386 1.387 1.388 1.389 1.389 1.390 1.390 1.379 1.337 1.250 1.151 1.129 1.174 1.256 1.273 1.224 1.155 1.114 1.011 0.000 
0.000 0.004 0.051 0.613 1.146 1.408 1.470 1.463 1.453 1.455 1.470 1.488 1.499 1.503 1.504 1.505 1.506 1.506 1.507 1.508 1.508 1.509 1.509 1.510 1.511 1.511 1.512 1.513 1.514 1.514 1.515 1.515 1.516 1.517 1.517 1.516 1.510 1.481 1.400 1.286 1.270 1.268 1.275 1.383 1.479 1.515 1.524 1.525 1.526 1.524 1.513 1.468 1.360 1.278 1.267 1.266 1.281 1.385 1.386 1.402 1.432 1.492 1.529 1.538 1.538 1.537 1.537 1.537 1.538 1.539 1.540 1.538 1.516 1.438 1.313 1.175 1.150 1.143 1.148 1.169 1.202 1.323 1.434 1.500 1.532 1.544 1.549 1.551 1.550 1.545 1.529 1.500 1.473 1.457 1.451 1.450 1.451 1.458 1.475 1.505 1.535 1.551 1.558 1.560 1.560 1.561 1.562 1.561 1.556 1.538 1.498 1.456 1.449 1.461 1.464 1.407 1.310 1.209 1.131 1.000 0.000 
0.000 0.010 0.083 0.781 1.336 1.529 1.527 1.514 1.492 1.485 1.520 1.580 1.614 1.624 1.626 1.627 1.627 1.627 1.628 1.628 1.628 1.629 1.629 1.629 1.630 1.630 1.631 1.631 1.632 1.632 1.632 1.633 1.633 1.634 1.634 1.633 1.626 1.593 1.511 1.395 1.369 1.364 1.371 1.505 1.599 1.631 1.638 1.639 1.639 1.638 1.625 1.575 1.479 1.411 1.401 1.399 1.406 1.528 1.558 1.557 1.575 1.621 1.638 1.643 1.645 1.645 1.646 1.646 1.646 1.647 1.647 1.643 1.620 1.550 1.414 1.242 1.212 1.198 1.195 1.201 1.224 1.310 1.434 1.536 1.606 1.641 1.651 1.652 1.645 1.621 1.588 1.552 1.509 1.477 1.462 1.458 1.458 1.462 1.477 1.515 1.587 1.635 1.654 1.659 1.660 1.660 1.660 1.660 1.659 1.654 1.642 1.631 1.627 1.619 1.575 1.502 1.375 1.230 1.133 0.989 0.000 
0.000 0.050 0.138 0.908 1.424 1.550 1.562 1.469 1.422 1.424 1.487 1.599 1.660 1.679 1.682 1.683 1.683 1.683 1.683 1.683 1.683 1.683 1.684 1.684 1.684 1.684 1.684 1.684 1.684 1.685 1.685 1.685 1.685 1.685 1.685 1.684 1.679 1.653 1.597 1.480 1.431 1.418 1.460 1.570 1.638 1.670 1.682 1.686 1.687 1.685 1.676 1.645 1.567 1.513 1.504 1.502 1.529 1.622 1.654 1.656 1.650 1.652 1.662 1.667 1.674 1.683 1.688 1.689 1.689 1.687 1.680 1.674 1.663 1.619 1.497 1.313 1.281 1.261 1.253 1.253 1.265 1.297 1.371 1.500 1.616 1.670 1.682 1.678 1.674 1.656 1.604 1.511 1.404 1.329 1.302 1.303 1.311 1.332 1.368 1.454 1.574 1.654 1.685 1.692 1.693 1.693 1.694 1.694 1.693 1.693 1.691 1.689 1.686 1.669 1.639 1.543 1.385 1.224 1.124 0.983 0.000 
0.000 0.244 0.337 1.087 1.477 1.565 1.503 1.401 1.384 1.418 1.488 1.592 1.670 1.694 1.697 1.698 1.698 1.698 1.698 1.698 1.698 1.698 1.698 1.698 1.698 1.698 1.698 1.698 1.698 1.698 1.698 1.698 1.698 1.698 1.698 1.698 1.694 1.684 1.648 1.577 1.513 1.477 1.492 1.547 1.615 1.661 1.686 1.696 1.698 1.698 1.694 1.678 1.631 1.588 1.580 1.581 1.626 1.670 1.681 1.680 1.669 1.652 1.640 1.644 1.662 1.682 1.694 1.697 1.697 1.696 1.690 1.674 1.648 1.608 1.541 1.470 1.454 1.444 1.413 1.327 1.323 1.340 1.377 1.451 1.595 1.666 1.686 1.684 1.665 1.621 1.532 1.395 1.344 1.334 1.333 1.336 1.346 1.370 1.411 1.473 1.572 1.657 1.691 1.698 1.699 1.699 1.699 1.699 1.699 1.699 1.699 1.699 1.697 1.689 1.647 1.535 1.365 1.212 1.109 0.982 0.000 
0.000 0.637 0.731 1.262 1.490 1.571 1.487 1.358 1.355 1.418 1.502 1.600 1.675 1.696 1.700 1.700 1.700 1.700 1.700 1.700 1.700 1.700 1.700 1.700 1.700 1.700 1.700 1.700 1.700 1.700 1.700 1.700 1.700 1.700 1.700 1.700 1.699 1.695 1.678 1.642 1.586 1.524 1.478 1.475 1.524 1.604 1.670 1.694 1.699 1.700 1.699 1.692 1.677 1.659 1.654 1.659 1.677 1.685 1.687 1.673 1.623 1.551 1.523 1.530 1.585 1.658 1.688 1.697 1.698 1.694 1.672 1.618 1.540 1.492 1.478 1.531 1.589 1.598 1.553 1.450 1.394 1.396 1.410 1.439 1.535 1.627 1.669 1.651 1.597 1.510 1.439 1.396 1.373 1.367 1.366 1.370 1.383 1.411 1.454 1.514 1.589 1.666 1.694 1.699 1.700 1.700 1.700 1.700 1.700 1.700 1.700 1.700 1.698 1.687 1.636 1.513 1.341 1.195 1.097 0.981 0.000 
0.000 0.981 1.055 1.238 1.398 1.520 1.491 1.358 1.302 1.408 1.538 1.638 1.685 1.698 1.700 1.700 1.700 1.700 1.700 1.700 1.700 1.700 1.700 1.700 1.700 1.700 1.700 1.700 1.700 1.700 1.700 1.700 1.700 1.700 1.700 1.700 1.700 1.699 1.693 1.671 1.610 1.488 1.485 1.488 1.505 1.545 1.655 1.693 1.699 1.700 1.700 1.698 1.695 1.692 1.690 1.689 1.686 1.689 1.678 1.628 1.511 1.429 1.426 1.434 1.499 1.620 1.669 1.687 1.689 1.679 1.629 1.513 1.474 1.455 1.450 1.516 1.629 1.653 1.629 1.539 1.457 1.451 1.450 1.459 1.477 1.521 1.605 1.583 1.498 1.477 1.450 1.421 1.409 1.407 1.411 1.420 1.436 1.464 1.505 1.567 1.644 1.684 1.697 1.700 1.700 1.700 1.700 1.700 1.700 1.700 1.699 1.696 1.689 1.669 1.606 1.474 1.304 1.169 1.087 0.990 0.000 
0.000 1.081 1.090 1.105 1.175 1.254 1.278 1.243 1.266 1.487 1.617 1.673 1.694 1.699 1.700 1.700 1.700 1.700 1.700 1.700 1.700 1.700 1.700 1.700 1.700 1.700 1.700 1.700 1.700 1.700 1.700 1.700 1.700 1.700 1.700 1.700 1.700 1.700 1.696 1.672 1.585 1.504 1.499 1.502 1.517 1.553 1.654 1.693 1.699 1.700 1.700 1.700 1.699 1.698 1.697 1.695 1.689 1.671 1.628 1.529 1.370 1.362 1.363 1.377 1.448 1.562 1.626 1.636 1.640 1.638 1.573 1.484 1.464 1.454 1.456 1.523 1.641 1.670 1.661 1.593 1.512 1.493 1.487 1.485 1.490 1.497 1.512 1.516 1.494 1.483 1.467 1.464 1.520 1.561 1.571 1.574 1.578 1.590 1.617 1.653 1.681 1.694 1.698 1.699 1.700 1.700 1.700 1.700 1.700 1.699 1.695 1.677 1.640 1.585 1.504 1.383 1.246 1.138 1.076 1.010 0.000 
0.000 1.042 0.945 1.003 0.958 0.951 0.978 1.070 1.218 1.505 1.654 1.691 1.698 1.700 1.700 1.700 1.700 1.700 1.700 1.700 1.700 1.700 1.699 1.699 1.699 1.699 1.699 1.700 1.700 1.700 1.700 1.700 1.700 1.700 1.700 1.700 1.700 1.700 1.696 1.670 1.579 1.520 1.515 1.517 1.532 1.566 1.665 1.695 1.700 1.700 1.700 1.700 1.700 1.699 1.698 1.691 1.666 1.608 1.509 1.360 1.290 1.287 1.297 1.345 1.418 1.503 1.532 1.515 1.524 1.560 1.532 1.466 1.454 1.451 1.457 1.563 1.656 1.678 1.673 1.632 1.579 1.526 1.516 1.511 1.509 1.510 1.527 1.511 1.506 1.502 1.498 1.544 1.626 1.659 1.668 1.669 1.670 1.674 1.680 1.687 1.691 1.694 1.697 1.698 1.699 1.699 1.700 1.700 1.700 1.697 1.681 1.624 1.528 1.456 1.371 1.276 1.186 1.112 1.064 1.029 0.000 
0.000 1.003 0.815 0.878 0.896 0.911 0.965 1.061 1.215 1.530 1.672 1.697 1.700 1.700 1.700 1.700 1.701 1.700 1.700 1.700 1.700 1.698 1.695 1.689 1.686 1.688 1.693 1.697 1.700 1.700 1.700 1.700 1.700 1.700 1.701 1.700 1.700 1.700 1.697 1.678 1.608 1.542 1.538 1.540 1.553 1.633 1.683 1.698 1.700 1.700 1.700 1.700 1.699 1.696 1.687 1.664 1.604 1.487 1.323 1.243 1.237 1.241 1.279 1.344 1.408 1.451 1.473 1.480 1.483 1.493 1.521 1.459 1.450 1.448 1.493 1.585 1.649 1.678 1.681 1.660 1.626 1.578 1.537 1.532 1.529 1.556 1.605 1.592 1.546 1.546 1.570 1.635 1.675 1.691 1.695 1.695 1.696 1.696 1.694 1.693 1.691 1.686 1.681 1.682 1.688 1.695 1.699 1.700 1.700 1.694 1.658 1.577 1.516 1.443 1.356 1.270 1.187 1.114 1.061 1.050 0.000 
0.000 0.992 0.766 0.812 0.861 0.907 0.968 1.069 1.277 1.595 1.686 1.699 1.700 1.700 1.700 1.700 1.700 1.700 1.700 1.700 1.698 1.690 1.670 1.643 1.628 1.636 1.662 1.691 1.700 1.700 1.700 1.700 1.700 1.700 1.701 1.700 1.700 1.700 1.699 1.688 1.650 1.575 1.570 1.583 1.639 1.677 1.694 1.699 1.700 1.700 1.700 1.699 1.695 1.677 1.638 1.570 1.458 1.287 1.225 1.214 1.214 1.237 1.284 1.372 1.438 1.454 1.475 1.482 1.483 1.490 1.513 1.459 1.449 1.449 1.487 1.546 1.605 1.652 1.676 1.677 1.658 1.622 1.572 1.568 1.575 1.623 1.657 1.660 1.647 1.645 1.657 1.677 1.690 1.696 1.698 1.699 1.699 1.699 1.698 1.689 1.666 1.630 1.608 1.611 1.641 1.676 1.695 1.699 1.699 1.691 1.640 1.575 1.514 1.441 1.354 1.274 1.201 1.138 1.090 1.073 0.000 
0.000 0.998 0.774 0.815 0.868 0.923 0.995 1.106 1.418 1.644 1.694 1.700 1.700 1.700 1.700 1.700 1.699 1.698 1.699 1.699 1.694 1.669 1.612 1.608 1.604 1.605 1.614 1.680 1.700 1.700 1.700 1.700 1.700 1.700 1.700 1.700 1.700 1.700 1.699 1.692 1.656 1.601 1.598 1.628 1.678 1.694 1.699 1.700 1.700 1.700 1.700 1.698 1.683 1.632 1.524 1.400 1.305 1.242 1.216 1.208 1.218 1.252 1.377 1.499 1.521 1.473 1.489 1.494 1.494 1.527 1.508 1.461 1.453 1.453 1.457 1.471 1.514 1.599 1.655 1.679 1.672 1.644 1.606 1.612 1.626 1.655 1.670 1.677 1.675 1.670 1.673 1.681 1.689 1.694 1.697 1.698 1.699 1.699 1.695 1.671 1.604 1.597 1.595 1.597 1.612 1.653 1.690 1.699 1.699 1.692 1.646 1.577 1.519 1.445 1.363 1.301 1.296 1.237 1.156 1.095 0.000 
0.000 1.017 0.843 0.867 0.912 0.976 1.064 1.190 1.526 1.671 1.698 1.700 1.700 1.700 1.700 1.696 1.685 1.677 1.686 1.696 1.688 1.640 1.599 1.594 1.591 1.589 1.605 1.676 1.700 1.700 1.700 1.700 1.700 1.700 1.700 1.700 1.700 1.700 1.699 1.690 1.641 1.625 1.623 1.639 1.688 1.698 1.699 1.700 1.700 1.700 1.700 1.696 1.668 1.573 1.483 1.378 1.293 1.239 1.220 1.224 1.247 1.399 1.537 1.607 1.617 1.588 1.558 1.562 1.596 1.597 1.551 1.478 1.466 1.463 1.464 1.470 1.484 1.553 1.617 1.644 1.637 1.628 1.621 1.644 1.659 1.664 1.669 1.665 1.652 1.643 1.641 1.646 1.656 1.669 1.680 1.689 1.695 1.698 1.691 1.647 1.601 1.592 1.590 1.594 1.610 1.648 1.689 1.699 1.699 1.695 1.668 1.603 1.536 1.508 1.506 1.491 1.419 1.324 1.223 1.097 0.000 
0.000 1.054 0.985 1.070 1.131 1.195 1.281 1.453 1.623 1.688 1.699 1.700 1.700 1.700 1.698 1.682 1.670 1.664 1.655 1.684 1.683 1.623 1.595 1.586 1.585 1.585 1.600 1.677 1.700 1.700 1.700 1.700 1.700 1.700 1.700 1.700 1.699 1.700 1.699 1.692 1.652 1.646 1.643 1.666 1.693 1.698 1.699 1.699 1.699 1.700 1.699 1.694 1.659 1.558 1.477 1.375 1.296 1.259 1.256 1.268 1.376 1.548 1.637 1.669 1.673 1.664 1.654 1.655 1.660 1.645 1.605 1.520 1.493 1.482 1.477 1.475 1.481 1.509 1.556 1.534 1.517 1.533 1.592 1.654 1.667 1.669 1.641 1.588 1.534 1.506 1.501 1.512 1.547 1.592 1.632 1.662 1.685 1.694 1.688 1.636 1.602 1.592 1.591 1.595 1.611 1.656 1.691 1.699 1.700 1.698 1.689 1.674 1.656 1.647 1.633 1.582 1.512 1.379 1.253 1.078 0.000 
0.000 1.092 1.124 1.352 1.475 1.543 1.583 1.633 1.679 1.697 1.700 1.700 1.700 1.700 1.696 1.672 1.669 1.662 1.654 1.680 1.683 1.629 1.594 1.585 1.582 1.584 1.628 1.686 1.700 1.700 1.700 1.700 1.700 1.699 1.696 1.693 1.692 1.693 1.696 1.696 1.683 1.670 1.673 1.686 1.691 1.694 1.690 1.688 1.690 1.695 1.698 1.695 1.665 1.566 1.480 1.386 1.330 1.319 1.322 1.385 1.536 1.635 1.680 1.693 1.695 1.693 1.691 1.690 1.686 1.673 1.642 1.589 1.536 1.514 1.499 1.490 1.502 1.498 1.495 1.501 1.512 1.529 1.548 1.646 1.671 1.654 1.572 1.512 1.492 1.482 1.480 1.488 1.516 1.562 1.605 1.645 1.677 1.689 1.688 1.647 1.606 1.599 1.598 1.603 1.629 1.678 1.696 1.700 1.700 1.700 1.698 1.696 1.694 1.689 1.676 1.641 1.541 1.383 1.243 1.060 0.000 
0.000 1.119 1.200 1.466 1.597 1.660 1.681 1.690 1.697 1.700 1.700 1.700 1.700 1.700 1.697 1.676 1.669 1.662 1.654 1.688 1.689 1.656 1.597 1.586 1.581 1.624 1.670 1.694 1.700 1.700 1.700 1.700 1.698 1.691 1.676 1.658 1.649 1.658 1.677 1.692 1.696 1.695 1.692 1.691 1.684 1.663 1.637 1.626 1.641 1.669 1.690 1.695 1.679 1.624 1.553 1.497 1.476 1.479 1.512 1.573 1.637 1.678 1.695 1.699 1.699 1.699 1.699 1.698 1.696 1.688 1.674 1.652 1.623 1.594 1.586 1.589 1.566 1.515 1.499 1.503 1.513 1.530 1.545 1.645 1.666 1.630 1.539 1.511 1.488 1.477 1.476 1.487 1.514 1.561 1.603 1.643 1.676 1.692 1.692 1.672 1.636 1.615 1.616 1.643 1.675 1.692 1.699 1.700 1.700 1.700 1.700 1.700 1.699 1.698 1.690 1.645 1.531 1.360 1.219 1.041 0.000 
0.000 1.138 1.236 1.508 1.631 1.683 1.697 1.699 1.700 1.700 1.700 1.700 1.700 1.700 1.699 1.687 1.672 1.665 1.687 1.696 1.695 1.684 1.666 1.657 1.657 1.670 1.683 1.692 1.699 1.700 1.700 1.699 1.693 1.669 1.617 1.604 1.603 1.605 1.634 1.683 1.697 1.699 1.698 1.687 1.649 1.572 1.533 1.531 1.535 1.612 1.677 1.694 1.692 1.677 1.656 1.640 1.633 1.634 1.645 1.664 1.683 1.694 1.699 1.700 1.700 1.700 1.700 1.700 1.699 1.697 1.692 1.686 1.678 1.670 1.667 1.659 1.626 1.545 1.514 1.515 1.521 1.536 1.579 1.658 1.668 1.625 1.540 1.514 1.490 1.482 1.483 1.493 1.520 1.566 1.607 1.650 1.682 1.695 1.697 1.693 1.684 1.679 1.680 1.687 1.694 1.698 1.700 1.700 1.702 1.700 1.700 1.700 1.700 1.699 1.687 1.634 1.510 1.335 1.198 1.021 0.000 
0.000 1.155 1.262 1.535 1.646 1.689 1.699 1.700 1.700 1.700 1.701 1.701 1.700 1.700 1.700 1.698 1.694 1.694 1.698 1.699 1.699 1.696 1.689 1.680 1.675 1.676 1.680 1.683 1.689 1.693 1.697 1.697 1.685 1.631 1.596 1.590 1.590 1.592 1.602 1.675 1.696 1.699 1.696 1.672 1.585 1.473 1.455 1.452 1.459 1.558 1.664 1.694 1.698 1.694 1.686 1.676 1.679 1.682 1.679 1.682 1.692 1.698 1.700 1.700 1.700 1.700 1.700 1.700 1.700 1.699 1.699 1.698 1.696 1.695 1.693 1.687 1.666 1.598 1.548 1.544 1.546 1.557 1.644 1.680 1.679 1.645 1.564 1.527 1.510 1.505 1.507 1.516 1.558 1.611 1.650 1.677 1.692 1.698 1.699 1.698 1.696 1.697 1.697 1.698 1.699 1.700 1.700 1.700 1.700 1.701 1.700 1.700 1.700 1.698 1.681 1.617 1.483 1.309 1.179 1.002 0.000 
0.000 1.173 1.288 1.557 1.657 1.692 1.699 1.700 1.700 1.704 1.701 1.703 1.703 1.700 1.700 1.700 1.700 1.700 1.700 1.700 1.700 1.699 1.695 1.682 1.657 1.631 1.613 1.608 1.634 1.661 1.684 1.693 1.676 1.601 1.591 1.586 1.585 1.589 1.600 1.674 1.696 1.699 1.693 1.652 1.510 1.399 1.382 1.382 1.397 1.538 1.661 1.695 1.699 1.698 1.712 1.848 1.901 1.903 1.881 1.828 1.758 1.716 1.699 1.700 1.700 1.700 1.700 1.701 1.703 1.703 1.701 1.700 1.700 1.699 1.699 1.697 1.687 1.662 1.627 1.614 1.622 1.654 1.682 1.694 1.692 1.678 1.655 1.632 1.619 1.617 1.622 1.636 1.656 1.672 1.685 1.693 1.697 1.698 1.698 1.697 1.697 1.698 1.699 1.699 1.700 1.700 1.700 1.700 1.701 1.702 1.700 1.700 1.700 1.696 1.674 1.597 1.452 1.281 1.160 0.990 0.000 
0.000 1.193 1.313 1.568 1.659 1.691 1.699 1.700 1.700 1.705 1.700 1.700 1.700 1.701 1.702 1.701 1.700 1.700 1.700 1.700 1.700 1.698 1.687 1.648 1.573 1.538 1.533 1.535 1.546 1.596 1.667 1.687 1.675 1.602 1.591 1.585 1.585 1.589 1.626 1.682 1.697 1.699 1.689 1.631 1.445 1.350 1.336 1.338 1.378 1.544 1.663 1.695 1.699 1.697 1.714 2.011 2.235 2.267 2.213 2.087 1.913 1.796 1.736 1.708 1.700 1.700 1.700 1.705 1.710 1.711 1.707 1.703 1.708 1.723 1.728 1.731 1.733 1.720 1.701 1.683 1.684 1.691 1.697 1.699 1.698 1.696 1.691 1.687 1.684 1.684 1.685 1.688 1.692 1.695 1.697 1.698 1.698 1.696 1.684 1.668 1.670 1.685 1.694 1.698 1.699 1.700 1.700 1.700 1.700 1.700 1.700 1.700 1.700 1.695 1.665 1.576 1.422 1.256 1.141 0.986 0.000 
0.000 1.213 1.332 1.559 1.646 1.683 1.696 1.699 1.700 1.700 1.700 1.700 1.700 1.700 1.700 1.701 1.700 1.703 1.704 1.700 1.700 1.695 1.670 1.590 1.539 1.523 1.518 1.520 1.539 1.571 1.660 1.685 1.681 1.630 1.595 1.591 1.591 1.610 1.667 1.692 1.697 1.698 1.683 1.606 1.388 1.323 1.313 1.324 1.372 1.570 1.672 1.696 1.699 1.694 1.670 1.954 2.429 2.639 2.630 2.473 2.184 1.936 1.803 1.738 1.710 1.702 1.702 1.712 1.725 1.734 1.718 1.705 1.708 1.734 1.757 1.766 1.794 1.845 1.841 1.816 1.780 1.739 1.707 1.700 1.700 1.699 1.699 1.698 1.698 1.698 1.698 1.699 1.699 1.699 1.700 1.699 1.698 1.684 1.625 1.606 1.604 1.619 1.666 1.687 1.696 1.699 1.700 1.700 1.700 1.700 1.700 1.700 1.700 1.693 1.657 1.556 1.394 1.233 1.124 0.982 0.000 
0.000 1.217 1.326 1.510 1.605 1.662 1.689 1.698 1.700 1.700 1.700 1.700 1.700 1.701 1.701 1.701 1.701 1.701 1.701 1.700 1.699 1.693 1.657 1.567 1.533 1.516 1.512 1.517 1.537 1.573 1.663 1.691 1.690 1.672 1.647 1.639 1.646 1.670 1.687 1.694 1.698 1.697 1.674 1.576 1.347 1.313 1.306 1.322 1.384 1.600 1.681 1.697 1.699 1.691 1.659 1.611 2.029 2.560 2.769 2.709 2.493 2.174 1.919 1.787 1.729 1.709 1.708 1.714 1.726 1.734 1.721 1.705 1.700 1.701 1.715 1.731 1.773 1.940 2.002 1.999 1.952 1.869 1.790 1.742 1.712 1.700 1.700 1.700 1.700 1.700 1.700 1.700 1.700 1.700 1.700 1.700 1.697 1.667 1.596 1.584 1.581 1.583 1.593 1.659 1.690 1.699 1.700 1.700 1.700 1.700 1.700 1.700 1.699 1.691 1.648 1.536 1.367 1.212 1.109 0.980 0.000 
0.000 1.187 1.275 1.416 1.537 1.628 1.679 1.697 1.700 1.700 1.700 1.701 1.701 1.701 1.702 1.702 1.701 1.702 1.704 1.700 1.699 1.693 1.657 1.570 1.530 1.514 1.511 1.516 1.535 1.613 1.677 1.696 1.697 1.694 1.688 1.687 1.686 1.687 1.689 1.692 1.692 1.689 1.662 1.546 1.340 1.312 1.311 1.330 1.436 1.625 1.688 1.698 1.699 1.692 1.663 1.607 1.541 1.783 2.338 2.660 2.596 2.339 2.037 1.848 1.757 1.722 1.714 1.714 1.711 1.700 1.699 1.698 1.695 1.694 1.693 1.692 1.691 1.804 2.025 2.121 2.103 2.017 1.899 1.805 1.750 1.716 1.700 1.700 1.700 1.700 1.700 1.700 1.700 1.700 1.700 1.700 1.695 1.660 1.586 1.573 1.570 1.572 1.587 1.633 1.684 1.698 1.700 1.700 1.700 1.700 1.700 1.700 1.699 1.688 1.636 1.514 1.338 1.192 1.098 0.979 0.000 
0.000 1.133 1.196 1.326 1.487 1.603 1.672 1.696 1.700 1.700 1.700 1.700 1.702 1.702 1.700 1.700 1.701 1.700 1.703 1.700 1.700 1.695 1.672 1.613 1.550 1.514 1.510 1.532 1.610 1.663 1.690 1.698 1.699 1.699 1.698 1.696 1.695 1.691 1.680 1.664 1.653 1.654 1.637 1.521 1.339 1.321 1.325 1.352 1.493 1.646 1.692 1.699 1.699 1.696 1.677 1.638 1.579 1.507 1.548 1.707 2.070 2.273 2.094 1.897 1.794 1.746 1.727 1.721 1.716 1.705 1.694 1.693 1.713 1.747 1.735 1.678 1.646 1.639 1.762 2.000 2.135 2.111 2.015 1.890 1.797 1.740 1.706 1.700 1.700 1.700 1.700 1.700 1.700 1.700 1.700 1.700 1.693 1.654 1.583 1.570 1.567 1.571 1.587 1.629 1.684 1.698 1.700 1.700 1.700 1.702 1.700 1.700 1.698 1.682 1.620 1.489 1.324 1.182 1.088 0.978 0.000 
0.000 1.085 1.131 1.285 1.467 1.597 1.671 1.695 1.700 1.700 1.700 1.700 1.703 1.704 1.700 1.700 1.700 1.700 1.700 1.700 1.699 1.697 1.687 1.666 1.648 1.633 1.629 1.640 1.670 1.687 1.696 1.698 1.699 1.699 1.699 1.698 1.694 1.676 1.632 1.574 1.556 1.561 1.584 1.513 1.346 1.343 1.353 1.386 1.562 1.663 1.694 1.699 1.700 1.698 1.691 1.674 1.638 1.573 1.524 1.521 1.537 1.867 2.020 1.919 1.825 1.780 1.753 1.765 1.777 1.784 1.767 1.752 1.799 1.960 2.088 2.040 1.864 1.593 1.501 1.527 1.728 2.014 2.061 1.947 1.830 1.756 1.712 1.700 1.700 1.700 1.710 1.713 1.706 1.699 1.700 1.699 1.693 1.654 1.584 1.573 1.572 1.577 1.592 1.645 1.688 1.698 1.700 1.702 1.700 1.700 1.700 1.700 1.696 1.675 1.601 1.469 1.324 1.178 1.079 0.990 0.000 
0.000 1.063 1.105 1.283 1.468 1.602 1.674 1.696 1.700 1.700 1.700 1.700 1.701 1.702 1.701 1.700 1.700 1.700 1.699 1.697 1.692 1.687 1.683 1.681 1.676 1.667 1.659 1.657 1.676 1.688 1.695 1.697 1.694 1.689 1.685 1.685 1.680 1.642 1.549 1.517 1.476 1.434 1.505 1.521 1.414 1.373 1.385 1.488 1.595 1.661 1.689 1.698 1.700 1.699 1.698 1.691 1.672 1.626 1.594 1.583 1.590 1.731 1.845 1.872 1.822 1.769 1.801 1.898 1.943 1.940 1.844 1.782 1.790 2.018 2.520 2.672 2.466 2.005 1.546 1.395 1.538 1.644 1.867 1.949 1.847 1.763 1.713 1.700 1.699 1.696 1.715 1.739 1.726 1.706 1.696 1.698 1.694 1.667 1.594 1.589 1.589 1.593 1.628 1.675 1.695 1.699 1.700 1.702 1.700 1.700 1.700 1.700 1.695 1.668 1.585 1.472 1.333 1.183 1.077 1.015 0.000 
0.000 1.062 1.108 1.306 1.489 1.619 1.680 1.697 1.700 1.700 1.700 1.700 1.700 1.700 1.700 1.700 1.700 1.699 1.695 1.679 1.648 1.621 1.617 1.639 1.658 1.651 1.623 1.609 1.652 1.668 1.670 1.674 1.663 1.633 1.612 1.618 1.633 1.597 1.502 1.470 1.430 1.399 1.399 1.493 1.497 1.492 1.481 1.503 1.560 1.625 1.668 1.692 1.699 1.700 1.700 1.697 1.688 1.671 1.655 1.651 1.651 1.630 1.685 1.668 1.650 1.722 1.983 2.230 2.303 2.133 1.942 1.771 1.722 1.786 2.411 3.054 3.035 2.578 1.991 1.476 1.527 1.642 1.688 1.793 1.822 1.759 1.710 1.699 1.694 1.678 1.651 1.720 1.745 1.716 1.682 1.693 1.696 1.685 1.662 1.642 1.639 1.653 1.677 1.692 1.698 1.700 1.700 1.700 1.700 1.700 1.700 1.700 1.695 1.665 1.586 1.484 1.357 1.210 1.101 1.039 0.000 
0.000 1.069 1.120 1.336 1.517 1.635 1.686 1.698 1.700 1.700 1.700 1.700 1.700 1.700 1.700 1.700 1.700 1.698 1.682 1.628 1.553 1.525 1.501 1.519 1.580 1.553 1.490 1.493 1.552 1.573 1.576 1.587 1.568 1.484 1.472 1.474 1.536 1.560 1.470 1.422 1.395 1.374 1.361 1.365 1.475 1.524 1.510 1.472 1.486 1.549 1.629 1.682 1.697 1.700 1.701 1.718 1.724 1.700 1.687 1.681 1.673 1.661 1.612 1.557 1.605 1.816 2.269 2.684 2.717 2.447 1.923 1.653 1.595 1.599 1.837 2.480 3.083 2.997 2.490 1.898 1.545 1.648 1.688 1.702 1.757 1.732 1.704 1.697 1.680 1.631 1.549 1.554 1.683 1.712 1.679 1.687 1.697 1.697 1.692 1.688 1.688 1.691 1.696 1.699 1.700 1.700 1.700 1.700 1.700 1.700 1.700 1.700 1.695 1.671 1.603 1.514 1.402 1.272 1.164 1.062 0.000 
0.000 1.077 1.134 1.365 1.540 1.648 1.690 1.699 1.700 1.703 1.702 1.700 1.700 1.700 1.700 1.700 1.700 1.694 1.659 1.573 1.535 1.507 1.485 1.466 1.479 1.433 1.414 1.390 1.405 1.432 1.438 1.444 1.401 1.309 1.319 1.343 1.479 1.558 1.517 1.394 1.366 1.354 1.349 1.349 1.417 1.482 1.447 1.440 1.484 1.545 1.608 1.676 1.697 1.700 1.701 1.707 1.716 1.709 1.695 1.689 1.682 1.666 1.632 1.598 1.599 1.828 2.315 2.723 2.841 2.536 1.759 1.614 1.624 1.593 1.572 1.809 2.312 2.751 2.717 2.271 1.826 1.639 1.680 1.694 1.701 1.712 1.700 1.694 1.661 1.568 1.487 1.467 1.560 1.647 1.659 1.684 1.698 1.699 1.699 1.699 1.699 1.699 1.700 1.700 1.700 1.700 1.700 1.700 1.700 1.700 1.700 1.700 1.697 1.683 1.643 1.574 1.472 1.348 1.236 1.082 0.000 
0.000 1.086 1.150 1.393 1.560 1.658 1.692 1.699 1.700 1.707 1.708 1.701 1.702 1.701 1.700 1.700 1.699 1.691 1.639 1.568 1.531 1.503 1.481 1.461 1.442 1.420 1.391 1.349 1.290 1.307 1.281 1.285 1.179 1.183 1.201 1.241 1.468 1.599 1.595 1.510 1.343 1.336 1.335 1.337 1.422 1.452 1.407 1.435 1.479 1.537 1.611 1.678 1.697 1.700 1.700 1.701 1.702 1.698 1.690 1.672 1.648 1.629 1.622 1.634 1.655 1.659 1.908 2.278 2.416 2.160 1.703 1.601 1.634 1.566 1.391 1.371 1.651 2.111 2.403 2.365 2.018 1.730 1.653 1.683 1.695 1.705 1.699 1.692 1.650 1.565 1.502 1.499 1.534 1.595 1.636 1.685 1.698 1.700 1.700 1.700 1.700 1.700 1.700 1.700 1.700 1.700 1.700 1.699 1.699 1.700 1.700 1.700 1.699 1.694 1.677 1.635 1.544 1.405 1.275 1.103 0.000 
0.000 1.097 1.168 1.421 1.578 1.665 1.694 1.699 1.700 1.708 1.708 1.700 1.703 1.704 1.700 1.700 1.699 1.690 1.639 1.570 1.533 1.505 1.483 1.477 1.468 1.420 1.386 1.334 1.257 1.179 1.131 1.108 1.104 1.108 1.129 1.188 1.472 1.606 1.637 1.577 1.422 1.319 1.319 1.381 1.498 1.501 1.430 1.425 1.469 1.543 1.641 1.686 1.698 1.700 1.700 1.700 1.699 1.694 1.673 1.627 1.597 1.587 1.585 1.631 1.665 1.675 1.665 1.617 1.538 1.583 1.578 1.562 1.496 1.365 1.224 1.176 1.246 1.526 1.887 2.127 2.052 1.791 1.604 1.657 1.684 1.693 1.694 1.689 1.655 1.568 1.557 1.558 1.567 1.597 1.664 1.692 1.699 1.700 1.700 1.700 1.700 1.700 1.700 1.700 1.699 1.697 1.693 1.691 1.692 1.695 1.698 1.699 1.700 1.699 1.691 1.656 1.563 1.411 1.269 1.104 0.000 
0.000 1.112 1.190 1.451 1.596 1.671 1.695 1.700 1.700 1.703 1.700 1.700 1.700 1.700 1.700 1.700 1.700 1.693 1.659 1.579 1.545 1.522 1.536 1.594 1.583 1.486 1.392 1.335 1.249 1.160 1.103 1.077 1.070 1.073 1.103 1.202 1.471 1.565 1.615 1.568 1.467 1.355 1.372 1.480 1.532 1.547 1.487 1.419 1.465 1.585 1.662 1.692 1.699 1.700 1.700 1.700 1.698 1.689 1.652 1.590 1.558 1.553 1.557 1.614 1.649 1.667 1.652 1.617 1.567 1.519 1.486 1.458 1.399 1.296 1.175 1.119 1.112 1.132 1.448 1.776 1.918 1.778 1.556 1.608 1.646 1.660 1.669 1.677 1.667 1.629 1.613 1.614 1.617 1.660 1.687 1.697 1.700 1.700 1.700 1.700 1.700 1.700 1.700 1.699 1.693 1.678 1.658 1.647 1.653 1.671 1.688 1.697 1.700 1.699 1.692 1.652 1.546 1.386 1.242 1.086 0.000 
0.000 1.128 1.214 1.481 1.614 1.678 1.697 1.700 1.700 1.700 1.700 1.699 1.699 1.699 1.700 1.700 1.700 1.697 1.682 1.652 1.627 1.625 1.646 1.664 1.656 1.598 1.485 1.350 1.254 1.159 1.098 1.070 1.062 1.069 1.097 1.244 1.420 1.507 1.485 1.415 1.352 1.321 1.352 1.471 1.531 1.519 1.426 1.417 1.459 1.575 1.664 1.694 1.699 1.700 1.700 1.700 1.698 1.686 1.646 1.585 1.559 1.543 1.547 1.594 1.623 1.613 1.582 1.550 1.527 1.509 1.494 1.466 1.392 1.267 1.137 1.104 1.106 1.122 1.263 1.524 1.692 1.617 1.429 1.509 1.547 1.572 1.643 1.701 1.682 1.676 1.671 1.671 1.678 1.690 1.697 1.699 1.700 1.700 1.700 1.700 1.700 1.700 1.700 1.695 1.674 1.623 1.613 1.610 1.610 1.614 1.671 1.693 1.698 1.699 1.687 1.629 1.498 1.336 1.208 1.068 0.000 
0.000 1.144 1.240 1.509 1.631 1.684 1.698 1.700 1.700 1.699 1.696 1.693 1.691 1.692 1.696 1.698 1.700 1.699 1.696 1.689 1.684 1.684 1.689 1.692 1.687 1.664 1.593 1.442 1.281 1.172 1.106 1.074 1.070 1.077 1.100 1.278 1.365 1.388 1.253 1.251 1.267 1.285 1.305 1.371 1.458 1.384 1.388 1.419 1.460 1.526 1.653 1.693 1.700 1.701 1.700 1.700 1.704 1.747 1.810 1.908 2.193 2.453 2.314 2.075 1.908 1.748 1.487 1.453 1.411 1.390 1.382 1.354 1.280 1.203 1.159 1.167 1.222 1.246 1.220 1.284 1.416 1.382 1.310 1.362 1.392 1.746 2.052 1.949 1.785 1.704 1.695 1.695 1.697 1.698 1.700 1.700 1.700 1.700 1.700 1.700 1.700 1.700 1.699 1.687 1.640 1.587 1.578 1.575 1.575 1.583 1.654 1.682 1.694 1.693 1.670 1.564 1.397 1.245 1.152 1.014 0.000 
0.000 1.161 1.265 1.534 1.645 1.689 1.698 1.700 1.699 1.693 1.677 1.656 1.644 1.653 1.674 1.691 1.699 1.700 1.699 1.699 1.698 1.698 1.699 1.699 1.697 1.689 1.653 1.571 1.486 1.431 1.307 1.102 1.095 1.097 1.131 1.328 1.367 1.289 1.223 1.241 1.261 1.286 1.312 1.348 1.379 1.376 1.400 1.428 1.468 1.524 1.653 1.693 1.700 1.708 1.700 1.700 1.734 1.815 1.992 2.320 2.838 3.385 3.738 3.924 3.851 3.376 2.460 1.776 1.568 1.424 1.338 1.297 1.268 1.233 1.248 1.290 1.393 1.411 1.362 1.293 1.246 1.245 1.239 1.255 1.440 2.356 2.495 2.248 1.933 1.755 1.699 1.700 1.700 1.703 1.701 1.700 1.700 1.700 1.700 1.700 1.700 1.700 1.697 1.678 1.608 1.546 1.539 1.538 1.545 1.569 1.637 1.665 1.674 1.674 1.643 1.506 1.333 1.173 1.079 0.927 0.000 
0.000 1.180 1.289 1.550 1.651 1.689 1.698 1.699 1.696 1.675 1.622 1.602 1.601 1.605 1.625 1.679 1.697 1.700 1.700 1.700 1.700 1.700 1.700 1.700 1.700 1.697 1.683 1.654 1.611 1.576 1.485 1.308 1.176 1.180 1.287 1.425 1.411 1.301 1.212 1.230 1.257 1.294 1.331 1.413 1.397 1.401 1.424 1.451 1.488 1.561 1.665 1.695 1.700 1.707 1.700 1.707 1.764 1.889 2.158 2.603 3.054 3.463 3.880 4.240 4.340 4.152 3.435 2.513 2.247 2.062 1.811 1.509 1.336 1.333 1.359 1.437 1.523 1.528 1.467 1.379 1.286 1.245 1.212 1.211 1.542 2.425 2.598 2.404 1.977 1.769 1.699 1.700 1.700 1.700 1.700 1.700 1.700 1.700 1.699 1.699 1.697 1.696 1.693 1.673 1.603 1.502 1.499 1.503 1.521 1.591 1.615 1.633 1.630 1.634 1.616 1.491 1.291 1.113 1.017 0.839 0.000 
0.000 1.199 1.310 1.547 1.643 1.683 1.695 1.698 1.690 1.645 1.584 1.580 1.580 1.587 1.611 1.671 1.696 1.700 1.700 1.700 1.700 1.700 1.700 1.700 1.699 1.696 1.686 1.669 1.641 1.627 1.573 1.446 1.300 1.302 1.387 1.450 1.477 1.376 1.284 1.276 1.308 1.384 1.494 1.556 1.538 1.442 1.465 1.491 1.530 1.635 1.684 1.698 1.700 1.700 1.700 1.709 1.781 1.960 2.338 2.787 3.055 3.264 3.609 3.974 4.194 4.098 3.593 2.926 2.554 2.324 2.104 1.821 1.537 1.478 1.490 1.523 1.552 1.572 1.538 1.454 1.346 1.262 1.196 1.186 1.394 2.080 2.462 2.335 1.964 1.762 1.696 1.699 1.700 1.700 1.700 1.700 1.700 1.699 1.695 1.687 1.678 1.670 1.664 1.649 1.605 1.526 1.475 1.511 1.583 1.612 1.614 1.600 1.598 1.590 1.588 1.486 1.275 1.074 0.949 0.798 0.000 
0.000 1.206 1.310 1.507 1.605 1.661 1.687 1.696 1.684 1.618 1.569 1.568 1.570 1.585 1.611 1.671 1.696 1.700 1.700 1.700 1.700 1.700 1.700 1.700 1.697 1.682 1.646 1.595 1.533 1.518 1.492 1.434 1.363 1.332 1.368 1.426 1.440 1.398 1.354 1.401 1.499 1.572 1.624 1.647 1.642 1.607 1.590 1.601 1.644 1.678 1.692 1.697 1.699 1.700 1.700 1.699 1.770 1.987 2.392 2.681 2.884 2.928 2.798 2.632 2.491 2.446 2.541 2.637 2.543 2.375 2.149 1.870 1.634 1.550 1.538 1.535 1.540 1.543 1.527 1.473 1.373 1.253 1.180 1.169 1.229 1.659 1.995 2.059 1.891 1.736 1.686 1.696 1.699 1.700 1.700 1.700 1.699 1.693 1.675 1.638 1.595 1.561 1.544 1.534 1.517 1.492 1.481 1.514 1.592 1.618 1.612 1.598 1.593 1.581 1.573 1.468 1.266 1.065 0.912 0.804 0.000 
0.000 1.183 1.269 1.416 1.538 1.625 1.673 1.690 1.680 1.613 1.563 1.564 1.570 1.586 1.623 1.680 1.697 1.700 1.701 1.700 1.700 1.700 1.700 1.699 1.691 1.649 1.549 1.431 1.330 1.248 1.217 1.201 1.181 1.175 1.182 1.197 1.203 1.207 1.238 1.366 1.520 1.605 1.641 1.664 1.672 1.669 1.674 1.677 1.683 1.684 1.691 1.694 1.695 1.696 1.698 1.696 1.713 1.894 2.152 2.425 2.375 1.977 1.648 1.392 1.247 1.248 1.431 1.840 2.001 1.975 1.830 1.666 1.594 1.570 1.538 1.459 1.407 1.394 1.408 1.430 1.315 1.216 1.161 1.151 1.223 1.560 1.840 1.902 1.853 1.730 1.667 1.687 1.694 1.696 1.698 1.699 1.697 1.681 1.630 1.560 1.495 1.421 1.370 1.344 1.336 1.337 1.351 1.421 1.555 1.619 1.626 1.613 1.604 1.597 1.576 1.454 1.250 1.074 0.946 0.811 0.000 
0.000 1.133 1.195 1.326 1.478 1.588 1.651 1.677 1.664 1.610 1.563 1.567 1.576 1.608 1.665 1.691 1.699 1.700 1.700 1.700 1.700 1.700 1.700 1.699 1.683 1.605 1.509 1.415 1.318 1.243 1.186 1.142 1.107 1.076 1.052 1.040 1.037 1.040 1.054 1.195 1.398 1.546 1.608 1.630 1.649 1.670 1.687 1.691 1.690 1.683 1.671 1.662 1.665 1.677 1.686 1.682 1.660 1.689 1.849 1.932 1.921 1.637 1.295 1.134 1.109 1.097 1.094 1.213 1.457 1.516 1.434 1.396 1.464 1.490 1.428 1.343 1.249 1.215 1.455 1.567 1.462 1.260 1.137 1.131 1.221 1.594 1.949 2.007 1.897 1.761 1.679 1.664 1.664 1.674 1.685 1.693 1.693 1.666 1.596 1.547 1.477 1.396 1.338 1.309 1.301 1.302 1.323 1.381 1.529 1.631 1.651 1.638 1.621 1.602 1.549 1.420 1.236 1.078 0.999 0.839 0.000 
0.000 1.085 1.128 1.268 1.449 1.569 1.620 1.647 1.597 1.563 1.570 1.616 1.644 1.670 1.689 1.697 1.700 1.700 1.700 1.700 1.700 1.700 1.700 1.698 1.678 1.581 1.507 1.410 1.316 1.243 1.188 1.143 1.103 1.061 1.018 0.979 0.960 0.956 0.963 0.988 1.192 1.352 1.420 1.469 1.533 1.619 1.675 1.691 1.680 1.645 1.593 1.579 1.578 1.622 1.650 1.638 1.592 1.544 1.634 1.733 1.789 1.578 1.212 1.109 1.097 1.084 1.067 1.078 1.130 1.214 1.279 1.324 1.360 1.347 1.240 1.140 1.100 1.096 1.400 1.645 1.578 1.335 1.118 1.117 1.237 1.610 2.227 2.379 2.167 1.883 1.746 1.739 1.715 1.687 1.664 1.681 1.689 1.660 1.592 1.543 1.474 1.389 1.327 1.295 1.284 1.285 1.311 1.368 1.530 1.640 1.661 1.652 1.601 1.524 1.425 1.296 1.154 1.048 0.999 0.890 0.000 
0.000 1.060 1.097 1.260 1.445 1.562 1.602 1.601 1.560 1.574 1.585 1.655 1.684 1.693 1.698 1.699 1.700 1.700 1.700 1.701 1.700 1.700 1.700 1.698 1.679 1.593 1.511 1.412 1.321 1.250 1.195 1.149 1.108 1.095 1.025 0.939 0.895 0.877 0.876 0.891 0.937 1.051 1.219 1.371 1.482 1.569 1.657 1.680 1.652 1.569 1.555 1.547 1.542 1.541 1.592 1.561 1.512 1.510 1.564 1.655 1.721 1.582 1.258 1.100 1.090 1.063 1.051 1.068 1.125 1.243 1.283 1.289 1.248 1.167 1.101 1.063 1.051 1.081 1.336 1.661 1.635 1.377 1.111 1.109 1.175 1.481 2.172 2.573 2.466 2.089 1.814 1.856 1.858 1.778 1.704 1.674 1.686 1.668 1.597 1.546 1.478 1.392 1.327 1.292 1.280 1.283 1.307 1.361 1.552 1.648 1.665 1.628 1.528 1.460 1.392 1.292 1.153 1.026 0.954 0.940 0.000 
0.000 1.058 1.096 1.278 1.457 1.567 1.593 1.571 1.573 1.594 1.611 1.672 1.695 1.699 1.700 1.700 1.700 1.700 1.700 1.700 1.700 1.700 1.700 1.698 1.686 1.636 1.558 1.479 1.433 1.391 1.322 1.291 1.307 1.323 1.252 1.068 0.854 0.823 0.816 0.825 0.876 0.996 1.176 1.347 1.471 1.562 1.653 1.671 1.623 1.550 1.539 1.532 1.535 1.557 1.573 1.566 1.527 1.494 1.504 1.574 1.650 1.555 1.330 1.125 1.083 1.053 1.052 1.071 1.130 1.256 1.295 1.265 1.171 1.116 1.078 1.064 1.084 1.114 1.216 1.548 1.616 1.388 1.109 1.105 1.105 1.257 1.710 2.320 2.523 2.164 1.832 1.933 2.087 1.969 1.799 1.707 1.689 1.683 1.656 1.621 1.593 1.558 1.475 1.339 1.282 1.286 1.307 1.373 1.577 1.653 1.662 1.599 1.514 1.459 1.395 1.301 1.170 1.040 0.946 0.994 0.000 
0.000 1.064 1.108 1.307 1.484 1.585 1.603 1.578 1.595 1.620 1.646 1.685 1.697 1.700 1.700 1.700 1.700 1.699 1.698 1.699 1.700 1.700 1.700 1.699 1.694 1.678 1.656 1.626 1.566 1.502 1.414 1.331 1.320 1.375 1.378 1.203 0.869 0.790 0.780 0.786 0.845 0.967 1.154 1.344 1.474 1.586 1.661 1.671 1.620 1.536 1.527 1.526 1.553 1.623 1.702 1.718 1.602 1.458 1.419 1.460 1.531 1.449 1.278 1.115 1.084 1.072 1.073 1.092 1.146 1.231 1.279 1.221 1.158 1.110 1.115 1.153 1.221 1.263 1.262 1.285 1.446 1.328 1.112 1.102 1.101 1.127 1.326 1.732 2.145 2.052 1.731 1.823 2.210 2.163 1.960 1.781 1.698 1.696 1.689 1.681 1.671 1.640 1.584 1.439 1.296 1.297 1.313 1.403 1.587 1.656 1.663 1.600 1.525 1.468 1.409 1.325 1.212 1.127 1.033 1.049 0.000 
0.000 1.072 1.121 1.336 1.512 1.614 1.639 1.632 1.632 1.646 1.676 1.693 1.699 1.700 1.700 1.700 1.697 1.685 1.677 1.684 1.696 1.700 1.700 1.700 1.699 1.696 1.691 1.677 1.636 1.534 1.353 1.270 1.250 1.336 1.387 1.213 0.853 0.774 0.761 0.773 0.834 0.957 1.202 1.403 1.551 1.645 1.678 1.679 1.636 1.536 1.515 1.535 1.604 1.768 1.934 1.875 1.701 1.327 1.228 1.260 1.319 1.293 1.173 1.148 1.133 1.126 1.131 1.152 1.187 1.215 1.231 1.231 1.235 1.230 1.273 1.368 1.432 1.439 1.386 1.296 1.241 1.212 1.118 1.099 1.100 1.100 1.131 1.307 1.551 1.587 1.421 1.453 2.044 2.230 2.046 1.833 1.732 1.699 1.699 1.697 1.692 1.680 1.619 1.453 1.322 1.319 1.329 1.400 1.570 1.647 1.668 1.629 1.567 1.513 1.477 1.439 1.372 1.279 1.172 1.105 0.000 
0.000 1.080 1.135 1.364 1.536 1.638 1.671 1.674 1.674 1.681 1.692 1.698 1.700 1.700 1.700 1.699 1.685 1.674 1.674 1.674 1.686 1.699 1.700 1.700 1.700 1.699 1.699 1.697 1.641 1.499 1.381 1.314 1.264 1.325 1.355 1.182 0.823 0.769 0.755 0.771 0.831 1.153 1.426 1.575 1.645 1.676 1.681 1.682 1.645 1.575 1.510 1.540 1.642 1.882 2.092 2.029 1.531 1.178 1.155 1.167 1.248 1.264 1.238 1.240 1.237 1.355 1.425 1.363 1.267 1.282 1.301 1.318 1.322 1.298 1.333 1.421 1.498 1.508 1.471 1.349 1.208 1.166 1.100 1.092 1.098 1.100 1.106 1.117 1.185 1.285 1.235 1.321 1.625 2.050 2.039 1.850 1.745 1.700 1.700 1.700 1.698 1.684 1.618 1.457 1.357 1.350 1.353 1.375 1.493 1.600 1.654 1.667 1.658 1.644 1.626 1.582 1.496 1.386 1.272 1.122 0.000 
0.000 1.090 1.151 1.392 1.557 1.653 1.687 1.693 1.694 1.696 1.698 1.701 1.705 1.701 1.700 1.698 1.676 1.673 1.672 1.674 1.684 1.699 1.700 1.700 1.700 1.700 1.700 1.699 1.642 1.516 1.449 1.371 1.300 1.374 1.360 1.140 0.819 0.769 0.755 0.772 0.868 1.252 1.505 1.619 1.658 1.678 1.684 1.664 1.603 1.511 1.486 1.533 1.647 1.906 2.123 2.088 1.362 1.180 1.183 1.225 1.318 1.387 1.394 1.425 1.586 1.792 1.857 1.696 1.441 1.407 1.403 1.389 1.383 1.348 1.333 1.368 1.468 1.525 1.483 1.324 1.217 1.134 1.091 1.085 1.096 1.100 1.109 1.126 1.160 1.335 1.360 1.437 1.536 1.704 1.886 1.826 1.744 1.701 1.700 1.700 1.697 1.681 1.618 1.476 1.393 1.381 1.381 1.392 1.421 1.528 1.625 1.666 1.679 1.676 1.670 1.646 1.569 1.431 1.293 1.100 0.000 
0.000 1.102 1.170 1.422 1.577 1.663 1.693 1.698 1.699 1.699 1.700 1.703 1.702 1.700 1.700 1.698 1.675 1.674 1.674 1.676 1.690 1.699 1.700 1.700 1.700 1.700 1.700 1.700 1.659 1.568 1.505 1.428 1.421 1.424 1.377 1.095 0.826 0.775 0.765 0.782 0.877 1.238 1.467 1.584 1.636 1.646 1.641 1.602 1.506 1.453 1.461 1.512 1.631 1.860 2.024 2.060 1.373 1.214 1.230 1.312 1.442 1.522 1.555 1.571 1.728 1.865 1.908 1.883 1.634 1.567 1.557 1.515 1.450 1.426 1.365 1.379 1.424 1.473 1.441 1.314 1.226 1.123 1.090 1.087 1.096 1.103 1.118 1.145 1.403 1.836 1.768 1.557 1.625 1.666 1.731 1.754 1.727 1.700 1.699 1.697 1.691 1.673 1.620 1.515 1.424 1.404 1.399 1.403 1.419 1.488 1.583 1.638 1.654 1.654 1.659 1.644 1.563 1.415 1.270 1.079 0.000 
0.000 1.114 1.189 1.435 1.589 1.669 1.695 1.699 1.700 1.700 1.700 1.701 1.705 1.703 1.700 1.699 1.690 1.679 1.679 1.686 1.697 1.700 1.700 1.700 1.700 1.700 1.700 1.700 1.682 1.639 1.564 1.481 1.434 1.465 1.359 1.032 0.845 0.795 0.791 0.807 0.864 1.090 1.307 1.448 1.496 1.510 1.506 1.469 1.396 1.400 1.422 1.475 1.580 1.736 1.875 1.895 1.439 1.271 1.287 1.378 1.527 1.617 1.650 1.657 1.708 1.792 1.862 1.847 1.717 1.659 1.647 1.601 1.553 1.563 1.512 1.409 1.445 1.474 1.435 1.334 1.242 1.137 1.102 1.095 1.099 1.142 1.359 1.845 2.538 2.595 2.145 1.771 1.672 1.690 1.707 1.727 1.714 1.701 1.697 1.689 1.673 1.647 1.607 1.544 1.454 1.423 1.410 1.407 1.413 1.481 1.531 1.573 1.555 1.558 1.582 1.600 1.535 1.394 1.241 1.048 0.000 
0.000 1.090 1.172 1.395 1.580 1.669 1.695 1.700 1.700 1.700 1.700 1.702 1.704 1.702 1.700 1.700 1.698 1.695 1.695 1.698 1.700 1.700 1.701 1.701 1.702 1.700 1.700 1.700 1.695 1.681 1.635 1.542 1.469 1.434 1.314 0.997 0.880 0.844 0.840 0.854 0.904 1.004 1.129 1.205 1.252 1.280 1.295 1.310 1.326 1.347 1.382 1.503 1.585 1.634 1.726 1.758 1.561 1.344 1.348 1.414 1.557 1.642 1.677 1.688 1.691 1.708 1.740 1.753 1.732 1.701 1.682 1.670 1.721 1.840 1.930 1.889 1.758 1.578 1.502 1.392 1.286 1.188 1.135 1.117 1.223 1.584 2.084 2.866 3.406 3.035 2.501 1.900 1.689 1.698 1.726 1.721 1.710 1.699 1.693 1.674 1.639 1.610 1.578 1.558 1.543 1.496 1.446 1.436 1.467 1.493 1.511 1.463 1.458 1.465 1.472 1.537 1.498 1.366 1.218 1.008 0.000 
0.000 0.909 0.993 1.245 1.519 1.658 1.694 1.700 1.700 1.700 1.700 1.701 1.702 1.702 1.700 1.700 1.700 1.700 1.700 1.700 1.701 1.700 1.702 1.702 1.705 1.703 1.700 1.700 1.699 1.695 1.668 1.604 1.533 1.465 1.305 1.043 0.958 0.928 0.923 0.933 0.971 1.049 1.138 1.196 1.225 1.241 1.255 1.269 1.286 1.317 1.421 1.546 1.627 1.641 1.643 1.698 1.727 1.618 1.407 1.426 1.544 1.625 1.669 1.689 1.697 1.699 1.699 1.699 1.699 1.699 1.738 1.828 2.012 2.326 2.569 2.651 2.567 2.201 1.687 1.508 1.406 1.288 1.186 1.190 1.448 1.855 2.360 3.190 3.614 3.362 2.613 1.961 1.708 1.699 1.754 1.730 1.712 1.698 1.687 1.655 1.624 1.596 1.569 1.585 1.601 1.585 1.539 1.501 1.494 1.501 1.455 1.410 1.414 1.421 1.455 1.493 1.467 1.340 1.197 0.968 0.000 
0.000 0.528 0.608 0.996 1.416 1.636 1.692 1.699 1.700 1.700 1.700 1.700 1.700 1.700 1.700 1.700 1.700 1.700 1.700 1.700 1.704 1.704 1.700 1.702 1.705 1.704 1.700 1.700 1.700 1.699 1.689 1.659 1.616 1.545 1.355 1.147 1.084 1.056 1.048 1.052 1.073 1.120 1.174 1.207 1.224 1.232 1.239 1.250 1.272 1.308 1.364 1.526 1.633 1.666 1.654 1.664 1.746 1.793 1.671 1.431 1.482 1.562 1.634 1.678 1.695 1.699 1.700 1.699 1.699 1.706 1.781 1.962 2.362 2.918 3.208 3.248 3.062 2.670 1.991 1.567 1.493 1.356 1.219 1.180 1.441 1.861 2.374 3.186 3.603 3.386 2.688 2.017 1.737 1.747 1.771 1.746 1.719 1.697 1.682 1.645 1.621 1.595 1.567 1.595 1.612 1.617 1.583 1.529 1.471 1.412 1.394 1.396 1.398 1.416 1.485 1.494 1.446 1.314 1.178 0.956 0.000 
0.000 0.182 0.257 0.784 1.346 1.615 1.688 1.699 1.700 1.700 1.700 1.700 1.700 1.700 1.701 1.700 1.700 1.703 1.700 1.700 1.700 1.700 1.700 1.702 1.707 1.703 1.700 1.701 1.700 1.699 1.696 1.685 1.663 1.602 1.463 1.331 1.267 1.245 1.242 1.243 1.252 1.273 1.307 1.338 1.347 1.316 1.238 1.247 1.268 1.307 1.368 1.488 1.623 1.674 1.678 1.645 1.698 1.767 1.790 1.588 1.464 1.544 1.618 1.670 1.692 1.697 1.697 1.694 1.690 1.707 1.781 1.981 2.448 3.142 3.528 3.559 3.383 2.903 2.035 1.555 1.502 1.362 1.221 1.154 1.260 1.660 2.264 3.048 3.642 3.422 2.830 2.123 1.811 1.796 1.795 1.753 1.720 1.696 1.678 1.644 1.622 1.596 1.569 1.588 1.610 1.600 1.544 1.444 1.398 1.392 1.391 1.392 1.439 1.520 1.534 1.520 1.428 1.284 1.157 0.973 0.000 
0.000 0.040 0.112 0.720 1.297 1.590 1.679 1.697 1.700 1.700 1.700 1.700 1.700 1.700 1.701 1.701 1.701 1.703 1.700 1.700 1.700 1.700 1.700 1.701 1.702 1.700 1.700 1.700 1.700 1.697 1.684 1.659 1.628 1.593 1.542 1.537 1.531 1.529 1.529 1.531 1.535 1.541 1.546 1.522 1.455 1.408 1.331 1.249 1.270 1.312 1.382 1.493 1.628 1.672 1.681 1.650 1.625 1.694 1.731 1.682 1.525 1.548 1.618 1.671 1.686 1.692 1.680 1.690 1.711 1.721 1.733 1.810 2.049 2.594 3.226 3.452 3.269 2.589 1.925 1.577 1.477 1.352 1.221 1.152 1.174 1.505 2.198 3.042 3.847 3.786 3.170 2.462 1.991 1.843 1.791 1.744 1.716 1.695 1.676 1.645 1.622 1.597 1.571 1.566 1.584 1.550 1.476 1.417 1.401 1.395 1.394 1.395 1.506 1.548 1.565 1.519 1.397 1.251 1.136 0.989 0.000 
0.000 0.049 0.115 0.731 1.266 1.557 1.665 1.693 1.699 1.700 1.700 1.700 1.700 1.700 1.700 1.701 1.701 1.701 1.701 1.701 1.700 1.700 1.705 1.704 1.700 1.700 1.700 1.700 1.698 1.688 1.648 1.572 1.529 1.502 1.539 1.615 1.649 1.658 1.659 1.660 1.660 1.658 1.634 1.598 1.523 1.398 1.263 1.260 1.281 1.329 1.409 1.542 1.649 1.670 1.665 1.608 1.570 1.604 1.637 1.651 1.617 1.592 1.638 1.678 1.686 1.677 1.711 1.789 1.827 1.778 1.692 1.496 1.411 1.539 1.975 2.348 2.304 1.957 1.559 1.504 1.451 1.329 1.210 1.160 1.230 1.498 2.265 3.254 4.313 5.038 4.244 3.180 2.337 1.948 1.795 1.733 1.705 1.695 1.679 1.649 1.626 1.602 1.576 1.550 1.538 1.499 1.457 1.426 1.413 1.408 1.406 1.427 1.499 1.539 1.538 1.471 1.351 1.219 1.115 1.000 0.000 
0.000 0.222 0.279 0.844 1.277 1.541 1.655 1.691 1.699 1.700 1.700 1.700 1.700 1.700 1.700 1.700 1.700 1.700 1.701 1.702 1.704 1.700 1.705 1.705 1.700 1.700 1.700 1.700 1.696 1.673 1.595 1.554 1.523 1.506 1.513 1.632 1.681 1.692 1.694 1.694 1.694 1.686 1.673 1.611 1.457 1.287 1.281 1.285 1.307 1.407 1.533 1.629 1.671 1.676 1.637 1.537 1.539 1.550 1.573 1.603 1.616 1.634 1.673 1.685 1.685 1.728 1.821 1.981 2.062 1.931 1.645 1.275 1.218 1.153 1.190 1.556 1.672 1.472 1.469 1.498 1.424 1.290 1.185 1.253 1.357 1.617 2.362 3.440 4.692 5.867 5.548 4.142 2.912 2.137 1.837 1.736 1.702 1.697 1.687 1.666 1.637 1.612 1.586 1.559 1.530 1.500 1.467 1.448 1.440 1.436 1.433 1.457 1.484 1.493 1.474 1.414 1.308 1.187 1.099 1.005 0.000 
0.000 0.573 0.618 1.048 1.334 1.542 1.653 1.691 1.699 1.700 1.700 1.701 1.700 1.700 1.700 1.700 1.700 1.700 1.701 1.701 1.704 1.700 1.702 1.705 1.702 1.700 1.700 1.700 1.694 1.660 1.571 1.537 1.518 1.509 1.526 1.642 1.686 1.695 1.698 1.699 1.699 1.697 1.676 1.579 1.360 1.321 1.315 1.321 1.400 1.564 1.641 1.677 1.684 1.679 1.621 1.530 1.519 1.517 1.525 1.551 1.638 1.673 1.686 1.713 1.794 1.847 1.928 2.089 2.195 2.114 1.609 1.145 1.105 1.064 1.051 1.078 1.221 1.358 1.448 1.482 1.382 1.234 1.201 1.305 1.403 1.649 2.337 3.396 4.544 5.722 6.222 5.098 3.575 2.446 1.937 1.758 1.703 1.699 1.695 1.687 1.667 1.631 1.603 1.573 1.541 1.511 1.497 1.491 1.490 1.492 1.501 1.512 1.507 1.488 1.461 1.384 1.260 1.155 1.087 1.010 0.000 
0.000 0.889 0.924 1.184 1.392 1.559 1.656 1.691 1.699 1.700 1.704 1.705 1.700 1.700 1.701 1.703 1.701 1.704 1.701 1.701 1.701 1.700 1.700 1.700 1.700 1.700 1.700 1.700 1.694 1.660 1.567 1.526 1.514 1.508 1.582 1.652 1.676 1.691 1.693 1.696 1.698 1.697 1.671 1.557 1.392 1.364 1.361 1.370 1.494 1.636 1.683 1.695 1.693 1.683 1.628 1.534 1.508 1.491 1.503 1.598 1.650 1.674 1.687 1.749 1.859 1.913 1.960 2.088 2.201 2.139 1.586 1.122 1.018 0.980 0.975 1.001 1.126 1.311 1.407 1.436 1.307 1.164 1.152 1.244 1.365 1.583 2.141 2.981 3.852 4.795 5.804 5.632 4.193 2.939 2.119 1.810 1.714 1.700 1.699 1.696 1.685 1.659 1.626 1.598 1.585 1.579 1.576 1.575 1.576 1.579 1.586 1.586 1.579 1.543 1.482 1.372 1.234 1.128 1.072 1.010 0.000 
0.000 1.025 1.059 1.246 1.431 1.579 1.663 1.693 1.699 1.700 1.706 1.707 1.702 1.701 1.702 1.701 1.701 1.704 1.703 1.701 1.700 1.700 1.700 1.700 1.701 1.704 1.704 1.700 1.695 1.667 1.594 1.521 1.508 1.532 1.605 1.635 1.656 1.652 1.657 1.674 1.690 1.694 1.669 1.553 1.434 1.420 1.420 1.434 1.560 1.664 1.694 1.698 1.698 1.688 1.649 1.571 1.506 1.486 1.527 1.579 1.629 1.650 1.654 1.672 1.801 1.887 1.922 1.983 2.138 2.047 1.515 1.094 0.998 0.939 0.924 0.939 1.036 1.216 1.335 1.341 1.193 1.068 1.022 1.079 1.259 1.450 1.768 2.288 3.035 3.809 4.657 5.401 4.804 3.614 2.439 1.914 1.741 1.700 1.700 1.699 1.694 1.681 1.664 1.643 1.621 1.607 1.602 1.600 1.608 1.625 1.642 1.650 1.642 1.602 1.526 1.364 1.229 1.103 1.038 1.006 0.000 
0.000 1.057 1.094 1.279 1.462 1.598 1.671 1.695 1.699 1.700 1.705 1.705 1.701 1.701 1.706 1.706 1.700 1.700 1.701 1.701 1.700 1.700 1.700 1.700 1.700 1.700 1.700 1.700 1.692 1.659 1.583 1.519 1.506 1.531 1.583 1.608 1.574 1.560 1.581 1.621 1.676 1.690 1.669 1.570 1.493 1.489 1.492 1.508 1.616 1.680 1.697 1.699 1.698 1.686 1.650 1.587 1.523 1.492 1.501 1.526 1.545 1.552 1.552 1.549 1.546 1.562 1.594 1.724 1.858 1.784 1.422 1.119 1.007 0.926 0.894 0.895 0.933 1.073 1.196 1.182 1.044 0.947 0.921 0.927 1.061 1.245 1.461 1.804 2.333 2.982 3.715 4.544 4.958 4.222 2.991 2.105 1.798 1.708 1.700 1.700 1.698 1.693 1.683 1.665 1.640 1.616 1.600 1.596 1.603 1.622 1.656 1.675 1.670 1.644 1.547 1.378 1.237 1.099 1.011 1.002 0.000 
0.000 1.067 1.109 1.307 1.489 1.616 1.678 1.696 1.700 1.700 1.700 1.700 1.701 1.701 1.700 1.700 1.700 1.700 1.700 1.700 1.700 1.700 1.700 1.702 1.701 1.700 1.700 1.700 1.684 1.624 1.545 1.519 1.506 1.503 1.537 1.528 1.529 1.552 1.574 1.590 1.666 1.686 1.676 1.607 1.559 1.553 1.557 1.590 1.661 1.691 1.698 1.699 1.695 1.674 1.619 1.581 1.548 1.475 1.389 1.387 1.406 1.390 1.391 1.394 1.401 1.410 1.430 1.459 1.460 1.426 1.338 1.216 1.059 0.934 0.885 0.873 0.881 0.934 1.009 0.987 0.895 0.851 0.840 0.854 0.928 1.081 1.380 1.670 2.035 2.506 3.056 3.709 4.302 4.433 3.539 2.410 1.901 1.739 1.700 1.700 1.700 1.697 1.687 1.660 1.615 1.570 1.545 1.540 1.547 1.582 1.646 1.678 1.684 1.655 1.554 1.402 1.263 1.120 1.032 1.011 0.000 
0.000 1.075 1.122 1.335 1.514 1.632 1.684 1.698 1.700 1.700 1.700 1.703 1.705 1.704 1.705 1.700 1.700 1.700 1.701 1.701 1.700 1.701 1.700 1.703 1.702 1.700 1.700 1.700 1.672 1.589 1.548 1.522 1.511 1.509 1.510 1.516 1.529 1.548 1.570 1.592 1.666 1.690 1.686 1.656 1.621 1.613 1.625 1.661 1.687 1.697 1.699 1.699 1.692 1.661 1.616 1.594 1.579 1.511 1.358 1.273 1.258 1.251 1.252 1.265 1.290 1.330 1.418 1.471 1.500 1.489 1.423 1.294 1.134 0.983 0.923 0.898 0.863 0.866 0.870 0.861 0.829 0.802 0.796 0.838 0.923 1.096 1.374 1.587 1.760 2.078 2.473 2.958 3.590 4.123 3.841 2.805 2.069 1.799 1.713 1.700 1.700 1.697 1.684 1.651 1.598 1.549 1.533 1.528 1.530 1.541 1.621 1.673 1.684 1.657 1.567 1.440 1.313 1.174 1.081 1.033 0.000 
0.000 1.083 1.136 1.363 1.536 1.643 1.688 1.698 1.700 1.700 1.700 1.702 1.702 1.701 1.702 1.702 1.700 1.702 1.703 1.701 1.700 1.700 1.701 1.702 1.702 1.700 1.700 1.700 1.668 1.594 1.557 1.535 1.527 1.524 1.524 1.527 1.535 1.549 1.568 1.603 1.675 1.695 1.696 1.688 1.680 1.678 1.682 1.691 1.697 1.699 1.700 1.699 1.692 1.660 1.623 1.597 1.580 1.538 1.391 1.218 1.187 1.196 1.210 1.189 1.204 1.254 1.342 1.420 1.455 1.446 1.388 1.279 1.141 1.000 0.898 0.901 0.875 0.859 0.858 0.853 0.818 0.786 0.793 0.841 0.933 1.059 1.243 1.427 1.534 1.596 1.724 1.971 2.664 3.867 3.959 3.197 2.320 1.903 1.752 1.701 1.700 1.697 1.684 1.651 1.595 1.550 1.533 1.528 1.530 1.544 1.602 1.671 1.684 1.664 1.596 1.500 1.390 1.260 1.145 1.055 0.000 
0.000 1.093 1.151 1.388 1.554 1.653 1.690 1.699 1.700 1.700 1.700 1.700 1.700 1.700 1.701 1.701 1.700 1.702 1.703 1.701 1.700 1.700 1.701 1.700 1.700 1.700 1.700 1.700 1.675 1.611 1.580 1.565 1.556 1.607 1.611 1.561 1.546 1.554 1.587 1.655 1.689 1.698 1.699 1.698 1.697 1.696 1.697 1.699 1.700 1.700 1.700 1.699 1.694 1.673 1.629 1.598 1.577 1.559 1.455 1.238 1.201 1.273 1.329 1.239 1.141 1.177 1.243 1.293 1.310 1.306 1.275 1.208 1.107 0.987 0.906 0.882 0.885 0.908 0.884 0.845 0.804 0.791 0.809 0.872 0.970 1.050 1.090 1.148 1.157 1.103 1.113 1.386 2.091 3.460 3.936 3.388 2.522 2.009 1.800 1.722 1.700 1.698 1.690 1.666 1.613 1.552 1.534 1.530 1.534 1.549 1.600 1.673 1.687 1.678 1.637 1.569 1.468 1.342 1.217 1.095 0.000 
0.000 1.094 1.156 1.397 1.567 1.660 1.692 1.699 1.700 1.700 1.700 1.700 1.700 1.700 1.700 1.700 1.700 1.700 1.700 1.700 1.700 1.700 1.700 1.700 1.700 1.700 1.700 1.700 1.688 1.664 1.639 1.635 1.647 1.669 1.670 1.651 1.636 1.638 1.658 1.681 1.693 1.698 1.700 1.700 1.700 1.700 1.700 1.700 1.700 1.700 1.700 1.700 1.698 1.688 1.664 1.617 1.586 1.593 1.555 1.447 1.397 1.418 1.392 1.328 1.120 1.102 1.109 1.117 1.121 1.126 1.126 1.107 1.081 1.042 0.948 0.934 0.954 0.961 0.932 0.861 0.815 0.820 0.859 0.954 1.067 1.134 1.137 1.105 1.077 1.072 1.102 1.341 1.991 3.031 3.727 3.432 2.602 2.054 1.824 1.735 1.705 1.699 1.696 1.684 1.642 1.558 1.543 1.541 1.546 1.561 1.617 1.680 1.694 1.691 1.674 1.630 1.540 1.412 1.282 1.153 0.000 
0.000 1.061 1.116 1.389 1.577 1.666 1.694 1.699 1.700 1.700 1.700 1.700 1.700 1.700 1.700 1.700 1.700 1.701 1.701 1.700 1.700 1.700 1.700 1.700 1.700 1.700 1.700 1.700 1.697 1.692 1.687 1.686 1.689 1.693 1.693 1.686 1.672 1.666 1.670 1.680 1.690 1.696 1.699 1.700 1.700 1.700 1.700 1.700 1.700 1.700 1.700 1.700 1.699 1.697 1.688 1.662 1.616 1.663 1.788 1.952 1.833 1.723 1.538 1.370 1.189 1.045 1.012 1.001 1.001 1.009 1.030 1.045 1.141 1.145 1.062 0.986 1.004 0.991 0.958 0.873 0.861 0.879 0.948 1.092 1.209 1.243 1.193 1.123 1.063 1.046 1.080 1.352 1.932 2.554 3.282 3.233 2.579 2.055 1.828 1.736 1.719 1.702 1.699 1.693 1.664 1.583 1.565 1.564 1.568 1.582 1.655 1.690 1.698 1.698 1.691 1.660 1.580 1.455 1.336 1.211 0.000 
0.000 1.017 1.063 1.401 1.591 1.673 1.696 1.700 1.700 1.700 1.700 1.701 1.700 1.700 1.700 1.702 1.703 1.703 1.703 1.701 1.701 1.700 1.700 1.700 1.700 1.700 1.700 1.700 1.700 1.699 1.698 1.698 1.699 1.699 1.698 1.695 1.684 1.664 1.643 1.639 1.656 1.679 1.694 1.699 1.700 1.700 1.701 1.701 1.701 1.701 1.701 1.700 1.700 1.699 1.696 1.683 1.648 1.698 1.858 2.232 2.586 2.328 1.953 1.593 1.306 1.115 1.005 0.971 0.965 0.987 1.028 1.068 1.169 1.168 1.126 1.033 1.029 1.020 0.969 0.921 0.926 0.972 1.110 1.196 1.285 1.293 1.257 1.120 1.043 1.018 1.036 1.349 1.789 2.108 2.437 2.552 2.335 2.006 1.818 1.739 1.717 1.702 1.700 1.697 1.682 1.645 1.606 1.600 1.613 1.654 1.683 1.696 1.699 1.699 1.693 1.663 1.586 1.471 1.365 1.215 0.000 
0.000 1.048 1.106 1.457 1.615 1.680 1.697 1.700 1.700 1.700 1.700 1.701 1.704 1.701 1.700 1.701 1.701 1.702 1.701 1.700 1.700 1.700 1.700 1.700 1.700 1.700 1.700 1.700 1.700 1.700 1.700 1.700 1.700 1.700 1.699 1.690 1.654 1.581 1.553 1.554 1.569 1.639 1.686 1.698 1.700 1.700 1.702 1.703 1.701 1.704 1.704 1.703 1.700 1.700 1.699 1.694 1.680 1.711 1.857 2.216 2.780 3.106 2.663 2.184 1.790 1.521 1.360 1.259 1.216 1.216 1.171 1.137 1.144 1.136 1.037 1.016 1.036 1.034 0.986 0.996 1.113 1.248 1.416 1.508 1.444 1.320 1.255 1.105 1.026 1.000 1.022 1.309 1.615 1.768 1.804 1.848 1.877 1.811 1.730 1.699 1.699 1.703 1.699 1.699 1.694 1.686 1.676 1.674 1.679 1.689 1.696 1.699 1.699 1.699 1.689 1.651 1.567 1.447 1.343 1.165 0.000 
0.000 1.127 1.207 1.496 1.620 1.677 1.695 1.699 1.700 1.700 1.700 1.702 1.704 1.700 1.700 1.700 1.700 1.700 1.700 1.700 1.700 1.700 1.700 1.701 1.700 1.700 1.700 1.700 1.700 1.700 1.700 1.700 1.700 1.700 1.697 1.673 1.588 1.549 1.544 1.546 1.563 1.609 1.680 1.697 1.700 1.700 1.703 1.704 1.702 1.701 1.700 1.701 1.700 1.700 1.700 1.698 1.694 1.711 1.820 2.091 2.599 3.081 3.256 2.860 2.364 2.130 2.089 2.069 1.976 1.768 1.494 1.307 1.168 1.054 0.990 0.988 1.023 1.039 1.031 1.219 1.563 1.829 1.975 1.826 1.599 1.352 1.201 1.081 1.009 0.991 1.031 1.270 1.496 1.575 1.586 1.645 1.681 1.693 1.697 1.696 1.694 1.702 1.693 1.696 1.697 1.697 1.697 1.696 1.697 1.699 1.699 1.700 1.700 1.697 1.682 1.628 1.525 1.384 1.273 1.115 0.000 
0.000 1.171 1.260 1.483 1.596 1.657 1.685 1.696 1.699 1.700 1.703 1.704 1.704 1.700 1.700 1.700 1.700 1.700 1.700 1.700 1.700 1.700 1.700 1.702 1.703 1.700 1.700 1.700 1.700 1.700 1.700 1.700 1.700 1.700 1.693 1.653 1.566 1.548 1.542 1.545 1.562 1.608 1.681 1.698 1.700 1.700 1.700 1.704 1.701 1.702 1.704 1.703 1.700 1.701 1.702 1.700 1.699 1.698 1.749 1.890 2.213 2.674 3.055 3.161 2.851 2.689 2.727 3.009 3.264 2.808 2.242 1.796 1.399 1.081 0.992 0.999 1.059 1.135 1.326 1.744 2.245 2.596 2.630 2.188 1.686 1.167 1.121 1.047 0.992 0.997 1.062 1.293 1.435 1.571 1.648 1.679 1.690 1.693 1.692 1.680 1.664 1.712 1.721 1.714 1.696 1.698 1.700 1.700 1.700 1.700 1.700 1.700 1.700 1.696 1.673 1.602 1.471 1.314 1.198 1.068 0.000 
0.000 1.165 1.244 1.409 1.527 1.614 1.668 1.692 1.699 1.700 1.701 1.703 1.704 1.700 1.700 1.700 1.700 1.700 1.699 1.698 1.698 1.698 1.699 1.700 1.700 1.700 1.699 1.699 1.699 1.699 1.700 1.700 1.700 1.699 1.692 1.646 1.570 1.550 1.547 1.551 1.567 1.634 1.688 1.699 1.700 1.702 1.703 1.702 1.703 1.705 1.704 1.704 1.701 1.701 1.704 1.700 1.700 1.698 1.706 1.763 1.906 2.195 2.490 2.675 2.738 2.676 2.681 2.905 3.433 3.804 3.455 2.783 2.144 1.558 1.294 1.291 1.388 1.528 1.788 2.326 2.980 3.497 3.386 2.703 1.628 1.132 1.052 1.003 0.991 1.017 1.113 1.301 1.497 1.621 1.668 1.681 1.691 1.690 1.673 1.635 1.604 1.774 1.803 1.765 1.722 1.700 1.700 1.700 1.700 1.700 1.700 1.700 1.700 1.695 1.665 1.578 1.431 1.265 1.148 1.024 0.000 
0.000 1.127 1.185 1.304 1.456 1.569 1.651 1.688 1.698 1.700 1.700 1.700 1.700 1.700 1.700 1.700 1.699 1.695 1.687 1.678 1.676 1.682 1.691 1.697 1.699 1.697 1.692 1.686 1.686 1.693 1.698 1.700 1.700 1.700 1.694 1.659 1.580 1.567 1.565 1.569 1.602 1.671 1.695 1.700 1.700 1.700 1.701 1.702 1.703 1.708 1.707 1.701 1.702 1.702 1.705 1.700 1.700 1.700 1.699 1.707 1.755 1.857 2.009 2.145 2.254 2.337 2.419 2.595 3.006 3.630 3.998 3.863 3.223 2.404 2.004 1.942 1.957 2.008 2.202 2.898 3.953 4.365 4.139 3.384 1.664 1.125 1.040 1.004 1.012 1.058 1.178 1.378 1.540 1.618 1.658 1.670 1.668 1.657 1.624 1.581 1.565 1.844 1.896 1.834 1.761 1.718 1.700 1.700 1.700 1.700 1.700 1.700 1.699 1.693 1.657 1.559 1.401 1.237 1.124 0.981 0.000 
0.000 1.081 1.119 1.236 1.409 1.550 1.645 1.688 1.698 1.700 1.700 1.700 1.700 1.700 1.700 1.699 1.693 1.671 1.630 1.590 1.583 1.614 1.658 1.687 1.695 1.685 1.658 1.631 1.633 1.665 1.690 1.698 1.700 1.700 1.697 1.681 1.646 1.612 1.607 1.628 1.668 1.691 1.699 1.700 1.700 1.700 1.700 1.701 1.705 1.702 1.703 1.701 1.702 1.702 1.701 1.700 1.700 1.700 1.700 1.700 1.699 1.707 1.749 1.804 1.860 1.921 2.000 2.132 2.417 2.983 3.545 3.873 3.812 3.246 2.865 2.644 2.510 2.409 2.504 2.928 3.499 4.092 4.216 3.699 2.110 1.147 1.071 1.084 1.143 1.169 1.249 1.427 1.539 1.590 1.602 1.576 1.553 1.538 1.508 1.453 1.445 1.795 1.914 1.883 1.785 1.727 1.704 1.700 1.700 1.700 1.700 1.700 1.699 1.690 1.647 1.538 1.373 1.215 1.110 0.963 0.000 
0.000 1.052 1.081 1.214 1.390 1.547 1.647 1.689 1.699 1.700 1.700 1.700 1.700 1.700 1.698 1.693 1.671 1.606 1.504 1.500 1.504 1.519 1.615 1.670 1.685 1.654 1.576 1.576 1.583 1.623 1.680 1.697 1.700 1.700 1.699 1.695 1.688 1.681 1.680 1.685 1.694 1.698 1.700 1.700 1.700 1.700 1.701 1.701 1.706 1.704 1.703 1.702 1.701 1.700 1.700 1.700 1.700 1.700 1.700 1.700 1.699 1.688 1.642 1.641 1.655 1.676 1.710 1.775 1.911 2.194 2.653 3.025 3.223 3.311 3.162 2.996 2.780 2.551 2.431 2.532 2.884 3.206 3.331 3.262 2.624 1.646 1.566 1.621 1.697 1.713 1.596 1.458 1.498 1.531 1.462 1.402 1.377 1.324 1.318 1.340 1.421 1.591 1.859 1.878 1.790 1.728 1.705 1.700 1.700 1.700 1.700 1.702 1.698 1.686 1.633 1.515 1.343 1.194 1.098 0.970 0.000 
0.000 1.037 1.061 1.205 1.395 1.556 1.653 1.690 1.699 1.700 1.700 1.700 1.700 1.697 1.687 1.664 1.611 1.488 1.455 1.456 1.467 1.499 1.600 1.658 1.671 1.604 1.545 1.545 1.554 1.598 1.675 1.696 1.700 1.700 1.700 1.699 1.699 1.698 1.697 1.698 1.699 1.700 1.700 1.700 1.700 1.700 1.701 1.701 1.706 1.704 1.702 1.701 1.700 1.700 1.700 1.700 1.700 1.700 1.700 1.700 1.697 1.678 1.597 1.576 1.571 1.575 1.588 1.620 1.684 1.805 2.007 2.266 2.505 2.649 2.729 2.702 2.580 2.353 2.212 2.218 2.298 2.385 2.459 2.533 2.523 2.328 2.364 2.419 2.439 2.322 2.024 1.720 1.511 1.454 1.399 1.378 1.358 1.307 1.270 1.299 1.430 1.536 1.710 1.801 1.766 1.720 1.702 1.700 1.700 1.700 1.700 1.700 1.697 1.679 1.616 1.488 1.324 1.181 1.088 0.977 0.000 
0.000 0.998 1.014 1.194 1.414 1.574 1.661 1.692 1.699 1.700 1.700 1.700 1.698 1.686 1.648 1.578 1.473 1.436 1.431 1.436 1.462 1.496 1.609 1.652 1.655 1.548 1.531 1.532 1.548 1.596 1.675 1.697 1.700 1.700 1.700 1.700 1.700 1.700 1.699 1.699 1.699 1.699 1.700 1.700 1.706 1.702 1.700 1.700 1.701 1.703 1.702 1.700 1.701 1.701 1.700 1.700 1.700 1.700 1.700 1.700 1.697 1.673 1.582 1.557 1.547 1.546 1.552 1.575 1.662 1.693 1.755 1.873 2.015 2.130 2.196 2.210 2.164 2.064 1.971 1.926 1.922 1.941 1.975 2.042 2.192 2.334 2.404 2.460 2.473 2.413 2.208 1.881 1.600 1.462 1.393 1.379 1.357 1.314 1.276 1.283 1.368 1.496 1.632 1.689 1.703 1.700 1.700 1.700 1.700 1.700 1.700 1.700 1.696 1.673 1.599 1.469 1.323 1.176 1.078 0.989 0.000 
0.000 0.952 0.959 1.206 1.439 1.593 1.670 1.695 1.699 1.700 1.700 1.700 1.694 1.663 1.572 1.485 1.446 1.428 1.425 1.437 1.466 1.536 1.643 1.661 1.641 1.528 1.528 1.533 1.549 1.609 1.681 1.698 1.700 1.700 1.700 1.700 1.700 1.698 1.695 1.692 1.691 1.693 1.697 1.699 1.705 1.703 1.707 1.701 1.708 1.708 1.701 1.700 1.700 1.700 1.700 1.700 1.701 1.700 1.700 1.700 1.697 1.678 1.600 1.557 1.548 1.548 1.557 1.621 1.680 1.697 1.699 1.730 1.793 1.848 1.874 1.878 1.869 1.832 1.785 1.763 1.759 1.761 1.776 1.812 1.895 2.065 2.205 2.248 2.235 2.170 2.037 1.828 1.608 1.518 1.436 1.398 1.377 1.354 1.343 1.349 1.373 1.484 1.598 1.659 1.692 1.699 1.700 1.700 1.700 1.700 1.700 1.700 1.695 1.668 1.585 1.470 1.330 1.179 1.074 1.007 0.000 
0.000 0.974 0.990 1.261 1.476 1.614 1.678 1.696 1.700 1.700 1.700 1.699 1.690 1.637 1.542 1.482 1.445 1.432 1.435 1.450 1.547 1.631 1.673 1.675 1.633 1.534 1.535 1.542 1.558 1.632 1.687 1.699 1.700 1.700 1.700 1.700 1.698 1.688 1.668 1.648 1.643 1.658 1.680 1.695 1.699 1.700 1.707 1.702 1.708 1.708 1.700 1.704 1.706 1.701 1.700 1.700 1.700 1.700 1.700 1.700 1.698 1.688 1.647 1.590 1.576 1.576 1.625 1.671 1.693 1.699 1.700 1.700 1.715 1.735 1.743 1.744 1.741 1.729 1.712 1.703 1.701 1.702 1.707 1.723 1.760 1.833 1.898 1.917 1.915 1.892 1.838 1.743 1.660 1.632 1.601 1.575 1.536 1.451 1.435 1.443 1.463 1.508 1.581 1.661 1.693 1.699 1.700 1.701 1.700 1.700 1.700 1.700 1.695 1.666 1.586 1.482 1.350 1.203 1.094 1.024 0.000 
0.000 1.039 1.074 1.316 1.499 1.622 1.679 1.696 1.699 1.700 1.700 1.699 1.688 1.628 1.542 1.487 1.460 1.458 1.465 1.582 1.647 1.680 1.689 1.685 1.638 1.553 1.556 1.566 1.583 1.658 1.692 1.699 1.700 1.700 1.700 1.699 1.690 1.658 1.614 1.609 1.610 1.622 1.650 1.688 1.698 1.700 1.700 1.700 1.703 1.702 1.701 1.700 1.705 1.704 1.701 1.700 1.701 1.700 1.700 1.700 1.699 1.696 1.685 1.670 1.664 1.667 1.681 1.693 1.698 1.700 1.700 1.700 1.700 1.700 1.701 1.701 1.700 1.700 1.700 1.700 1.700 1.700 1.700 1.698 1.708 1.733 1.755 1.764 1.766 1.769 1.760 1.712 1.691 1.684 1.676 1.665 1.634 1.563 1.516 1.520 1.531 1.553 1.610 1.675 1.696 1.700 1.700 1.700 1.700 1.700 1.700 1.700 1.695 1.670 1.601 1.510 1.393 1.259 1.149 1.044 0.000 
0.000 1.078 1.125 1.320 1.485 1.602 1.663 1.690 1.698 1.700 1.700 1.699 1.691 1.645 1.549 1.514 1.507 1.509 1.586 1.656 1.686 1.696 1.696 1.692 1.657 1.580 1.580 1.589 1.632 1.680 1.696 1.700 1.700 1.700 1.700 1.697 1.676 1.615 1.600 1.596 1.602 1.622 1.647 1.686 1.698 1.700 1.700 1.700 1.700 1.701 1.703 1.700 1.700 1.701 1.700 1.700 1.702 1.702 1.700 1.700 1.700 1.699 1.697 1.695 1.694 1.695 1.697 1.699 1.700 1.700 1.700 1.700 1.700 1.700 1.700 1.700 1.700 1.700 1.700 1.700 1.700 1.700 1.700 1.700 1.699 1.699 1.704 1.706 1.709 1.714 1.725 1.709 1.699 1.698 1.696 1.692 1.678 1.638 1.580 1.581 1.586 1.606 1.662 1.690 1.699 1.700 1.704 1.705 1.700 1.700 1.700 1.700 1.697 1.681 1.639 1.565 1.459 1.334 1.217 1.067 0.000 
0.000 1.089 1.131 1.256 1.382 1.515 1.610 1.663 1.690 1.698 1.700 1.699 1.695 1.672 1.628 1.591 1.589 1.618 1.662 1.687 1.697 1.698 1.699 1.696 1.680 1.648 1.628 1.638 1.677 1.693 1.698 1.699 1.700 1.700 1.699 1.694 1.662 1.600 1.588 1.587 1.605 1.632 1.652 1.687 1.699 1.700 1.700 1.700 1.701 1.701 1.701 1.702 1.700 1.700 1.700 1.702 1.702 1.700 1.700 1.700 1.700 1.700 1.700 1.700 1.699 1.700 1.700 1.700 1.700 1.700 1.700 1.700 1.700 1.700 1.700 1.700 1.700 1.700 1.700 1.700 1.700 1.700 1.700 1.700 1.700 1.700 1.700 1.700 1.700 1.700 1.700 1.700 1.700 1.700 1.700 1.699 1.694 1.682 1.664 1.656 1.658 1.674 1.690 1.697 1.700 1.700 1.701 1.702 1.701 1.700 1.700 1.700 1.699 1.693 1.674 1.630 1.538 1.398 1.259 1.090 0.000 
0.000 1.083 1.102 1.160 1.258 1.396 1.511 1.618 1.679 1.694 1.698 1.697 1.695 1.688 1.674 1.672 1.674 1.681 1.692 1.697 1.697 1.698 1.697 1.695 1.690 1.680 1.680 1.686 1.695 1.698 1.698 1.699 1.697 1.696 1.695 1.691 1.660 1.596 1.580 1.582 1.589 1.613 1.659 1.693 1.705 1.704 1.707 1.700 1.701 1.702 1.702 1.702 1.700 1.700 1.700 1.701 1.704 1.700 1.701 1.700 1.700 1.700 1.700 1.700 1.700 1.700 1.700 1.700 1.700 1.701 1.701 1.700 1.700 1.700 1.701 1.701 1.700 1.700 1.700 1.700 1.700 1.700 1.700 1.700 1.700 1.700 1.700 1.700 1.700 1.704 1.709 1.701 1.704 1.708 1.713 1.704 1.699 1.697 1.694 1.693 1.694 1.696 1.698 1.700 1.700 1.700 1.700 1.701 1.701 1.701 1.702 1.700 1.700 1.698 1.690 1.656 1.564 1.412 1.260 1.087 0.000 
0.000 1.066 1.050 1.116 1.232 1.368 1.481 1.595 1.672 1.689 1.691 1.682 1.673 1.672 1.677 1.685 1.694 1.697 1.698 1.698 1.697 1.691 1.680 1.671 1.671 1.679 1.688 1.696 1.699 1.699 1.697 1.690 1.679 1.669 1.670 1.677 1.665 1.608 1.578 1.580 1.584 1.641 1.683 1.697 1.700 1.717 1.714 1.703 1.704 1.704 1.702 1.701 1.700 1.700 1.700 1.700 1.701 1.701 1.703 1.700 1.700 1.701 1.701 1.700 1.700 1.700 1.700 1.700 1.700 1.700 1.701 1.700 1.701 1.701 1.704 1.703 1.701 1.700 1.700 1.700 1.700 1.700 1.700 1.700 1.700 1.700 1.700 1.700 1.700 1.701 1.704 1.706 1.709 1.710 1.703 1.700 1.700 1.700 1.700 1.699 1.700 1.700 1.700 1.703 1.700 1.702 1.701 1.700 1.700 1.701 1.703 1.702 1.700 1.699 1.692 1.655 1.555 1.393 1.241 1.060 0.000 
0.000 1.057 1.022 1.100 1.219 1.348 1.459 1.599 1.665 1.682 1.665 1.626 1.597 1.598 1.629 1.673 1.694 1.699 1.700 1.698 1.689 1.663 1.620 1.604 1.603 1.629 1.675 1.696 1.700 1.698 1.688 1.659 1.614 1.594 1.590 1.628 1.663 1.665 1.649 1.647 1.660 1.682 1.695 1.699 1.700 1.742 1.711 1.711 1.705 1.710 1.706 1.700 1.700 1.700 1.700 1.700 1.700 1.700 1.702 1.700 1.700 1.702 1.703 1.705 1.707 1.703 1.700 1.700 1.700 1.700 1.700 1.700 1.702 1.700 1.704 1.703 1.701 1.700 1.700 1.700 1.700 1.700 1.700 1.700 1.700 1.700 1.700 1.700 1.700 1.701 1.702 1.705 1.706 1.705 1.709 1.705 1.700 1.700 1.704 1.706 1.700 1.701 1.701 1.707 1.700 1.703 1.703 1.701 1.700 1.700 1.701 1.701 1.700 1.699 1.689 1.644 1.535 1.368 1.219 1.032 0.000 
0.000 1.078 1.061 1.121 1.218 1.335 1.491 1.609 1.651 1.665 1.612 1.547 1.561 1.572 1.588 1.650 1.689 1.698 1.699 1.695 1.671 1.609 1.597 1.592 1.592 1.596 1.655 1.693 1.700 1.695 1.668 1.596 1.578 1.571 1.568 1.571 1.658 1.686 1.689 1.689 1.692 1.697 1.699 1.700 1.703 1.718 1.706 1.719 1.703 1.700 1.700 1.700 1.700 1.699 1.698 1.697 1.698 1.699 1.700 1.700 1.700 1.701 1.701 1.709 1.709 1.704 1.702 1.700 1.700 1.700 1.700 1.700 1.701 1.700 1.700 1.701 1.700 1.700 1.700 1.700 1.700 1.700 1.700 1.700 1.700 1.700 1.700 1.700 1.700 1.700 1.701 1.702 1.702 1.703 1.703 1.701 1.700 1.705 1.705 1.708 1.702 1.705 1.705 1.700 1.700 1.700 1.700 1.701 1.701 1.700 1.700 1.700 1.700 1.698 1.684 1.629 1.510 1.340 1.198 1.011 0.000 
0.000 1.128 1.154 1.324 1.376 1.419 1.485 1.564 1.629 1.632 1.548 1.523 1.537 1.552 1.577 1.644 1.688 1.698 1.699 1.692 1.651 1.590 1.578 1.575 1.575 1.583 1.651 1.692 1.699 1.691 1.646 1.581 1.560 1.549 1.545 1.560 1.657 1.691 1.697 1.698 1.699 1.700 1.701 1.700 1.703 1.709 1.702 1.711 1.704 1.700 1.700 1.699 1.697 1.691 1.685 1.683 1.687 1.693 1.698 1.700 1.700 1.700 1.701 1.704 1.707 1.702 1.703 1.700 1.700 1.700 1.700 1.700 1.700 1.700 1.700 1.700 1.700 1.700 1.700 1.700 1.700 1.700 1.700 1.700 1.700 1.700 1.700 1.700 1.700 1.700 1.700 1.701 1.701 1.701 1.701 1.700 1.702 1.705 1.705 1.704 1.702 1.702 1.701 1.700 1.700 1.700 1.700 1.700 1.700 1.700 1.700 1.700 1.700 1.697 1.678 1.612 1.482 1.311 1.177 0.995 0.000 
0.000 1.182 1.245 1.417 1.423 1.431 1.429 1.469 1.541 1.580 1.515 1.510 1.521 1.537 1.561 1.649 1.688 1.698 1.699 1.691 1.643 1.562 1.550 1.548 1.551 1.574 1.658 1.693 1.699 1.690 1.638 1.575 1.547 1.529 1.521 1.578 1.661 1.687 1.697 1.699 1.699 1.700 1.700 1.700 1.700 1.701 1.701 1.702 1.701 1.700 1.700 1.698 1.689 1.672 1.672 1.672 1.672 1.683 1.696 1.699 1.700 1.700 1.700 1.701 1.701 1.700 1.700 1.700 1.700 1.699 1.699 1.699 1.699 1.699 1.700 1.700 1.700 1.702 1.700 1.700 1.700 1.700 1.700 1.700 1.700 1.700 1.700 1.700 1.700 1.700 1.700 1.700 1.700 1.700 1.700 1.701 1.702 1.703 1.708 1.707 1.702 1.701 1.700 1.700 1.701 1.703 1.703 1.700 1.700 1.701 1.700 1.700 1.700 1.696 1.672 1.595 1.454 1.283 1.156 0.980 0.000 
0.000 1.224 1.302 1.417 1.441 1.350 1.382 1.434 1.466 1.540 1.533 1.504 1.512 1.523 1.582 1.646 1.681 1.695 1.699 1.692 1.655 1.564 1.511 1.510 1.543 1.630 1.678 1.696 1.699 1.692 1.649 1.574 1.540 1.506 1.547 1.618 1.645 1.676 1.681 1.686 1.692 1.697 1.700 1.700 1.700 1.700 1.700 1.700 1.700 1.700 1.699 1.695 1.676 1.667 1.665 1.664 1.665 1.676 1.694 1.699 1.702 1.700 1.700 1.700 1.700 1.700 1.700 1.699 1.696 1.690 1.683 1.680 1.685 1.693 1.698 1.700 1.703 1.707 1.700 1.700 1.700 1.700 1.700 1.700 1.700 1.700 1.700 1.700 1.700 1.700 1.700 1.700 1.700 1.700 1.702 1.700 1.700 1.701 1.702 1.702 1.701 1.701 1.700 1.700 1.700 1.701 1.701 1.701 1.700 1.701 1.700 1.700 1.700 1.695 1.666 1.578 1.427 1.257 1.137 0.985 0.000 
0.000 1.241 1.314 1.405 1.378 1.340 1.390 1.439 1.470 1.578 1.611 1.582 1.535 1.517 1.557 1.609 1.654 1.683 1.695 1.694 1.673 1.626 1.571 1.576 1.615 1.664 1.690 1.698 1.700 1.695 1.660 1.578 1.536 1.528 1.593 1.614 1.627 1.607 1.593 1.613 1.652 1.683 1.697 1.700 1.700 1.701 1.700 1.700 1.700 1.700 1.699 1.691 1.672 1.665 1.660 1.658 1.660 1.676 1.695 1.699 1.702 1.700 1.700 1.700 1.700 1.700 1.699 1.695 1.676 1.638 1.598 1.588 1.615 1.658 1.689 1.698 1.700 1.706 1.700 1.700 1.700 1.700 1.700 1.700 1.700 1.700 1.700 1.700 1.700 1.700 1.700 1.700 1.700 1.700 1.702 1.700 1.700 1.700 1.701 1.701 1.700 1.700 1.700 1.700 1.701 1.701 1.702 1.701 1.700 1.700 1.700 1.700 1.699 1.693 1.658 1.560 1.400 1.233 1.122 1.013 0.000 
0.000 1.218 1.277 1.347 1.318 1.358 1.410 1.455 1.493 1.621 1.648 1.633 1.579 1.514 1.505 1.512 1.585 1.650 1.682 1.677 1.646 1.611 1.587 1.582 1.606 1.651 1.688 1.699 1.700 1.696 1.663 1.593 1.543 1.549 1.592 1.582 1.496 1.395 1.369 1.410 1.527 1.634 1.686 1.698 1.700 1.700 1.700 1.700 1.700 1.700 1.699 1.691 1.673 1.665 1.659 1.653 1.657 1.685 1.697 1.700 1.700 1.700 1.700 1.700 1.700 1.700 1.698 1.683 1.625 1.565 1.556 1.555 1.564 1.605 1.677 1.697 1.700 1.700 1.700 1.700 1.700 1.700 1.702 1.700 1.700 1.700 1.700 1.700 1.700 1.700 1.700 1.700 1.700 1.700 1.701 1.700 1.700 1.700 1.700 1.700 1.700 1.700 1.700 1.700 1.701 1.705 1.706 1.703 1.701 1.700 1.700 1.700 1.699 1.690 1.648 1.540 1.373 1.212 1.110 1.077 0.000 
0.000 1.161 1.205 1.270 1.317 1.384 1.444 1.491 1.599 1.660 1.666 1.645 1.549 1.502 1.488 1.475 1.494 1.592 1.644 1.589 1.449 1.336 1.302 1.312 1.390 1.552 1.667 1.697 1.700 1.698 1.676 1.621 1.580 1.548 1.534 1.363 1.158 1.143 1.147 1.170 1.238 1.521 1.652 1.690 1.698 1.700 1.700 1.700 1.700 1.700 1.705 1.694 1.676 1.663 1.656 1.661 1.681 1.694 1.699 1.700 1.700 1.700 1.700 1.700 1.700 1.700 1.695 1.664 1.575 1.553 1.545 1.544 1.558 1.588 1.673 1.696 1.700 1.700 1.700 1.700 1.700 1.700 1.700 1.700 1.700 1.700 1.700 1.700 1.700 1.700 1.700 1.700 1.700 1.700 1.700 1.700 1.700 1.700 1.700 1.700 1.701 1.701 1.700 1.701 1.703 1.705 1.707 1.706 1.705 1.700 1.700 1.700 1.698 1.685 1.633 1.516 1.346 1.192 1.098 1.069 0.000 
0.000 1.102 1.136 1.247 1.370 1.480 1.562 1.622 1.665 1.682 1.680 1.637 1.531 1.507 1.477 1.441 1.404 1.504 1.559 1.413 1.165 1.133 1.126 1.135 1.177 1.421 1.637 1.693 1.700 1.699 1.692 1.674 1.641 1.603 1.394 1.059 0.958 0.917 0.910 0.924 0.976 1.344 1.569 1.664 1.689 1.695 1.698 1.700 1.700 1.700 1.700 1.697 1.692 1.686 1.683 1.684 1.690 1.695 1.698 1.700 1.700 1.700 1.700 1.700 1.700 1.699 1.692 1.650 1.573 1.551 1.543 1.545 1.559 1.600 1.677 1.697 1.700 1.700 1.700 1.700 1.700 1.700 1.699 1.699 1.699 1.699 1.700 1.700 1.700 1.701 1.700 1.700 1.700 1.700 1.700 1.700 1.700 1.700 1.700 1.700 1.700 1.700 1.700 1.700 1.701 1.706 1.704 1.700 1.700 1.700 1.700 1.700 1.697 1.680 1.617 1.488 1.322 1.172 1.088 1.062 0.000 
0.000 1.071 1.103 1.256 1.422 1.557 1.640 1.677 1.692 1.693 1.687 1.641 1.557 1.519 1.471 1.410 1.341 1.375 1.428 1.224 0.969 0.935 0.931 0.949 1.017 1.355 1.622 1.692 1.700 1.700 1.699 1.694 1.684 1.614 1.282 0.955 0.797 0.714 0.686 0.688 0.721 1.087 1.404 1.561 1.611 1.639 1.674 1.695 1.700 1.700 1.700 1.699 1.698 1.694 1.691 1.688 1.689 1.691 1.695 1.698 1.700 1.700 1.700 1.700 1.700 1.699 1.692 1.653 1.576 1.555 1.552 1.556 1.568 1.646 1.689 1.699 1.700 1.700 1.700 1.700 1.699 1.697 1.693 1.689 1.688 1.691 1.696 1.699 1.700 1.703 1.704 1.700 1.700 1.700 1.700 1.700 1.700 1.700 1.700 1.700 1.700 1.700 1.700 1.700 1.700 1.701 1.701 1.700 1.700 1.700 1.700 1.700 1.696 1.674 1.603 1.483 1.327 1.173 1.083 1.059 0.000 
0.000 1.065 1.099 1.275 1.456 1.592 1.667 1.692 1.698 1.698 1.692 1.662 1.588 1.533 1.464 1.380 1.288 1.252 1.271 1.026 0.789 0.762 0.763 0.796 0.931 1.335 1.617 1.691 1.700 1.700 1.700 1.699 1.693 1.613 1.244 0.893 0.689 0.571 0.521 0.512 0.527 0.714 1.046 1.201 1.274 1.384 1.575 1.678 1.698 1.700 1.700 1.700 1.699 1.694 1.681 1.662 1.650 1.654 1.673 1.690 1.698 1.700 1.700 1.700 1.700 1.699 1.695 1.672 1.613 1.579 1.577 1.581 1.640 1.680 1.696 1.700 1.700 1.700 1.700 1.699 1.695 1.680 1.653 1.629 1.625 1.647 1.675 1.693 1.699 1.700 1.700 1.701 1.700 1.700 1.700 1.700 1.700 1.700 1.700 1.703 1.703 1.700 1.700 1.700 1.700 1.700 1.700 1.700 1.700 1.700 1.700 1.700 1.696 1.672 1.599 1.490 1.346 1.195 1.099 1.074 0.000 
0.000 1.060 1.095 1.280 1.475 1.612 1.677 1.696 1.699 1.699 1.697 1.683 1.650 1.582 1.465 1.366 1.270 1.217 1.141 0.814 0.652 0.632 0.638 0.693 0.875 1.334 1.616 1.691 1.700 1.700 1.700 1.700 1.693 1.613 1.241 0.858 0.622 0.477 0.407 0.387 0.392 0.431 0.530 0.724 0.985 1.236 1.478 1.661 1.697 1.700 1.700 1.700 1.697 1.680 1.635 1.605 1.603 1.604 1.617 1.676 1.696 1.700 1.700 1.700 1.700 1.700 1.698 1.690 1.675 1.660 1.658 1.667 1.685 1.695 1.699 1.700 1.700 1.700 1.700 1.697 1.681 1.630 1.540 1.514 1.508 1.531 1.627 1.676 1.695 1.698 1.699 1.699 1.700 1.700 1.700 1.700 1.700 1.700 1.700 1.700 1.701 1.701 1.700 1.700 1.700 1.700 1.700 1.700 1.699 1.699 1.698 1.698 1.695 1.674 1.610 1.513 1.387 1.246 1.153 1.120 0.000 
0.000 1.022 1.050 1.267 1.488 1.625 1.682 1.697 1.700 1.700 1.699 1.695 1.683 1.645 1.557 1.421 1.307 1.255 1.076 0.644 0.545 0.531 0.542 0.632 0.836 1.345 1.615 1.690 1.700 1.700 1.700 1.700 1.694 1.617 1.264 0.836 0.580 0.417 0.333 0.305 0.305 0.333 0.438 0.623 0.891 1.164 1.463 1.659 1.697 1.700 1.700 1.699 1.693 1.654 1.604 1.595 1.591 1.593 1.608 1.666 1.695 1.700 1.700 1.700 1.700 1.700 1.700 1.698 1.696 1.693 1.693 1.695 1.698 1.699 1.700 1.701 1.705 1.700 1.699 1.692 1.655 1.543 1.462 1.428 1.413 1.411 1.535 1.635 1.668 1.678 1.686 1.693 1.698 1.700 1.700 1.700 1.700 1.700 1.700 1.700 1.700 1.700 1.700 1.700 1.700 1.700 1.700 1.698 1.694 1.687 1.682 1.681 1.685 1.677 1.639 1.567 1.461 1.342 1.237 1.191 0.000 
0.000 0.977 0.998 1.277 1.504 1.635 1.686 1.698 1.700 1.700 1.700 1.699 1.695 1.676 1.615 1.476 1.286 1.136 0.904 0.508 0.455 0.446 0.464 0.582 0.890 1.375 1.608 1.686 1.700 1.700 1.700 1.700 1.695 1.633 1.361 0.915 0.550 0.379 0.290 0.259 0.258 0.292 0.396 0.578 0.844 1.120 1.515 1.669 1.697 1.700 1.700 1.699 1.689 1.631 1.600 1.592 1.588 1.592 1.606 1.666 1.695 1.700 1.700 1.700 1.700 1.700 1.700 1.700 1.700 1.699 1.699 1.700 1.700 1.700 1.700 1.700 1.703 1.700 1.698 1.686 1.628 1.488 1.406 1.366 1.346 1.342 1.394 1.503 1.545 1.576 1.620 1.663 1.691 1.698 1.700 1.700 1.700 1.700 1.700 1.700 1.700 1.700 1.700 1.700 1.700 1.700 1.699 1.692 1.671 1.638 1.613 1.614 1.640 1.666 1.665 1.631 1.558 1.448 1.335 1.283 0.000 
0.000 1.006 1.037 1.336 1.534 1.646 1.689 1.699 1.700 1.700 1.699 1.699 1.697 1.687 1.633 1.423 1.125 0.790 0.525 0.416 0.373 0.369 0.399 0.537 0.963 1.371 1.584 1.675 1.699 1.700 1.700 1.700 1.693 1.645 1.470 1.157 0.768 0.356 0.269 0.240 0.239 0.283 0.386 0.567 0.831 1.289 1.592 1.677 1.694 1.698 1.698 1.698 1.687 1.630 1.598 1.592 1.590 1.594 1.609 1.676 1.697 1.700 1.700 1.700 1.700 1.700 1.700 1.700 1.700 1.700 1.700 1.701 1.701 1.700 1.700 1.700 1.700 1.699 1.697 1.682 1.622 1.482 1.372 1.332 1.313 1.307 1.309 1.326 1.372 1.442 1.514 1.619 1.680 1.695 1.698 1.696 1.695 1.695 1.696 1.698 1.700 1.700 1.705 1.709 1.702 1.700 1.696 1.675 1.617 1.590 1.580 1.574 1.571 1.635 1.668 1.664 1.620 1.542 1.447 1.405 0.000 
0.000 1.079 1.129 1.402 1.565 1.657 1.691 1.699 1.700 1.699 1.695 1.689 1.682 1.675 1.616 1.335 0.960 0.612 0.419 0.327 0.296 0.297 0.344 0.493 0.943 1.310 1.518 1.649 1.694 1.699 1.700 1.698 1.678 1.577 1.370 1.135 0.815 0.379 0.263 0.237 0.241 0.286 0.392 0.573 0.835 1.354 1.598 1.662 1.680 1.681 1.683 1.688 1.686 1.652 1.599 1.596 1.596 1.599 1.660 1.690 1.699 1.700 1.700 1.701 1.700 1.702 1.701 1.700 1.700 1.700 1.700 1.702 1.712 1.702 1.700 1.700 1.699 1.694 1.682 1.661 1.616 1.526 1.389 1.323 1.303 1.297 1.301 1.322 1.365 1.428 1.488 1.604 1.672 1.690 1.687 1.673 1.661 1.662 1.675 1.689 1.697 1.700 1.700 1.704 1.701 1.699 1.691 1.651 1.597 1.578 1.569 1.566 1.566 1.582 1.632 1.643 1.642 1.626 1.564 1.541 0.000 
0.000 1.127 1.189 1.443 1.589 1.667 1.694 1.698 1.699 1.694 1.677 1.647 1.618 1.604 1.550 1.253 0.762 0.454 0.311 0.242 0.225 0.232 0.294 0.445 0.835 1.173 1.408 1.590 1.680 1.696 1.699 1.696 1.647 1.432 1.128 0.765 0.483 0.340 0.266 0.248 0.260 0.311 0.423 0.607 0.862 1.339 1.536 1.613 1.615 1.615 1.626 1.648 1.671 1.674 1.659 1.647 1.650 1.669 1.688 1.697 1.700 1.700 1.700 1.701 1.704 1.707 1.703 1.701 1.700 1.700 1.700 1.700 1.700 1.700 1.701 1.699 1.694 1.672 1.623 1.562 1.522 1.514 1.492 1.384 1.306 1.305 1.310 1.329 1.369 1.432 1.486 1.614 1.662 1.676 1.641 1.581 1.547 1.549 1.600 1.662 1.692 1.699 1.700 1.700 1.700 1.698 1.686 1.635 1.592 1.574 1.566 1.564 1.568 1.579 1.599 1.628 1.652 1.672 1.653 1.646 0.000 
0.000 1.149 1.219 1.474 1.608 1.675 1.696 1.699 1.697 1.681 1.634 1.559 1.475 1.423 1.357 1.067 0.557 0.311 0.211 0.170 0.164 0.179 0.253 0.398 0.674 0.979 1.272 1.499 1.661 1.692 1.698 1.694 1.623 1.301 0.973 0.687 0.479 0.349 0.293 0.290 0.311 0.375 0.499 0.688 0.966 1.291 1.445 1.491 1.506 1.563 1.587 1.598 1.649 1.684 1.691 1.690 1.691 1.695 1.698 1.699 1.700 1.700 1.700 1.700 1.701 1.705 1.704 1.700 1.700 1.701 1.700 1.700 1.700 1.700 1.705 1.702 1.683 1.623 1.552 1.507 1.462 1.413 1.488 1.476 1.340 1.336 1.342 1.360 1.396 1.447 1.561 1.647 1.662 1.644 1.547 1.464 1.464 1.473 1.500 1.634 1.687 1.698 1.700 1.700 1.700 1.698 1.687 1.643 1.591 1.573 1.566 1.567 1.572 1.587 1.612 1.646 1.672 1.690 1.691 1.691 0.000 
0.000 1.167 1.243 1.500 1.624 1.681 1.697 1.699 1.695 1.665 1.575 1.428 1.252 1.104 0.975 0.706 0.340 0.211 0.145 0.121 0.121 0.150 0.225 0.365 0.592 0.908 1.195 1.460 1.655 1.691 1.697 1.690 1.599 1.229 0.950 0.681 0.494 0.391 0.373 0.378 0.413 0.498 0.639 0.888 1.115 1.291 1.357 1.444 1.531 1.584 1.600 1.601 1.637 1.685 1.697 1.699 1.698 1.698 1.699 1.700 1.700 1.700 1.700 1.700 1.700 1.700 1.701 1.700 1.700 1.702 1.700 1.701 1.700 1.702 1.709 1.696 1.671 1.590 1.545 1.503 1.463 1.429 1.523 1.577 1.550 1.498 1.479 1.484 1.521 1.585 1.648 1.668 1.667 1.597 1.432 1.412 1.409 1.415 1.452 1.624 1.685 1.698 1.700 1.700 1.700 1.699 1.692 1.668 1.629 1.603 1.604 1.632 1.653 1.646 1.633 1.658 1.683 1.697 1.698 1.699 0.000 
0.000 1.187 1.266 1.521 1.634 1.684 1.697 1.699 1.693 1.654 1.535 1.337 1.144 0.889 0.626 0.414 0.256 0.158 0.110 0.095 0.098 0.135 0.210 0.347 0.569 0.882 1.168 1.468 1.660 1.691 1.696 1.674 1.527 1.191 0.947 0.701 0.549 0.514 0.511 0.530 0.584 0.710 1.127 1.315 1.380 1.341 1.368 1.463 1.537 1.580 1.599 1.604 1.637 1.686 1.698 1.700 1.699 1.698 1.695 1.693 1.693 1.693 1.695 1.698 1.700 1.700 1.700 1.700 1.700 1.701 1.700 1.701 1.700 1.700 1.713 1.696 1.665 1.592 1.547 1.506 1.481 1.466 1.577 1.645 1.652 1.643 1.641 1.645 1.655 1.672 1.685 1.681 1.662 1.548 1.413 1.383 1.376 1.380 1.447 1.623 1.681 1.695 1.698 1.699 1.700 1.700 1.697 1.688 1.671 1.660 1.664 1.678 1.688 1.690 1.688 1.690 1.697 1.699 1.700 1.700 0.000 
0.000 1.210 1.290 1.525 1.631 1.680 1.695 1.699 1.694 1.659 1.538 1.301 1.087 0.809 0.554 0.359 0.223 0.139 0.098 0.085 0.094 0.129 0.204 0.341 0.561 0.874 1.163 1.531 1.678 1.693 1.695 1.650 1.420 1.198 0.968 0.768 0.717 0.713 0.731 0.763 0.826 1.074 1.436 1.542 1.502 1.421 1.379 1.441 1.501 1.553 1.594 1.606 1.648 1.690 1.698 1.699 1.695 1.673 1.636 1.615 1.610 1.615 1.637 1.673 1.695 1.700 1.700 1.700 1.700 1.700 1.700 1.700 1.700 1.700 1.700 1.696 1.672 1.606 1.566 1.539 1.525 1.546 1.625 1.651 1.672 1.672 1.673 1.683 1.692 1.696 1.695 1.692 1.655 1.513 1.409 1.372 1.358 1.359 1.456 1.604 1.662 1.681 1.687 1.693 1.697 1.699 1.696 1.688 1.677 1.668 1.670 1.680 1.691 1.697 1.699 1.699 1.699 1.700 1.699 1.699 0.000 
0.000 1.224 1.300 1.500 1.603 1.661 1.688 1.696 1.696 1.674 1.575 1.288 1.067 0.784 0.531 0.344 0.217 0.138 0.097 0.085 0.095 0.129 0.204 0.342 0.562 0.875 1.235 1.590 1.691 1.696 1.695 1.646 1.427 1.232 1.038 0.972 0.961 0.971 0.989 1.015 1.088 1.399 1.592 1.619 1.582 1.468 1.395 1.411 1.448 1.497 1.550 1.594 1.663 1.694 1.698 1.697 1.671 1.556 1.368 1.259 1.250 1.261 1.374 1.580 1.681 1.698 1.700 1.700 1.700 1.700 1.700 1.700 1.700 1.700 1.700 1.698 1.685 1.648 1.613 1.591 1.601 1.625 1.623 1.639 1.629 1.628 1.649 1.676 1.694 1.699 1.699 1.693 1.652 1.507 1.415 1.372 1.351 1.346 1.446 1.540 1.602 1.612 1.633 1.664 1.687 1.694 1.682 1.650 1.608 1.587 1.596 1.637 1.678 1.696 1.699 1.700 1.699 1.697 1.691 1.687 0.000 
0.000 1.208 1.273 1.422 1.536 1.620 1.672 1.693 1.697 1.687 1.613 1.313 1.071 0.786 0.533 0.348 0.221 0.144 0.105 0.096 0.104 0.136 0.211 0.350 0.572 0.888 1.326 1.625 1.697 1.699 1.697 1.670 1.541 1.410 1.337 1.285 1.219 1.191 1.195 1.262 1.428 1.588 1.651 1.655 1.609 1.516 1.474 1.436 1.418 1.442 1.529 1.625 1.679 1.695 1.698 1.690 1.613 1.329 1.147 1.110 1.104 1.114 1.161 1.487 1.661 1.694 1.698 1.698 1.698 1.698 1.698 1.698 1.699 1.699 1.700 1.699 1.699 1.701 1.678 1.673 1.665 1.650 1.627 1.607 1.585 1.578 1.582 1.647 1.688 1.698 1.699 1.694 1.658 1.537 1.442 1.384 1.349 1.334 1.389 1.455 1.454 1.486 1.536 1.608 1.664 1.680 1.645 1.554 1.533 1.533 1.542 1.568 1.657 1.692 1.699 1.700 1.696 1.676 1.632 1.601 0.000 
0.000 1.158 1.206 1.317 1.464 1.579 1.656 1.690 1.697 1.694 1.643 1.406 1.097 0.818 0.563 0.376 0.247 0.166 0.130 0.124 0.129 0.159 0.234 0.373 0.600 0.965 1.431 1.653 1.699 1.700 1.699 1.691 1.663 1.630 1.596 1.534 1.432 1.363 1.368 1.455 1.568 1.628 1.657 1.662 1.627 1.575 1.552 1.545 1.550 1.574 1.621 1.666 1.690 1.694 1.696 1.664 1.492 1.181 1.081 1.037 1.028 1.037 1.115 1.431 1.624 1.678 1.681 1.677 1.675 1.674 1.676 1.680 1.688 1.695 1.699 1.709 1.722 1.716 1.697 1.693 1.686 1.684 1.690 1.660 1.622 1.607 1.605 1.635 1.686 1.698 1.699 1.696 1.674 1.601 1.506 1.450 1.418 1.393 1.371 1.323 1.340 1.378 1.428 1.525 1.621 1.652 1.587 1.488 1.491 1.507 1.540 1.566 1.652 1.692 1.698 1.699 1.684 1.606 1.435 1.313 0.000 
0.000 1.100 1.133 1.252 1.424 1.561 1.649 1.689 1.698 1.697 1.671 1.543 1.266 0.904 0.649 0.452 0.311 0.226 0.187 0.176 0.180 0.207 0.279 0.419 0.650 1.172 1.537 1.675 1.700 1.700 1.700 1.699 1.694 1.686 1.668 1.625 1.532 1.465 1.467 1.518 1.579 1.613 1.618 1.631 1.627 1.610 1.636 1.646 1.651 1.660 1.676 1.690 1.695 1.696 1.685 1.609 1.320 1.171 1.067 1.016 1.004 1.026 1.104 1.375 1.553 1.614 1.599 1.580 1.568 1.565 1.574 1.600 1.638 1.675 1.695 1.711 1.722 1.714 1.700 1.698 1.689 1.679 1.706 1.695 1.658 1.633 1.627 1.642 1.688 1.699 1.700 1.698 1.690 1.670 1.636 1.594 1.537 1.460 1.370 1.242 1.232 1.243 1.275 1.391 1.532 1.593 1.535 1.429 1.466 1.506 1.541 1.567 1.658 1.694 1.698 1.698 1.667 1.506 1.152 0.902 0.000 
0.000 1.066 1.094 1.238 1.414 1.559 1.651 1.689 1.699 1.699 1.691 1.649 1.523 1.206 0.811 0.604 0.448 0.343 0.285 0.265 0.265 0.287 0.354 0.492 0.722 1.270 1.588 1.686 1.700 1.700 1.700 1.700 1.699 1.696 1.685 1.645 1.564 1.509 1.513 1.549 1.563 1.757 1.858 1.864 1.825 1.673 1.652 1.678 1.688 1.692 1.695 1.697 1.697 1.693 1.662 1.539 1.325 1.200 1.091 1.024 1.013 1.035 1.111 1.312 1.458 1.469 1.472 1.485 1.490 1.493 1.501 1.521 1.560 1.653 1.691 1.701 1.712 1.716 1.700 1.699 1.690 1.650 1.597 1.665 1.676 1.657 1.645 1.668 1.694 1.699 1.700 1.700 1.698 1.693 1.680 1.653 1.605 1.523 1.375 1.162 1.111 1.105 1.115 1.201 1.387 1.498 1.510 1.412 1.465 1.512 1.547 1.609 1.677 1.697 1.699 1.697 1.658 1.450 0.992 0.666 0.000 
0.000 1.061 1.089 1.250 1.425 1.572 1.659 1.692 1.699 1.700 1.699 1.689 1.630 1.393 1.106 0.902 0.714 0.612 0.438 0.401 0.395 0.410 0.468 0.596 0.815 1.295 1.601 1.688 1.700 1.700 1.700 1.698 1.694 1.685 1.670 1.639 1.588 1.539 1.536 1.553 1.587 1.911 2.185 2.215 2.069 1.850 1.624 1.673 1.691 1.697 1.699 1.699 1.698 1.684 1.629 1.478 1.341 1.267 1.178 1.083 1.060 1.075 1.144 1.295 1.444 1.531 1.555 1.557 1.545 1.524 1.516 1.526 1.559 1.647 1.690 1.699 1.700 1.703 1.704 1.699 1.694 1.671 1.622 1.586 1.679 1.675 1.661 1.689 1.698 1.700 1.700 1.700 1.700 1.698 1.690 1.663 1.607 1.509 1.341 1.108 1.017 1.010 1.020 1.052 1.189 1.368 1.476 1.490 1.514 1.548 1.612 1.665 1.691 1.699 1.700 1.697 1.656 1.438 0.958 0.614 0.000 
0.000 1.066 1.098 1.275 1.455 1.593 1.669 1.694 1.699 1.700 1.700 1.697 1.671 1.548 1.397 1.321 1.273 1.145 0.795 0.597 0.582 0.589 0.632 0.739 0.931 1.306 1.605 1.689 1.700 1.700 1.699 1.693 1.676 1.646 1.611 1.580 1.553 1.533 1.529 1.529 1.549 1.849 2.224 2.328 2.261 1.966 1.639 1.638 1.678 1.694 1.699 1.699 1.696 1.673 1.596 1.438 1.333 1.292 1.252 1.344 1.378 1.391 1.392 1.324 1.469 1.623 1.675 1.683 1.666 1.617 1.574 1.561 1.575 1.651 1.692 1.699 1.700 1.703 1.709 1.705 1.698 1.691 1.679 1.669 1.677 1.678 1.690 1.697 1.699 1.700 1.700 1.699 1.699 1.695 1.674 1.615 1.511 1.364 1.176 0.991 0.959 0.956 0.972 1.034 1.129 1.246 1.354 1.496 1.592 1.648 1.676 1.691 1.698 1.700 1.700 1.696 1.654 1.433 0.951 0.604 0.000 
0.000 1.074 1.110 1.301 1.481 1.611 1.676 1.696 1.700 1.700 1.700 1.699 1.692 1.662 1.626 1.606 1.575 1.439 1.176 0.866 0.837 0.836 0.861 0.937 1.085 1.346 1.614 1.690 1.700 1.700 1.697 1.682 1.641 1.589 1.533 1.473 1.436 1.427 1.421 1.405 1.423 1.540 1.859 2.162 2.223 1.988 1.652 1.570 1.643 1.679 1.689 1.693 1.690 1.661 1.569 1.416 1.332 1.352 1.499 1.595 1.616 1.583 1.505 1.402 1.340 1.546 1.659 1.690 1.694 1.676 1.668 1.644 1.622 1.663 1.695 1.700 1.700 1.700 1.703 1.705 1.708 1.699 1.703 1.709 1.696 1.697 1.699 1.699 1.699 1.698 1.695 1.693 1.691 1.683 1.638 1.517 1.355 1.167 1.032 0.958 0.930 0.931 0.971 1.042 1.141 1.260 1.372 1.465 1.605 1.674 1.694 1.699 1.700 1.700 1.700 1.693 1.637 1.393 0.904 0.564 0.000 
0.000 1.082 1.122 1.327 1.504 1.625 1.682 1.697 1.700 1.700 1.700 1.700 1.699 1.695 1.690 1.686 1.670 1.617 1.385 1.196 1.166 1.159 1.167 1.207 1.297 1.464 1.642 1.693 1.700 1.700 1.695 1.667 1.600 1.543 1.472 1.394 1.326 1.285 1.262 1.250 1.247 1.225 1.283 1.412 1.558 1.676 1.546 1.472 1.564 1.618 1.642 1.658 1.669 1.647 1.560 1.461 1.454 1.472 1.583 1.659 1.667 1.650 1.561 1.404 1.274 1.253 1.316 1.361 1.426 1.527 1.688 1.707 1.673 1.673 1.696 1.700 1.700 1.700 1.701 1.703 1.710 1.717 1.724 1.713 1.708 1.700 1.700 1.699 1.697 1.688 1.673 1.660 1.657 1.652 1.594 1.469 1.338 1.155 1.006 0.934 0.914 0.938 1.004 1.092 1.194 1.313 1.429 1.523 1.611 1.680 1.697 1.700 1.700 1.700 1.699 1.683 1.581 1.258 0.745 0.430 0.000 
0.000 1.093 1.137 1.354 1.527 1.636 1.685 1.698 1.700 1.700 1.700 1.700 1.700 1.700 1.699 1.699 1.696 1.670 1.547 1.466 1.450 1.447 1.451 1.469 1.513 1.608 1.678 1.698 1.707 1.699 1.692 1.653 1.563 1.477 1.395 1.314 1.227 1.172 1.131 1.123 1.106 1.026 0.990 0.990 1.011 1.128 1.243 1.301 1.397 1.469 1.525 1.582 1.619 1.631 1.570 1.551 1.567 1.600 1.632 1.676 1.683 1.653 1.550 1.383 1.285 1.252 1.268 1.259 1.228 1.247 1.492 1.696 1.704 1.680 1.697 1.700 1.700 1.700 1.700 1.701 1.700 1.704 1.709 1.705 1.703 1.700 1.700 1.698 1.688 1.660 1.613 1.588 1.584 1.599 1.567 1.472 1.350 1.155 0.980 0.907 0.896 0.989 1.114 1.217 1.314 1.418 1.519 1.595 1.643 1.688 1.699 1.700 1.700 1.700 1.698 1.668 1.501 1.065 0.515 0.241 0.000 
0.000 1.106 1.155 1.382 1.546 1.647 1.688 1.699 1.700 1.701 1.701 1.700 1.700 1.700 1.700 1.700 1.699 1.692 1.663 1.633 1.625 1.623 1.624 1.631 1.647 1.678 1.698 1.708 1.709 1.706 1.696 1.639 1.524 1.383 1.268 1.195 1.130 1.081 1.035 1.003 0.939 0.885 0.878 0.877 0.886 0.917 0.982 1.068 1.161 1.257 1.401 1.518 1.586 1.628 1.623 1.609 1.617 1.655 1.671 1.685 1.686 1.644 1.524 1.362 1.294 1.345 1.392 1.370 1.287 1.278 1.355 1.563 1.662 1.686 1.698 1.700 1.700 1.700 1.700 1.700 1.700 1.701 1.706 1.703 1.700 1.700 1.699 1.695 1.678 1.622 1.527 1.491 1.504 1.560 1.575 1.511 1.399 1.188 0.948 0.845 0.859 1.095 1.297 1.400 1.460 1.518 1.584 1.642 1.677 1.695 1.699 1.700 1.700 1.700 1.697 1.660 1.456 0.955 0.385 0.133 0.000 
0.000 1.121 1.174 1.311 1.480 1.613 1.678 1.697 1.700 1.700 1.700 1.700 1.700 1.700 1.700 1.700 1.700 1.699 1.693 1.683 1.675 1.672 1.672 1.673 1.679 1.689 1.697 1.700 1.700 1.698 1.685 1.626 1.493 1.322 1.186 1.117 1.080 1.021 0.932 0.845 0.795 0.778 0.774 0.773 0.776 0.789 0.818 0.870 0.953 1.062 1.194 1.349 1.507 1.619 1.652 1.637 1.627 1.642 1.669 1.689 1.687 1.634 1.503 1.340 1.259 1.320 1.425 1.444 1.354 1.269 1.305 1.449 1.598 1.675 1.697 1.700 1.700 1.700 1.700 1.700 1.700 1.700 1.700 1.700 1.700 1.700 1.699 1.691 1.654 1.563 1.435 1.353 1.389 1.506 1.600 1.602 1.497 1.270 0.954 0.719 0.740 0.997 1.283 1.449 1.508 1.538 1.582 1.635 1.676 1.695 1.699 1.700 1.700 1.700 1.697 1.659 1.448 0.934 0.357 0.109 0.000 
0.000 1.133 1.190 1.332 1.500 1.624 1.682 1.698 1.700 1.700 1.700 1.700 1.700 1.700 1.700 1.700 1.700 1.700 1.700 1.699 1.698 1.698 1.698 1.698 1.699 1.699 1.700 1.700 1.700 1.698 1.680 1.614 1.475 1.305 1.176 1.112 1.071 1.000 0.893 0.793 0.739 0.722 0.719 0.719 0.720 0.723 0.735 0.771 0.850 0.972 1.126 1.307 1.489 1.622 1.677 1.683 1.682 1.686 1.693 1.697 1.687 1.628 1.489 1.330 1.271 1.359 1.479 1.488 1.378 1.282 1.321 1.469 1.613 1.682 1.698 1.700 1.700 1.700 1.700 1.700 1.700 1.700 1.700 1.700 1.700 1.700 1.699 1.688 1.643 1.534 1.389 1.305 1.357 1.498 1.619 1.651 1.572 1.344 1.006 0.763 0.811 1.109 1.423 1.595 1.649 1.662 1.673 1.685 1.695 1.699 1.700 1.700 1.700 1.700 1.697 1.659 1.449 0.935 0.357 0.107 0.000 
0.000 0.000 0.000 0.000 0.000 0.000 0.000 0.000 0.000 0.000 0.000 0.000 0.000 0.000 0.000 0.000 0.000 0.000 0.000 0.000 0.000 0.000 0.000 0.000 0.000 0.000 0.000 0.000 0.000 0.000 0.000 0.000 0.000 0.000 0.000 0.000 0.000 0.000 0.000 0.000 0.000 0.000 0.000 0.000 0.000 0.000 0.000 0.000 0.000 0.000 0.000 0.000 0.000 0.000 0.000 0.000 0.000 0.000 0.000 0.000 0.000 0.000 0.000 0.000 0.000 0.000 0.000 0.000 0.000 0.000 0.000 0.000 0.000 0.000 0.000 0.000 0.000 0.000 0.000 0.000 0.000 0.000 0.000 0.000 0.000 0.000 0.000 0.000 0.000 0.000 0.000 0.000 0.000 0.000 0.000 0.000 0.000 0.000 0.000 0.000 0.000 0.000 0.000 0.000 0.000 0.000 0.000 0.000 0.000 0.000 0.000 0.000 0.000 0.000 0.000 0.000 0.000 0.000 0.000 0.000 0.000 
