ncols 121
nrows 121
xllcenter 614385.88
yllcenter 1276940.75
cellsize 92.28
NODATA_value -9999.000
0.000 0.000 0.000 0.000 0.000 0.000 0.000 0.000 0.000 0.000 0.000 0.000 0.000 0.000 0.000 0.000 0.000 0.000 0.000 0.000 0.000 0.000 0.000 0.000 0.000 0.000 0.000 0.000 0.000 0.000 0.000 0.000 0.000 0.000 0.000 0.000 0.000 0.000 0.000 0.000 0.000 0.000 0.000 0.000 0.000 0.000 0.000 0.000 0.000 0.000 0.000 0.000 0.000 0.000 0.000 0.000 0.000 0.000 0.000 0.000 0.000 0.000 0.000 0.000 0.000 0.000 0.000 0.000 0.000 0.000 0.000 0.000 0.000 0.000 0.000 0.000 0.000 0.000 0.000 0.000 0.000 0.000 0.000 0.000 0.000 0.000 0.000 0.000 0.000 0.000 0.000 0.000 0.000 0.000 0.000 0.000 0.000 0.000 0.000 0.000 0.000 0.000 0.000 0.000 0.000 0.000 0.000 0.000 0.000 0.000 0.000 0.000 0.000 0.000 0.000 0.000 0.000 0.000 0.000 0.000 0.000 
0.000 0.000 0.005 0.066 0.328 0.746 0.995 1.050 1.055 1.055 1.055 1.056 1.056 1.056 1.056 1.056 1.056 1.056 1.056 1.057 1.057 1.057 1.057 1.057 1.057 1.057 1.057 1.058 1.058 1.058 1.058 1.058 1.058 1.058 1.059 1.059 1.059 1.059 1.058 1.056 1.052 1.050 1.051 1.054 1.057 1.059 1.060 1.060 1.060 1.061 1.061 1.060 1.059 1.056 1.053 1.051 1.053 1.057 1.059 1.060 1.060 1.061 1.061 1.052 1.009 0.944 0.942 1.007 1.052 1.062 1.063 1.063 1.063 1.063 1.060 1.056 1.055 1.067 1.100 1.138 1.143 1.079 0.986 0.972 1.024 1.057 1.065 1.065 1.065 1.066 1.066 1.066 1.066 1.066 1.066 1.066 1.066 1.067 1.067 1.067 1.067 1.067 1.067 1.067 1.067 1.067 1.054 1.004 0.950 0.962 0.962 0.882 0.789 0.779 0.862 0.970 1.036 1.056 1.057 1.017 0.000 
0.000 0.000 0.008 0.081 0.364 0.800 1.056 1.112 1.117 1.117 1.117 1.118 1.118 1.119 1.119 1.119 1.119 1.120 1.120 1.120 1.121 1.121 1.121 1.122 1.122 1.122 1.123 1.123 1.124 1.124 1.124 1.125 1.125 1.125 1.126 1.126 1.126 1.125 1.120 1.106 1.085 1.070 1.074 1.094 1.114 1.125 1.129 1.130 1.130 1.130 1.130 1.128 1.119 1.101 1.079 1.070 1.082 1.103 1.115 1.112 1.112 1.124 1.132 1.132 1.120 1.101 1.101 1.120 1.133 1.136 1.137 1.137 1.137 1.132 1.117 1.086 1.057 1.058 1.101 1.160 1.194 1.179 1.140 1.124 1.132 1.140 1.142 1.142 1.143 1.143 1.143 1.144 1.144 1.144 1.144 1.145 1.145 1.145 1.146 1.146 1.147 1.147 1.147 1.148 1.148 1.148 1.146 1.135 1.119 1.100 1.031 0.899 0.783 0.784 0.899 1.030 1.094 1.099 1.088 1.016 0.000 
0.000 0.002 0.022 0.050 0.228 0.610 0.951 1.096 1.139 1.152 1.157 1.160 1.163 1.165 1.166 1.167 1.168 1.168 1.169 1.169 1.169 1.170 1.170 1.171 1.171 1.171 1.172 1.172 1.173 1.173 1.173 1.174 1.174 1.174 1.174 1.174 1.173 1.170 1.163 1.150 1.126 1.107 1.103 1.114 1.141 1.164 1.174 1.178 1.178 1.178 1.177 1.173 1.162 1.143 1.117 1.102 1.103 1.121 1.144 1.153 1.156 1.164 1.180 1.187 1.189 1.183 1.180 1.181 1.188 1.190 1.190 1.189 1.186 1.178 1.158 1.123 1.083 1.070 1.083 1.130 1.177 1.196 1.194 1.187 1.188 1.192 1.195 1.195 1.195 1.195 1.193 1.188 1.182 1.178 1.175 1.174 1.174 1.175 1.178 1.184 1.190 1.194 1.197 1.199 1.201 1.202 1.203 1.203 1.197 1.182 1.138 1.034 0.900 0.853 0.887 1.003 1.086 1.110 1.114 1.011 0.000 
0.000 0.004 0.051 0.094 0.317 0.686 0.972 1.124 1.200 1.239 1.260 1.276 1.288 1.296 1.301 1.305 1.308 1.309 1.310 1.310 1.311 1.312 1.312 1.313 1.313 1.314 1.314 1.315 1.315 1.315 1.315 1.315 1.315 1.315 1.314 1.311 1.304 1.291 1.270 1.241 1.217 1.206 1.206 1.216 1.247 1.285 1.306 1.313 1.314 1.311 1.303 1.286 1.258 1.226 1.202 1.194 1.195 1.210 1.241 1.268 1.286 1.300 1.317 1.331 1.343 1.350 1.351 1.347 1.343 1.340 1.336 1.328 1.312 1.282 1.232 1.168 1.125 1.110 1.111 1.134 1.172 1.211 1.251 1.286 1.311 1.323 1.329 1.331 1.329 1.322 1.307 1.280 1.253 1.236 1.227 1.225 1.226 1.231 1.244 1.265 1.293 1.314 1.329 1.338 1.345 1.349 1.354 1.356 1.355 1.343 1.309 1.239 1.153 1.107 1.094 1.117 1.140 1.140 1.131 1.000 0.000 
0.000 0.010 0.083 0.148 0.432 0.803 1.048 1.190 1.270 1.319 1.357 1.392 1.420 1.442 1.456 1.463 1.466 1.468 1.470 1.471 1.473 1.474 1.475 1.475 1.475 1.476 1.476 1.476 1.476 1.476 1.474 1.473 1.474 1.474 1.472 1.467 1.456 1.436 1.404 1.360 1.332 1.322 1.322 1.332 1.362 1.408 1.442 1.457 1.461 1.460 1.452 1.430 1.390 1.350 1.332 1.329 1.333 1.349 1.377 1.398 1.410 1.418 1.427 1.439 1.456 1.471 1.480 1.482 1.481 1.477 1.468 1.450 1.420 1.374 1.307 1.230 1.179 1.156 1.150 1.156 1.180 1.225 1.286 1.350 1.396 1.422 1.433 1.435 1.431 1.416 1.385 1.338 1.297 1.272 1.261 1.259 1.260 1.270 1.292 1.332 1.386 1.431 1.462 1.482 1.494 1.501 1.504 1.504 1.503 1.494 1.473 1.435 1.384 1.340 1.303 1.267 1.221 1.170 1.133 0.989 0.000 
0.000 0.050 0.138 0.209 0.541 0.898 1.110 1.230 1.305 1.362 1.414 1.463 1.505 1.535 1.554 1.564 1.570 1.572 1.575 1.577 1.578 1.579 1.580 1.580 1.581 1.581 1.580 1.581 1.581 1.581 1.576 1.578 1.578 1.577 1.575 1.569 1.558 1.538 1.502 1.452 1.413 1.397 1.394 1.401 1.426 1.473 1.519 1.545 1.555 1.557 1.553 1.535 1.505 1.475 1.459 1.455 1.455 1.462 1.470 1.471 1.469 1.470 1.473 1.483 1.503 1.529 1.544 1.550 1.551 1.547 1.534 1.510 1.474 1.427 1.368 1.298 1.244 1.213 1.199 1.198 1.210 1.246 1.308 1.383 1.438 1.469 1.481 1.483 1.478 1.460 1.421 1.365 1.319 1.293 1.283 1.281 1.284 1.297 1.326 1.377 1.448 1.508 1.547 1.572 1.587 1.593 1.595 1.596 1.595 1.586 1.571 1.546 1.510 1.465 1.413 1.348 1.263 1.180 1.124 0.983 0.000 
0.000 0.244 0.337 0.325 0.652 0.964 1.137 1.239 1.313 1.379 1.444 1.506 1.556 1.591 1.613 1.625 1.630 1.633 1.636 1.638 1.638 1.638 1.639 1.639 1.639 1.639 1.639 1.640 1.640 1.642 1.638 1.639 1.638 1.637 1.635 1.630 1.620 1.600 1.566 1.512 1.464 1.439 1.433 1.436 1.456 1.501 1.556 1.592 1.609 1.614 1.613 1.604 1.583 1.561 1.547 1.538 1.531 1.523 1.512 1.496 1.484 1.481 1.482 1.490 1.512 1.544 1.566 1.575 1.577 1.572 1.557 1.529 1.489 1.449 1.408 1.364 1.322 1.290 1.270 1.262 1.264 1.285 1.331 1.398 1.454 1.485 1.498 1.500 1.494 1.475 1.434 1.377 1.334 1.310 1.301 1.300 1.305 1.322 1.357 1.415 1.493 1.557 1.599 1.624 1.639 1.644 1.646 1.646 1.645 1.636 1.622 1.599 1.565 1.519 1.457 1.376 1.274 1.177 1.109 0.982 0.000 
0.000 0.637 0.731 0.595 0.802 1.006 1.137 1.232 1.307 1.379 1.458 1.530 1.586 1.624 1.647 1.659 1.663 1.667 1.669 1.669 1.669 1.669 1.668 1.667 1.668 1.668 1.668 1.669 1.670 1.671 1.671 1.671 1.670 1.670 1.668 1.663 1.654 1.636 1.604 1.551 1.493 1.461 1.451 1.453 1.469 1.509 1.571 1.614 1.637 1.647 1.648 1.645 1.634 1.617 1.600 1.584 1.566 1.546 1.522 1.495 1.478 1.472 1.472 1.480 1.503 1.541 1.568 1.578 1.580 1.575 1.560 1.529 1.488 1.455 1.432 1.415 1.400 1.385 1.369 1.353 1.341 1.343 1.363 1.408 1.458 1.488 1.501 1.502 1.497 1.477 1.438 1.386 1.349 1.329 1.323 1.324 1.332 1.352 1.391 1.452 1.531 1.590 1.629 1.652 1.664 1.669 1.670 1.670 1.667 1.659 1.643 1.616 1.582 1.531 1.464 1.379 1.268 1.168 1.097 0.981 0.000 
0.000 0.981 1.055 0.920 0.937 1.014 1.108 1.194 1.275 1.365 1.462 1.545 1.605 1.643 1.665 1.676 1.681 1.684 1.684 1.684 1.683 1.681 1.678 1.677 1.677 1.677 1.677 1.680 1.684 1.685 1.686 1.686 1.687 1.686 1.684 1.681 1.672 1.656 1.626 1.575 1.512 1.474 1.461 1.461 1.475 1.512 1.576 1.624 1.651 1.664 1.667 1.666 1.659 1.645 1.625 1.601 1.575 1.546 1.510 1.470 1.441 1.428 1.426 1.434 1.464 1.516 1.553 1.567 1.569 1.565 1.547 1.512 1.474 1.451 1.442 1.444 1.455 1.461 1.458 1.447 1.427 1.411 1.408 1.424 1.460 1.487 1.498 1.500 1.495 1.477 1.442 1.400 1.372 1.359 1.357 1.360 1.371 1.394 1.434 1.496 1.564 1.611 1.642 1.664 1.672 1.678 1.679 1.679 1.675 1.666 1.647 1.617 1.580 1.524 1.451 1.358 1.245 1.151 1.087 0.990 0.000 
0.000 1.081 1.090 1.030 0.971 0.984 1.034 1.104 1.199 1.329 1.458 1.553 1.616 1.654 1.675 1.685 1.689 1.690 1.690 1.689 1.687 1.683 1.679 1.677 1.675 1.675 1.678 1.683 1.688 1.691 1.693 1.694 1.694 1.694 1.692 1.689 1.681 1.667 1.639 1.591 1.527 1.485 1.469 1.468 1.480 1.516 1.578 1.630 1.659 1.672 1.675 1.675 1.669 1.654 1.631 1.602 1.567 1.523 1.464 1.402 1.358 1.338 1.334 1.350 1.397 1.466 1.511 1.531 1.535 1.530 1.511 1.476 1.449 1.441 1.443 1.458 1.489 1.509 1.514 1.511 1.495 1.471 1.455 1.452 1.466 1.487 1.497 1.499 1.494 1.480 1.451 1.424 1.412 1.414 1.419 1.429 1.445 1.468 1.502 1.548 1.592 1.623 1.646 1.664 1.672 1.679 1.681 1.679 1.676 1.666 1.645 1.609 1.558 1.490 1.405 1.306 1.203 1.125 1.076 1.010 0.000 
0.000 1.042 0.945 0.998 0.934 0.915 0.927 0.990 1.118 1.300 1.457 1.560 1.625 1.661 1.679 1.688 1.691 1.692 1.692 1.690 1.687 1.681 1.675 1.671 1.670 1.671 1.674 1.681 1.687 1.692 1.695 1.696 1.697 1.696 1.695 1.692 1.686 1.673 1.648 1.604 1.541 1.497 1.480 1.478 1.488 1.522 1.583 1.635 1.663 1.675 1.678 1.677 1.670 1.654 1.626 1.586 1.531 1.456 1.365 1.290 1.250 1.240 1.250 1.290 1.361 1.431 1.472 1.491 1.495 1.492 1.478 1.450 1.434 1.432 1.439 1.461 1.503 1.533 1.544 1.545 1.538 1.518 1.496 1.486 1.484 1.493 1.500 1.502 1.499 1.490 1.477 1.474 1.483 1.499 1.513 1.525 1.537 1.551 1.568 1.589 1.608 1.625 1.646 1.656 1.667 1.676 1.679 1.677 1.673 1.660 1.632 1.584 1.516 1.433 1.349 1.263 1.180 1.110 1.064 1.029 0.000 
0.000 1.003 0.815 0.864 0.844 0.836 0.857 0.932 1.084 1.295 1.461 1.568 1.631 1.665 1.681 1.688 1.690 1.692 1.691 1.688 1.681 1.670 1.659 1.654 1.653 1.654 1.660 1.671 1.684 1.691 1.695 1.697 1.697 1.697 1.696 1.693 1.688 1.677 1.655 1.616 1.557 1.515 1.497 1.494 1.505 1.537 1.595 1.643 1.668 1.677 1.678 1.677 1.667 1.643 1.602 1.539 1.446 1.337 1.244 1.196 1.181 1.185 1.213 1.273 1.355 1.420 1.457 1.474 1.478 1.475 1.464 1.442 1.429 1.428 1.435 1.460 1.505 1.540 1.556 1.559 1.557 1.546 1.530 1.520 1.514 1.513 1.514 1.515 1.514 1.512 1.512 1.517 1.532 1.557 1.578 1.591 1.599 1.605 1.609 1.611 1.613 1.621 1.631 1.636 1.649 1.663 1.669 1.670 1.666 1.651 1.619 1.565 1.488 1.403 1.324 1.250 1.178 1.111 1.061 1.050 0.000 
0.000 0.992 0.766 0.789 0.796 0.804 0.835 0.921 1.083 1.305 1.473 1.579 1.638 1.668 1.681 1.686 1.688 1.690 1.687 1.679 1.668 1.647 1.629 1.621 1.619 1.621 1.630 1.651 1.674 1.687 1.694 1.696 1.697 1.697 1.696 1.694 1.689 1.680 1.662 1.628 1.579 1.544 1.529 1.528 1.538 1.568 1.617 1.654 1.671 1.677 1.677 1.673 1.655 1.617 1.551 1.453 1.332 1.229 1.171 1.151 1.151 1.166 1.208 1.278 1.361 1.421 1.456 1.471 1.475 1.473 1.461 1.440 1.429 1.427 1.434 1.457 1.501 1.539 1.557 1.562 1.561 1.557 1.550 1.545 1.542 1.540 1.538 1.532 1.527 1.525 1.527 1.534 1.553 1.583 1.609 1.624 1.630 1.631 1.629 1.619 1.608 1.603 1.601 1.604 1.617 1.639 1.655 1.659 1.657 1.646 1.615 1.561 1.482 1.397 1.321 1.253 1.190 1.133 1.090 1.073 0.000 
0.000 0.998 0.774 0.776 0.791 0.805 0.843 0.937 1.112 1.335 1.496 1.593 1.645 1.670 1.680 1.683 1.682 1.679 1.671 1.661 1.646 1.620 1.598 1.589 1.584 1.587 1.600 1.630 1.662 1.681 1.691 1.695 1.696 1.696 1.696 1.694 1.689 1.680 1.666 1.643 1.609 1.584 1.576 1.576 1.584 1.604 1.636 1.660 1.672 1.676 1.674 1.664 1.636 1.582 1.498 1.380 1.263 1.186 1.151 1.141 1.145 1.171 1.227 1.311 1.387 1.438 1.467 1.479 1.482 1.479 1.468 1.446 1.433 1.430 1.435 1.453 1.490 1.528 1.548 1.555 1.557 1.556 1.556 1.557 1.557 1.555 1.550 1.538 1.529 1.527 1.528 1.535 1.556 1.587 1.618 1.635 1.641 1.641 1.636 1.620 1.595 1.579 1.575 1.578 1.592 1.621 1.645 1.654 1.654 1.645 1.617 1.564 1.488 1.404 1.336 1.278 1.229 1.190 1.156 1.095 0.000 
0.000 1.017 0.843 0.806 0.821 0.843 0.897 1.008 1.194 1.397 1.534 1.614 1.655 1.672 1.677 1.677 1.673 1.666 1.658 1.648 1.632 1.608 1.583 1.572 1.568 1.569 1.584 1.619 1.655 1.677 1.688 1.692 1.694 1.693 1.692 1.689 1.685 1.678 1.668 1.652 1.631 1.617 1.610 1.609 1.613 1.623 1.643 1.661 1.669 1.671 1.668 1.654 1.622 1.563 1.471 1.347 1.242 1.179 1.153 1.148 1.162 1.208 1.292 1.383 1.445 1.482 1.500 1.507 1.508 1.503 1.489 1.464 1.446 1.439 1.440 1.450 1.473 1.501 1.521 1.532 1.540 1.547 1.555 1.560 1.561 1.559 1.552 1.536 1.522 1.517 1.517 1.525 1.545 1.581 1.617 1.637 1.644 1.644 1.638 1.619 1.588 1.570 1.565 1.567 1.582 1.613 1.642 1.654 1.655 1.648 1.624 1.580 1.514 1.443 1.385 1.337 1.296 1.258 1.223 1.097 0.000 
0.000 1.054 0.985 0.908 0.918 0.952 1.028 1.160 1.339 1.493 1.589 1.642 1.666 1.674 1.675 1.673 1.666 1.659 1.651 1.642 1.628 1.604 1.579 1.566 1.564 1.564 1.580 1.614 1.652 1.674 1.684 1.688 1.689 1.687 1.682 1.678 1.675 1.671 1.665 1.656 1.645 1.636 1.629 1.625 1.624 1.628 1.640 1.654 1.660 1.661 1.658 1.644 1.613 1.557 1.465 1.341 1.246 1.196 1.181 1.185 1.220 1.298 1.406 1.488 1.533 1.554 1.561 1.562 1.559 1.549 1.530 1.500 1.473 1.458 1.454 1.456 1.465 1.479 1.489 1.497 1.507 1.523 1.545 1.557 1.559 1.558 1.548 1.523 1.498 1.486 1.484 1.490 1.512 1.555 1.604 1.632 1.643 1.644 1.638 1.619 1.588 1.569 1.564 1.566 1.581 1.612 1.642 1.656 1.659 1.656 1.643 1.615 1.570 1.518 1.469 1.419 1.359 1.295 1.253 1.078 0.000 
0.000 1.092 1.124 1.066 1.082 1.138 1.237 1.366 1.492 1.582 1.637 1.665 1.676 1.678 1.676 1.671 1.664 1.656 1.649 1.641 1.628 1.606 1.580 1.567 1.563 1.566 1.580 1.612 1.648 1.670 1.679 1.682 1.681 1.675 1.664 1.657 1.656 1.655 1.655 1.654 1.649 1.643 1.637 1.629 1.623 1.621 1.626 1.634 1.639 1.643 1.642 1.633 1.608 1.557 1.468 1.356 1.282 1.252 1.249 1.268 1.328 1.428 1.520 1.575 1.604 1.617 1.620 1.620 1.616 1.606 1.587 1.555 1.518 1.493 1.479 1.472 1.469 1.472 1.475 1.478 1.486 1.503 1.532 1.552 1.556 1.554 1.539 1.504 1.468 1.451 1.447 1.454 1.477 1.527 1.586 1.623 1.639 1.642 1.638 1.622 1.594 1.576 1.571 1.573 1.587 1.617 1.647 1.663 1.669 1.671 1.666 1.651 1.623 1.585 1.538 1.480 1.399 1.306 1.243 1.060 0.000 
0.000 1.119 1.200 1.183 1.229 1.315 1.416 1.511 1.586 1.637 1.666 1.680 1.684 1.683 1.680 1.673 1.663 1.657 1.651 1.644 1.633 1.615 1.590 1.575 1.571 1.572 1.583 1.610 1.644 1.664 1.671 1.672 1.668 1.654 1.636 1.627 1.624 1.625 1.632 1.643 1.647 1.644 1.638 1.627 1.610 1.596 1.592 1.593 1.599 1.611 1.620 1.619 1.605 1.567 1.492 1.406 1.359 1.347 1.354 1.383 1.443 1.528 1.592 1.629 1.648 1.655 1.657 1.657 1.654 1.647 1.633 1.611 1.578 1.545 1.519 1.500 1.485 1.476 1.474 1.475 1.481 1.498 1.529 1.550 1.556 1.553 1.537 1.497 1.456 1.438 1.435 1.441 1.466 1.517 1.580 1.619 1.637 1.641 1.641 1.632 1.612 1.598 1.593 1.595 1.606 1.633 1.660 1.675 1.682 1.684 1.681 1.672 1.653 1.622 1.578 1.514 1.420 1.304 1.219 1.041 0.000 
0.000 1.138 1.236 1.250 1.330 1.436 1.526 1.593 1.638 1.667 1.683 1.689 1.690 1.689 1.685 1.675 1.667 1.662 1.657 1.652 1.644 1.631 1.609 1.587 1.576 1.575 1.582 1.604 1.634 1.652 1.658 1.657 1.648 1.625 1.600 1.589 1.587 1.591 1.607 1.629 1.639 1.640 1.634 1.614 1.576 1.542 1.527 1.525 1.531 1.555 1.589 1.605 1.606 1.590 1.545 1.490 1.464 1.460 1.464 1.483 1.525 1.585 1.631 1.658 1.671 1.677 1.678 1.678 1.676 1.672 1.664 1.651 1.631 1.605 1.576 1.546 1.516 1.493 1.483 1.481 1.485 1.501 1.531 1.553 1.559 1.557 1.539 1.499 1.458 1.440 1.437 1.443 1.467 1.519 1.581 1.620 1.639 1.645 1.646 1.642 1.630 1.624 1.624 1.629 1.639 1.658 1.676 1.688 1.692 1.692 1.690 1.682 1.667 1.640 1.596 1.529 1.426 1.295 1.198 1.021 0.000 
0.000 1.155 1.262 1.294 1.397 1.508 1.582 1.631 1.664 1.682 1.691 1.695 1.695 1.693 1.688 1.680 1.675 1.672 1.669 1.666 1.661 1.649 1.625 1.592 1.574 1.571 1.575 1.589 1.613 1.632 1.638 1.636 1.627 1.605 1.579 1.568 1.566 1.572 1.591 1.617 1.629 1.631 1.618 1.584 1.515 1.454 1.428 1.424 1.436 1.481 1.549 1.591 1.609 1.614 1.606 1.587 1.576 1.571 1.569 1.573 1.590 1.623 1.653 1.671 1.682 1.687 1.690 1.690 1.689 1.687 1.684 1.677 1.667 1.652 1.634 1.608 1.570 1.532 1.510 1.503 1.505 1.517 1.544 1.566 1.572 1.570 1.553 1.514 1.476 1.459 1.456 1.462 1.485 1.534 1.590 1.626 1.644 1.649 1.649 1.644 1.637 1.635 1.637 1.644 1.658 1.674 1.686 1.692 1.694 1.696 1.693 1.686 1.672 1.646 1.602 1.532 1.424 1.283 1.179 1.002 0.000 
0.000 1.173 1.288 1.325 1.438 1.541 1.604 1.650 1.675 1.690 1.694 1.697 1.698 1.696 1.693 1.688 1.685 1.682 1.680 1.676 1.672 1.658 1.631 1.593 1.566 1.553 1.551 1.556 1.574 1.598 1.613 1.616 1.612 1.597 1.573 1.561 1.560 1.566 1.586 1.610 1.618 1.616 1.593 1.536 1.435 1.360 1.333 1.332 1.357 1.428 1.523 1.580 1.608 1.624 1.643 1.677 1.698 1.698 1.688 1.670 1.655 1.658 1.669 1.679 1.686 1.691 1.695 1.696 1.697 1.696 1.693 1.690 1.686 1.682 1.677 1.665 1.638 1.597 1.564 1.550 1.548 1.554 1.573 1.593 1.599 1.597 1.584 1.553 1.523 1.509 1.507 1.514 1.534 1.573 1.615 1.639 1.648 1.651 1.647 1.641 1.636 1.635 1.638 1.648 1.665 1.680 1.690 1.694 1.695 1.697 1.694 1.688 1.674 1.648 1.603 1.530 1.415 1.267 1.160 0.990 0.000 
0.000 1.193 1.313 1.349 1.458 1.556 1.617 1.659 1.680 1.692 1.695 1.696 1.697 1.697 1.698 1.696 1.693 1.690 1.687 1.683 1.677 1.660 1.631 1.585 1.542 1.519 1.512 1.513 1.529 1.565 1.595 1.607 1.607 1.596 1.574 1.563 1.561 1.567 1.587 1.606 1.610 1.602 1.567 1.489 1.372 1.298 1.275 1.278 1.313 1.402 1.512 1.575 1.604 1.623 1.648 1.757 1.888 1.898 1.878 1.820 1.746 1.704 1.688 1.686 1.688 1.691 1.696 1.700 1.702 1.701 1.696 1.693 1.693 1.698 1.703 1.703 1.699 1.678 1.647 1.624 1.614 1.611 1.619 1.631 1.636 1.636 1.629 1.611 1.594 1.585 1.584 1.589 1.601 1.624 1.644 1.653 1.652 1.649 1.637 1.628 1.626 1.626 1.632 1.645 1.666 1.681 1.690 1.695 1.696 1.696 1.694 1.688 1.674 1.647 1.599 1.520 1.398 1.248 1.141 0.986 0.000 
0.000 1.213 1.332 1.367 1.462 1.560 1.625 1.662 1.682 1.692 1.696 1.698 1.699 1.699 1.699 1.698 1.697 1.695 1.692 1.689 1.678 1.659 1.626 1.573 1.521 1.495 1.487 1.489 1.507 1.548 1.589 1.606 1.608 1.601 1.585 1.573 1.572 1.577 1.593 1.604 1.604 1.590 1.546 1.455 1.335 1.267 1.247 1.254 1.296 1.396 1.511 1.572 1.595 1.605 1.625 1.765 2.075 2.226 2.215 2.113 1.933 1.789 1.722 1.697 1.690 1.691 1.695 1.701 1.707 1.705 1.694 1.688 1.692 1.703 1.713 1.718 1.732 1.752 1.749 1.729 1.705 1.685 1.675 1.670 1.667 1.665 1.661 1.653 1.644 1.639 1.638 1.640 1.645 1.656 1.662 1.661 1.654 1.638 1.613 1.600 1.597 1.599 1.610 1.632 1.660 1.679 1.690 1.695 1.696 1.696 1.694 1.687 1.672 1.643 1.590 1.502 1.370 1.225 1.124 0.982 0.000 
0.000 1.217 1.326 1.370 1.465 1.563 1.625 1.662 1.681 1.691 1.696 1.698 1.699 1.699 1.699 1.699 1.698 1.697 1.696 1.689 1.677 1.657 1.622 1.566 1.514 1.487 1.480 1.483 1.502 1.546 1.589 1.610 1.616 1.616 1.607 1.597 1.595 1.597 1.603 1.604 1.599 1.578 1.527 1.430 1.316 1.256 1.240 1.249 1.294 1.399 1.515 1.572 1.586 1.571 1.528 1.601 1.951 2.348 2.489 2.432 2.221 1.961 1.791 1.719 1.695 1.690 1.692 1.701 1.708 1.701 1.683 1.675 1.679 1.674 1.669 1.688 1.724 1.794 1.842 1.848 1.824 1.782 1.738 1.710 1.694 1.686 1.681 1.676 1.671 1.669 1.668 1.668 1.670 1.672 1.671 1.666 1.650 1.620 1.584 1.565 1.560 1.562 1.576 1.608 1.647 1.673 1.687 1.694 1.696 1.695 1.693 1.685 1.668 1.635 1.577 1.481 1.345 1.205 1.109 0.980 0.000 
0.000 1.187 1.275 1.351 1.455 1.554 1.619 1.659 1.680 1.690 1.696 1.698 1.699 1.699 1.700 1.699 1.698 1.696 1.695 1.683 1.673 1.653 1.618 1.564 1.515 1.489 1.482 1.485 1.504 1.547 1.593 1.618 1.627 1.628 1.626 1.618 1.612 1.609 1.606 1.601 1.589 1.562 1.507 1.411 1.310 1.258 1.244 1.254 1.303 1.414 1.526 1.577 1.587 1.564 1.450 1.254 1.315 1.737 2.198 2.422 2.350 2.126 1.887 1.758 1.705 1.689 1.688 1.695 1.697 1.686 1.668 1.657 1.651 1.626 1.575 1.532 1.562 1.708 1.873 1.933 1.934 1.897 1.823 1.759 1.723 1.704 1.693 1.687 1.683 1.682 1.682 1.682 1.682 1.681 1.677 1.666 1.646 1.610 1.569 1.547 1.541 1.543 1.558 1.593 1.638 1.668 1.684 1.692 1.695 1.695 1.692 1.683 1.664 1.627 1.566 1.469 1.330 1.191 1.098 0.979 0.000 
0.000 1.133 1.196 1.290 1.420 1.532 1.605 1.647 1.673 1.688 1.695 1.698 1.700 1.699 1.698 1.698 1.698 1.696 1.692 1.679 1.667 1.646 1.613 1.564 1.522 1.501 1.496 1.499 1.516 1.554 1.597 1.620 1.629 1.631 1.631 1.628 1.621 1.611 1.601 1.588 1.568 1.535 1.481 1.396 1.314 1.273 1.264 1.277 1.332 1.445 1.548 1.590 1.599 1.576 1.462 1.203 0.959 0.891 1.131 1.557 1.967 2.101 1.946 1.797 1.723 1.693 1.682 1.680 1.680 1.675 1.661 1.640 1.622 1.599 1.562 1.504 1.442 1.454 1.635 1.857 1.978 1.970 1.907 1.822 1.759 1.723 1.703 1.691 1.686 1.685 1.687 1.689 1.689 1.687 1.679 1.665 1.643 1.607 1.566 1.543 1.536 1.538 1.553 1.589 1.635 1.666 1.683 1.691 1.694 1.694 1.691 1.680 1.660 1.623 1.561 1.465 1.324 1.182 1.088 0.978 0.000 
0.000 1.085 1.131 1.211 1.359 1.501 1.589 1.642 1.672 1.687 1.694 1.697 1.697 1.698 1.699 1.698 1.696 1.692 1.685 1.673 1.656 1.633 1.603 1.561 1.527 1.512 1.508 1.511 1.525 1.558 1.595 1.616 1.624 1.627 1.627 1.623 1.615 1.602 1.584 1.559 1.528 1.491 1.444 1.380 1.329 1.308 1.306 1.324 1.381 1.484 1.572 1.608 1.610 1.581 1.498 1.308 0.998 0.754 0.678 0.800 1.244 1.777 1.907 1.818 1.740 1.704 1.685 1.677 1.679 1.677 1.665 1.632 1.612 1.609 1.611 1.581 1.503 1.394 1.311 1.400 1.650 1.899 1.944 1.869 1.791 1.741 1.709 1.690 1.682 1.681 1.688 1.694 1.694 1.690 1.679 1.663 1.642 1.608 1.569 1.546 1.540 1.542 1.556 1.591 1.636 1.666 1.683 1.691 1.691 1.693 1.689 1.680 1.659 1.622 1.561 1.464 1.324 1.178 1.079 0.990 0.000 
0.000 1.063 1.105 1.165 1.321 1.481 1.580 1.638 1.670 1.686 1.694 1.697 1.699 1.699 1.699 1.697 1.693 1.685 1.673 1.656 1.633 1.609 1.582 1.550 1.525 1.512 1.509 1.512 1.525 1.552 1.582 1.598 1.605 1.607 1.605 1.601 1.592 1.576 1.549 1.509 1.466 1.432 1.399 1.366 1.347 1.342 1.348 1.373 1.424 1.508 1.583 1.621 1.628 1.618 1.581 1.471 1.228 0.919 0.756 0.761 1.023 1.569 1.787 1.790 1.737 1.689 1.670 1.690 1.705 1.711 1.690 1.631 1.613 1.678 1.861 1.929 1.823 1.589 1.331 1.195 1.194 1.447 1.798 1.875 1.809 1.750 1.712 1.683 1.665 1.666 1.685 1.702 1.700 1.690 1.676 1.661 1.643 1.616 1.582 1.562 1.557 1.558 1.571 1.602 1.642 1.669 1.683 1.691 1.692 1.694 1.690 1.680 1.660 1.623 1.563 1.469 1.333 1.182 1.077 1.015 0.000 
0.000 1.062 1.108 1.154 1.306 1.472 1.577 1.637 1.670 1.686 1.694 1.697 1.699 1.699 1.698 1.694 1.686 1.673 1.651 1.622 1.591 1.567 1.545 1.524 1.509 1.501 1.499 1.500 1.509 1.528 1.545 1.553 1.555 1.556 1.554 1.551 1.544 1.528 1.496 1.452 1.412 1.386 1.368 1.356 1.353 1.358 1.373 1.402 1.449 1.516 1.585 1.629 1.650 1.653 1.640 1.591 1.476 1.268 1.094 1.023 1.126 1.478 1.632 1.644 1.619 1.604 1.657 1.759 1.814 1.816 1.719 1.625 1.607 1.669 2.029 2.573 2.633 2.254 1.673 1.307 1.178 1.195 1.482 1.759 1.798 1.752 1.710 1.672 1.634 1.614 1.632 1.686 1.707 1.687 1.670 1.658 1.647 1.632 1.611 1.598 1.594 1.595 1.605 1.627 1.657 1.676 1.686 1.690 1.693 1.693 1.690 1.680 1.661 1.627 1.570 1.483 1.357 1.209 1.101 1.039 0.000 
0.000 1.069 1.120 1.159 1.303 1.470 1.576 1.637 1.670 1.687 1.693 1.697 1.698 1.698 1.697 1.691 1.678 1.657 1.624 1.580 1.539 1.512 1.493 1.480 1.472 1.467 1.464 1.461 1.461 1.464 1.465 1.463 1.460 1.459 1.459 1.464 1.468 1.460 1.441 1.412 1.380 1.359 1.349 1.347 1.351 1.363 1.386 1.417 1.459 1.517 1.583 1.630 1.657 1.666 1.665 1.649 1.602 1.510 1.409 1.358 1.371 1.482 1.536 1.541 1.548 1.600 1.747 1.992 2.121 2.073 1.757 1.617 1.593 1.572 1.781 2.453 2.964 2.912 2.368 1.702 1.365 1.284 1.360 1.597 1.716 1.729 1.700 1.663 1.615 1.558 1.517 1.548 1.645 1.672 1.657 1.655 1.654 1.651 1.645 1.639 1.638 1.639 1.644 1.656 1.672 1.682 1.687 1.690 1.691 1.691 1.688 1.681 1.665 1.636 1.586 1.510 1.401 1.272 1.164 1.062 0.000 
0.000 1.077 1.134 1.171 1.308 1.471 1.578 1.640 1.674 1.690 1.694 1.698 1.698 1.698 1.696 1.690 1.674 1.649 1.609 1.555 1.510 1.481 1.462 1.448 1.436 1.424 1.408 1.389 1.366 1.344 1.326 1.312 1.305 1.304 1.313 1.339 1.377 1.395 1.395 1.383 1.359 1.343 1.338 1.339 1.346 1.364 1.390 1.422 1.461 1.513 1.576 1.627 1.658 1.672 1.676 1.672 1.654 1.613 1.556 1.513 1.501 1.510 1.518 1.528 1.549 1.633 1.851 2.246 2.434 2.260 1.741 1.595 1.569 1.424 1.180 1.349 2.061 2.751 2.710 2.217 1.717 1.501 1.461 1.531 1.610 1.658 1.670 1.651 1.608 1.542 1.482 1.459 1.516 1.609 1.632 1.648 1.660 1.665 1.666 1.666 1.666 1.667 1.669 1.673 1.678 1.682 1.685 1.687 1.687 1.687 1.685 1.680 1.668 1.644 1.602 1.534 1.435 1.326 1.236 1.082 0.000 
0.000 1.086 1.150 1.187 1.320 1.478 1.582 1.643 1.674 1.688 1.698 1.697 1.698 1.697 1.695 1.688 1.672 1.646 1.605 1.548 1.502 1.472 1.454 1.439 1.424 1.405 1.377 1.333 1.272 1.211 1.169 1.146 1.140 1.144 1.168 1.225 1.302 1.347 1.360 1.356 1.343 1.331 1.328 1.330 1.341 1.361 1.389 1.421 1.457 1.503 1.565 1.620 1.656 1.674 1.679 1.679 1.670 1.648 1.610 1.568 1.534 1.508 1.496 1.498 1.522 1.604 1.782 2.083 2.246 2.103 1.685 1.464 1.309 0.961 0.498 0.325 0.558 1.521 2.347 2.361 1.980 1.675 1.556 1.534 1.564 1.609 1.627 1.624 1.599 1.544 1.493 1.474 1.487 1.566 1.613 1.644 1.664 1.675 1.679 1.681 1.681 1.681 1.680 1.679 1.678 1.678 1.678 1.677 1.677 1.678 1.678 1.678 1.668 1.647 1.609 1.545 1.445 1.341 1.275 1.103 0.000 
0.000 1.097 1.168 1.206 1.340 1.492 1.588 1.641 1.670 1.690 1.696 1.696 1.697 1.695 1.692 1.686 1.672 1.647 1.606 1.549 1.504 1.476 1.457 1.441 1.425 1.405 1.371 1.314 1.228 1.137 1.077 1.048 1.042 1.048 1.079 1.152 1.248 1.306 1.329 1.331 1.326 1.319 1.318 1.321 1.334 1.356 1.384 1.414 1.447 1.490 1.554 1.615 1.654 1.674 1.680 1.680 1.674 1.656 1.622 1.578 1.533 1.477 1.413 1.393 1.400 1.410 1.401 1.401 1.440 1.416 1.215 0.898 0.595 0.333 0.182 0.150 0.160 0.474 1.398 2.062 2.049 1.761 1.578 1.523 1.521 1.546 1.579 1.594 1.587 1.555 1.523 1.514 1.520 1.554 1.607 1.646 1.669 1.681 1.687 1.688 1.688 1.687 1.683 1.679 1.673 1.665 1.661 1.659 1.660 1.668 1.672 1.671 1.665 1.647 1.611 1.547 1.446 1.338 1.269 1.104 0.000 
0.000 1.112 1.190 1.227 1.363 1.508 1.597 1.645 1.671 1.687 1.688 1.687 1.687 1.689 1.687 1.682 1.672 1.651 1.614 1.564 1.523 1.497 1.478 1.462 1.445 1.421 1.380 1.316 1.219 1.113 1.042 1.009 1.001 1.008 1.041 1.116 1.211 1.270 1.296 1.304 1.305 1.303 1.304 1.311 1.326 1.348 1.372 1.397 1.429 1.476 1.547 1.613 1.653 1.673 1.680 1.681 1.675 1.656 1.618 1.572 1.518 1.425 1.250 1.149 1.158 1.209 1.240 1.195 1.070 0.821 0.534 0.307 0.184 0.136 0.130 0.139 0.157 0.224 0.688 1.563 1.901 1.772 1.546 1.446 1.420 1.437 1.526 1.583 1.593 1.583 1.573 1.572 1.575 1.587 1.619 1.654 1.676 1.687 1.690 1.691 1.690 1.687 1.682 1.674 1.660 1.645 1.636 1.633 1.634 1.641 1.652 1.657 1.655 1.642 1.608 1.544 1.440 1.322 1.242 1.086 0.000 
0.000 1.128 1.214 1.253 1.388 1.526 1.607 1.650 1.671 1.677 1.678 1.677 1.676 1.677 1.678 1.677 1.672 1.659 1.634 1.598 1.567 1.546 1.529 1.513 1.493 1.465 1.418 1.342 1.232 1.116 1.039 1.003 0.995 1.001 1.033 1.105 1.190 1.240 1.264 1.273 1.277 1.281 1.289 1.305 1.323 1.341 1.361 1.383 1.416 1.468 1.545 1.612 1.652 1.672 1.681 1.682 1.677 1.657 1.617 1.575 1.517 1.422 1.194 0.993 0.993 1.111 1.221 1.224 1.080 0.708 0.341 0.187 0.145 0.138 0.147 0.166 0.186 0.224 0.442 1.102 1.560 1.587 1.424 1.257 1.193 1.278 1.507 1.600 1.621 1.620 1.621 1.624 1.629 1.636 1.649 1.670 1.684 1.690 1.691 1.691 1.689 1.685 1.677 1.662 1.637 1.613 1.599 1.594 1.595 1.604 1.625 1.638 1.639 1.629 1.598 1.532 1.419 1.289 1.208 1.068 0.000 
0.000 1.144 1.240 1.280 1.413 1.540 1.612 1.649 1.664 1.666 1.664 1.659 1.659 1.660 1.661 1.668 1.671 1.667 1.657 1.640 1.622 1.609 1.597 1.584 1.568 1.538 1.487 1.404 1.280 1.148 1.061 1.019 1.008 1.013 1.042 1.107 1.180 1.220 1.239 1.248 1.255 1.265 1.283 1.305 1.323 1.340 1.358 1.379 1.412 1.467 1.546 1.613 1.654 1.676 1.683 1.685 1.686 1.692 1.694 1.672 1.635 1.657 1.512 1.243 1.141 1.197 1.293 1.309 1.159 0.779 0.375 0.213 0.189 0.204 0.250 0.278 0.289 0.305 0.421 0.809 1.173 1.252 1.183 1.025 1.014 1.284 1.643 1.723 1.692 1.662 1.650 1.651 1.657 1.663 1.672 1.682 1.688 1.690 1.691 1.690 1.685 1.677 1.662 1.639 1.604 1.573 1.558 1.554 1.556 1.572 1.598 1.612 1.614 1.607 1.576 1.505 1.379 1.238 1.152 1.014 0.000 
0.000 1.161 1.265 1.307 1.437 1.551 1.614 1.643 1.651 1.650 1.640 1.630 1.629 1.630 1.634 1.652 1.666 1.671 1.671 1.666 1.658 1.651 1.642 1.632 1.616 1.587 1.538 1.461 1.347 1.215 1.121 1.072 1.056 1.057 1.075 1.123 1.177 1.207 1.223 1.233 1.244 1.261 1.287 1.311 1.328 1.345 1.362 1.382 1.415 1.470 1.549 1.616 1.656 1.677 1.686 1.686 1.693 1.709 1.753 1.822 1.948 2.234 2.414 2.328 2.178 2.005 1.771 1.574 1.407 1.136 0.757 0.462 0.368 0.396 0.501 0.560 0.562 0.541 0.561 0.741 1.001 1.078 1.032 0.945 1.059 1.643 2.058 1.995 1.790 1.693 1.662 1.655 1.659 1.672 1.682 1.687 1.689 1.690 1.689 1.684 1.675 1.659 1.636 1.605 1.564 1.534 1.522 1.521 1.528 1.552 1.580 1.592 1.593 1.582 1.545 1.463 1.324 1.171 1.079 0.927 0.000 
0.000 1.180 1.289 1.332 1.454 1.556 1.610 1.631 1.634 1.626 1.605 1.590 1.587 1.591 1.603 1.633 1.659 1.673 1.679 1.680 1.678 1.674 1.667 1.657 1.639 1.608 1.558 1.483 1.378 1.260 1.176 1.127 1.108 1.105 1.113 1.139 1.174 1.196 1.211 1.223 1.239 1.264 1.300 1.328 1.347 1.363 1.379 1.398 1.429 1.483 1.559 1.621 1.658 1.677 1.686 1.687 1.696 1.716 1.766 1.890 2.138 2.543 2.929 3.170 3.257 3.122 2.696 2.234 1.985 1.851 1.618 1.195 0.890 0.823 0.895 0.955 0.958 0.921 0.865 0.879 0.998 1.045 0.991 0.957 1.183 1.895 2.225 2.073 1.809 1.699 1.667 1.659 1.662 1.675 1.684 1.687 1.687 1.686 1.681 1.669 1.650 1.625 1.594 1.556 1.517 1.494 1.487 1.490 1.507 1.540 1.568 1.577 1.576 1.562 1.518 1.428 1.276 1.109 1.017 0.839 0.000 
0.000 1.199 1.310 1.352 1.462 1.554 1.600 1.614 1.614 1.600 1.574 1.561 1.559 1.565 1.586 1.624 1.656 1.674 1.683 1.686 1.687 1.685 1.679 1.667 1.646 1.612 1.560 1.485 1.381 1.273 1.196 1.149 1.127 1.122 1.125 1.141 1.166 1.183 1.197 1.213 1.238 1.277 1.330 1.367 1.389 1.404 1.419 1.437 1.466 1.513 1.578 1.628 1.658 1.674 1.681 1.687 1.696 1.721 1.791 1.978 2.336 2.731 3.072 3.314 3.382 3.277 3.056 2.802 2.545 2.322 2.082 1.703 1.363 1.211 1.185 1.187 1.183 1.162 1.118 1.095 1.106 1.080 0.991 0.964 1.188 1.804 2.108 2.008 1.785 1.690 1.663 1.660 1.666 1.676 1.682 1.684 1.683 1.677 1.663 1.638 1.604 1.565 1.527 1.489 1.461 1.449 1.448 1.459 1.490 1.531 1.557 1.565 1.562 1.544 1.495 1.401 1.247 1.065 0.949 0.798 0.000 
0.000 1.206 1.310 1.357 1.461 1.545 1.585 1.596 1.594 1.579 1.556 1.547 1.546 1.555 1.581 1.623 1.657 1.674 1.686 1.690 1.691 1.689 1.683 1.669 1.645 1.609 1.551 1.470 1.366 1.268 1.197 1.152 1.128 1.121 1.122 1.130 1.145 1.160 1.175 1.196 1.230 1.281 1.350 1.406 1.442 1.465 1.482 1.499 1.523 1.553 1.596 1.631 1.654 1.666 1.672 1.679 1.689 1.725 1.832 2.089 2.423 2.607 2.560 2.281 2.114 2.123 2.378 2.620 2.538 2.344 2.080 1.737 1.456 1.325 1.286 1.267 1.261 1.257 1.256 1.235 1.212 1.132 1.019 0.987 1.120 1.472 1.734 1.778 1.692 1.650 1.644 1.651 1.663 1.672 1.676 1.676 1.673 1.660 1.634 1.592 1.534 1.475 1.431 1.402 1.389 1.388 1.397 1.424 1.474 1.522 1.546 1.554 1.549 1.527 1.472 1.374 1.226 1.052 0.912 0.804 0.000 
0.000 1.183 1.269 1.343 1.448 1.527 1.564 1.575 1.574 1.565 1.549 1.543 1.544 1.555 1.582 1.625 1.659 1.676 1.688 1.691 1.692 1.690 1.683 1.668 1.639 1.593 1.523 1.428 1.324 1.242 1.183 1.142 1.116 1.103 1.096 1.096 1.102 1.113 1.131 1.160 1.204 1.269 1.351 1.420 1.471 1.505 1.527 1.543 1.559 1.576 1.602 1.627 1.642 1.649 1.652 1.651 1.662 1.701 1.816 2.056 2.195 1.977 1.277 0.633 0.465 0.497 0.776 1.236 1.495 1.567 1.493 1.378 1.312 1.309 1.290 1.269 1.260 1.264 1.323 1.344 1.297 1.181 1.068 1.041 1.117 1.315 1.531 1.629 1.626 1.597 1.599 1.620 1.646 1.658 1.662 1.661 1.656 1.640 1.609 1.557 1.482 1.403 1.348 1.320 1.312 1.315 1.334 1.381 1.456 1.511 1.536 1.541 1.535 1.507 1.446 1.342 1.199 1.057 0.946 0.811 0.000 
0.000 1.133 1.195 1.289 1.411 1.494 1.538 1.555 1.560 1.557 1.549 1.545 1.548 1.561 1.592 1.634 1.664 1.679 1.688 1.691 1.692 1.690 1.683 1.665 1.633 1.579 1.498 1.390 1.288 1.215 1.163 1.126 1.096 1.069 1.045 1.030 1.027 1.034 1.052 1.088 1.145 1.228 1.331 1.416 1.478 1.521 1.547 1.562 1.573 1.584 1.598 1.610 1.616 1.616 1.610 1.594 1.577 1.584 1.642 1.803 1.880 1.591 0.738 0.211 0.149 0.154 0.194 0.315 0.451 0.555 0.618 0.677 0.827 1.078 1.190 1.190 1.161 1.166 1.313 1.434 1.386 1.227 1.089 1.061 1.131 1.319 1.530 1.631 1.628 1.571 1.558 1.576 1.616 1.637 1.644 1.645 1.641 1.626 1.595 1.542 1.462 1.369 1.304 1.271 1.261 1.265 1.287 1.344 1.434 1.496 1.522 1.526 1.517 1.483 1.413 1.300 1.161 1.059 0.999 0.839 0.000 
0.000 1.085 1.128 1.208 1.347 1.455 1.514 1.543 1.553 1.555 1.554 1.555 1.562 1.581 1.616 1.651 1.672 1.682 1.688 1.691 1.691 1.689 1.682 1.664 1.631 1.576 1.492 1.379 1.279 1.208 1.159 1.122 1.089 1.055 1.014 0.966 0.933 0.924 0.936 0.970 1.036 1.138 1.270 1.388 1.471 1.523 1.553 1.568 1.575 1.580 1.582 1.577 1.571 1.562 1.548 1.523 1.478 1.461 1.488 1.633 1.761 1.544 0.718 0.202 0.135 0.137 0.152 0.186 0.244 0.309 0.377 0.460 0.619 0.852 0.967 0.980 0.926 0.937 1.206 1.483 1.460 1.271 1.087 1.043 1.112 1.368 1.710 1.825 1.744 1.588 1.541 1.565 1.610 1.633 1.640 1.639 1.634 1.620 1.591 1.540 1.460 1.362 1.290 1.251 1.238 1.240 1.262 1.321 1.416 1.482 1.509 1.514 1.501 1.466 1.392 1.275 1.136 1.040 0.999 0.890 0.000 
0.000 1.060 1.097 1.158 1.304 1.430 1.501 1.537 1.552 1.559 1.567 1.575 1.590 1.616 1.646 1.666 1.678 1.684 1.688 1.691 1.691 1.689 1.681 1.664 1.632 1.578 1.498 1.384 1.286 1.214 1.165 1.127 1.091 1.054 1.006 0.935 0.867 0.834 0.829 0.845 0.899 1.003 1.162 1.328 1.444 1.515 1.551 1.565 1.570 1.567 1.553 1.535 1.525 1.519 1.511 1.492 1.446 1.417 1.434 1.551 1.699 1.577 0.859 0.279 0.169 0.160 0.170 0.194 0.236 0.303 0.392 0.509 0.669 0.825 0.889 0.884 0.806 0.817 1.118 1.491 1.504 1.298 1.049 0.944 0.993 1.288 1.852 2.159 2.065 1.705 1.546 1.571 1.633 1.645 1.646 1.641 1.633 1.619 1.593 1.546 1.471 1.371 1.292 1.248 1.233 1.234 1.254 1.310 1.405 1.474 1.502 1.506 1.494 1.459 1.385 1.271 1.132 1.020 0.954 0.940 0.000 
0.000 1.058 1.096 1.142 1.286 1.421 1.497 1.536 1.557 1.572 1.588 1.605 1.626 1.648 1.665 1.675 1.681 1.684 1.686 1.688 1.689 1.688 1.681 1.667 1.639 1.591 1.517 1.409 1.312 1.242 1.190 1.148 1.108 1.065 1.010 0.927 0.830 0.775 0.759 0.765 0.807 0.908 1.081 1.278 1.418 1.501 1.543 1.558 1.559 1.550 1.527 1.508 1.501 1.504 1.504 1.492 1.451 1.392 1.389 1.469 1.621 1.555 1.015 0.442 0.272 0.245 0.249 0.274 0.325 0.414 0.545 0.688 0.810 0.885 0.913 0.895 0.811 0.803 1.043 1.447 1.494 1.308 1.004 0.769 0.721 0.924 1.559 2.152 2.218 1.849 1.570 1.581 1.711 1.714 1.682 1.656 1.639 1.624 1.602 1.565 1.502 1.408 1.314 1.258 1.237 1.237 1.254 1.306 1.398 1.470 1.500 1.504 1.494 1.458 1.388 1.277 1.145 1.032 0.946 0.994 0.000 
0.000 1.064 1.108 1.144 1.281 1.420 1.498 1.542 1.570 1.594 1.615 1.635 1.654 1.667 1.675 1.679 1.680 1.681 1.682 1.684 1.685 1.685 1.682 1.673 1.654 1.618 1.561 1.477 1.378 1.300 1.243 1.194 1.147 1.096 1.029 0.930 0.812 0.741 0.718 0.722 0.760 0.862 1.046 1.259 1.405 1.491 1.532 1.545 1.545 1.533 1.510 1.496 1.496 1.506 1.527 1.533 1.498 1.361 1.321 1.371 1.486 1.447 1.063 0.591 0.437 0.417 0.425 0.445 0.508 0.654 0.829 0.931 0.974 0.990 0.994 0.976 0.913 0.880 0.974 1.278 1.381 1.278 1.016 0.702 0.534 0.531 0.893 1.652 2.038 1.856 1.542 1.542 1.794 1.850 1.765 1.694 1.661 1.641 1.624 1.599 1.554 1.474 1.367 1.289 1.255 1.250 1.262 1.307 1.393 1.467 1.500 1.507 1.500 1.468 1.402 1.301 1.189 1.096 1.033 1.049 0.000 
0.000 1.072 1.121 1.156 1.285 1.425 1.509 1.559 1.593 1.621 1.643 1.659 1.672 1.678 1.681 1.681 1.677 1.674 1.674 1.674 1.678 1.682 1.683 1.680 1.670 1.649 1.610 1.548 1.463 1.381 1.314 1.257 1.200 1.139 1.060 0.939 0.803 0.724 0.698 0.701 0.741 0.848 1.039 1.255 1.400 1.483 1.521 1.531 1.530 1.517 1.498 1.491 1.497 1.533 1.617 1.676 1.580 1.278 1.189 1.219 1.299 1.283 1.051 0.737 0.653 0.676 0.697 0.711 0.765 0.907 1.056 1.128 1.147 1.145 1.142 1.128 1.090 1.059 1.059 1.162 1.234 1.205 1.035 0.729 0.497 0.397 0.425 0.854 1.444 1.557 1.378 1.380 1.720 1.917 1.833 1.739 1.693 1.670 1.651 1.631 1.597 1.536 1.437 1.340 1.289 1.276 1.281 1.315 1.389 1.464 1.502 1.513 1.510 1.488 1.437 1.356 1.273 1.218 1.172 1.105 0.000 
0.000 1.080 1.135 1.171 1.299 1.443 1.533 1.588 1.623 1.647 1.665 1.677 1.684 1.686 1.685 1.680 1.673 1.668 1.667 1.668 1.673 1.680 1.685 1.684 1.680 1.668 1.645 1.595 1.529 1.452 1.380 1.312 1.246 1.173 1.079 0.940 0.797 0.716 0.691 0.695 0.737 0.847 1.044 1.257 1.396 1.473 1.507 1.516 1.514 1.501 1.487 1.487 1.511 1.595 1.763 1.824 1.484 1.008 0.929 1.035 1.180 1.222 1.117 0.966 0.958 1.035 1.122 1.150 1.112 1.141 1.211 1.262 1.280 1.271 1.236 1.204 1.183 1.172 1.172 1.182 1.191 1.151 1.012 0.751 0.512 0.375 0.323 0.416 0.863 1.198 1.227 1.208 1.456 1.831 1.841 1.758 1.712 1.688 1.669 1.650 1.621 1.572 1.490 1.390 1.331 1.309 1.309 1.330 1.389 1.463 1.502 1.517 1.518 1.507 1.475 1.416 1.345 1.297 1.272 1.122 0.000 
0.000 1.090 1.151 1.188 1.321 1.468 1.560 1.614 1.646 1.666 1.679 1.687 1.693 1.690 1.685 1.679 1.671 1.666 1.665 1.666 1.671 1.680 1.686 1.688 1.687 1.679 1.666 1.628 1.578 1.513 1.440 1.365 1.288 1.201 1.091 0.939 0.795 0.715 0.690 0.695 0.739 0.854 1.056 1.259 1.387 1.456 1.486 1.494 1.492 1.480 1.474 1.480 1.516 1.623 1.834 1.886 1.357 0.792 0.750 0.926 1.142 1.245 1.273 1.270 1.331 1.488 1.625 1.615 1.428 1.324 1.330 1.346 1.356 1.344 1.286 1.225 1.206 1.210 1.211 1.204 1.179 1.107 0.963 0.741 0.527 0.387 0.328 0.363 0.701 1.142 1.254 1.225 1.291 1.609 1.773 1.751 1.718 1.696 1.678 1.659 1.633 1.592 1.525 1.433 1.369 1.342 1.338 1.349 1.390 1.456 1.499 1.516 1.519 1.513 1.491 1.448 1.381 1.322 1.293 1.100 0.000 
0.000 1.102 1.170 1.207 1.337 1.481 1.574 1.629 1.660 1.677 1.687 1.692 1.694 1.689 1.685 1.679 1.671 1.666 1.665 1.666 1.671 1.680 1.688 1.691 1.691 1.687 1.678 1.653 1.617 1.566 1.499 1.420 1.333 1.233 1.106 0.942 0.796 0.718 0.694 0.700 0.747 0.867 1.066 1.249 1.361 1.421 1.446 1.454 1.453 1.449 1.450 1.464 1.509 1.624 1.822 1.874 1.359 0.776 0.723 0.897 1.143 1.295 1.387 1.461 1.573 1.721 1.801 1.786 1.606 1.452 1.424 1.421 1.416 1.398 1.342 1.236 1.189 1.195 1.208 1.207 1.166 1.061 0.895 0.702 0.534 0.426 0.383 0.465 0.868 1.339 1.449 1.371 1.355 1.486 1.671 1.722 1.713 1.699 1.683 1.662 1.637 1.601 1.548 1.472 1.408 1.375 1.366 1.371 1.394 1.444 1.488 1.508 1.512 1.509 1.492 1.456 1.396 1.323 1.270 1.079 0.000 
0.000 1.114 1.189 1.225 1.341 1.483 1.578 1.634 1.666 1.683 1.691 1.694 1.694 1.690 1.686 1.681 1.674 1.670 1.669 1.670 1.674 1.682 1.691 1.694 1.694 1.692 1.686 1.671 1.645 1.606 1.552 1.479 1.386 1.272 1.128 0.950 0.806 0.731 0.709 0.716 0.765 0.882 1.066 1.218 1.308 1.355 1.377 1.386 1.392 1.398 1.409 1.435 1.491 1.600 1.727 1.761 1.417 0.887 0.779 0.905 1.144 1.326 1.444 1.536 1.631 1.726 1.771 1.761 1.675 1.578 1.524 1.492 1.480 1.460 1.418 1.291 1.182 1.183 1.212 1.204 1.135 0.979 0.762 0.598 0.512 0.479 0.586 1.012 1.568 1.860 1.693 1.515 1.485 1.513 1.633 1.703 1.705 1.699 1.684 1.662 1.636 1.604 1.562 1.504 1.448 1.411 1.394 1.391 1.399 1.427 1.463 1.485 1.493 1.492 1.481 1.452 1.398 1.313 1.241 1.048 0.000 
0.000 1.090 1.172 1.225 1.333 1.477 1.576 1.635 1.667 1.684 1.693 1.695 1.695 1.693 1.690 1.685 1.680 1.680 1.679 1.679 1.682 1.687 1.694 1.697 1.698 1.697 1.691 1.680 1.663 1.636 1.593 1.529 1.441 1.321 1.163 0.973 0.834 0.763 0.743 0.750 0.795 0.903 1.066 1.182 1.246 1.278 1.295 1.305 1.316 1.333 1.362 1.408 1.472 1.557 1.635 1.666 1.536 1.163 0.941 0.959 1.131 1.334 1.468 1.561 1.632 1.680 1.703 1.712 1.699 1.664 1.619 1.574 1.553 1.551 1.561 1.506 1.385 1.309 1.273 1.200 1.064 0.830 0.604 0.501 0.482 0.562 1.087 2.052 2.514 2.304 1.770 1.578 1.552 1.569 1.647 1.697 1.704 1.698 1.681 1.657 1.631 1.602 1.568 1.526 1.482 1.446 1.418 1.403 1.399 1.407 1.427 1.445 1.453 1.455 1.451 1.434 1.388 1.301 1.218 1.008 0.000 
0.000 0.909 0.993 1.155 1.295 1.454 1.564 1.630 1.666 1.684 1.693 1.697 1.698 1.697 1.695 1.690 1.687 1.689 1.689 1.689 1.691 1.693 1.696 1.699 1.701 1.700 1.694 1.686 1.673 1.652 1.617 1.562 1.485 1.373 1.214 1.026 0.894 0.828 0.809 0.813 0.850 0.941 1.077 1.169 1.215 1.234 1.243 1.251 1.264 1.288 1.333 1.398 1.465 1.529 1.588 1.629 1.644 1.533 1.286 1.091 1.136 1.316 1.471 1.566 1.623 1.652 1.664 1.671 1.676 1.667 1.651 1.634 1.633 1.678 1.786 1.858 1.829 1.725 1.531 1.250 0.987 0.694 0.502 0.439 0.450 0.590 1.395 2.637 2.999 2.463 1.784 1.598 1.571 1.595 1.690 1.716 1.710 1.695 1.672 1.646 1.621 1.596 1.568 1.537 1.504 1.470 1.435 1.407 1.393 1.388 1.392 1.402 1.414 1.418 1.417 1.405 1.366 1.284 1.197 0.968 0.000 
0.000 0.528 0.608 0.918 1.178 1.392 1.533 1.616 1.660 1.682 1.693 1.697 1.698 1.698 1.698 1.696 1.695 1.694 1.694 1.694 1.696 1.697 1.697 1.699 1.702 1.701 1.695 1.688 1.676 1.655 1.624 1.580 1.515 1.421 1.284 1.119 1.003 0.942 0.923 0.924 0.948 1.012 1.111 1.177 1.209 1.218 1.220 1.225 1.236 1.265 1.321 1.399 1.466 1.517 1.561 1.603 1.651 1.692 1.630 1.354 1.212 1.302 1.459 1.565 1.617 1.636 1.638 1.638 1.640 1.646 1.655 1.676 1.749 1.921 2.182 2.351 2.398 2.308 1.914 1.342 0.946 0.618 0.420 0.363 0.385 0.546 1.385 2.739 3.145 2.522 1.802 1.605 1.572 1.626 1.739 1.739 1.719 1.691 1.665 1.638 1.614 1.591 1.567 1.542 1.515 1.484 1.445 1.408 1.385 1.376 1.375 1.382 1.395 1.400 1.398 1.385 1.345 1.264 1.178 0.956 0.000 
0.000 0.182 0.257 0.546 0.953 1.279 1.477 1.590 1.649 1.678 1.691 1.696 1.698 1.699 1.699 1.699 1.698 1.698 1.697 1.695 1.694 1.695 1.698 1.700 1.702 1.701 1.696 1.690 1.677 1.655 1.625 1.585 1.531 1.461 1.369 1.257 1.171 1.123 1.104 1.099 1.106 1.134 1.183 1.212 1.221 1.217 1.214 1.216 1.227 1.258 1.319 1.406 1.472 1.515 1.547 1.580 1.626 1.686 1.706 1.559 1.358 1.352 1.447 1.552 1.602 1.619 1.623 1.619 1.619 1.626 1.650 1.712 1.901 2.314 2.843 3.080 3.052 2.717 2.035 1.356 0.921 0.579 0.351 0.270 0.270 0.387 1.088 2.626 3.214 2.679 1.865 1.614 1.578 1.660 1.752 1.742 1.720 1.690 1.662 1.636 1.613 1.589 1.566 1.544 1.519 1.489 1.449 1.408 1.382 1.371 1.370 1.375 1.388 1.393 1.391 1.376 1.332 1.244 1.157 0.973 0.000 
0.000 0.040 0.112 0.314 0.782 1.191 1.434 1.569 1.640 1.674 1.689 1.696 1.698 1.699 1.699 1.700 1.700 1.700 1.698 1.696 1.695 1.695 1.698 1.700 1.701 1.698 1.694 1.687 1.675 1.655 1.624 1.583 1.535 1.488 1.437 1.386 1.347 1.324 1.311 1.308 1.307 1.306 1.303 1.288 1.256 1.226 1.215 1.215 1.225 1.258 1.325 1.420 1.485 1.519 1.539 1.555 1.579 1.621 1.650 1.619 1.498 1.452 1.472 1.542 1.590 1.611 1.615 1.615 1.619 1.626 1.644 1.700 1.868 2.305 2.951 3.224 3.108 2.579 1.829 1.262 0.869 0.545 0.316 0.231 0.219 0.257 0.650 2.235 3.358 3.112 2.105 1.678 1.620 1.678 1.735 1.731 1.716 1.690 1.662 1.637 1.613 1.590 1.568 1.545 1.521 1.492 1.452 1.409 1.383 1.372 1.371 1.376 1.388 1.393 1.389 1.368 1.318 1.224 1.136 0.989 0.000 
0.000 0.049 0.115 0.252 0.717 1.157 1.417 1.560 1.635 1.672 1.688 1.695 1.698 1.699 1.700 1.700 1.700 1.700 1.700 1.699 1.698 1.697 1.697 1.701 1.699 1.695 1.690 1.683 1.671 1.650 1.615 1.570 1.529 1.501 1.479 1.465 1.460 1.461 1.458 1.457 1.453 1.443 1.417 1.371 1.301 1.248 1.224 1.221 1.230 1.266 1.343 1.441 1.501 1.528 1.536 1.537 1.538 1.549 1.570 1.589 1.575 1.544 1.529 1.547 1.589 1.610 1.615 1.623 1.645 1.659 1.637 1.494 1.336 1.431 1.831 2.117 1.998 1.487 1.006 0.809 0.666 0.478 0.302 0.237 0.227 0.246 0.416 1.629 3.601 3.930 2.801 1.872 1.683 1.680 1.703 1.709 1.705 1.689 1.666 1.642 1.618 1.595 1.572 1.549 1.524 1.494 1.455 1.415 1.391 1.381 1.380 1.385 1.394 1.397 1.391 1.363 1.302 1.202 1.115 1.000 0.000 
0.000 0.222 0.279 0.299 0.713 1.152 1.414 1.559 1.634 1.671 1.688 1.695 1.698 1.699 1.699 1.700 1.700 1.700 1.700 1.700 1.701 1.697 1.697 1.701 1.699 1.694 1.687 1.679 1.665 1.637 1.592 1.547 1.517 1.504 1.499 1.504 1.519 1.535 1.542 1.543 1.539 1.523 1.488 1.422 1.330 1.268 1.240 1.236 1.247 1.289 1.376 1.470 1.521 1.539 1.540 1.529 1.515 1.513 1.522 1.548 1.572 1.570 1.571 1.582 1.609 1.622 1.628 1.655 1.747 1.800 1.627 1.045 0.588 0.453 0.493 0.635 0.659 0.532 0.435 0.438 0.444 0.382 0.295 0.272 0.273 0.280 0.352 1.061 3.625 4.990 4.144 2.264 1.758 1.687 1.686 1.693 1.694 1.688 1.674 1.655 1.632 1.607 1.582 1.556 1.530 1.499 1.463 1.431 1.413 1.406 1.406 1.410 1.415 1.414 1.399 1.359 1.283 1.179 1.099 1.005 0.000 
0.000 0.573 0.618 0.505 0.785 1.170 1.421 1.562 1.636 1.672 1.688 1.695 1.698 1.698 1.699 1.699 1.700 1.700 1.701 1.701 1.701 1.698 1.699 1.701 1.699 1.691 1.682 1.678 1.658 1.619 1.565 1.525 1.508 1.503 1.505 1.517 1.543 1.568 1.580 1.583 1.580 1.564 1.524 1.451 1.354 1.288 1.263 1.262 1.279 1.332 1.429 1.509 1.546 1.555 1.550 1.528 1.501 1.493 1.494 1.508 1.536 1.565 1.598 1.639 1.661 1.667 1.679 1.736 1.906 1.976 1.589 0.716 0.303 0.220 0.217 0.277 0.355 0.382 0.381 0.392 0.388 0.329 0.290 0.285 0.284 0.285 0.304 0.628 3.018 5.330 5.193 2.890 1.862 1.692 1.674 1.680 1.686 1.686 1.680 1.669 1.651 1.628 1.601 1.571 1.540 1.510 1.483 1.465 1.456 1.454 1.455 1.456 1.454 1.443 1.414 1.354 1.257 1.154 1.087 1.010 0.000 
0.000 0.889 0.924 0.827 0.964 1.229 1.445 1.570 1.639 1.674 1.690 1.696 1.697 1.698 1.698 1.699 1.701 1.700 1.701 1.701 1.700 1.699 1.698 1.695 1.692 1.689 1.680 1.675 1.649 1.602 1.547 1.512 1.501 1.499 1.503 1.518 1.547 1.576 1.592 1.597 1.595 1.581 1.543 1.471 1.377 1.317 1.298 1.300 1.327 1.397 1.495 1.555 1.576 1.578 1.566 1.533 1.494 1.476 1.474 1.480 1.504 1.546 1.605 1.668 1.710 1.722 1.717 1.766 1.958 2.007 1.505 0.580 0.247 0.198 0.199 0.245 0.339 0.402 0.430 0.438 0.390 0.295 0.258 0.248 0.242 0.236 0.220 0.264 1.802 4.723 5.302 3.521 2.017 1.708 1.666 1.668 1.679 1.684 1.683 1.678 1.667 1.649 1.624 1.592 1.558 1.530 1.512 1.503 1.501 1.501 1.506 1.505 1.498 1.478 1.434 1.355 1.234 1.127 1.072 1.010 0.000 
0.000 1.025 1.059 1.027 1.119 1.314 1.487 1.590 1.647 1.678 1.692 1.697 1.698 1.698 1.699 1.700 1.700 1.699 1.701 1.701 1.700 1.700 1.699 1.697 1.695 1.692 1.686 1.670 1.640 1.592 1.537 1.506 1.493 1.491 1.497 1.513 1.543 1.573 1.592 1.598 1.598 1.587 1.556 1.490 1.406 1.360 1.348 1.355 1.392 1.474 1.554 1.592 1.603 1.601 1.583 1.542 1.491 1.460 1.450 1.452 1.470 1.518 1.591 1.656 1.706 1.727 1.716 1.747 1.929 1.935 1.414 0.563 0.262 0.223 0.238 0.303 0.422 0.520 0.558 0.540 0.424 0.262 0.185 0.156 0.146 0.140 0.130 0.111 0.595 3.170 4.580 3.942 2.296 1.752 1.666 1.660 1.671 1.681 1.683 1.681 1.675 1.662 1.641 1.610 1.572 1.544 1.528 1.523 1.523 1.527 1.536 1.536 1.528 1.505 1.453 1.362 1.227 1.101 1.038 1.006 0.000 
0.000 1.057 1.094 1.107 1.206 1.380 1.524 1.609 1.656 1.681 1.693 1.697 1.698 1.699 1.701 1.701 1.699 1.700 1.701 1.700 1.700 1.700 1.699 1.698 1.696 1.692 1.683 1.665 1.636 1.587 1.534 1.502 1.489 1.486 1.489 1.501 1.525 1.555 1.580 1.594 1.597 1.591 1.568 1.514 1.451 1.421 1.417 1.429 1.474 1.547 1.599 1.620 1.625 1.619 1.598 1.556 1.500 1.445 1.413 1.406 1.417 1.447 1.487 1.514 1.522 1.512 1.512 1.573 1.717 1.716 1.349 0.689 0.379 0.316 0.330 0.393 0.505 0.602 0.631 0.610 0.478 0.263 0.155 0.107 0.088 0.082 0.082 0.097 0.239 1.930 3.680 3.887 2.706 1.877 1.687 1.660 1.664 1.675 1.681 1.682 1.678 1.669 1.650 1.620 1.579 1.548 1.532 1.527 1.529 1.537 1.550 1.552 1.547 1.524 1.472 1.377 1.234 1.097 1.011 1.002 0.000 
0.000 1.067 1.109 1.138 1.255 1.425 1.549 1.622 1.662 1.682 1.690 1.694 1.698 1.698 1.699 1.699 1.699 1.700 1.700 1.700 1.700 1.700 1.699 1.699 1.698 1.693 1.682 1.662 1.634 1.584 1.533 1.502 1.489 1.485 1.487 1.494 1.509 1.533 1.560 1.583 1.595 1.596 1.584 1.552 1.516 1.503 1.504 1.517 1.552 1.602 1.631 1.641 1.641 1.632 1.609 1.572 1.525 1.441 1.356 1.317 1.299 1.280 1.264 1.242 1.178 1.114 1.123 1.248 1.384 1.410 1.305 1.002 0.705 0.544 0.492 0.489 0.530 0.603 0.643 0.629 0.527 0.304 0.155 0.095 0.071 0.066 0.070 0.104 0.264 1.370 3.006 3.498 3.033 2.135 1.772 1.678 1.664 1.668 1.676 1.680 1.679 1.672 1.656 1.626 1.582 1.547 1.530 1.525 1.527 1.537 1.555 1.562 1.559 1.541 1.492 1.401 1.259 1.117 1.032 1.011 0.000 
0.000 1.075 1.122 1.157 1.288 1.456 1.568 1.632 1.667 1.684 1.693 1.696 1.698 1.701 1.701 1.699 1.699 1.700 1.700 1.700 1.700 1.700 1.699 1.699 1.699 1.694 1.682 1.662 1.633 1.585 1.535 1.505 1.492 1.488 1.489 1.494 1.506 1.525 1.549 1.578 1.599 1.608 1.609 1.601 1.586 1.577 1.576 1.587 1.612 1.640 1.654 1.657 1.654 1.641 1.616 1.581 1.545 1.459 1.321 1.233 1.188 1.142 1.070 0.952 0.845 0.812 0.856 1.004 1.152 1.210 1.206 1.137 0.971 0.770 0.648 0.589 0.568 0.597 0.642 0.635 0.544 0.333 0.158 0.089 0.068 0.066 0.080 0.145 0.307 0.967 2.271 2.945 3.070 2.581 2.024 1.756 1.681 1.668 1.673 1.678 1.678 1.674 1.659 1.629 1.582 1.540 1.519 1.514 1.516 1.529 1.554 1.568 1.569 1.557 1.518 1.438 1.310 1.171 1.081 1.033 0.000 
0.000 1.083 1.136 1.174 1.312 1.474 1.579 1.639 1.671 1.687 1.695 1.699 1.701 1.700 1.700 1.699 1.699 1.699 1.701 1.701 1.700 1.699 1.699 1.698 1.698 1.694 1.683 1.665 1.634 1.589 1.544 1.517 1.504 1.500 1.500 1.503 1.511 1.526 1.547 1.576 1.606 1.626 1.635 1.636 1.632 1.629 1.627 1.636 1.651 1.664 1.670 1.670 1.664 1.649 1.622 1.584 1.544 1.480 1.332 1.209 1.143 1.077 0.959 0.744 0.573 0.537 0.597 0.769 0.935 1.024 1.065 1.074 1.016 0.836 0.680 0.609 0.585 0.599 0.634 0.628 0.539 0.332 0.154 0.087 0.073 0.081 0.121 0.200 0.303 0.502 1.131 1.848 2.567 2.946 2.597 2.001 1.744 1.682 1.674 1.677 1.679 1.676 1.662 1.632 1.582 1.535 1.510 1.503 1.505 1.520 1.552 1.574 1.580 1.575 1.549 1.491 1.390 1.258 1.145 1.055 0.000 
0.000 1.093 1.151 1.190 1.326 1.484 1.586 1.643 1.673 1.688 1.695 1.699 1.700 1.700 1.700 1.700 1.700 1.699 1.701 1.701 1.700 1.700 1.699 1.699 1.697 1.693 1.685 1.669 1.642 1.601 1.565 1.543 1.532 1.527 1.526 1.526 1.530 1.538 1.552 1.576 1.609 1.635 1.651 1.658 1.660 1.660 1.662 1.666 1.674 1.680 1.681 1.679 1.672 1.656 1.627 1.587 1.538 1.480 1.349 1.223 1.140 1.061 0.931 0.642 0.395 0.339 0.367 0.492 0.656 0.764 0.840 0.909 0.932 0.827 0.638 0.547 0.530 0.551 0.579 0.570 0.486 0.301 0.149 0.095 0.092 0.122 0.186 0.245 0.274 0.285 0.384 0.676 1.522 2.814 3.122 2.473 1.889 1.718 1.682 1.680 1.682 1.679 1.666 1.635 1.584 1.535 1.509 1.501 1.503 1.517 1.552 1.582 1.593 1.592 1.578 1.537 1.459 1.341 1.217 1.095 0.000 
0.000 1.094 1.156 1.199 1.332 1.489 1.589 1.645 1.675 1.689 1.696 1.698 1.700 1.700 1.700 1.700 1.699 1.699 1.700 1.700 1.700 1.700 1.699 1.698 1.696 1.693 1.688 1.677 1.657 1.627 1.603 1.588 1.579 1.574 1.570 1.564 1.556 1.556 1.563 1.578 1.607 1.637 1.656 1.668 1.675 1.678 1.680 1.684 1.687 1.689 1.689 1.687 1.679 1.663 1.635 1.593 1.538 1.480 1.388 1.316 1.246 1.149 0.965 0.580 0.285 0.215 0.220 0.267 0.352 0.436 0.545 0.711 0.795 0.746 0.536 0.389 0.366 0.390 0.418 0.407 0.346 0.229 0.141 0.115 0.130 0.200 0.265 0.283 0.257 0.225 0.226 0.287 0.803 2.461 3.258 2.789 2.014 1.757 1.700 1.692 1.691 1.687 1.672 1.640 1.591 1.541 1.514 1.506 1.508 1.523 1.558 1.593 1.608 1.610 1.600 1.565 1.497 1.395 1.282 1.153 0.000 
0.000 1.061 1.116 1.187 1.334 1.491 1.591 1.647 1.675 1.689 1.696 1.698 1.699 1.700 1.700 1.700 1.699 1.699 1.700 1.700 1.700 1.699 1.699 1.698 1.697 1.695 1.692 1.686 1.675 1.658 1.644 1.634 1.626 1.620 1.609 1.591 1.569 1.564 1.565 1.576 1.600 1.631 1.656 1.671 1.680 1.686 1.690 1.693 1.694 1.695 1.695 1.693 1.687 1.673 1.648 1.607 1.546 1.502 1.487 1.546 1.593 1.477 1.124 0.551 0.233 0.159 0.152 0.164 0.195 0.257 0.396 0.628 0.729 0.680 0.454 0.260 0.212 0.211 0.223 0.226 0.209 0.166 0.139 0.142 0.196 0.315 0.381 0.372 0.284 0.211 0.200 0.244 0.625 2.133 3.067 2.805 2.040 1.769 1.713 1.708 1.704 1.693 1.675 1.649 1.606 1.560 1.535 1.527 1.528 1.542 1.575 1.610 1.624 1.626 1.614 1.578 1.508 1.418 1.336 1.211 0.000 
0.000 1.017 1.063 1.143 1.326 1.491 1.591 1.647 1.676 1.689 1.696 1.698 1.699 1.700 1.700 1.700 1.699 1.699 1.700 1.699 1.699 1.699 1.699 1.698 1.698 1.697 1.695 1.691 1.686 1.678 1.669 1.661 1.655 1.646 1.630 1.604 1.572 1.562 1.560 1.566 1.583 1.615 1.648 1.668 1.680 1.688 1.694 1.697 1.698 1.698 1.698 1.697 1.693 1.683 1.665 1.631 1.576 1.553 1.575 1.709 2.026 2.078 1.610 0.703 0.217 0.149 0.138 0.140 0.154 0.212 0.374 0.627 0.713 0.644 0.389 0.189 0.131 0.121 0.126 0.139 0.146 0.143 0.147 0.191 0.330 0.495 0.573 0.557 0.374 0.226 0.203 0.255 0.670 1.801 2.437 2.403 1.984 1.761 1.715 1.708 1.697 1.688 1.676 1.659 1.630 1.596 1.576 1.569 1.570 1.580 1.607 1.632 1.641 1.639 1.623 1.581 1.506 1.418 1.365 1.215 0.000 
0.000 1.048 1.106 1.140 1.322 1.490 1.591 1.647 1.676 1.689 1.695 1.698 1.699 1.699 1.700 1.699 1.699 1.699 1.698 1.696 1.696 1.698 1.698 1.698 1.698 1.697 1.695 1.693 1.690 1.685 1.680 1.676 1.670 1.659 1.637 1.603 1.567 1.547 1.540 1.541 1.554 1.587 1.629 1.658 1.677 1.688 1.695 1.699 1.700 1.699 1.699 1.698 1.696 1.690 1.679 1.660 1.623 1.605 1.617 1.727 2.106 2.600 2.497 1.536 0.479 0.202 0.185 0.182 0.187 0.243 0.433 0.672 0.718 0.609 0.311 0.139 0.091 0.082 0.085 0.099 0.119 0.136 0.178 0.340 0.631 0.822 0.826 0.688 0.445 0.270 0.233 0.344 0.858 1.542 1.772 1.789 1.731 1.683 1.664 1.649 1.655 1.671 1.673 1.667 1.652 1.633 1.622 1.619 1.621 1.628 1.643 1.654 1.656 1.649 1.625 1.578 1.494 1.398 1.343 1.165 0.000 
0.000 1.127 1.207 1.200 1.332 1.491 1.591 1.647 1.676 1.690 1.695 1.698 1.699 1.699 1.699 1.698 1.697 1.694 1.691 1.690 1.691 1.693 1.694 1.696 1.696 1.696 1.694 1.692 1.690 1.687 1.685 1.682 1.677 1.666 1.643 1.604 1.555 1.526 1.516 1.517 1.530 1.564 1.615 1.653 1.675 1.687 1.694 1.699 1.701 1.699 1.699 1.698 1.697 1.693 1.690 1.679 1.656 1.639 1.642 1.704 1.967 2.594 3.031 2.794 1.785 1.055 0.903 0.905 0.872 0.767 0.737 0.786 0.734 0.532 0.236 0.112 0.078 0.071 0.073 0.084 0.108 0.159 0.345 0.710 1.001 1.026 0.889 0.693 0.472 0.335 0.323 0.560 1.117 1.481 1.569 1.584 1.582 1.580 1.576 1.589 1.619 1.657 1.672 1.673 1.666 1.657 1.653 1.653 1.655 1.660 1.666 1.669 1.666 1.653 1.623 1.567 1.470 1.350 1.273 1.115 0.000 
0.000 1.171 1.260 1.272 1.360 1.495 1.590 1.646 1.675 1.690 1.696 1.698 1.700 1.697 1.697 1.695 1.691 1.685 1.681 1.681 1.681 1.683 1.687 1.691 1.692 1.691 1.690 1.689 1.688 1.687 1.685 1.684 1.679 1.668 1.645 1.604 1.551 1.519 1.508 1.508 1.521 1.558 1.610 1.651 1.675 1.687 1.694 1.699 1.700 1.699 1.699 1.696 1.697 1.696 1.696 1.690 1.677 1.662 1.657 1.677 1.786 2.163 2.780 3.059 2.839 2.468 2.381 2.432 2.497 2.328 1.877 1.356 0.901 0.466 0.201 0.107 0.078 0.072 0.074 0.081 0.163 0.516 1.086 1.480 1.337 0.953 0.747 0.591 0.449 0.395 0.492 0.835 1.256 1.452 1.523 1.550 1.560 1.565 1.565 1.578 1.607 1.660 1.684 1.684 1.679 1.673 1.672 1.672 1.675 1.678 1.679 1.678 1.670 1.653 1.616 1.549 1.435 1.292 1.198 1.068 0.000 
0.000 1.165 1.244 1.287 1.372 1.496 1.588 1.643 1.672 1.688 1.696 1.698 1.699 1.695 1.693 1.689 1.679 1.669 1.663 1.661 1.661 1.664 1.671 1.675 1.678 1.680 1.679 1.679 1.679 1.681 1.683 1.682 1.679 1.669 1.647 1.606 1.553 1.520 1.510 1.510 1.523 1.559 1.612 1.652 1.676 1.689 1.696 1.699 1.700 1.700 1.699 1.696 1.698 1.698 1.699 1.695 1.688 1.678 1.669 1.667 1.694 1.804 2.102 2.472 2.671 2.662 2.655 2.698 2.829 2.973 2.893 2.503 1.792 0.824 0.232 0.131 0.120 0.121 0.166 0.413 1.209 2.285 2.876 2.633 1.588 0.731 0.470 0.393 0.369 0.423 0.638 1.020 1.295 1.431 1.498 1.531 1.549 1.555 1.557 1.562 1.580 1.658 1.715 1.712 1.697 1.687 1.684 1.684 1.686 1.687 1.687 1.682 1.672 1.649 1.604 1.525 1.400 1.252 1.148 1.024 0.000 
0.000 1.127 1.185 1.262 1.369 1.495 1.584 1.637 1.668 1.685 1.693 1.696 1.696 1.693 1.687 1.676 1.658 1.639 1.628 1.624 1.626 1.630 1.641 1.651 1.656 1.658 1.659 1.659 1.661 1.666 1.674 1.677 1.676 1.669 1.650 1.614 1.565 1.535 1.525 1.525 1.538 1.573 1.622 1.659 1.680 1.692 1.698 1.700 1.701 1.701 1.700 1.698 1.699 1.699 1.701 1.697 1.694 1.688 1.679 1.669 1.663 1.671 1.725 1.843 1.994 2.117 2.193 2.247 2.350 2.627 2.952 3.142 2.963 2.158 1.075 0.633 0.603 0.722 1.067 1.841 3.025 3.790 3.847 3.163 1.661 0.660 0.370 0.318 0.336 0.449 0.736 1.096 1.307 1.416 1.472 1.500 1.513 1.516 1.504 1.501 1.529 1.681 1.790 1.767 1.722 1.699 1.692 1.690 1.691 1.691 1.690 1.685 1.672 1.642 1.588 1.501 1.371 1.226 1.124 0.981 0.000 
0.000 1.081 1.119 1.199 1.339 1.477 1.569 1.627 1.663 1.681 1.689 1.692 1.692 1.687 1.675 1.654 1.621 1.590 1.574 1.568 1.566 1.574 1.594 1.612 1.620 1.623 1.623 1.624 1.628 1.637 1.655 1.669 1.671 1.667 1.656 1.632 1.594 1.571 1.564 1.566 1.577 1.604 1.644 1.671 1.686 1.694 1.698 1.699 1.701 1.696 1.697 1.700 1.701 1.702 1.701 1.698 1.696 1.692 1.686 1.674 1.655 1.630 1.605 1.603 1.631 1.670 1.706 1.745 1.804 1.936 2.273 2.776 3.116 3.053 2.594 2.254 2.146 2.110 2.237 2.646 3.301 3.627 3.558 2.980 1.770 0.785 0.425 0.366 0.405 0.574 0.875 1.163 1.325 1.403 1.435 1.443 1.432 1.383 1.310 1.301 1.367 1.638 1.832 1.800 1.736 1.706 1.696 1.693 1.693 1.693 1.690 1.683 1.666 1.632 1.573 1.482 1.347 1.206 1.110 0.963 0.000 
0.000 1.052 1.081 1.144 1.290 1.448 1.554 1.620 1.657 1.677 1.686 1.687 1.685 1.675 1.653 1.615 1.558 1.513 1.489 1.482 1.487 1.510 1.543 1.564 1.571 1.572 1.571 1.571 1.576 1.593 1.625 1.653 1.668 1.672 1.669 1.657 1.633 1.617 1.611 1.612 1.618 1.635 1.661 1.680 1.690 1.696 1.698 1.699 1.695 1.698 1.701 1.701 1.700 1.700 1.699 1.699 1.697 1.694 1.688 1.677 1.657 1.622 1.570 1.531 1.516 1.518 1.531 1.556 1.596 1.659 1.767 1.976 2.358 2.749 2.909 2.836 2.714 2.531 2.395 2.376 2.404 2.358 2.301 2.207 1.882 1.329 0.986 0.926 1.026 1.204 1.330 1.344 1.371 1.391 1.399 1.396 1.376 1.318 1.218 1.153 1.161 1.458 1.793 1.794 1.737 1.706 1.696 1.694 1.694 1.693 1.690 1.683 1.663 1.624 1.564 1.469 1.331 1.192 1.098 0.970 0.000 
0.000 1.037 1.061 1.112 1.250 1.424 1.546 1.619 1.659 1.678 1.683 1.681 1.674 1.654 1.616 1.551 1.478 1.434 1.419 1.419 1.435 1.475 1.515 1.533 1.537 1.534 1.528 1.526 1.533 1.557 1.602 1.646 1.670 1.678 1.678 1.671 1.656 1.642 1.636 1.635 1.638 1.648 1.666 1.683 1.692 1.696 1.698 1.698 1.697 1.701 1.701 1.701 1.700 1.699 1.699 1.699 1.697 1.695 1.690 1.679 1.658 1.621 1.564 1.513 1.489 1.483 1.488 1.508 1.546 1.592 1.639 1.702 1.814 2.012 2.230 2.332 2.305 2.153 1.958 1.849 1.808 1.792 1.792 1.831 1.908 1.917 1.903 1.952 2.027 2.044 1.897 1.639 1.486 1.404 1.384 1.378 1.355 1.306 1.225 1.158 1.140 1.307 1.651 1.735 1.721 1.702 1.696 1.694 1.694 1.693 1.689 1.677 1.657 1.623 1.561 1.464 1.323 1.181 1.088 0.977 0.000 
0.000 0.998 1.014 1.079 1.219 1.410 1.541 1.620 1.659 1.675 1.678 1.673 1.660 1.628 1.572 1.490 1.424 1.391 1.383 1.388 1.414 1.465 1.505 1.521 1.522 1.517 1.507 1.504 1.513 1.541 1.593 1.641 1.668 1.677 1.679 1.676 1.665 1.650 1.642 1.641 1.642 1.650 1.666 1.683 1.693 1.695 1.695 1.696 1.698 1.700 1.700 1.700 1.700 1.699 1.699 1.699 1.696 1.694 1.691 1.680 1.660 1.623 1.565 1.513 1.488 1.482 1.486 1.506 1.547 1.589 1.620 1.647 1.678 1.727 1.781 1.798 1.793 1.756 1.699 1.670 1.660 1.661 1.671 1.709 1.820 1.993 2.136 2.214 2.224 2.158 1.972 1.734 1.549 1.424 1.389 1.378 1.352 1.307 1.248 1.209 1.200 1.296 1.563 1.662 1.683 1.691 1.693 1.693 1.693 1.693 1.689 1.680 1.661 1.624 1.561 1.463 1.323 1.176 1.078 0.989 0.000 
0.000 0.952 0.959 1.029 1.200 1.402 1.537 1.617 1.656 1.671 1.674 1.667 1.650 1.611 1.544 1.459 1.403 1.378 1.373 1.382 1.413 1.468 1.506 1.520 1.521 1.513 1.501 1.499 1.508 1.538 1.591 1.641 1.667 1.678 1.679 1.677 1.666 1.650 1.641 1.638 1.639 1.645 1.659 1.679 1.691 1.694 1.696 1.693 1.698 1.699 1.699 1.699 1.699 1.699 1.700 1.700 1.701 1.699 1.692 1.682 1.663 1.628 1.574 1.526 1.504 1.499 1.504 1.527 1.572 1.611 1.632 1.646 1.658 1.668 1.675 1.674 1.671 1.661 1.648 1.643 1.643 1.646 1.654 1.672 1.716 1.816 1.915 1.948 1.937 1.889 1.800 1.688 1.562 1.463 1.423 1.394 1.363 1.327 1.298 1.288 1.297 1.365 1.532 1.620 1.662 1.684 1.691 1.689 1.693 1.693 1.690 1.681 1.661 1.625 1.563 1.467 1.330 1.179 1.074 1.007 0.000 
0.000 0.974 0.990 1.020 1.193 1.397 1.534 1.613 1.652 1.667 1.669 1.664 1.645 1.603 1.532 1.452 1.401 1.380 1.377 1.389 1.428 1.485 1.518 1.528 1.527 1.516 1.504 1.503 1.512 1.542 1.596 1.643 1.669 1.678 1.680 1.675 1.661 1.642 1.628 1.622 1.622 1.626 1.641 1.667 1.684 1.692 1.697 1.694 1.699 1.699 1.698 1.699 1.698 1.698 1.700 1.700 1.700 1.698 1.693 1.685 1.669 1.640 1.595 1.559 1.543 1.541 1.548 1.574 1.617 1.648 1.661 1.665 1.665 1.666 1.663 1.660 1.657 1.654 1.652 1.654 1.657 1.659 1.662 1.667 1.677 1.699 1.722 1.729 1.728 1.720 1.699 1.658 1.585 1.523 1.480 1.440 1.404 1.382 1.373 1.377 1.394 1.440 1.533 1.611 1.656 1.680 1.690 1.689 1.693 1.693 1.690 1.681 1.662 1.627 1.569 1.479 1.350 1.202 1.094 1.024 0.000 
0.000 1.039 1.074 1.066 1.199 1.391 1.528 1.608 1.648 1.663 1.666 1.661 1.642 1.601 1.531 1.458 1.414 1.401 1.403 1.423 1.473 1.525 1.550 1.555 1.550 1.533 1.522 1.522 1.532 1.561 1.611 1.652 1.670 1.675 1.673 1.668 1.652 1.622 1.599 1.590 1.590 1.599 1.623 1.656 1.678 1.689 1.694 1.697 1.700 1.700 1.700 1.699 1.702 1.702 1.700 1.700 1.700 1.699 1.696 1.690 1.679 1.659 1.630 1.609 1.601 1.601 1.606 1.623 1.651 1.671 1.680 1.683 1.683 1.680 1.675 1.672 1.671 1.672 1.676 1.680 1.682 1.682 1.680 1.675 1.671 1.670 1.671 1.672 1.673 1.681 1.684 1.671 1.605 1.572 1.546 1.516 1.485 1.469 1.465 1.467 1.476 1.500 1.550 1.613 1.656 1.678 1.688 1.692 1.694 1.694 1.691 1.683 1.666 1.635 1.584 1.505 1.393 1.259 1.149 1.044 0.000 
0.000 1.078 1.125 1.132 1.221 1.381 1.518 1.600 1.642 1.658 1.661 1.657 1.640 1.602 1.540 1.485 1.457 1.453 1.463 1.495 1.545 1.580 1.592 1.593 1.585 1.567 1.559 1.562 1.574 1.596 1.631 1.661 1.678 1.681 1.677 1.669 1.641 1.600 1.577 1.570 1.574 1.588 1.618 1.654 1.676 1.688 1.695 1.698 1.700 1.701 1.701 1.699 1.700 1.700 1.700 1.700 1.701 1.700 1.697 1.694 1.688 1.678 1.661 1.649 1.645 1.644 1.647 1.657 1.673 1.685 1.690 1.692 1.693 1.692 1.690 1.689 1.689 1.689 1.691 1.692 1.692 1.692 1.691 1.686 1.677 1.670 1.666 1.666 1.669 1.679 1.687 1.680 1.630 1.614 1.604 1.592 1.576 1.557 1.547 1.545 1.547 1.559 1.584 1.625 1.659 1.679 1.688 1.693 1.696 1.695 1.693 1.686 1.671 1.647 1.602 1.533 1.435 1.318 1.217 1.067 0.000 
0.000 1.089 1.131 1.154 1.228 1.365 1.501 1.585 1.630 1.649 1.654 1.651 1.637 1.608 1.565 1.537 1.529 1.532 1.546 1.572 1.600 1.613 1.616 1.613 1.605 1.595 1.592 1.593 1.601 1.619 1.641 1.660 1.673 1.678 1.674 1.657 1.625 1.586 1.566 1.562 1.569 1.590 1.622 1.656 1.677 1.689 1.695 1.698 1.700 1.701 1.701 1.701 1.700 1.699 1.699 1.699 1.697 1.696 1.698 1.697 1.694 1.688 1.679 1.673 1.671 1.671 1.673 1.678 1.687 1.692 1.695 1.696 1.696 1.696 1.696 1.696 1.696 1.696 1.697 1.697 1.697 1.697 1.696 1.694 1.689 1.681 1.676 1.674 1.671 1.669 1.665 1.665 1.666 1.662 1.656 1.649 1.635 1.618 1.608 1.605 1.605 1.611 1.624 1.646 1.669 1.684 1.693 1.697 1.698 1.697 1.695 1.689 1.674 1.654 1.611 1.550 1.456 1.342 1.259 1.090 0.000 
0.000 1.083 1.102 1.144 1.217 1.340 1.474 1.563 1.612 1.635 1.641 1.640 1.631 1.611 1.590 1.581 1.583 1.592 1.603 1.616 1.625 1.627 1.624 1.617 1.611 1.608 1.610 1.613 1.616 1.629 1.643 1.650 1.652 1.648 1.643 1.634 1.611 1.584 1.563 1.561 1.566 1.589 1.628 1.664 1.682 1.690 1.697 1.699 1.700 1.701 1.701 1.701 1.699 1.697 1.698 1.698 1.699 1.697 1.698 1.698 1.697 1.695 1.689 1.687 1.686 1.686 1.687 1.690 1.693 1.696 1.697 1.697 1.698 1.698 1.698 1.699 1.699 1.699 1.699 1.699 1.699 1.699 1.698 1.697 1.695 1.693 1.690 1.687 1.683 1.674 1.673 1.681 1.690 1.695 1.696 1.685 1.667 1.655 1.649 1.647 1.648 1.650 1.656 1.669 1.683 1.692 1.697 1.699 1.699 1.699 1.698 1.692 1.677 1.655 1.616 1.559 1.464 1.344 1.260 1.087 0.000 
0.000 1.066 1.050 1.100 1.183 1.309 1.442 1.533 1.585 1.611 1.619 1.621 1.617 1.606 1.599 1.602 1.612 1.623 1.631 1.634 1.634 1.630 1.622 1.615 1.610 1.610 1.615 1.624 1.628 1.634 1.638 1.638 1.630 1.622 1.616 1.611 1.601 1.588 1.566 1.566 1.569 1.572 1.595 1.630 1.663 1.687 1.699 1.701 1.700 1.702 1.702 1.701 1.698 1.696 1.696 1.697 1.697 1.696 1.699 1.699 1.699 1.699 1.696 1.693 1.694 1.694 1.694 1.694 1.695 1.696 1.697 1.697 1.698 1.698 1.699 1.701 1.700 1.700 1.700 1.700 1.700 1.699 1.699 1.699 1.698 1.697 1.696 1.694 1.692 1.692 1.692 1.695 1.699 1.701 1.698 1.691 1.683 1.677 1.674 1.677 1.677 1.676 1.678 1.685 1.693 1.696 1.698 1.699 1.699 1.699 1.699 1.695 1.676 1.656 1.621 1.562 1.466 1.338 1.241 1.060 0.000 
0.000 1.057 1.022 1.060 1.157 1.290 1.415 1.500 1.549 1.574 1.584 1.588 1.590 1.590 1.595 1.606 1.622 1.633 1.638 1.639 1.635 1.624 1.610 1.603 1.602 1.605 1.616 1.627 1.632 1.633 1.629 1.617 1.598 1.590 1.587 1.587 1.590 1.592 1.584 1.583 1.582 1.588 1.603 1.629 1.664 1.685 1.697 1.704 1.703 1.704 1.702 1.698 1.695 1.694 1.694 1.694 1.694 1.694 1.698 1.698 1.699 1.699 1.699 1.697 1.698 1.699 1.696 1.695 1.695 1.695 1.695 1.695 1.697 1.697 1.698 1.701 1.700 1.700 1.700 1.700 1.700 1.700 1.700 1.700 1.699 1.699 1.698 1.697 1.697 1.697 1.697 1.699 1.701 1.701 1.702 1.696 1.689 1.687 1.690 1.697 1.693 1.691 1.694 1.697 1.696 1.698 1.699 1.699 1.699 1.699 1.698 1.695 1.678 1.658 1.623 1.562 1.463 1.325 1.219 1.032 0.000 
0.000 1.078 1.061 1.062 1.154 1.280 1.390 1.464 1.507 1.528 1.538 1.546 1.554 1.563 1.579 1.603 1.625 1.637 1.640 1.639 1.630 1.608 1.588 1.581 1.581 1.591 1.611 1.626 1.630 1.628 1.615 1.589 1.566 1.559 1.559 1.563 1.576 1.587 1.598 1.608 1.617 1.627 1.640 1.649 1.673 1.686 1.693 1.707 1.701 1.696 1.695 1.694 1.690 1.689 1.689 1.689 1.688 1.690 1.693 1.696 1.698 1.699 1.701 1.700 1.700 1.700 1.697 1.693 1.692 1.691 1.691 1.691 1.693 1.693 1.696 1.699 1.699 1.700 1.700 1.700 1.700 1.700 1.700 1.700 1.700 1.700 1.699 1.699 1.699 1.699 1.699 1.700 1.701 1.701 1.700 1.694 1.690 1.695 1.701 1.703 1.700 1.700 1.699 1.697 1.697 1.698 1.699 1.699 1.698 1.697 1.697 1.692 1.681 1.659 1.623 1.557 1.453 1.308 1.198 1.011 0.000 
0.000 1.128 1.154 1.116 1.175 1.273 1.368 1.434 1.475 1.497 1.508 1.517 1.526 1.538 1.559 1.594 1.623 1.635 1.637 1.633 1.616 1.583 1.561 1.555 1.557 1.571 1.601 1.623 1.626 1.622 1.606 1.572 1.544 1.536 1.535 1.541 1.558 1.579 1.596 1.612 1.628 1.645 1.659 1.667 1.681 1.689 1.695 1.704 1.702 1.698 1.693 1.688 1.682 1.679 1.679 1.680 1.678 1.682 1.688 1.693 1.696 1.698 1.700 1.702 1.701 1.698 1.696 1.689 1.685 1.682 1.681 1.682 1.683 1.686 1.691 1.695 1.698 1.699 1.700 1.700 1.700 1.700 1.700 1.700 1.700 1.700 1.700 1.700 1.700 1.700 1.700 1.700 1.701 1.700 1.698 1.695 1.694 1.701 1.703 1.701 1.702 1.700 1.699 1.699 1.699 1.698 1.698 1.698 1.698 1.698 1.697 1.692 1.680 1.658 1.619 1.548 1.437 1.287 1.177 0.995 0.000 
0.000 1.182 1.245 1.211 1.232 1.282 1.352 1.414 1.456 1.480 1.493 1.502 1.510 1.522 1.543 1.580 1.613 1.626 1.628 1.619 1.594 1.554 1.533 1.528 1.533 1.552 1.593 1.616 1.621 1.618 1.602 1.567 1.532 1.516 1.514 1.517 1.533 1.559 1.584 1.606 1.627 1.646 1.660 1.673 1.683 1.691 1.697 1.700 1.700 1.697 1.692 1.684 1.674 1.668 1.667 1.667 1.668 1.673 1.683 1.689 1.694 1.697 1.700 1.701 1.700 1.696 1.691 1.683 1.672 1.664 1.662 1.664 1.665 1.670 1.680 1.690 1.695 1.698 1.699 1.699 1.700 1.700 1.700 1.700 1.700 1.700 1.700 1.700 1.700 1.700 1.700 1.700 1.700 1.700 1.699 1.698 1.699 1.702 1.705 1.704 1.702 1.701 1.700 1.700 1.700 1.701 1.700 1.700 1.699 1.699 1.697 1.691 1.678 1.654 1.610 1.534 1.415 1.265 1.156 0.980 0.000 
0.000 1.224 1.302 1.278 1.281 1.299 1.344 1.405 1.450 1.475 1.489 1.496 1.502 1.511 1.529 1.563 1.595 1.607 1.608 1.596 1.564 1.522 1.502 1.500 1.508 1.534 1.584 1.610 1.617 1.615 1.602 1.569 1.527 1.498 1.487 1.486 1.496 1.518 1.546 1.576 1.606 1.633 1.654 1.670 1.681 1.690 1.696 1.697 1.697 1.695 1.690 1.682 1.670 1.662 1.659 1.658 1.660 1.667 1.680 1.687 1.692 1.696 1.698 1.698 1.697 1.693 1.684 1.669 1.647 1.633 1.629 1.629 1.632 1.642 1.662 1.680 1.690 1.698 1.698 1.699 1.699 1.699 1.699 1.699 1.699 1.699 1.699 1.700 1.700 1.700 1.700 1.700 1.700 1.700 1.699 1.700 1.700 1.701 1.701 1.701 1.701 1.701 1.700 1.700 1.700 1.701 1.701 1.700 1.699 1.699 1.696 1.689 1.674 1.647 1.597 1.514 1.386 1.240 1.137 0.985 0.000 
0.000 1.241 1.314 1.304 1.299 1.311 1.347 1.404 1.450 1.477 1.490 1.496 1.499 1.503 1.515 1.541 1.567 1.576 1.575 1.560 1.520 1.478 1.461 1.460 1.472 1.510 1.569 1.605 1.617 1.617 1.606 1.578 1.533 1.485 1.450 1.434 1.432 1.443 1.466 1.500 1.543 1.590 1.628 1.656 1.674 1.688 1.691 1.694 1.694 1.693 1.688 1.681 1.669 1.659 1.655 1.654 1.655 1.664 1.678 1.688 1.694 1.696 1.697 1.696 1.693 1.686 1.671 1.644 1.608 1.583 1.573 1.573 1.580 1.600 1.635 1.666 1.685 1.695 1.695 1.697 1.698 1.698 1.698 1.698 1.698 1.698 1.698 1.699 1.699 1.700 1.700 1.700 1.700 1.700 1.700 1.700 1.700 1.700 1.701 1.701 1.700 1.700 1.700 1.700 1.700 1.701 1.701 1.701 1.700 1.698 1.694 1.686 1.670 1.638 1.582 1.491 1.353 1.212 1.122 1.013 0.000 
0.000 1.218 1.277 1.299 1.302 1.321 1.359 1.414 1.460 1.486 1.498 1.501 1.500 1.496 1.498 1.511 1.526 1.531 1.525 1.500 1.448 1.407 1.390 1.391 1.411 1.465 1.547 1.597 1.617 1.620 1.614 1.589 1.542 1.471 1.395 1.343 1.319 1.316 1.328 1.361 1.420 1.498 1.568 1.618 1.649 1.671 1.682 1.688 1.690 1.690 1.686 1.680 1.671 1.660 1.654 1.651 1.654 1.662 1.676 1.688 1.695 1.697 1.696 1.695 1.690 1.679 1.658 1.622 1.573 1.541 1.528 1.527 1.538 1.568 1.615 1.656 1.680 1.689 1.693 1.695 1.695 1.695 1.695 1.694 1.694 1.694 1.695 1.697 1.698 1.699 1.699 1.700 1.700 1.700 1.700 1.700 1.700 1.700 1.700 1.700 1.700 1.700 1.700 1.700 1.700 1.700 1.701 1.702 1.700 1.697 1.692 1.684 1.666 1.631 1.571 1.474 1.328 1.188 1.110 1.077 0.000 
0.000 1.161 1.205 1.260 1.292 1.333 1.387 1.444 1.486 1.509 1.517 1.517 1.509 1.489 1.475 1.471 1.471 1.466 1.448 1.406 1.335 1.287 1.270 1.274 1.306 1.388 1.505 1.580 1.613 1.621 1.617 1.594 1.542 1.451 1.318 1.198 1.136 1.116 1.121 1.152 1.224 1.339 1.456 1.541 1.598 1.637 1.663 1.677 1.684 1.686 1.690 1.685 1.673 1.661 1.653 1.649 1.652 1.659 1.672 1.686 1.693 1.695 1.696 1.694 1.689 1.676 1.652 1.612 1.557 1.522 1.508 1.508 1.520 1.554 1.606 1.651 1.676 1.687 1.689 1.692 1.692 1.690 1.688 1.686 1.686 1.687 1.689 1.692 1.695 1.697 1.699 1.699 1.700 1.700 1.700 1.700 1.700 1.700 1.700 1.700 1.700 1.700 1.700 1.700 1.700 1.702 1.701 1.701 1.700 1.696 1.691 1.681 1.662 1.627 1.565 1.465 1.316 1.174 1.098 1.069 0.000 
0.000 1.102 1.136 1.196 1.270 1.356 1.435 1.496 1.533 1.548 1.552 1.546 1.528 1.494 1.456 1.426 1.403 1.378 1.336 1.259 1.159 1.100 1.084 1.091 1.142 1.265 1.436 1.550 1.603 1.619 1.617 1.596 1.536 1.420 1.235 1.027 0.897 0.847 0.841 0.865 0.950 1.101 1.278 1.412 1.510 1.580 1.627 1.657 1.674 1.682 1.686 1.683 1.674 1.660 1.651 1.648 1.648 1.653 1.665 1.680 1.689 1.693 1.694 1.693 1.688 1.677 1.653 1.610 1.553 1.518 1.505 1.505 1.517 1.551 1.606 1.649 1.673 1.684 1.687 1.689 1.686 1.679 1.673 1.671 1.671 1.672 1.675 1.682 1.689 1.694 1.696 1.698 1.699 1.699 1.700 1.700 1.700 1.700 1.699 1.699 1.699 1.700 1.700 1.700 1.700 1.699 1.696 1.694 1.694 1.694 1.689 1.678 1.658 1.623 1.561 1.463 1.315 1.168 1.088 1.062 0.000 
0.000 1.071 1.103 1.152 1.258 1.386 1.485 1.550 1.584 1.594 1.595 1.585 1.557 1.509 1.450 1.394 1.338 1.275 1.190 1.057 0.927 0.863 0.850 0.869 0.954 1.135 1.364 1.512 1.588 1.616 1.617 1.596 1.532 1.402 1.187 0.912 0.721 0.627 0.601 0.610 0.669 0.808 1.018 1.215 1.367 1.483 1.568 1.624 1.656 1.673 1.679 1.677 1.675 1.658 1.645 1.640 1.638 1.642 1.653 1.670 1.683 1.690 1.692 1.692 1.688 1.677 1.654 1.612 1.557 1.524 1.512 1.511 1.524 1.557 1.613 1.653 1.674 1.682 1.685 1.683 1.675 1.659 1.647 1.642 1.641 1.643 1.649 1.661 1.675 1.686 1.692 1.694 1.697 1.698 1.699 1.699 1.699 1.699 1.699 1.699 1.698 1.699 1.699 1.699 1.699 1.698 1.696 1.695 1.694 1.691 1.685 1.674 1.654 1.620 1.560 1.465 1.321 1.171 1.083 1.059 0.000 
0.000 1.065 1.099 1.139 1.259 1.411 1.520 1.584 1.616 1.627 1.626 1.616 1.586 1.531 1.458 1.374 1.283 1.173 1.025 0.848 0.724 0.672 0.667 0.702 0.820 1.052 1.321 1.493 1.581 1.612 1.616 1.597 1.531 1.396 1.167 0.856 0.616 0.484 0.433 0.428 0.459 0.551 0.716 0.932 1.152 1.337 1.475 1.570 1.627 1.658 1.668 1.672 1.670 1.649 1.629 1.620 1.618 1.620 1.630 1.652 1.673 1.684 1.690 1.690 1.688 1.679 1.659 1.622 1.576 1.547 1.538 1.538 1.549 1.579 1.628 1.661 1.676 1.681 1.681 1.674 1.656 1.626 1.601 1.591 1.589 1.592 1.602 1.622 1.646 1.663 1.676 1.687 1.693 1.696 1.697 1.698 1.698 1.698 1.698 1.699 1.699 1.699 1.699 1.698 1.698 1.697 1.696 1.694 1.689 1.684 1.677 1.666 1.647 1.615 1.561 1.473 1.340 1.194 1.099 1.074 0.000 
0.000 1.060 1.095 1.135 1.260 1.426 1.540 1.606 1.636 1.646 1.645 1.634 1.603 1.546 1.464 1.359 1.233 1.076 0.873 0.685 0.574 0.535 0.538 0.591 0.738 1.008 1.299 1.482 1.575 1.609 1.615 1.596 1.531 1.395 1.162 0.835 0.563 0.400 0.325 0.306 0.317 0.371 0.490 0.674 0.914 1.170 1.372 1.511 1.595 1.640 1.658 1.665 1.658 1.634 1.605 1.590 1.586 1.589 1.602 1.630 1.662 1.677 1.687 1.690 1.689 1.684 1.671 1.645 1.613 1.594 1.589 1.590 1.598 1.620 1.653 1.673 1.681 1.681 1.675 1.660 1.629 1.578 1.532 1.511 1.506 1.510 1.524 1.553 1.592 1.628 1.658 1.677 1.685 1.690 1.693 1.694 1.695 1.696 1.697 1.698 1.699 1.699 1.698 1.697 1.696 1.694 1.692 1.687 1.679 1.670 1.661 1.651 1.635 1.609 1.564 1.490 1.377 1.244 1.153 1.120 0.000 
0.000 1.022 1.050 1.119 1.259 1.436 1.553 1.617 1.647 1.655 1.654 1.642 1.610 1.551 1.462 1.340 1.182 0.976 0.738 0.557 0.463 0.437 0.447 0.517 0.691 0.987 1.288 1.474 1.571 1.608 1.613 1.595 1.531 1.394 1.161 0.829 0.538 0.354 0.260 0.229 0.230 0.262 0.352 0.513 0.753 1.053 1.303 1.471 1.570 1.622 1.646 1.650 1.643 1.621 1.590 1.572 1.567 1.570 1.585 1.618 1.654 1.674 1.687 1.691 1.692 1.690 1.684 1.670 1.652 1.642 1.639 1.640 1.645 1.657 1.674 1.683 1.685 1.680 1.665 1.640 1.595 1.522 1.450 1.408 1.393 1.394 1.408 1.444 1.502 1.571 1.621 1.651 1.670 1.680 1.685 1.687 1.688 1.690 1.692 1.695 1.697 1.697 1.696 1.694 1.692 1.690 1.685 1.675 1.659 1.646 1.636 1.626 1.615 1.598 1.568 1.516 1.430 1.321 1.237 1.191 0.000 
0.000 0.977 0.998 1.073 1.253 1.443 1.560 1.623 1.651 1.658 1.656 1.643 1.610 1.548 1.453 1.314 1.123 0.868 0.616 0.452 0.376 0.360 0.379 0.467 0.661 0.976 1.279 1.468 1.567 1.605 1.610 1.593 1.529 1.393 1.160 0.824 0.523 0.329 0.225 0.186 0.183 0.206 0.281 0.432 0.671 0.988 1.258 1.439 1.549 1.606 1.629 1.633 1.635 1.614 1.584 1.567 1.562 1.564 1.580 1.614 1.651 1.674 1.687 1.693 1.694 1.694 1.691 1.685 1.676 1.670 1.669 1.669 1.671 1.678 1.684 1.687 1.685 1.675 1.652 1.619 1.559 1.478 1.391 1.334 1.307 1.301 1.307 1.333 1.388 1.473 1.556 1.613 1.646 1.663 1.670 1.673 1.676 1.678 1.681 1.687 1.692 1.694 1.694 1.692 1.690 1.685 1.675 1.653 1.626 1.607 1.596 1.591 1.587 1.581 1.569 1.543 1.493 1.417 1.335 1.283 0.000 
0.000 1.006 1.037 1.068 1.254 1.449 1.566 1.626 1.651 1.657 1.655 1.639 1.600 1.531 1.422 1.262 1.036 0.745 0.503 0.360 0.302 0.295 0.324 0.427 0.637 0.964 1.270 1.460 1.560 1.599 1.604 1.586 1.522 1.384 1.149 0.812 0.507 0.311 0.206 0.167 0.163 0.184 0.257 0.405 0.645 0.964 1.232 1.414 1.527 1.585 1.610 1.619 1.624 1.609 1.585 1.569 1.564 1.566 1.582 1.614 1.651 1.674 1.687 1.693 1.695 1.696 1.695 1.693 1.689 1.686 1.684 1.683 1.684 1.687 1.689 1.688 1.682 1.664 1.635 1.593 1.525 1.445 1.358 1.297 1.265 1.254 1.256 1.273 1.318 1.397 1.494 1.568 1.614 1.636 1.645 1.649 1.651 1.654 1.660 1.671 1.684 1.691 1.693 1.693 1.689 1.683 1.666 1.634 1.598 1.575 1.564 1.561 1.562 1.568 1.573 1.564 1.545 1.507 1.447 1.405 0.000 
0.000 1.079 1.129 1.122 1.270 1.459 1.572 1.628 1.649 1.653 1.647 1.623 1.571 1.485 1.354 1.166 0.904 0.606 0.391 0.275 0.235 0.236 0.275 0.390 0.611 0.945 1.252 1.445 1.547 1.585 1.590 1.571 1.503 1.359 1.117 0.778 0.483 0.294 0.197 0.163 0.160 0.182 0.255 0.404 0.645 0.962 1.217 1.388 1.496 1.556 1.588 1.607 1.613 1.607 1.591 1.579 1.576 1.579 1.593 1.620 1.651 1.673 1.686 1.692 1.695 1.696 1.697 1.696 1.695 1.693 1.692 1.689 1.688 1.690 1.691 1.685 1.672 1.649 1.612 1.558 1.492 1.422 1.348 1.290 1.255 1.242 1.242 1.254 1.293 1.366 1.460 1.529 1.574 1.597 1.604 1.607 1.610 1.612 1.623 1.645 1.670 1.684 1.691 1.695 1.691 1.681 1.661 1.625 1.585 1.560 1.550 1.548 1.551 1.560 1.575 1.584 1.590 1.585 1.564 1.541 0.000 
0.000 1.127 1.189 1.200 1.318 1.480 1.580 1.627 1.641 1.641 1.626 1.585 1.511 1.396 1.232 1.008 0.717 0.451 0.280 0.197 0.174 0.180 0.228 0.351 0.574 0.905 1.217 1.415 1.520 1.559 1.563 1.541 1.465 1.307 1.046 0.708 0.443 0.280 0.197 0.167 0.166 0.192 0.272 0.427 0.672 0.976 1.210 1.364 1.460 1.520 1.561 1.590 1.606 1.610 1.606 1.602 1.600 1.602 1.608 1.624 1.649 1.669 1.682 1.690 1.695 1.694 1.697 1.697 1.697 1.696 1.695 1.692 1.688 1.690 1.690 1.679 1.655 1.617 1.565 1.513 1.463 1.411 1.350 1.295 1.261 1.248 1.247 1.258 1.293 1.362 1.450 1.505 1.531 1.541 1.542 1.540 1.541 1.545 1.564 1.604 1.647 1.673 1.686 1.689 1.688 1.679 1.657 1.621 1.581 1.557 1.547 1.546 1.549 1.560 1.579 1.603 1.626 1.643 1.653 1.646 0.000 
0.000 1.149 1.219 1.247 1.367 1.508 1.588 1.621 1.628 1.621 1.588 1.517 1.405 1.245 1.036 0.774 0.498 0.297 0.180 0.131 0.122 0.133 0.184 0.303 0.515 0.833 1.155 1.366 1.479 1.521 1.525 1.498 1.410 1.233 0.952 0.638 0.416 0.279 0.209 0.188 0.193 0.231 0.328 0.498 0.747 1.017 1.218 1.354 1.445 1.503 1.546 1.579 1.603 1.615 1.619 1.618 1.615 1.610 1.611 1.620 1.638 1.655 1.670 1.682 1.689 1.691 1.697 1.697 1.697 1.697 1.696 1.694 1.690 1.689 1.686 1.670 1.635 1.586 1.531 1.487 1.449 1.411 1.367 1.324 1.295 1.282 1.281 1.289 1.318 1.377 1.454 1.496 1.506 1.495 1.465 1.447 1.444 1.452 1.482 1.547 1.616 1.656 1.675 1.680 1.680 1.674 1.654 1.623 1.582 1.559 1.550 1.548 1.552 1.564 1.588 1.621 1.651 1.675 1.691 1.691 0.000 
0.000 1.167 1.243 1.277 1.401 1.525 1.590 1.613 1.612 1.590 1.529 1.416 1.248 1.028 0.776 0.530 0.325 0.186 0.113 0.086 0.083 0.098 0.148 0.256 0.448 0.743 1.080 1.315 1.444 1.493 1.499 1.471 1.378 1.189 0.899 0.612 0.415 0.299 0.250 0.241 0.259 0.321 0.447 0.639 0.874 1.088 1.245 1.356 1.445 1.508 1.547 1.578 1.603 1.618 1.623 1.623 1.617 1.607 1.600 1.602 1.609 1.622 1.640 1.660 1.676 1.687 1.693 1.695 1.695 1.697 1.696 1.694 1.691 1.688 1.682 1.666 1.628 1.574 1.518 1.478 1.448 1.423 1.402 1.383 1.369 1.361 1.360 1.365 1.386 1.433 1.481 1.501 1.499 1.467 1.408 1.374 1.366 1.374 1.410 1.488 1.578 1.634 1.660 1.670 1.671 1.667 1.650 1.622 1.585 1.566 1.560 1.560 1.565 1.579 1.605 1.637 1.665 1.686 1.698 1.699 0.000 
0.000 1.187 1.266 1.302 1.423 1.533 1.587 1.608 1.601 1.565 1.481 1.333 1.114 0.840 0.584 0.376 0.221 0.124 0.076 0.060 0.060 0.077 0.125 0.226 0.406 0.686 1.036 1.286 1.430 1.482 1.488 1.461 1.368 1.176 0.884 0.617 0.449 0.365 0.340 0.346 0.387 0.484 0.651 0.858 1.045 1.186 1.296 1.377 1.437 1.498 1.554 1.586 1.604 1.618 1.622 1.620 1.608 1.581 1.557 1.547 1.547 1.556 1.578 1.617 1.654 1.673 1.684 1.689 1.691 1.694 1.694 1.692 1.691 1.687 1.682 1.666 1.629 1.574 1.519 1.480 1.459 1.449 1.445 1.444 1.445 1.449 1.454 1.466 1.486 1.507 1.515 1.516 1.501 1.456 1.380 1.336 1.324 1.330 1.365 1.442 1.541 1.607 1.642 1.656 1.659 1.657 1.645 1.617 1.585 1.570 1.566 1.569 1.581 1.601 1.624 1.647 1.668 1.688 1.700 1.700 0.000 
0.000 1.210 1.290 1.325 1.436 1.536 1.584 1.601 1.592 1.551 1.457 1.290 1.040 0.736 0.487 0.302 0.176 0.098 0.061 0.049 0.051 0.068 0.115 0.214 0.388 0.662 1.018 1.278 1.428 1.482 1.486 1.459 1.370 1.182 0.900 0.673 0.548 0.503 0.502 0.531 0.603 0.741 0.937 1.105 1.212 1.280 1.328 1.373 1.425 1.481 1.537 1.581 1.603 1.613 1.615 1.605 1.574 1.513 1.457 1.432 1.428 1.435 1.468 1.535 1.605 1.646 1.667 1.677 1.682 1.686 1.687 1.688 1.688 1.686 1.680 1.665 1.636 1.589 1.539 1.504 1.489 1.486 1.486 1.488 1.493 1.500 1.512 1.532 1.553 1.563 1.560 1.552 1.519 1.456 1.374 1.325 1.309 1.312 1.340 1.407 1.503 1.575 1.617 1.636 1.641 1.642 1.631 1.606 1.579 1.567 1.566 1.571 1.589 1.614 1.633 1.649 1.665 1.684 1.699 1.699 0.000 
0.000 1.224 1.300 1.337 1.439 1.535 1.582 1.593 1.586 1.546 1.451 1.276 1.015 0.703 0.455 0.280 0.164 0.094 0.058 0.047 0.049 0.066 0.113 0.211 0.385 0.658 1.015 1.281 1.433 1.489 1.491 1.468 1.391 1.219 0.976 0.813 0.745 0.737 0.758 0.804 0.890 1.025 1.176 1.279 1.335 1.359 1.366 1.380 1.410 1.450 1.502 1.568 1.599 1.602 1.595 1.567 1.499 1.377 1.276 1.232 1.224 1.237 1.293 1.409 1.530 1.599 1.635 1.653 1.662 1.667 1.672 1.676 1.680 1.682 1.679 1.672 1.655 1.628 1.593 1.562 1.544 1.533 1.528 1.525 1.525 1.530 1.542 1.565 1.590 1.599 1.598 1.587 1.547 1.471 1.381 1.328 1.308 1.308 1.325 1.376 1.459 1.533 1.579 1.603 1.612 1.614 1.605 1.584 1.562 1.554 1.554 1.565 1.590 1.617 1.634 1.644 1.651 1.664 1.691 1.687 0.000 
0.000 1.208 1.273 1.330 1.434 1.530 1.577 1.589 1.583 1.546 1.451 1.279 1.020 0.704 0.456 0.282 0.166 0.097 0.063 0.051 0.052 0.068 0.115 0.214 0.390 0.668 1.025 1.292 1.444 1.504 1.515 1.504 1.446 1.314 1.147 1.057 1.036 1.039 1.050 1.080 1.134 1.221 1.320 1.384 1.416 1.427 1.425 1.413 1.403 1.413 1.453 1.531 1.571 1.575 1.560 1.506 1.386 1.203 1.074 1.021 1.014 1.033 1.110 1.261 1.423 1.525 1.580 1.607 1.622 1.631 1.641 1.650 1.663 1.673 1.680 1.683 1.678 1.666 1.643 1.614 1.596 1.587 1.578 1.565 1.553 1.552 1.559 1.581 1.609 1.623 1.625 1.615 1.580 1.508 1.415 1.352 1.319 1.309 1.315 1.344 1.402 1.468 1.516 1.547 1.562 1.566 1.561 1.545 1.527 1.521 1.526 1.549 1.588 1.615 1.627 1.629 1.621 1.612 1.632 1.601 0.000 
0.000 1.158 1.206 1.289 1.410 1.516 1.571 1.588 1.584 1.552 1.466 1.306 1.057 0.744 0.491 0.312 0.192 0.118 0.079 0.066 0.066 0.080 0.127 0.229 0.411 0.701 1.057 1.315 1.462 1.532 1.562 1.562 1.532 1.453 1.355 1.298 1.271 1.258 1.255 1.263 1.288 1.333 1.404 1.451 1.472 1.477 1.473 1.453 1.414 1.404 1.438 1.504 1.545 1.553 1.534 1.461 1.311 1.103 0.966 0.909 0.902 0.924 1.009 1.172 1.334 1.434 1.492 1.526 1.547 1.564 1.581 1.601 1.629 1.656 1.676 1.689 1.694 1.680 1.638 1.616 1.613 1.628 1.632 1.613 1.581 1.570 1.573 1.591 1.621 1.639 1.643 1.638 1.615 1.564 1.485 1.410 1.353 1.315 1.299 1.304 1.329 1.371 1.419 1.459 1.485 1.496 1.496 1.487 1.477 1.481 1.501 1.541 1.584 1.605 1.609 1.597 1.555 1.481 1.435 1.313 0.000 
0.000 1.100 1.133 1.214 1.357 1.489 1.562 1.589 1.590 1.568 1.501 1.365 1.145 0.853 0.592 0.400 0.264 0.173 0.121 0.100 0.098 0.110 0.157 0.262 0.454 0.761 1.113 1.356 1.485 1.559 1.598 1.603 1.589 1.546 1.484 1.442 1.410 1.381 1.361 1.352 1.362 1.403 1.471 1.512 1.526 1.523 1.490 1.469 1.449 1.458 1.478 1.517 1.549 1.554 1.525 1.440 1.281 1.076 0.938 0.877 0.868 0.891 0.977 1.140 1.291 1.376 1.419 1.440 1.454 1.468 1.488 1.520 1.570 1.624 1.663 1.688 1.700 1.669 1.594 1.584 1.601 1.636 1.667 1.648 1.607 1.589 1.587 1.600 1.631 1.651 1.655 1.653 1.638 1.604 1.547 1.473 1.393 1.318 1.266 1.239 1.232 1.242 1.272 1.317 1.367 1.400 1.416 1.427 1.439 1.462 1.496 1.543 1.581 1.595 1.592 1.562 1.479 1.309 1.152 0.902 0.000 
0.000 1.066 1.094 1.156 1.308 1.464 1.556 1.596 1.604 1.596 1.555 1.460 1.293 1.049 0.785 0.570 0.404 0.283 0.205 0.167 0.158 0.167 0.210 0.317 0.519 0.840 1.178 1.394 1.506 1.582 1.619 1.623 1.616 1.589 1.543 1.501 1.461 1.417 1.390 1.381 1.403 1.475 1.555 1.590 1.600 1.578 1.484 1.469 1.482 1.533 1.565 1.583 1.584 1.570 1.525 1.430 1.276 1.091 0.953 0.886 0.874 0.896 0.979 1.138 1.284 1.362 1.395 1.407 1.411 1.414 1.426 1.457 1.516 1.592 1.648 1.681 1.692 1.670 1.603 1.581 1.555 1.547 1.594 1.633 1.626 1.610 1.605 1.613 1.638 1.657 1.662 1.660 1.649 1.621 1.572 1.501 1.409 1.304 1.206 1.135 1.094 1.083 1.094 1.133 1.203 1.281 1.341 1.387 1.421 1.461 1.503 1.550 1.582 1.591 1.585 1.541 1.434 1.221 0.992 0.666 0.000 
0.000 1.061 1.089 1.135 1.285 1.452 1.555 1.606 1.624 1.624 1.606 1.551 1.447 1.283 1.064 0.836 0.631 0.465 0.346 0.279 0.257 0.260 0.297 0.399 0.601 0.919 1.234 1.427 1.534 1.597 1.625 1.631 1.625 1.601 1.559 1.505 1.454 1.414 1.396 1.402 1.441 1.557 1.714 1.758 1.745 1.659 1.496 1.474 1.506 1.578 1.604 1.606 1.602 1.580 1.525 1.424 1.282 1.143 1.028 0.950 0.928 0.943 1.015 1.161 1.305 1.379 1.406 1.412 1.409 1.406 1.412 1.437 1.495 1.578 1.638 1.670 1.678 1.673 1.637 1.604 1.547 1.476 1.461 1.528 1.620 1.635 1.628 1.631 1.648 1.661 1.664 1.662 1.650 1.624 1.578 1.506 1.404 1.265 1.116 1.015 0.967 0.956 0.965 1.002 1.082 1.196 1.296 1.369 1.422 1.473 1.523 1.567 1.589 1.593 1.581 1.526 1.401 1.180 0.958 0.614 0.000 
0.000 1.066 1.098 1.135 1.277 1.448 1.558 1.616 1.641 1.646 1.639 1.611 1.550 1.451 1.311 1.138 0.940 0.732 0.559 0.453 0.408 0.403 0.428 0.517 0.703 1.001 1.289 1.471 1.570 1.617 1.633 1.634 1.627 1.600 1.555 1.493 1.435 1.403 1.396 1.407 1.449 1.574 1.829 1.957 1.917 1.736 1.547 1.502 1.522 1.575 1.604 1.609 1.604 1.580 1.522 1.416 1.291 1.212 1.139 1.071 1.049 1.053 1.105 1.209 1.337 1.440 1.470 1.472 1.461 1.442 1.428 1.443 1.495 1.576 1.634 1.665 1.676 1.676 1.666 1.637 1.577 1.512 1.488 1.536 1.640 1.655 1.650 1.652 1.659 1.664 1.664 1.660 1.647 1.621 1.575 1.497 1.377 1.203 1.035 0.933 0.889 0.882 0.895 0.939 1.028 1.158 1.279 1.369 1.440 1.504 1.558 1.592 1.604 1.602 1.580 1.510 1.364 1.134 0.951 0.604 0.000 
0.000 1.074 1.110 1.144 1.280 1.451 1.564 1.626 1.654 1.662 1.661 1.649 1.617 1.560 1.476 1.365 1.226 1.050 0.851 0.700 0.627 0.608 0.621 0.687 0.841 1.098 1.353 1.512 1.596 1.632 1.643 1.639 1.620 1.584 1.529 1.456 1.393 1.362 1.357 1.362 1.394 1.478 1.704 1.905 1.934 1.768 1.558 1.499 1.511 1.555 1.591 1.601 1.597 1.570 1.503 1.386 1.270 1.231 1.224 1.206 1.204 1.208 1.205 1.227 1.312 1.449 1.500 1.517 1.514 1.493 1.480 1.487 1.521 1.583 1.634 1.665 1.679 1.683 1.681 1.667 1.633 1.590 1.592 1.641 1.673 1.671 1.667 1.666 1.665 1.663 1.658 1.649 1.634 1.609 1.560 1.476 1.346 1.156 0.986 0.891 0.855 0.854 0.872 0.926 1.020 1.152 1.282 1.387 1.476 1.548 1.598 1.621 1.626 1.617 1.582 1.489 1.306 1.058 0.904 0.564 0.000 
0.000 1.082 1.122 1.158 1.297 1.466 1.576 1.637 1.666 1.676 1.677 1.672 1.658 1.629 1.582 1.517 1.433 1.322 1.174 1.026 0.932 0.897 0.897 0.935 1.041 1.234 1.440 1.567 1.630 1.650 1.650 1.635 1.599 1.543 1.472 1.391 1.317 1.270 1.250 1.242 1.224 1.166 1.204 1.353 1.527 1.582 1.481 1.443 1.455 1.502 1.556 1.579 1.578 1.558 1.499 1.392 1.311 1.300 1.326 1.353 1.365 1.349 1.294 1.213 1.191 1.248 1.269 1.281 1.308 1.375 1.504 1.568 1.589 1.611 1.644 1.667 1.684 1.689 1.689 1.684 1.668 1.646 1.659 1.688 1.688 1.685 1.679 1.673 1.666 1.655 1.638 1.623 1.607 1.584 1.540 1.466 1.338 1.138 0.962 0.873 0.846 0.848 0.879 0.945 1.045 1.173 1.312 1.431 1.526 1.595 1.633 1.647 1.647 1.633 1.588 1.481 1.261 0.938 0.745 0.430 0.000 
0.000 1.093 1.137 1.178 1.338 1.502 1.601 1.654 1.679 1.687 1.688 1.687 1.681 1.668 1.647 1.616 1.573 1.515 1.436 1.345 1.284 1.258 1.254 1.267 1.319 1.428 1.557 1.637 1.672 1.677 1.665 1.626 1.559 1.469 1.382 1.297 1.211 1.151 1.117 1.090 1.027 0.850 0.707 0.689 0.812 1.076 1.235 1.287 1.336 1.405 1.485 1.540 1.562 1.560 1.529 1.480 1.467 1.477 1.497 1.510 1.503 1.467 1.374 1.232 1.144 1.101 1.075 1.058 1.061 1.134 1.375 1.586 1.631 1.643 1.659 1.676 1.691 1.695 1.695 1.693 1.686 1.683 1.687 1.694 1.695 1.692 1.687 1.679 1.664 1.633 1.594 1.573 1.564 1.557 1.533 1.472 1.348 1.140 0.947 0.859 0.842 0.865 0.939 1.034 1.137 1.253 1.386 1.503 1.588 1.639 1.664 1.671 1.669 1.653 1.604 1.492 1.260 0.842 0.515 0.241 0.000 
0.000 1.106 1.155 1.217 1.417 1.568 1.646 1.680 1.692 1.696 1.695 1.696 1.694 1.690 1.684 1.674 1.660 1.639 1.608 1.568 1.541 1.531 1.530 1.536 1.557 1.601 1.654 1.685 1.698 1.699 1.682 1.622 1.517 1.375 1.255 1.177 1.115 1.060 1.004 0.948 0.870 0.727 0.603 0.573 0.616 0.800 0.965 1.050 1.137 1.242 1.365 1.477 1.549 1.586 1.592 1.580 1.572 1.599 1.621 1.626 1.614 1.565 1.447 1.287 1.200 1.180 1.184 1.158 1.112 1.119 1.248 1.496 1.621 1.662 1.680 1.693 1.697 1.698 1.698 1.698 1.696 1.694 1.698 1.698 1.698 1.696 1.695 1.685 1.660 1.599 1.509 1.477 1.492 1.532 1.545 1.508 1.396 1.177 0.930 0.823 0.822 0.922 1.112 1.245 1.329 1.409 1.501 1.586 1.645 1.675 1.687 1.690 1.689 1.679 1.643 1.542 1.306 0.837 0.385 0.133 0.000 
0.000 1.121 1.174 1.311 1.480 1.613 1.678 1.697 1.700 1.700 1.700 1.700 1.700 1.700 1.700 1.700 1.700 1.699 1.693 1.683 1.675 1.672 1.672 1.673 1.679 1.689 1.697 1.700 1.700 1.698 1.685 1.626 1.493 1.322 1.186 1.117 1.080 1.021 0.932 0.845 0.795 0.778 0.774 0.773 0.776 0.789 0.818 0.870 0.953 1.062 1.194 1.349 1.507 1.619 1.652 1.637 1.627 1.642 1.669 1.689 1.687 1.634 1.503 1.340 1.259 1.320 1.425 1.444 1.354 1.269 1.305 1.449 1.598 1.675 1.697 1.700 1.700 1.700 1.700 1.700 1.700 1.700 1.700 1.700 1.700 1.700 1.699 1.691 1.654 1.563 1.435 1.353 1.389 1.506 1.600 1.602 1.497 1.270 0.954 0.719 0.740 0.997 1.283 1.449 1.508 1.538 1.582 1.635 1.676 1.695 1.699 1.700 1.700 1.700 1.697 1.659 1.448 0.934 0.357 0.109 0.000 
0.000 1.133 1.190 1.332 1.500 1.624 1.682 1.698 1.700 1.700 1.700 1.700 1.700 1.700 1.700 1.700 1.700 1.700 1.700 1.699 1.698 1.698 1.698 1.698 1.699 1.699 1.700 1.700 1.700 1.698 1.680 1.614 1.475 1.305 1.176 1.112 1.071 1.000 0.893 0.793 0.739 0.722 0.719 0.719 0.720 0.723 0.735 0.771 0.850 0.972 1.126 1.307 1.489 1.622 1.677 1.683 1.682 1.686 1.693 1.697 1.687 1.628 1.489 1.330 1.271 1.359 1.479 1.488 1.378 1.282 1.321 1.469 1.613 1.682 1.698 1.700 1.700 1.700 1.700 1.700 1.700 1.700 1.700 1.700 1.700 1.700 1.699 1.688 1.643 1.534 1.389 1.305 1.357 1.498 1.619 1.651 1.572 1.344 1.006 0.763 0.811 1.109 1.423 1.595 1.649 1.662 1.673 1.685 1.695 1.699 1.700 1.700 1.700 1.700 1.697 1.659 1.449 0.935 0.357 0.107 0.000 
0.000 0.000 0.000 0.000 0.000 0.000 0.000 0.000 0.000 0.000 0.000 0.000 0.000 0.000 0.000 0.000 0.000 0.000 0.000 0.000 0.000 0.000 0.000 0.000 0.000 0.000 0.000 0.000 0.000 0.000 0.000 0.000 0.000 0.000 0.000 0.000 0.000 0.000 0.000 0.000 0.000 0.000 0.000 0.000 0.000 0.000 0.000 0.000 0.000 0.000 0.000 0.000 0.000 0.000 0.000 0.000 0.000 0.000 0.000 0.000 0.000 0.000 0.000 0.000 0.000 0.000 0.000 0.000 0.000 0.000 0.000 0.000 0.000 0.000 0.000 0.000 0.000 0.000 0.000 0.000 0.000 0.000 0.000 0.000 0.000 0.000 0.000 0.000 0.000 0.000 0.000 0.000 0.000 0.000 0.000 0.000 0.000 0.000 0.000 0.000 0.000 0.000 0.000 0.000 0.000 0.000 0.000 0.000 0.000 0.000 0.000 0.000 0.000 0.000 0.000 0.000 0.000 0.000 0.000 0.000 0.000 
