ncols 121
nrows 121
xllcenter 614385.88
yllcenter 1276940.75
cellsize 92.28
NODATA_value -9999.000
0.000 0.000 0.000 0.000 0.000 0.000 0.000 0.000 0.000 0.000 0.000 0.000 0.000 0.000 0.000 0.000 0.000 0.000 0.000 0.000 0.000 0.000 0.000 0.000 0.000 0.000 0.000 0.000 0.000 0.000 0.000 0.000 0.000 0.000 0.000 0.000 0.000 0.000 0.000 0.000 0.000 0.000 0.000 0.000 0.000 0.000 0.000 0.000 0.000 0.000 0.000 0.000 0.000 0.000 0.000 0.000 0.000 0.000 0.000 0.000 0.000 0.000 0.000 0.000 0.000 0.000 0.000 0.000 0.000 0.000 0.000 0.000 0.000 0.000 0.000 0.000 0.000 0.000 0.000 0.000 0.000 0.000 0.000 0.000 0.000 0.000 0.000 0.000 0.000 0.000 0.000 0.000 0.000 0.000 0.000 0.000 0.000 0.000 0.000 0.000 0.000 0.000 0.000 0.000 0.000 0.000 0.000 0.000 0.000 0.000 0.000 0.000 0.000 0.000 0.000 0.000 0.000 0.000 0.000 0.000 0.000 
0.000 0.000 0.000 0.000 0.000 0.000 0.000 0.000 0.000 0.000 0.000 0.000 0.000 0.000 0.000 0.000 0.000 0.000 0.000 0.000 0.000 0.000 0.000 0.000 0.000 0.000 0.000 0.000 0.000 0.000 0.000 0.000 0.000 0.000 0.000 0.000 0.000 0.000 0.000 0.000 0.000 0.000 0.000 0.000 0.000 0.000 0.000 0.000 0.000 0.000 0.000 0.000 0.000 0.000 0.000 0.000 0.000 0.000 0.000 0.000 0.000 0.000 0.000 0.000 0.000 0.000 0.000 0.000 0.000 0.000 0.000 0.000 0.000 0.000 0.000 0.000 0.000 0.000 0.000 0.000 0.000 0.000 0.000 0.000 0.000 0.000 0.000 0.000 0.000 0.000 0.000 0.000 0.000 0.000 0.000 0.000 0.000 0.000 0.000 0.000 0.000 0.000 0.000 0.000 0.000 0.000 0.000 0.000 0.000 0.000 0.000 0.000 0.000 0.000 0.000 0.000 0.000 0.000 0.000 0.000 0.000 
0.000 0.000 0.000 0.000 0.000 0.000 0.000 0.000 0.000 0.000 0.000 0.000 0.000 0.000 0.000 0.000 0.000 0.000 0.000 0.000 0.000 0.000 0.000 0.000 0.000 0.000 0.000 0.000 0.000 0.000 0.000 0.000 0.000 0.000 0.000 0.000 0.000 0.000 0.000 0.000 0.000 0.000 0.000 0.000 0.000 0.000 0.000 0.000 0.000 0.000 0.000 0.000 0.000 0.000 0.000 0.000 0.000 0.000 0.000 0.000 0.000 0.000 0.000 0.000 0.000 0.000 0.000 0.000 0.000 0.000 0.000 0.000 0.000 0.000 0.000 0.000 0.000 0.000 0.000 0.000 0.000 0.000 0.000 0.000 0.000 0.000 0.000 0.000 0.000 0.000 0.000 0.000 0.000 0.000 0.000 0.000 0.000 0.000 0.000 0.000 0.000 0.000 0.000 0.000 0.000 0.000 0.000 0.000 0.000 0.000 0.000 0.000 0.000 0.000 0.000 0.000 0.000 0.000 0.000 0.000 0.000 
0.000 0.000 0.000 0.000 0.000 0.000 0.000 0.000 0.000 0.000 0.000 0.000 0.000 0.000 0.000 0.009 0.000 0.000 0.000 0.000 0.000 0.000 0.000 0.000 0.000 0.000 0.000 0.000 0.000 0.000 0.000 0.000 0.000 0.000 0.000 0.064 0.109 0.039 0.016 0.097 0.000 0.000 0.000 0.000 0.007 0.000 0.000 0.000 0.000 0.000 0.000 0.000 0.000 0.000 0.000 0.000 0.000 0.000 0.000 0.000 0.000 0.020 0.000 0.000 0.000 0.000 0.000 0.000 0.087 0.000 0.000 0.000 0.000 0.005 0.007 0.000 0.000 0.000 0.000 0.000 0.000 0.022 0.019 0.023 0.000 0.019 0.000 0.000 0.000 0.000 0.071 0.355 0.000 0.000 0.000 0.066 0.000 0.000 0.000 0.000 0.000 0.000 0.040 0.000 0.000 0.000 0.000 0.000 0.000 0.000 0.000 0.019 0.000 0.000 0.000 0.064 0.000 0.000 0.000 0.000 0.000 
0.000 0.000 0.000 0.000 0.000 0.000 0.104 0.000 0.000 0.000 0.000 0.000 0.000 0.000 0.072 0.249 0.022 0.000 0.000 0.000 0.000 0.000 0.000 0.000 0.000 0.000 0.000 0.000 0.000 0.000 0.000 0.000 0.000 0.000 0.000 0.000 0.099 0.099 0.000 0.000 0.000 0.000 0.000 0.000 0.000 0.000 0.000 0.000 0.000 0.000 0.000 0.000 0.000 0.000 0.000 0.000 0.000 0.000 0.000 0.000 0.000 0.000 0.018 0.000 0.000 0.000 0.000 0.000 0.000 0.084 0.000 0.000 0.000 0.045 0.004 0.000 0.000 0.000 0.000 0.000 0.000 0.000 0.023 0.000 0.025 0.000 0.006 0.000 0.000 0.000 0.096 0.000 0.000 0.000 0.000 0.000 0.000 0.000 0.000 0.000 0.000 0.000 0.000 0.038 0.000 0.002 0.000 0.000 0.000 0.000 0.000 0.000 0.018 0.000 0.000 0.000 0.215 0.180 0.000 0.000 0.000 
0.000 0.000 0.000 0.000 0.000 0.000 0.029 0.105 0.000 0.000 0.000 0.000 0.000 0.000 0.000 0.052 0.254 0.000 0.000 0.003 0.000 0.000 0.000 0.000 0.053 0.240 0.000 0.000 0.001 0.063 0.000 0.000 0.000 0.000 0.000 0.000 0.000 0.000 0.000 0.000 0.000 0.000 0.000 0.000 0.000 0.000 0.000 0.000 0.000 0.002 0.000 0.000 0.000 0.000 0.000 0.000 0.000 0.000 0.000 0.000 0.000 0.030 0.045 0.007 0.000 0.000 0.000 0.000 0.000 0.000 0.000 0.000 0.000 0.000 0.046 0.000 0.000 0.000 0.000 0.000 0.000 0.000 0.000 0.000 0.000 0.000 0.000 0.000 0.000 0.000 0.000 0.149 0.000 0.056 0.000 0.000 0.000 0.071 0.000 0.000 0.000 0.000 0.000 0.000 0.000 0.000 0.000 0.000 0.000 0.000 0.000 0.000 0.037 0.072 0.000 0.000 0.063 0.251 0.000 0.000 0.000 
0.000 0.000 0.000 0.000 0.000 0.000 0.000 0.008 0.014 0.000 0.000 0.197 0.000 0.000 0.000 0.000 0.189 0.109 0.020 0.005 0.000 0.000 0.000 0.000 0.006 0.102 0.000 0.000 0.017 0.038 0.058 0.000 0.000 0.000 0.000 0.000 0.000 0.000 0.000 0.000 0.000 0.000 0.000 0.000 0.000 0.000 0.000 0.000 0.000 0.000 0.016 0.000 0.041 0.000 0.000 0.000 0.000 0.000 0.000 0.000 0.000 0.043 0.040 0.035 0.000 0.000 0.000 0.000 0.000 0.000 0.000 0.000 0.000 0.000 0.000 0.000 0.000 0.000 0.000 0.000 0.000 0.000 0.003 0.000 0.000 0.000 0.000 0.000 0.000 0.000 0.000 0.000 0.000 0.000 0.058 0.000 0.000 0.002 0.078 0.000 0.000 0.000 0.000 0.047 0.000 0.000 0.000 0.000 0.086 0.000 0.000 0.000 0.000 0.055 0.053 0.000 0.000 0.000 0.000 0.000 0.000 
0.000 0.000 0.000 0.000 0.000 0.018 0.001 0.000 0.042 0.000 0.000 0.000 0.193 0.000 0.000 0.011 0.001 0.202 0.058 0.000 0.000 0.000 0.000 0.000 0.000 0.000 0.000 0.000 0.012 0.087 0.000 0.000 0.000 0.000 0.000 0.000 0.000 0.000 0.000 0.000 0.000 0.000 0.000 0.000 0.000 0.273 0.000 0.000 0.000 0.000 0.000 0.016 0.009 0.043 0.000 0.000 0.000 0.000 0.000 0.000 0.000 0.037 0.046 0.000 0.000 0.000 0.000 0.000 0.000 0.000 0.000 0.000 0.000 0.000 0.000 0.000 0.000 0.000 0.000 0.000 0.000 0.000 0.000 0.004 0.000 0.000 0.000 0.000 0.000 0.000 0.000 0.000 0.000 0.000 0.000 0.000 0.000 0.027 0.000 0.000 0.000 0.000 0.000 0.000 0.045 0.000 0.000 0.000 0.002 0.085 0.000 0.000 0.000 0.000 0.000 0.000 0.000 0.000 0.000 0.000 0.000 
0.000 0.000 0.000 0.000 0.081 0.000 0.022 0.000 0.016 0.012 0.000 0.000 0.000 0.000 0.000 0.000 0.010 0.000 0.000 0.000 0.000 0.000 0.000 0.000 0.000 0.000 0.000 0.000 0.022 0.004 0.000 0.000 0.000 0.000 0.000 0.000 0.000 0.000 0.000 0.000 0.000 0.000 0.000 0.005 0.047 0.002 0.259 0.000 0.000 0.000 0.000 0.000 0.000 0.000 0.000 0.048 0.000 0.000 0.000 0.000 0.000 0.000 0.000 0.000 0.000 0.073 0.000 0.000 0.000 0.000 0.000 0.000 0.000 0.000 0.000 0.000 0.000 0.000 0.000 0.000 0.000 0.000 0.004 0.004 0.000 0.000 0.000 0.000 0.000 0.000 0.000 0.000 0.000 0.000 0.000 0.131 0.023 0.071 0.000 0.000 0.000 0.000 0.000 0.000 0.000 0.000 0.000 0.000 0.000 0.000 0.000 0.048 0.000 0.000 0.138 0.072 0.003 0.000 0.000 0.000 0.000 
0.000 0.000 0.000 0.000 0.000 0.070 0.000 0.011 0.000 0.024 0.000 0.000 0.000 0.000 0.000 0.000 0.000 0.000 0.000 0.000 0.000 0.000 0.000 0.000 0.055 0.000 0.000 0.000 0.000 0.000 0.000 0.173 0.000 0.000 0.000 0.000 0.000 0.000 0.000 0.000 0.000 0.000 0.000 0.000 0.011 0.037 0.000 0.000 0.000 0.000 0.000 0.000 0.000 0.000 0.000 0.000 0.010 0.000 0.000 0.000 0.000 0.000 0.000 0.000 0.000 0.010 0.086 0.000 0.000 0.000 0.000 0.000 0.000 0.000 0.000 0.042 0.000 0.000 0.000 0.000 0.000 0.000 0.047 0.006 0.003 0.000 0.000 0.000 0.000 0.000 0.000 0.135 0.581 0.001 0.000 0.000 0.123 0.000 0.070 0.000 0.000 0.021 0.162 0.000 0.000 0.000 0.000 0.000 0.000 0.000 0.000 0.000 0.044 0.000 0.000 0.138 0.069 0.000 0.000 0.000 0.000 
0.000 0.000 0.000 0.000 0.000 0.000 0.000 0.002 0.010 0.000 0.000 0.000 0.000 0.000 0.000 0.000 0.000 0.000 0.000 0.000 0.000 0.000 0.000 0.000 0.055 0.053 0.000 0.426 0.000 0.000 0.000 0.000 0.172 0.000 0.000 0.000 0.000 0.000 0.000 0.000 0.000 0.000 0.000 0.022 0.000 0.000 0.000 0.000 0.000 0.000 0.000 0.000 0.000 0.000 0.000 0.000 0.000 0.000 0.000 0.000 0.000 0.000 0.000 0.000 0.000 0.150 0.023 0.048 0.000 0.000 0.000 0.000 0.000 0.000 0.000 0.031 0.041 0.000 0.000 0.000 0.000 0.000 0.001 0.047 0.000 0.000 0.000 0.000 0.000 0.000 0.074 0.000 0.238 0.187 0.000 0.000 0.000 0.000 0.000 0.000 0.000 0.000 0.051 0.152 0.000 0.000 0.076 0.000 0.000 0.000 0.000 0.000 0.000 0.000 0.000 0.000 0.000 0.000 0.000 0.000 0.000 
0.000 0.000 0.000 0.000 0.000 0.000 0.000 0.000 0.004 0.000 0.000 0.000 0.000 0.000 0.000 0.043 0.000 0.000 0.000 0.000 0.000 0.000 0.000 0.000 0.000 0.036 0.000 0.000 0.427 0.000 0.000 0.000 0.000 0.000 0.000 0.000 0.000 0.000 0.000 0.000 0.000 0.031 0.014 0.000 0.035 0.000 0.000 0.000 0.000 0.000 0.000 0.000 0.000 0.000 0.000 0.000 0.000 0.000 0.082 0.000 0.000 0.000 0.000 0.000 0.000 0.000 0.149 0.000 0.000 0.037 0.068 0.073 0.011 0.000 0.012 0.000 0.014 0.000 0.000 0.000 0.000 0.000 0.000 0.052 0.076 0.000 0.000 0.000 0.000 0.000 0.000 0.061 0.000 0.000 0.000 0.000 0.000 0.000 0.000 0.000 0.000 0.052 0.032 0.000 0.000 0.000 0.017 0.074 0.000 0.000 0.000 0.000 0.000 0.000 0.000 0.130 0.000 0.000 0.000 0.000 0.000 
0.000 0.000 0.000 0.000 0.000 0.000 0.117 0.000 0.000 0.000 0.000 0.028 0.000 0.000 0.000 0.000 0.065 0.171 0.000 0.000 0.000 0.000 0.000 0.000 0.000 0.000 0.000 0.000 0.000 0.000 0.054 0.000 0.000 0.000 0.091 0.000 0.000 0.000 0.000 0.000 0.000 0.000 0.011 0.014 0.000 0.000 0.000 0.000 0.000 0.000 0.021 0.000 0.000 0.000 0.000 0.000 0.000 0.167 0.011 0.108 0.000 0.000 0.000 0.000 0.000 0.000 0.000 0.000 0.000 0.000 0.054 0.094 0.039 0.021 0.000 0.012 0.000 0.000 0.027 0.032 0.000 0.000 0.000 0.000 0.066 0.074 0.000 0.000 0.000 0.000 0.000 0.000 0.000 0.000 0.000 0.000 0.000 0.000 0.000 0.000 0.014 0.000 0.060 0.048 0.000 0.000 0.000 0.000 0.000 0.000 0.000 0.000 0.009 0.022 0.000 0.132 0.186 0.000 0.000 0.000 0.000 
0.000 0.000 0.000 0.000 0.045 0.000 0.000 0.047 0.000 0.000 0.000 0.027 0.032 0.000 0.000 0.000 0.029 0.068 0.171 0.003 0.083 0.000 0.000 0.000 0.000 0.000 0.000 0.000 0.000 0.000 0.000 0.079 0.000 0.000 0.000 0.101 0.000 0.000 0.000 0.022 0.000 0.000 0.000 0.000 0.000 0.000 0.000 0.000 0.000 0.000 0.000 0.020 0.000 0.000 0.000 0.000 0.000 0.000 0.190 0.000 0.000 0.000 0.000 0.000 0.000 0.000 0.000 0.117 0.000 0.000 0.000 0.003 0.000 0.000 0.000 0.000 0.000 0.000 0.037 0.026 0.000 0.000 0.000 0.000 0.000 0.001 0.051 0.000 0.000 0.000 0.000 0.002 0.000 0.000 0.000 0.000 0.000 0.000 0.000 0.000 0.002 0.017 0.000 0.005 0.000 0.000 0.000 0.000 0.000 0.000 0.000 0.000 0.000 0.007 0.000 0.010 0.073 0.131 0.000 0.000 0.000 
0.000 0.000 0.000 0.266 0.000 0.048 0.002 0.000 0.000 0.000 0.000 0.000 0.000 0.000 0.000 0.000 0.000 0.030 0.000 0.000 0.005 0.039 0.120 0.000 0.000 0.000 0.000 0.000 0.000 0.000 0.000 0.000 0.000 0.000 0.000 0.000 0.000 0.000 0.000 0.000 0.021 0.000 0.000 0.000 0.000 0.000 0.000 0.000 0.000 0.000 0.000 0.000 0.000 0.000 0.000 0.000 0.275 0.000 0.000 0.000 0.000 0.000 0.021 0.000 0.000 0.000 0.000 0.000 0.000 0.000 0.000 0.105 0.023 0.000 0.000 0.000 0.000 0.000 0.000 0.057 0.000 0.048 0.000 0.000 0.000 0.000 0.040 0.025 0.000 0.000 0.000 0.000 0.002 0.000 0.000 0.000 0.000 0.000 0.000 0.000 0.000 0.000 0.000 0.000 0.000 0.000 0.000 0.000 0.000 0.000 0.000 0.000 0.000 0.000 0.000 0.000 0.000 0.000 0.000 0.000 0.000 
0.000 0.000 0.000 0.225 0.097 0.038 0.003 0.001 0.000 0.013 0.000 0.000 0.000 0.000 0.000 0.000 0.000 0.000 0.000 0.000 0.000 0.000 0.000 0.118 0.063 0.015 0.000 0.000 0.000 0.000 0.000 0.000 0.000 0.000 0.000 0.000 0.000 0.002 0.000 0.000 0.000 0.000 0.000 0.000 0.000 0.000 0.000 0.000 0.000 0.000 0.000 0.000 0.000 0.000 0.000 0.000 0.000 0.332 0.000 0.000 0.000 0.000 0.000 0.019 0.000 0.000 0.000 0.000 0.000 0.000 0.000 0.000 0.106 0.000 0.000 0.021 0.074 0.000 0.000 0.000 0.000 0.001 0.048 0.000 0.000 0.000 0.022 0.074 0.045 0.000 0.000 0.000 0.000 0.000 0.000 0.000 0.000 0.000 0.000 0.000 0.000 0.000 0.000 0.000 0.099 0.000 0.000 0.000 0.000 0.000 0.000 0.000 0.000 0.000 0.000 0.000 0.000 0.000 0.000 0.000 0.000 
0.000 0.000 0.000 0.000 0.083 0.158 0.079 0.000 0.000 0.043 0.011 0.000 0.039 0.070 0.000 0.020 0.001 0.000 0.000 0.000 0.000 0.000 0.000 0.000 0.000 0.062 0.017 0.000 0.000 0.000 0.000 0.000 0.000 0.000 0.000 0.000 0.000 0.146 0.032 0.000 0.000 0.000 0.000 0.000 0.000 0.000 0.000 0.000 0.000 0.000 0.000 0.000 0.000 0.000 0.000 0.000 0.000 0.000 0.000 0.039 0.000 0.000 0.000 0.000 0.000 0.000 0.000 0.000 0.000 0.000 0.000 0.000 0.000 0.000 0.000 0.010 0.019 0.011 0.000 0.000 0.000 0.000 0.000 0.027 0.041 0.000 0.000 0.092 0.068 0.013 0.020 0.000 0.000 0.000 0.000 0.127 0.097 0.004 0.000 0.000 0.000 0.000 0.000 0.000 0.014 0.100 0.000 0.000 0.000 0.000 0.000 0.000 0.000 0.000 0.000 0.000 0.000 0.000 0.000 0.000 0.000 
0.000 0.000 0.000 0.000 0.000 0.050 0.194 0.000 0.000 0.000 0.007 0.000 0.000 0.055 0.055 0.000 0.020 0.000 0.000 0.000 0.000 0.000 0.000 0.000 0.236 0.000 0.000 0.026 0.000 0.000 0.000 0.000 0.000 0.000 0.025 0.208 0.000 0.000 0.170 0.000 0.000 0.000 0.000 0.000 0.000 0.000 0.000 0.000 0.000 0.000 0.000 0.000 0.012 0.000 0.000 0.000 0.000 0.000 0.000 0.126 0.035 0.000 0.000 0.000 0.000 0.000 0.000 0.000 0.000 0.000 0.000 0.000 0.000 0.000 0.000 0.023 0.016 0.001 0.000 0.000 0.000 0.000 0.000 0.000 0.018 0.000 0.000 0.000 0.100 0.000 0.016 0.057 0.000 0.000 0.000 0.128 0.164 0.108 0.000 0.000 0.000 0.000 0.000 0.000 0.000 0.000 0.000 0.000 0.043 0.000 0.000 0.000 0.000 0.000 0.000 0.000 0.000 0.000 0.000 0.000 0.000 
0.000 0.000 0.000 0.153 0.000 0.000 0.001 0.211 0.000 0.000 0.000 0.000 0.000 0.022 0.008 0.051 0.000 0.006 0.000 0.000 0.078 0.000 0.000 0.000 0.000 0.204 0.000 0.000 0.000 0.000 0.000 0.000 0.000 0.000 0.007 0.070 0.191 0.000 0.007 0.153 0.010 0.000 0.000 0.000 0.000 0.000 0.000 0.000 0.000 0.000 0.000 0.000 0.000 0.102 0.000 0.000 0.000 0.000 0.000 0.000 0.003 0.000 0.000 0.000 0.000 0.000 0.000 0.000 0.000 0.000 0.000 0.000 0.000 0.000 0.000 0.000 0.013 0.000 0.000 0.000 0.000 0.000 0.000 0.000 0.000 0.000 0.000 0.000 0.000 0.000 0.000 0.000 0.000 0.000 0.000 0.000 0.000 0.032 0.099 0.000 0.000 0.000 0.072 0.152 0.317 0.723 0.691 0.178 0.008 0.051 0.000 0.000 0.000 0.000 0.000 0.000 0.000 0.000 0.000 0.000 0.000 
0.000 0.000 0.000 0.038 0.077 0.032 0.054 0.000 0.000 0.000 0.000 0.009 0.098 0.000 0.051 0.000 0.029 0.000 0.062 0.000 0.031 0.078 0.149 0.118 0.250 0.000 0.000 0.039 0.000 0.000 0.000 0.000 0.000 0.000 0.043 0.000 0.000 0.000 0.000 0.000 0.000 0.024 0.000 0.000 0.000 0.000 0.000 0.000 0.000 0.000 0.000 0.000 0.007 0.274 0.234 0.000 0.000 0.000 0.000 0.000 0.000 0.000 0.000 0.000 0.000 0.000 0.000 0.000 0.000 0.000 0.000 0.000 0.000 0.009 0.000 0.000 0.000 0.000 0.000 0.000 0.000 0.000 0.000 0.000 0.000 0.000 0.000 0.046 0.000 0.000 0.000 0.000 0.071 0.000 0.000 0.000 0.000 0.000 0.000 0.000 0.000 0.000 0.000 0.069 0.533 0.624 0.726 0.579 0.058 0.001 0.000 0.000 0.000 0.000 0.000 0.000 0.000 0.000 0.000 0.000 0.000 
0.000 0.000 0.000 0.000 0.219 0.167 0.049 0.000 0.000 0.000 0.000 0.000 0.001 0.099 0.000 0.038 0.000 0.000 0.000 0.135 0.003 0.000 0.000 0.163 0.135 0.285 0.002 0.000 0.049 0.000 0.000 0.000 0.000 0.000 0.062 0.080 0.000 0.000 0.000 0.000 0.022 0.009 0.000 0.000 0.000 0.000 0.000 0.000 0.000 0.000 0.000 0.000 0.000 0.254 0.479 0.233 0.000 0.000 0.000 0.000 0.000 0.000 0.000 0.000 0.000 0.000 0.000 0.000 0.000 0.000 0.000 0.000 0.000 0.000 0.044 0.000 0.000 0.000 0.000 0.000 0.000 0.004 0.000 0.000 0.000 0.000 0.000 0.000 0.045 0.000 0.000 0.000 0.000 0.037 0.000 0.000 0.000 0.000 0.000 0.000 0.000 0.000 0.000 0.000 0.000 0.000 0.000 0.000 0.219 0.000 0.000 0.000 0.000 0.000 0.000 0.000 0.000 0.000 0.000 0.000 0.000 
0.000 0.000 0.000 0.000 0.003 0.258 0.116 0.000 0.228 0.000 0.000 0.072 0.167 0.299 0.113 0.000 0.000 0.000 0.011 0.023 0.134 0.000 0.000 0.000 0.000 0.000 0.011 0.003 0.000 0.000 0.000 0.000 0.000 0.000 0.000 0.139 0.000 0.000 0.000 0.000 0.000 0.019 0.007 0.000 0.000 0.000 0.000 0.000 0.000 0.000 0.000 0.000 0.000 0.105 0.591 0.434 0.033 0.000 0.000 0.000 0.000 0.000 0.000 0.000 0.000 0.000 0.000 0.000 0.000 0.008 0.002 0.000 0.000 0.000 0.000 0.017 0.000 0.000 0.000 0.008 0.000 0.000 0.004 0.000 0.000 0.000 0.000 0.019 0.000 0.036 0.053 0.000 0.000 0.000 0.000 0.009 0.000 0.000 0.000 0.000 0.000 0.000 0.000 0.000 0.000 0.000 0.000 0.000 0.000 0.197 0.000 0.000 0.000 0.000 0.000 0.249 0.030 0.006 0.000 0.000 0.000 
0.000 0.000 0.000 0.002 0.053 0.001 0.000 0.001 0.048 0.234 0.000 0.000 0.301 0.250 0.216 0.000 0.345 0.000 0.000 0.013 0.010 0.000 0.000 0.000 0.000 0.000 0.001 0.000 0.000 0.000 0.000 0.000 0.000 0.209 0.237 0.039 0.086 0.000 0.000 0.000 0.000 0.053 0.009 0.000 0.000 0.000 0.000 0.000 0.000 0.000 0.000 0.000 0.000 0.084 0.729 0.580 0.054 0.000 0.000 0.000 0.002 0.000 0.000 0.000 0.000 0.000 0.000 0.000 0.016 0.027 0.007 0.040 0.032 0.006 0.016 0.000 0.000 0.000 0.000 0.000 0.037 0.000 0.000 0.009 0.000 0.000 0.000 0.023 0.024 0.018 0.035 0.000 0.000 0.000 0.000 0.079 0.010 0.000 0.000 0.000 0.000 0.000 0.000 0.060 0.000 0.000 0.000 0.000 0.000 0.000 0.000 0.000 0.000 0.000 0.000 0.029 0.250 0.000 0.000 0.000 0.000 
0.000 0.000 0.000 0.000 0.000 0.047 0.000 0.000 0.000 0.000 0.000 0.000 0.000 0.218 0.000 0.210 0.019 0.248 0.081 0.000 0.000 0.000 0.000 0.000 0.000 0.000 0.000 0.001 0.016 0.012 0.000 0.000 0.000 0.000 0.248 0.182 0.000 0.000 0.000 0.000 0.000 0.000 0.074 0.000 0.000 0.000 0.000 0.000 0.000 0.000 0.000 0.000 0.000 0.573 1.472 3.556 2.234 0.596 0.112 0.000 0.000 0.003 0.000 0.000 0.000 0.000 0.000 0.077 0.080 0.296 0.251 0.203 0.287 0.365 0.597 0.263 0.424 0.006 0.000 0.000 0.000 0.000 0.000 0.000 0.000 0.000 0.000 0.000 0.000 0.000 0.000 0.000 0.000 0.000 0.000 0.000 0.000 0.000 0.025 0.000 0.000 0.000 0.000 0.000 0.060 0.000 0.000 0.000 0.000 0.000 0.000 0.000 0.000 0.000 0.000 0.000 0.000 0.000 0.000 0.000 0.000 
0.000 0.000 0.000 0.000 0.000 0.000 0.000 0.000 0.000 0.000 0.000 0.000 0.000 0.000 0.000 0.000 0.208 0.355 0.057 0.079 0.000 0.000 0.000 0.000 0.000 0.000 0.000 0.000 0.000 0.017 0.000 0.000 0.000 0.000 0.000 0.000 0.000 0.000 0.000 0.000 0.000 0.000 0.000 0.000 0.000 0.000 0.127 0.004 0.000 0.000 0.000 0.000 0.000 0.040 1.435 7.259 8.542 6.867 4.065 1.306 0.195 0.002 0.000 0.000 0.000 0.000 0.000 0.266 0.523 0.590 0.525 0.411 0.617 0.985 1.392 1.995 2.090 1.084 0.053 0.000 0.000 0.000 0.000 0.000 0.000 0.000 0.000 0.000 0.000 0.000 0.000 0.000 0.000 0.000 0.000 0.000 0.000 0.000 0.002 0.028 0.000 0.000 0.000 0.000 0.000 0.061 0.073 0.000 0.000 0.000 0.000 0.000 0.000 0.333 0.031 0.000 0.000 0.003 0.000 0.000 0.000 
0.000 0.000 0.000 0.000 0.000 0.000 0.000 0.068 0.000 0.000 0.000 0.000 0.000 0.000 0.076 0.006 0.000 0.019 0.371 0.000 0.000 0.000 0.000 0.000 0.000 0.000 0.000 0.000 0.009 0.097 0.000 0.000 0.000 0.000 0.000 0.003 0.000 0.000 0.000 0.003 0.000 0.000 0.000 0.000 0.000 0.000 0.000 0.130 0.000 0.000 0.000 0.000 0.257 0.465 0.364 4.838 14.550 14.213 11.462 7.607 2.965 0.617 0.022 0.000 0.000 0.000 0.165 0.485 0.700 0.816 0.493 0.253 0.211 0.229 0.234 1.238 2.776 4.013 2.602 0.944 0.000 0.000 0.000 0.000 0.000 0.000 0.000 0.000 0.000 0.000 0.000 0.000 0.000 0.002 0.000 0.000 0.000 0.000 0.000 0.027 0.009 0.000 0.000 0.000 0.000 0.054 0.062 0.000 0.000 0.000 0.000 0.037 0.000 0.000 0.223 0.000 0.000 0.000 0.000 0.000 0.000 
0.000 0.000 0.000 0.000 0.000 0.000 0.000 0.016 0.064 0.000 0.000 0.000 0.044 0.000 0.027 0.076 0.000 0.000 0.046 0.298 0.000 0.000 0.000 0.000 0.000 0.000 0.000 0.000 0.035 0.008 0.097 0.064 0.257 0.001 0.000 0.000 0.000 0.000 0.000 0.000 0.000 0.000 0.000 0.000 0.000 0.000 0.000 0.000 0.000 0.000 0.000 0.139 0.536 0.565 0.515 0.310 5.156 18.136 20.407 13.314 7.954 2.464 0.294 0.023 0.007 0.150 0.269 0.340 0.365 0.454 0.334 0.189 0.179 0.031 0.008 0.005 0.608 3.191 5.525 5.709 3.076 0.526 0.000 0.000 0.000 0.000 0.000 0.000 0.000 0.000 0.000 0.000 0.000 0.000 0.000 0.000 0.000 0.000 0.000 0.000 0.031 0.007 0.000 0.000 0.000 0.000 0.000 0.000 0.000 0.059 0.000 0.000 0.036 0.000 0.000 0.000 0.000 0.000 0.000 0.000 0.000 
0.000 0.000 0.000 0.003 0.097 0.000 0.000 0.000 0.000 0.000 0.000 0.000 0.000 0.042 0.054 0.000 0.000 0.000 0.000 0.000 0.000 0.000 0.000 0.000 0.000 0.000 0.000 0.002 0.000 0.035 0.000 0.002 0.064 0.251 0.000 0.000 0.000 0.000 0.000 0.000 0.000 0.000 0.000 0.000 0.045 0.077 0.000 0.000 0.000 0.000 0.057 0.245 0.313 0.395 0.238 0.081 0.612 4.249 15.007 17.196 10.424 4.886 0.772 0.201 0.591 0.822 0.535 0.338 0.355 0.694 0.532 0.304 0.382 0.208 0.256 0.016 0.000 0.466 2.883 6.862 8.101 4.127 0.815 0.066 0.000 0.000 0.000 0.000 0.000 0.212 0.165 0.000 0.000 0.000 0.000 0.000 0.000 0.000 0.000 0.000 0.000 0.033 0.000 0.000 0.000 0.000 0.000 0.000 0.026 0.000 0.060 0.000 0.000 0.000 0.000 0.000 0.000 0.000 0.000 0.000 0.000 
0.000 0.000 0.000 0.000 0.175 0.117 0.000 0.000 0.000 0.140 0.000 0.000 0.000 0.000 0.041 0.045 0.000 0.000 0.000 0.000 0.000 0.000 0.015 0.000 0.000 0.000 0.000 0.000 0.025 0.000 0.000 0.048 0.047 0.000 0.000 0.000 0.000 0.000 0.000 0.017 0.000 0.000 0.000 0.000 0.000 0.036 0.000 0.000 0.000 0.000 0.093 0.108 0.171 0.180 0.000 0.197 0.221 0.671 2.297 6.641 8.409 4.771 1.717 2.344 2.627 1.992 0.730 0.417 0.375 1.100 0.929 0.484 1.222 3.062 1.959 0.793 0.000 0.000 0.147 1.721 6.134 7.762 3.871 0.597 0.036 0.000 0.000 0.024 0.044 0.749 0.941 0.220 0.000 0.000 0.000 0.000 0.000 0.000 0.000 0.000 0.000 0.000 0.000 0.000 0.000 0.152 0.000 0.000 0.001 0.000 0.000 0.000 0.000 0.000 0.000 0.000 0.000 0.000 0.000 0.000 0.000 
0.000 0.000 0.000 0.000 0.026 0.186 0.000 0.000 0.000 0.000 0.220 0.000 0.000 0.000 0.000 0.000 0.013 0.027 0.000 0.000 0.024 0.000 0.002 0.005 0.000 0.000 0.000 0.000 0.028 0.000 0.000 0.000 0.015 0.039 0.000 0.000 0.000 0.000 0.000 0.000 0.011 0.000 0.000 0.000 0.000 0.003 0.000 0.000 0.000 0.000 0.000 0.049 0.000 0.000 0.065 0.506 0.716 0.323 0.262 0.858 3.302 3.091 2.387 2.108 2.740 2.097 0.239 0.051 0.112 1.606 1.843 0.891 1.294 6.452 9.723 6.114 2.193 0.000 0.000 0.142 0.428 3.601 5.194 2.029 0.000 0.000 0.000 0.000 0.017 0.801 2.775 2.136 0.202 0.000 0.000 0.000 0.000 0.000 0.000 0.000 0.000 0.000 0.000 0.000 0.000 0.000 0.172 0.000 0.000 0.000 0.000 0.000 0.000 0.000 0.066 0.000 0.000 0.000 0.000 0.000 0.000 
0.000 0.000 0.000 0.023 0.000 0.000 0.000 0.345 0.154 0.014 0.000 0.182 0.000 0.000 0.000 0.079 0.028 0.031 0.026 0.023 0.003 0.024 0.000 0.002 0.000 0.000 0.000 0.000 0.000 0.025 0.000 0.000 0.000 0.000 0.000 0.000 0.000 0.000 0.000 0.000 0.000 0.000 0.000 0.000 0.000 0.000 0.002 0.000 0.000 0.000 0.000 0.000 0.000 0.000 0.048 0.266 0.595 0.600 0.265 0.088 0.414 0.885 1.306 0.865 0.707 0.111 0.067 0.105 2.474 4.480 3.002 1.270 2.141 7.630 15.568 15.337 10.007 3.622 0.000 0.000 0.037 0.195 1.424 2.061 0.648 0.000 0.000 0.000 0.022 0.160 1.310 3.098 2.042 0.206 0.000 0.000 0.000 0.000 0.000 0.000 0.000 0.000 0.000 0.000 0.000 0.000 0.000 0.000 0.000 0.000 0.000 0.000 0.000 0.000 0.000 0.251 0.379 0.315 0.000 0.000 0.000 
0.000 0.000 0.000 0.000 0.041 0.000 0.000 0.007 0.339 0.073 0.014 0.000 0.000 0.001 0.039 0.084 0.077 0.069 0.015 0.008 0.021 0.000 0.000 0.000 0.000 0.000 0.000 0.000 0.000 0.019 0.016 0.026 0.000 0.000 0.000 0.000 0.000 0.000 0.000 0.000 0.000 0.000 0.000 0.000 0.000 0.000 0.000 0.000 0.000 0.000 0.000 0.000 0.000 0.000 0.000 0.061 0.244 0.377 0.105 0.292 0.021 0.006 0.305 0.312 0.210 0.627 2.355 4.720 7.194 7.630 5.176 3.174 6.096 11.646 24.461 29.879 19.054 10.964 3.854 0.000 0.000 0.165 0.244 0.489 0.889 0.315 0.000 0.000 0.000 0.000 0.009 0.736 2.223 0.776 0.104 0.000 0.000 0.000 0.000 0.000 0.000 0.000 0.000 0.000 0.000 0.000 0.000 0.000 0.000 0.000 0.000 0.000 0.000 0.000 0.002 0.000 0.257 0.433 0.000 0.000 0.000 
0.000 0.000 0.000 0.027 0.072 0.000 0.000 0.074 0.009 0.071 0.000 0.000 0.000 0.000 0.000 0.042 0.000 0.000 0.000 0.000 0.007 0.000 0.000 0.001 0.000 0.000 0.000 0.000 0.000 0.004 0.023 0.010 0.026 0.000 0.000 0.000 0.000 0.000 0.053 0.000 0.000 0.000 0.000 0.000 0.000 0.000 0.000 0.000 0.000 0.000 0.000 0.000 0.000 0.000 0.000 0.000 0.052 0.007 0.000 0.000 0.020 0.020 0.135 0.217 0.512 1.748 4.963 9.776 11.647 11.080 8.107 8.405 12.938 21.790 29.675 38.659 33.994 19.071 10.533 3.132 0.000 0.146 0.192 0.283 0.853 0.698 0.251 0.000 0.040 0.000 0.000 0.000 0.700 0.518 0.088 0.000 0.000 0.000 0.000 0.000 0.027 0.032 0.000 0.000 0.000 0.000 0.047 0.000 0.092 0.150 0.000 0.000 0.000 0.000 0.008 0.173 0.000 0.000 0.000 0.000 0.000 
0.000 0.000 0.000 0.000 0.045 0.027 0.000 0.000 0.075 0.000 0.062 0.229 0.047 0.000 0.000 0.000 0.036 0.000 0.019 0.000 0.000 0.000 0.000 0.000 0.000 0.000 0.000 0.000 0.000 0.000 0.000 0.000 0.000 0.000 0.000 0.000 0.000 0.000 0.037 0.054 0.000 0.000 0.000 0.000 0.050 0.015 0.000 0.000 0.000 0.000 0.000 0.000 0.000 0.000 0.000 0.000 0.000 0.005 0.000 0.000 0.000 0.169 0.281 0.159 0.240 0.816 2.673 7.119 12.452 18.744 20.492 21.164 25.221 28.478 29.982 34.118 41.238 31.284 16.805 7.032 0.885 0.000 0.071 0.320 0.750 0.875 0.509 0.129 0.028 0.038 0.000 0.000 0.000 0.004 0.038 0.000 0.000 0.000 0.000 0.000 0.000 0.027 0.032 0.000 0.000 0.023 0.454 0.236 0.002 0.091 0.143 0.000 0.268 0.108 0.000 0.033 0.168 0.000 0.000 0.000 0.000 
0.000 0.000 0.000 0.000 0.000 0.001 0.013 0.070 0.000 0.097 0.000 0.033 0.353 0.000 0.000 0.000 0.005 0.029 0.000 0.046 0.031 0.000 0.000 0.000 0.017 0.000 0.001 0.000 0.000 0.000 0.000 0.000 0.000 0.000 0.000 0.000 0.000 0.000 0.000 0.000 0.000 0.000 0.000 0.000 0.016 0.050 0.013 0.000 0.000 0.000 0.000 0.000 0.001 0.000 0.000 0.000 0.118 0.352 0.249 0.178 0.186 1.572 2.826 1.089 0.131 0.086 0.455 1.346 4.913 12.968 22.086 24.359 23.016 24.471 26.680 29.000 32.731 34.168 21.004 10.689 3.154 0.312 0.021 0.087 0.466 0.615 0.324 0.138 0.053 0.021 0.000 0.000 0.000 0.000 0.000 0.000 0.000 0.000 0.000 0.000 0.000 0.000 0.000 0.000 0.000 0.004 0.118 0.429 0.117 0.000 0.000 0.000 0.000 0.266 0.000 0.000 0.000 0.000 0.000 0.000 0.000 
0.000 0.000 0.000 0.000 0.000 0.000 0.000 0.011 0.066 0.000 0.095 0.000 0.038 0.003 0.003 0.000 0.000 0.000 0.000 0.000 0.045 0.000 0.000 0.000 0.000 0.016 0.000 0.000 0.000 0.053 0.021 0.000 0.000 0.000 0.000 0.000 0.000 0.000 0.000 0.000 0.000 0.000 0.000 0.000 0.000 0.000 0.000 0.000 0.000 0.000 0.000 0.000 0.000 0.003 0.031 0.033 0.271 0.719 1.350 1.102 2.378 7.309 12.463 11.685 5.157 1.740 1.855 4.021 7.655 11.281 12.375 12.101 10.201 10.740 15.744 19.845 20.606 22.644 21.798 12.024 5.493 0.765 0.149 0.375 3.166 3.290 1.561 0.324 0.156 0.056 0.003 0.000 0.000 0.000 0.000 0.044 0.005 0.000 0.000 0.011 0.000 0.000 0.000 0.000 0.000 0.000 0.000 0.000 0.000 0.000 0.000 0.193 0.072 0.000 0.000 0.000 0.000 0.000 0.000 0.000 0.000 
0.000 0.000 0.000 0.000 0.000 0.063 0.000 0.000 0.000 0.000 0.000 0.077 0.013 0.149 0.003 0.033 0.000 0.000 0.000 0.000 0.000 0.000 0.015 0.000 0.000 0.028 0.006 0.000 0.101 0.000 0.082 0.000 0.005 0.008 0.000 0.000 0.000 0.000 0.000 0.000 0.000 0.094 0.000 0.061 0.000 0.027 0.000 0.000 0.000 0.000 0.000 0.000 0.143 0.215 0.135 0.143 0.478 0.608 1.388 2.385 2.809 5.965 10.749 15.078 13.034 7.642 7.620 10.165 14.812 19.748 19.530 11.612 5.360 2.026 3.514 6.843 8.772 11.506 15.237 11.762 6.380 1.102 0.715 5.283 12.398 7.480 4.176 0.728 0.449 0.245 0.130 0.182 0.111 0.000 0.000 0.000 0.043 0.005 0.000 0.000 0.010 0.013 0.003 0.000 0.000 0.000 0.000 0.000 0.000 0.000 0.000 0.126 0.110 0.000 0.000 0.000 0.109 0.000 0.000 0.000 0.000 
0.000 0.000 0.000 0.000 0.000 0.000 0.271 0.000 0.000 0.000 0.000 0.000 0.082 0.104 0.132 0.000 0.033 0.000 0.000 0.000 0.000 0.000 0.036 0.061 0.000 0.000 0.031 0.000 0.007 0.101 0.000 0.000 0.108 0.005 0.036 0.000 0.000 0.000 0.000 0.000 0.000 0.000 0.100 0.001 0.056 0.005 0.026 0.000 0.000 0.000 0.000 0.000 0.112 0.335 0.368 0.277 0.406 0.365 0.361 1.298 1.850 3.025 6.019 8.257 8.079 7.364 8.655 10.108 11.386 14.097 18.391 19.662 12.256 3.998 0.823 1.027 0.741 2.093 4.707 5.834 3.934 1.557 3.406 10.693 14.105 10.458 4.934 0.713 0.416 0.423 0.209 0.392 0.402 0.181 0.000 0.000 0.025 0.000 0.039 0.002 0.000 0.000 0.013 0.003 0.000 0.000 0.111 0.000 0.000 0.000 0.000 0.000 0.001 0.000 0.000 0.025 0.005 0.114 0.000 0.000 0.000 
0.000 0.000 0.000 0.000 0.000 0.000 0.000 0.091 0.093 0.000 0.000 0.000 0.000 0.000 0.000 0.000 0.000 0.000 0.000 0.000 0.000 0.000 0.000 0.000 0.000 0.000 0.000 0.000 0.000 0.000 0.000 0.000 0.000 0.000 0.000 0.007 0.000 0.000 0.043 0.000 0.018 0.000 0.000 0.037 0.001 0.000 0.000 0.000 0.000 0.000 0.000 0.000 0.105 0.164 0.186 0.092 0.150 0.067 0.047 0.482 0.505 0.596 0.770 2.309 4.447 5.897 6.809 8.084 6.701 6.243 7.997 10.740 9.897 4.804 1.186 0.480 0.509 0.549 0.553 1.858 1.938 1.671 3.740 10.058 13.230 8.448 3.483 0.576 0.384 0.245 0.109 0.000 0.369 0.290 0.143 0.000 0.000 0.115 0.000 0.041 0.000 0.001 0.000 0.000 0.000 0.000 0.000 0.118 0.144 0.145 0.000 0.000 0.000 0.000 0.000 0.000 0.030 0.000 0.000 0.000 0.000 
0.000 0.000 0.000 0.000 0.000 0.000 0.000 0.055 0.015 0.014 0.000 0.000 0.000 0.001 0.000 0.000 0.000 0.000 0.000 0.000 0.000 0.000 0.000 0.000 0.000 0.000 0.000 0.000 0.000 0.135 0.000 0.000 0.000 0.000 0.000 0.000 0.000 0.000 0.000 0.045 0.000 0.021 0.000 0.003 0.018 0.000 0.028 0.000 0.000 0.000 0.046 0.000 0.073 0.105 0.739 0.543 0.323 0.077 0.180 1.285 2.950 4.585 7.123 9.964 11.347 10.995 9.128 7.465 5.638 4.007 3.691 4.679 4.766 2.813 0.773 0.180 0.348 0.494 0.363 0.749 1.277 0.909 1.869 6.725 10.428 6.945 3.122 0.297 0.251 0.091 0.000 0.000 0.000 0.000 0.050 0.104 0.000 0.000 0.000 0.000 0.000 0.000 0.001 0.000 0.000 0.000 0.000 0.000 0.118 0.177 0.140 0.015 0.107 0.000 0.000 0.000 0.000 0.000 0.000 0.000 0.000 
0.000 0.000 0.000 0.000 0.000 0.000 0.000 0.000 0.071 0.019 0.000 0.000 0.116 0.000 0.000 0.000 0.028 0.012 0.000 0.000 0.000 0.000 0.055 0.069 0.008 0.000 0.009 0.000 0.000 0.000 0.132 0.017 0.045 0.000 0.000 0.000 0.000 0.000 0.000 0.044 0.050 0.000 0.000 0.036 0.000 0.000 0.000 0.000 0.046 0.000 0.000 0.000 0.000 0.100 0.008 0.811 0.310 1.157 1.318 3.595 6.587 10.098 16.186 22.759 24.710 22.011 17.613 14.943 12.723 10.012 7.148 4.219 1.570 0.631 0.838 0.439 0.260 0.445 0.229 0.621 0.434 0.308 0.426 2.452 5.066 4.094 2.822 0.797 0.128 0.000 0.190 0.000 0.000 0.000 0.044 0.000 0.078 0.000 0.000 0.000 0.000 0.116 0.043 0.000 0.000 0.000 0.000 0.000 0.000 0.078 0.000 0.102 0.008 0.101 0.000 0.000 0.000 0.000 0.000 0.000 0.000 
0.000 0.000 0.000 0.000 0.000 0.000 0.000 0.000 0.015 0.059 0.000 0.000 0.000 0.108 0.000 0.000 0.051 0.039 0.220 0.078 0.001 0.000 0.000 0.003 0.069 0.000 0.000 0.011 0.000 0.000 0.000 0.017 0.021 0.000 0.000 0.000 0.000 0.000 0.000 0.007 0.029 0.000 0.000 0.000 0.030 0.000 0.000 0.000 0.000 0.100 0.000 0.000 0.000 0.000 0.000 0.143 0.617 1.718 2.171 3.991 8.261 15.181 29.560 34.268 34.600 35.439 33.017 28.414 23.507 18.758 14.763 10.340 5.593 1.961 0.654 0.936 0.766 1.994 1.349 0.466 0.151 0.177 0.435 1.147 1.544 1.365 1.803 1.252 0.378 0.100 0.000 0.218 0.000 0.000 0.000 0.163 0.000 0.000 0.021 0.000 0.000 0.000 0.119 0.044 0.000 0.000 0.174 0.000 0.000 0.000 0.129 0.000 0.000 0.000 0.000 0.000 0.000 0.052 0.000 0.000 0.000 
0.000 0.000 0.000 0.226 0.000 0.000 0.000 0.000 0.000 0.014 0.000 0.000 0.000 0.000 0.000 0.000 0.000 0.041 0.049 0.000 0.000 0.001 0.000 0.000 0.000 0.031 0.033 0.000 0.000 0.028 0.238 0.000 0.000 0.207 0.000 0.000 0.000 0.000 0.000 0.000 0.005 0.000 0.000 0.044 0.030 0.000 0.000 0.000 0.000 0.003 0.084 0.000 0.000 0.000 0.000 0.114 0.421 0.984 1.772 2.181 7.207 14.744 29.276 31.500 29.033 28.660 31.779 31.927 30.110 27.060 23.188 17.258 10.140 4.667 1.756 1.117 2.180 5.456 3.847 1.366 0.215 0.193 0.509 1.379 1.304 1.160 1.135 1.072 0.428 0.351 0.249 0.000 0.141 0.000 0.000 0.000 0.168 0.000 0.000 0.021 0.000 0.000 0.000 0.000 0.000 0.000 0.047 0.177 0.000 0.000 0.142 0.128 0.000 0.000 0.000 0.000 0.000 0.000 0.000 0.000 0.000 
0.000 0.000 0.000 0.000 0.000 0.000 0.000 0.000 0.000 0.000 0.000 0.000 0.000 0.000 0.000 0.000 0.000 0.000 0.000 0.000 0.000 0.000 0.009 0.000 0.000 0.000 0.094 0.043 0.000 0.000 0.096 0.260 0.018 0.014 0.211 0.000 0.000 0.034 0.000 0.000 0.000 0.000 0.000 0.000 0.042 0.000 0.021 0.038 0.000 0.000 0.000 0.000 0.000 0.000 0.000 0.075 0.188 0.406 0.478 0.300 5.206 12.380 27.805 26.815 20.269 17.689 18.796 21.957 24.116 23.892 18.669 10.013 5.384 3.828 2.770 1.424 4.229 9.643 6.889 3.575 0.194 0.197 0.628 2.881 4.957 4.809 3.204 1.057 0.548 0.530 0.985 0.370 0.000 0.067 0.000 0.146 0.002 0.000 0.000 0.000 0.000 0.000 0.000 0.000 0.000 0.000 0.000 0.137 0.000 0.000 0.000 0.146 0.001 0.001 0.116 0.000 0.000 0.022 0.000 0.000 0.000 
0.000 0.000 0.000 0.000 0.000 0.000 0.000 0.000 0.046 0.095 0.002 0.000 0.000 0.000 0.000 0.000 0.000 0.000 0.000 0.000 0.283 0.000 0.000 0.000 0.000 0.001 0.363 0.153 0.032 0.000 0.000 0.000 0.180 0.002 0.000 0.000 0.000 0.000 0.035 0.086 0.000 0.000 0.000 0.000 0.000 0.000 0.000 0.021 0.067 0.000 0.000 0.000 0.000 0.000 0.011 0.186 0.245 0.152 0.141 0.334 3.781 9.823 20.388 25.100 17.774 11.726 9.649 9.775 10.778 10.317 6.813 2.437 0.811 0.974 1.345 1.066 4.463 11.745 9.993 5.215 1.181 0.132 0.513 4.310 9.408 11.246 8.583 4.196 1.030 0.478 1.338 1.179 0.304 0.000 0.015 0.000 0.137 0.000 0.000 0.000 0.000 0.000 0.000 0.000 0.001 0.016 0.000 0.000 0.130 0.000 0.076 0.000 0.019 0.000 0.000 0.000 0.000 0.078 0.000 0.000 0.000 
0.000 0.000 0.000 0.000 0.000 0.000 0.000 0.000 0.139 0.051 0.062 0.022 0.000 0.000 0.000 0.000 0.000 0.031 0.200 0.130 0.000 0.284 0.000 0.000 0.000 0.000 0.087 0.413 0.000 0.111 0.000 0.000 0.000 0.000 0.005 0.102 0.000 0.000 0.000 0.000 0.085 0.040 0.000 0.000 0.000 0.000 0.000 0.000 0.000 0.007 0.037 0.052 0.000 0.000 0.000 0.103 0.271 0.340 0.276 0.442 3.193 7.959 14.343 18.473 14.419 8.530 4.270 2.173 1.782 0.721 1.166 0.819 0.336 0.398 0.331 0.632 2.103 8.272 11.307 6.088 1.634 0.067 0.404 4.291 12.533 19.291 14.360 9.062 3.583 0.672 2.205 3.182 1.416 0.023 0.000 0.000 0.000 0.000 0.000 0.000 0.000 0.000 0.000 0.000 0.007 0.056 0.000 0.000 0.000 0.015 0.000 0.088 0.048 0.042 0.000 0.000 0.000 0.001 0.000 0.000 0.000 
0.000 0.000 0.000 0.000 0.000 0.000 0.000 0.000 0.000 0.033 0.041 0.127 0.000 0.000 0.058 0.007 0.000 0.000 0.057 0.199 0.000 0.000 0.000 0.000 0.000 0.000 0.000 0.000 0.000 0.000 0.000 0.000 0.000 0.000 0.043 0.000 0.000 0.000 0.000 0.000 0.000 0.000 0.026 0.001 0.000 0.000 0.000 0.000 0.000 0.000 0.031 0.050 0.055 0.000 0.046 0.443 1.695 1.176 0.738 0.846 2.855 6.266 10.233 13.186 9.154 4.661 4.446 4.565 2.249 0.861 0.891 0.806 1.320 1.089 0.792 0.252 0.730 1.693 6.804 5.889 1.675 0.081 0.396 2.881 10.771 21.793 23.805 13.701 7.010 2.143 4.191 6.775 3.815 0.045 0.000 0.000 0.000 0.000 0.000 0.000 0.000 0.000 0.000 0.000 0.000 0.155 0.050 0.002 0.000 0.000 0.000 0.000 0.087 0.211 0.047 0.000 0.000 0.000 0.000 0.000 0.000 
0.000 0.000 0.000 0.000 0.000 0.000 0.000 0.000 0.000 0.000 0.022 0.038 0.000 0.000 0.016 0.067 0.000 0.000 0.000 0.001 0.000 0.070 0.077 0.000 0.000 0.000 0.000 0.000 0.000 0.000 0.000 0.001 0.008 0.000 0.000 0.038 0.000 0.000 0.000 0.000 0.000 0.000 0.002 0.001 0.001 0.000 0.000 0.000 0.000 0.000 0.000 0.000 0.034 0.035 0.122 3.229 6.040 4.193 1.494 0.881 1.570 3.757 6.537 7.257 2.992 3.578 7.382 7.487 4.701 1.119 0.685 1.125 1.580 1.613 0.987 0.384 0.267 0.146 0.422 1.845 1.434 0.371 0.800 2.432 7.402 14.550 24.704 21.981 10.864 4.260 5.007 9.915 7.063 2.031 0.000 0.000 0.000 0.000 0.000 0.000 0.000 0.000 0.000 0.000 0.000 0.000 0.128 0.000 0.042 0.039 0.000 0.000 0.071 0.030 0.167 0.000 0.000 0.000 0.000 0.000 0.000 
0.000 0.000 0.000 0.000 0.000 0.000 0.000 0.000 0.000 0.000 0.000 0.000 0.046 0.000 0.111 0.028 0.000 0.000 0.000 0.000 0.000 0.000 0.075 0.044 0.000 0.000 0.110 0.024 0.000 0.071 0.067 0.083 0.000 0.007 0.131 0.000 0.000 0.000 0.000 0.000 0.000 0.000 0.000 0.000 0.000 0.000 0.000 0.000 0.000 0.000 0.002 0.000 0.000 0.000 1.396 7.334 12.476 8.408 3.270 0.938 0.639 1.408 3.109 2.829 2.080 4.955 6.681 8.091 5.249 1.095 0.637 0.676 0.990 1.139 0.199 0.058 0.192 0.459 0.280 0.103 0.302 0.439 0.724 1.682 3.879 7.895 13.766 22.115 14.214 6.625 3.668 6.781 9.125 4.356 0.196 0.000 0.000 0.000 0.000 0.000 0.000 0.000 0.049 0.000 0.000 0.000 0.000 0.000 0.000 0.126 0.066 0.000 0.000 0.000 0.000 0.056 0.000 0.000 0.000 0.000 0.000 
0.000 0.000 0.000 0.000 0.000 0.000 0.000 0.000 0.000 0.000 0.000 0.060 0.039 0.041 0.004 0.047 0.005 0.000 0.017 0.000 0.000 0.057 0.000 0.090 0.045 0.000 0.094 0.121 0.018 0.121 0.103 0.095 0.066 0.190 0.008 0.146 0.000 0.000 0.000 0.000 0.104 0.000 0.000 0.000 0.000 0.000 0.000 0.000 0.000 0.000 0.000 0.003 0.000 0.030 1.772 8.341 15.966 13.140 3.530 0.515 0.249 0.155 0.987 1.458 1.923 2.889 4.479 4.949 3.747 1.186 0.348 0.307 0.442 0.397 0.378 0.177 0.515 0.754 0.658 0.283 0.159 0.301 0.685 1.441 2.374 4.346 8.113 14.410 13.039 6.592 2.781 1.647 4.930 4.542 0.938 0.019 0.000 0.000 0.000 0.000 0.000 0.000 0.008 0.049 0.000 0.000 0.000 0.000 0.000 0.000 0.313 0.000 0.005 0.099 0.000 0.000 0.000 0.053 0.000 0.000 0.000 
0.000 0.000 0.000 0.000 0.000 0.000 0.000 0.000 0.000 0.000 0.000 0.000 0.058 0.162 0.000 0.000 0.089 0.025 0.000 0.017 0.000 0.066 0.066 0.004 0.010 0.000 0.120 0.089 0.000 0.040 0.036 0.000 0.090 0.058 0.265 0.000 0.064 0.000 0.000 0.000 0.000 0.098 0.000 0.000 0.000 0.000 0.000 0.000 0.000 0.000 0.000 0.000 0.000 0.098 1.215 6.674 13.150 13.915 3.203 0.320 0.065 0.000 0.139 0.602 1.360 1.817 1.483 2.103 2.313 1.437 0.418 0.211 0.105 0.413 1.697 2.092 0.957 0.521 0.644 0.295 0.132 0.443 1.207 3.187 5.754 9.279 17.957 19.141 14.622 7.049 1.684 0.202 0.370 1.852 2.239 0.265 0.000 0.000 0.000 0.000 0.000 0.000 0.001 0.072 0.000 0.000 0.000 0.050 0.000 0.000 0.000 0.143 0.001 0.007 0.095 0.000 0.000 0.000 0.000 0.000 0.000 
0.000 0.000 0.000 0.000 0.000 0.001 0.000 0.000 0.000 0.000 0.000 0.034 0.021 0.000 0.238 0.000 0.000 0.084 0.000 0.000 0.000 0.000 0.051 0.000 0.000 0.000 0.000 0.000 0.000 0.000 0.000 0.095 0.000 0.000 0.175 0.016 0.000 0.279 0.050 0.000 0.000 0.066 0.000 0.000 0.000 0.007 0.101 0.000 0.000 0.000 0.000 0.019 0.000 0.079 0.352 3.127 7.232 10.260 3.665 0.145 0.037 0.000 0.365 0.599 0.807 0.003 0.024 0.513 1.066 1.887 0.896 0.426 0.164 0.381 2.267 5.009 5.004 1.415 0.286 0.072 0.260 0.905 3.748 8.612 13.785 19.827 22.083 21.630 12.562 5.631 0.518 0.011 0.046 0.289 1.315 0.353 0.022 0.000 0.000 0.000 0.039 0.000 0.000 0.006 0.070 0.000 0.000 0.000 0.048 0.000 0.068 0.000 0.000 0.000 0.000 0.000 0.000 0.000 0.000 0.000 0.000 
0.000 0.000 0.000 0.000 0.000 0.000 0.001 0.000 0.000 0.000 0.000 0.000 0.041 0.018 0.000 0.000 0.074 0.000 0.000 0.000 0.000 0.201 0.000 0.000 0.000 0.000 0.000 0.009 0.028 0.000 0.000 0.000 0.094 0.000 0.165 0.260 0.002 0.000 0.262 0.000 0.000 0.027 0.037 0.000 0.000 0.006 0.035 0.100 0.000 0.000 0.000 0.000 0.027 0.000 0.085 1.181 3.091 5.213 4.878 1.144 0.022 0.000 0.000 0.335 0.848 0.649 0.000 0.023 0.826 0.557 0.766 0.828 0.400 0.289 1.053 3.457 5.151 3.871 1.273 0.229 1.084 2.562 8.096 15.919 21.789 24.186 22.719 15.613 8.626 2.457 0.053 0.026 0.067 0.356 0.401 0.223 0.014 0.000 0.000 0.086 0.000 0.039 0.000 0.000 0.000 0.000 0.000 0.000 0.000 0.011 0.000 0.060 0.000 0.007 0.000 0.000 0.000 0.000 0.000 0.000 0.000 
0.000 0.000 0.000 0.101 0.000 0.000 0.000 0.000 0.000 0.000 0.000 0.232 0.000 0.000 0.000 0.000 0.129 0.064 0.000 0.000 0.000 0.000 0.205 0.089 0.005 0.106 0.000 0.000 0.207 0.067 0.000 0.000 0.000 0.000 0.000 0.165 0.231 0.099 0.108 0.000 0.000 0.020 0.026 0.000 0.000 0.063 0.000 0.016 0.004 0.000 0.000 0.000 0.000 0.000 0.000 0.157 0.871 3.061 6.097 4.646 0.229 0.016 0.000 0.000 0.000 0.123 0.049 0.191 0.430 0.570 0.231 0.497 0.361 0.157 0.190 1.211 2.549 2.448 2.375 1.542 1.876 3.701 10.301 19.923 25.272 25.349 23.726 13.121 6.818 0.704 0.000 0.013 0.233 1.148 1.052 0.292 0.017 0.000 0.000 0.054 0.086 0.000 0.000 0.000 0.000 0.000 0.000 0.000 0.000 0.000 0.000 0.112 0.000 0.000 0.006 0.000 0.000 0.000 0.000 0.000 0.000 
0.000 0.000 0.000 0.000 0.100 0.000 0.000 0.000 0.000 0.000 0.000 0.000 0.230 0.000 0.034 0.006 0.000 0.183 0.000 0.000 0.002 0.000 0.000 0.022 0.090 0.000 0.108 0.058 0.000 0.114 0.000 0.000 0.000 0.138 0.000 0.000 0.000 0.000 0.137 0.113 0.000 0.000 0.000 0.000 0.000 0.000 0.064 0.000 0.041 0.000 0.000 0.000 0.000 0.000 0.000 0.000 0.189 1.127 4.019 5.819 2.459 0.099 0.030 0.000 0.389 0.000 0.000 0.274 0.628 0.636 0.107 0.033 0.093 0.482 0.522 0.507 0.639 1.560 2.243 2.356 1.157 3.204 10.751 21.722 27.568 26.817 23.995 12.353 6.040 0.290 0.097 0.138 1.335 2.125 1.060 0.189 0.000 0.035 0.014 0.000 0.054 0.000 0.000 0.000 0.000 0.000 0.000 0.000 0.000 0.000 0.000 0.000 0.174 0.000 0.000 0.087 0.000 0.000 0.000 0.000 0.000 
0.000 0.000 0.000 0.000 0.000 0.000 0.000 0.000 0.000 0.000 0.000 0.000 0.000 0.027 0.001 0.171 0.000 0.034 0.014 0.000 0.102 0.000 0.000 0.000 0.067 0.098 0.000 0.000 0.058 0.000 0.000 0.000 0.000 0.000 0.140 0.001 0.036 0.181 0.000 0.128 0.000 0.000 0.008 0.000 0.000 0.000 0.052 0.000 0.028 0.041 0.000 0.000 0.000 0.016 0.000 0.000 0.014 0.257 1.591 3.852 3.116 0.535 0.381 0.247 0.163 0.313 0.003 0.446 0.207 0.340 0.238 0.685 2.905 3.536 3.476 3.970 4.979 5.057 3.718 2.116 0.367 1.491 9.604 23.238 31.724 31.281 26.497 13.389 6.259 0.144 0.120 0.510 1.350 1.878 0.657 0.033 0.000 0.000 0.036 0.013 0.000 0.000 0.000 0.000 0.000 0.000 0.000 0.000 0.000 0.000 0.000 0.000 0.000 0.087 0.000 0.031 0.130 0.000 0.000 0.000 0.000 
0.000 0.000 0.000 0.000 0.000 0.000 0.000 0.000 0.000 0.000 0.000 0.000 0.000 0.000 0.027 0.039 0.000 0.000 0.052 0.000 0.000 0.103 0.000 0.000 0.000 0.083 0.001 0.000 0.000 0.000 0.000 0.000 0.045 0.000 0.000 0.160 0.032 0.032 0.042 0.000 0.010 0.072 0.011 0.013 0.104 0.089 0.000 0.047 0.000 0.000 0.011 0.000 0.000 0.015 0.014 0.000 0.000 0.025 0.199 1.517 2.424 1.101 0.622 0.531 0.463 0.471 0.462 0.264 0.159 0.018 0.363 2.754 7.681 10.829 10.610 10.920 11.622 11.209 7.972 3.809 1.436 1.483 9.955 23.188 32.518 36.782 32.990 18.358 9.194 1.694 0.341 0.528 0.881 0.816 0.147 0.000 0.000 0.009 0.000 0.000 0.000 0.000 0.000 0.000 0.000 0.050 0.027 0.000 0.000 0.026 0.000 0.000 0.000 0.000 0.090 0.000 0.005 0.000 0.000 0.000 0.000 
0.000 0.000 0.000 0.000 0.000 0.000 0.315 0.066 0.000 0.000 0.000 0.000 0.000 0.000 0.000 0.000 0.054 0.000 0.000 0.000 0.000 0.000 0.272 0.000 0.000 0.000 0.000 0.291 0.000 0.000 0.005 0.003 0.000 0.117 0.000 0.169 0.234 0.000 0.038 0.000 0.000 0.007 0.000 0.185 0.013 0.152 0.052 0.000 0.000 0.000 0.000 0.014 0.000 0.000 0.000 0.000 0.000 0.000 0.134 0.264 1.178 1.196 0.725 0.578 0.505 0.528 0.613 0.607 0.369 0.790 2.110 5.267 13.992 23.155 23.249 22.379 22.935 22.161 14.507 8.166 3.144 4.769 14.693 25.759 33.806 40.700 40.216 28.306 14.649 6.922 1.032 0.392 0.271 0.081 0.020 0.000 0.000 0.000 0.009 0.000 0.000 0.000 0.000 0.000 0.000 0.030 0.067 0.011 0.000 0.000 0.000 0.169 0.045 0.000 0.000 0.000 0.000 0.000 0.000 0.000 0.000 
0.000 0.000 0.000 0.000 0.000 0.114 0.006 0.316 0.003 0.000 0.000 0.000 0.000 0.000 0.000 0.000 0.000 0.000 0.000 0.000 0.233 0.000 0.000 0.264 0.000 0.000 0.000 0.000 0.286 0.000 0.000 0.019 0.000 0.042 0.000 0.000 0.065 0.000 0.000 0.000 0.000 0.000 0.363 0.080 0.000 0.000 0.042 0.000 0.000 0.000 0.000 0.000 0.000 0.000 0.000 0.000 0.000 0.000 0.000 0.296 0.102 0.226 0.312 0.324 0.261 0.330 0.479 0.516 1.179 4.607 8.866 12.061 12.518 19.617 27.866 26.958 25.747 24.210 19.843 10.780 3.411 10.626 23.022 30.861 35.978 42.542 43.807 39.899 22.593 12.873 4.259 0.094 0.002 0.017 0.000 0.000 0.000 0.000 0.000 0.064 0.000 0.000 0.000 0.000 0.000 0.000 0.044 0.000 0.000 0.000 0.000 0.000 0.169 0.091 0.070 0.000 0.000 0.000 0.000 0.000 0.000 
0.000 0.000 0.000 0.000 0.000 0.011 0.112 0.017 0.089 0.057 0.000 0.000 0.000 0.000 0.000 0.000 0.000 0.000 0.000 0.000 0.000 0.203 0.000 0.152 0.000 0.006 0.142 0.000 0.021 0.000 0.143 0.000 0.011 0.000 0.000 0.000 0.009 0.018 0.019 0.000 0.000 0.000 0.028 0.429 0.225 0.000 0.004 0.046 0.000 0.000 0.000 0.000 0.000 0.000 0.000 0.000 0.000 0.000 0.014 0.000 0.014 0.009 0.050 0.114 0.347 0.212 0.174 0.419 2.239 7.287 15.181 19.157 13.422 11.795 18.241 21.685 20.391 16.939 10.358 3.573 4.749 14.898 25.397 32.225 37.859 44.245 47.626 46.500 31.072 16.533 7.531 0.434 0.000 0.000 0.000 0.000 0.000 0.000 0.000 0.000 0.052 0.000 0.000 0.000 0.000 0.000 0.000 0.000 0.000 0.000 0.000 0.000 0.005 0.000 0.136 0.071 0.000 0.000 0.000 0.000 0.000 
0.000 0.000 0.000 0.000 0.000 0.000 0.000 0.000 0.000 0.228 0.289 0.000 0.000 0.000 0.060 0.000 0.091 0.000 0.185 0.000 0.000 0.000 0.000 0.000 0.240 0.142 0.014 0.068 0.318 0.016 0.006 0.144 0.000 0.000 0.000 0.000 0.000 0.044 0.000 0.019 0.000 0.000 0.000 0.003 0.008 0.220 0.000 0.000 0.000 0.000 0.000 0.000 0.000 0.000 0.000 0.000 0.013 0.032 0.017 0.018 0.000 0.096 0.335 0.522 0.999 0.890 0.750 0.810 3.073 8.067 17.403 21.932 16.482 8.734 6.303 8.003 7.646 6.048 3.099 1.388 6.284 18.072 29.401 35.886 41.088 48.267 53.393 54.722 43.125 19.633 10.998 2.825 0.049 0.000 0.000 0.000 0.000 0.118 0.000 0.000 0.000 0.000 0.000 0.000 0.000 0.000 0.000 0.000 0.000 0.019 0.018 0.000 0.208 0.000 0.000 0.117 0.000 0.000 0.000 0.000 0.000 
0.000 0.000 0.000 0.000 0.000 0.000 0.067 0.000 0.000 0.043 0.164 0.156 0.000 0.000 0.039 0.053 0.006 0.088 0.000 0.185 0.000 0.000 0.000 0.000 0.000 0.331 0.107 0.105 0.000 0.351 0.000 0.000 0.000 0.000 0.000 0.000 0.000 0.012 0.041 0.000 0.000 0.000 0.000 0.000 0.000 0.000 0.000 0.021 0.000 0.000 0.000 0.000 0.000 0.000 0.000 0.000 0.079 0.135 0.192 0.270 0.347 0.297 0.698 1.550 3.379 3.873 2.598 1.128 2.954 7.828 15.178 20.754 15.425 6.993 1.498 1.360 0.620 0.791 0.447 0.193 4.598 18.136 34.896 44.922 47.870 53.391 62.741 59.416 51.809 27.742 15.124 7.332 1.457 0.000 0.000 0.000 0.000 0.000 0.118 0.000 0.000 0.123 0.000 0.000 0.000 0.000 0.000 0.000 0.000 0.009 0.030 0.021 0.000 0.153 0.000 0.139 0.000 0.003 0.000 0.000 0.000 
0.000 0.000 0.000 0.000 0.000 0.000 0.000 0.068 0.000 0.000 0.041 0.076 0.011 0.000 0.000 0.048 0.000 0.000 0.000 0.000 0.000 0.000 0.000 0.000 0.000 0.000 0.288 0.000 0.021 0.123 0.154 0.000 0.000 0.000 0.000 0.000 0.003 0.006 0.000 0.000 0.000 0.000 0.000 0.000 0.006 0.000 0.076 0.018 0.013 0.000 0.000 0.000 0.000 0.000 0.000 0.148 0.336 0.265 0.246 0.404 0.566 0.603 0.711 1.233 3.694 4.833 4.320 1.536 1.551 4.099 8.379 13.554 11.166 6.587 4.264 1.949 1.100 0.370 0.247 0.140 1.050 9.621 24.982 41.569 50.366 54.670 55.333 53.554 47.535 38.900 19.492 12.245 5.938 1.165 0.191 0.109 0.010 0.000 0.000 0.000 0.000 0.000 0.123 0.000 0.014 0.023 0.000 0.000 0.000 0.000 0.000 0.000 0.000 0.000 0.000 0.000 0.140 0.003 0.000 0.000 0.000 
0.000 0.000 0.000 0.077 0.025 0.024 0.000 0.000 0.000 0.000 0.000 0.088 0.000 0.071 0.000 0.000 0.000 0.000 0.000 0.000 0.000 0.000 0.000 0.000 0.000 0.000 0.475 0.079 0.000 0.000 0.163 0.000 0.000 0.000 0.000 0.029 0.000 0.002 0.000 0.000 0.000 0.000 0.000 0.079 0.418 0.079 0.097 0.167 0.037 0.000 0.000 0.000 0.000 0.000 0.105 0.439 0.835 0.876 0.637 0.336 0.859 0.727 0.649 0.667 1.738 3.458 3.323 1.259 0.661 0.920 2.149 4.048 6.252 8.697 9.137 7.016 2.862 0.961 0.659 0.380 0.339 3.297 14.812 28.555 40.295 48.693 48.658 43.536 41.136 42.957 31.375 15.482 10.074 4.106 0.147 0.000 0.113 0.000 0.000 0.000 0.000 0.000 0.000 0.000 0.000 0.027 0.000 0.000 0.000 0.000 0.000 0.000 0.000 0.000 0.000 0.000 0.000 0.019 0.000 0.000 0.000 
0.000 0.000 0.000 0.000 0.031 0.028 0.019 0.000 0.000 0.000 0.000 0.003 0.000 0.000 0.072 0.000 0.000 0.000 0.000 0.000 0.000 0.008 0.000 0.024 0.000 0.000 0.000 0.496 0.000 0.000 0.083 0.000 0.000 0.000 0.000 0.139 0.171 0.000 0.000 0.000 0.000 0.000 0.000 0.000 0.159 0.386 0.011 0.012 0.000 0.000 0.000 0.000 0.000 0.024 0.187 0.330 0.880 1.841 1.765 1.314 0.736 0.823 1.927 2.706 2.674 1.150 0.803 0.229 0.304 0.209 0.099 1.329 5.587 9.143 10.141 9.329 6.516 2.410 1.100 0.964 0.905 1.377 8.524 22.079 32.443 40.757 40.426 38.079 36.291 45.415 43.255 23.875 12.830 6.708 0.932 0.000 0.236 0.018 0.000 0.000 0.000 0.000 0.000 0.000 0.000 0.000 0.000 0.000 0.000 0.000 0.000 0.000 0.000 0.000 0.000 0.081 0.000 0.000 0.000 0.000 0.000 
0.000 0.000 0.000 0.000 0.000 0.000 0.000 0.000 0.000 0.000 0.000 0.000 0.005 0.000 0.000 0.022 0.001 0.201 0.000 0.000 0.000 0.000 0.039 0.028 0.018 0.000 0.000 0.000 0.065 0.000 0.000 0.082 0.000 0.000 0.000 0.095 0.089 0.000 0.000 0.000 0.000 0.000 0.000 0.000 0.000 0.000 0.046 0.000 0.000 0.000 0.000 0.000 0.000 0.000 0.101 0.201 0.371 1.314 2.127 1.604 1.191 3.208 6.835 10.295 9.151 4.127 1.020 0.426 0.364 0.190 0.186 1.913 7.335 11.939 11.575 9.534 6.327 2.726 1.286 0.951 1.915 3.709 7.896 16.642 24.711 31.650 32.833 31.152 32.066 37.219 46.655 38.812 18.409 9.348 1.903 0.029 0.036 0.254 0.000 0.000 0.000 0.000 0.000 0.026 0.252 0.015 0.000 0.000 0.000 0.000 0.000 0.000 0.000 0.000 0.000 0.084 0.064 0.093 0.000 0.000 0.000 
0.000 0.000 0.000 0.000 0.000 0.184 0.000 0.000 0.000 0.000 0.000 0.000 0.000 0.000 0.000 0.000 0.017 0.001 0.191 0.000 0.000 0.000 0.000 0.033 0.024 0.000 0.000 0.000 0.309 0.067 0.000 0.000 0.000 0.000 0.000 0.043 0.353 0.003 0.000 0.000 0.000 0.000 0.000 0.000 0.000 0.000 0.000 0.000 0.000 0.000 0.000 0.000 0.000 0.000 0.008 0.204 0.238 0.632 1.435 1.484 3.314 7.041 11.516 18.933 18.519 10.145 4.496 1.706 0.470 0.356 1.130 4.852 10.824 16.866 15.506 10.190 4.858 1.356 0.689 0.958 3.847 8.466 12.164 13.619 16.891 20.113 23.150 24.792 26.283 28.205 31.729 39.637 29.108 13.131 4.171 0.109 0.000 0.008 0.060 0.000 0.000 0.241 0.165 0.006 0.072 0.397 0.000 0.000 0.014 0.000 0.000 0.000 0.000 0.000 0.000 0.131 0.101 0.000 0.000 0.000 0.000 
0.000 0.000 0.000 0.000 0.000 0.000 0.190 0.000 0.000 0.000 0.000 0.000 0.000 0.000 0.000 0.002 0.000 0.007 0.000 0.000 0.000 0.000 0.000 0.000 0.000 0.000 0.000 0.000 0.058 0.262 0.000 0.000 0.000 0.112 0.017 0.000 0.000 0.294 0.000 0.000 0.000 0.000 0.000 0.000 0.000 0.000 0.000 0.000 0.000 0.000 0.000 0.000 0.000 0.000 0.000 0.166 0.355 0.302 0.972 2.387 6.651 10.715 16.667 25.302 28.194 19.033 12.843 8.228 5.212 4.627 5.680 10.371 14.782 20.410 21.570 14.081 6.359 1.933 1.819 3.777 8.925 15.389 18.380 16.028 12.151 8.255 9.223 12.257 16.472 21.608 28.483 31.872 34.115 15.639 6.994 0.138 0.000 0.000 0.000 0.000 0.000 0.000 0.098 0.160 0.000 0.003 0.325 0.000 0.000 0.015 0.000 0.000 0.000 0.000 0.000 0.000 0.140 0.000 0.000 0.000 0.000 
0.000 0.000 0.000 0.029 0.000 0.000 0.000 0.004 0.000 0.000 0.000 0.000 0.000 0.000 0.000 0.000 0.357 0.000 0.000 0.000 0.000 0.000 0.000 0.000 0.000 0.000 0.000 0.000 0.000 0.083 0.000 0.000 0.123 0.000 0.108 0.041 0.018 0.000 0.000 0.000 0.000 0.000 0.000 0.676 0.000 0.000 0.000 0.000 0.000 0.000 0.000 0.000 0.000 0.000 0.000 0.000 0.202 0.252 0.555 1.649 6.796 12.549 22.173 29.801 34.595 31.060 24.317 19.505 15.881 14.440 15.311 17.467 19.578 23.738 26.255 22.612 13.469 8.132 8.823 13.194 18.454 24.722 26.746 22.687 14.401 5.722 1.508 2.279 7.344 19.265 29.690 31.714 31.454 16.384 8.336 1.301 0.069 0.008 0.117 0.217 0.096 0.000 0.000 0.000 0.000 0.000 0.000 0.001 0.000 0.000 0.000 0.000 0.000 0.000 0.000 0.000 0.000 0.138 0.000 0.000 0.000 
0.000 0.000 0.000 0.000 0.022 0.000 0.000 0.000 0.001 0.000 0.000 0.000 0.000 0.000 0.000 0.000 0.024 0.343 0.000 0.001 0.000 0.000 0.000 0.000 0.000 0.000 0.000 0.000 0.000 0.001 0.087 0.000 0.000 0.086 0.146 0.252 0.043 0.000 0.000 0.000 0.032 0.050 0.000 0.063 0.671 0.109 0.000 0.000 0.000 0.000 0.000 0.000 0.000 0.000 0.000 0.000 0.000 0.048 0.164 0.542 3.640 10.823 18.949 35.797 38.430 39.443 36.631 33.118 31.285 27.983 24.630 23.134 24.040 27.495 28.846 26.355 20.589 17.551 19.268 24.319 30.231 34.478 34.059 28.552 19.762 11.303 2.617 0.203 2.387 14.271 27.019 30.223 24.317 13.512 7.868 2.635 0.501 0.418 1.040 0.730 0.595 0.089 0.000 0.000 0.000 0.000 0.000 0.000 0.000 0.000 0.000 0.000 0.000 0.000 0.000 0.000 0.000 0.000 0.000 0.000 0.000 
0.000 0.000 0.000 0.000 0.000 0.000 0.000 0.200 0.155 0.000 0.000 0.000 0.106 0.000 0.000 0.000 0.000 0.000 0.028 0.135 0.061 0.000 0.000 0.000 0.000 0.000 0.000 0.000 0.000 0.000 0.000 0.000 0.000 0.068 0.000 0.214 0.009 0.000 0.000 0.000 0.010 0.032 0.000 0.000 0.009 0.198 0.432 0.000 0.000 0.063 0.000 0.000 0.000 0.174 0.000 0.000 0.000 0.000 0.000 0.135 0.730 5.332 12.564 20.764 35.777 38.900 40.329 41.325 39.988 38.035 28.566 27.382 28.699 32.815 32.110 28.588 26.662 27.453 30.656 37.170 41.291 41.645 36.952 30.793 18.566 10.173 2.897 1.071 0.803 8.618 21.219 25.052 14.937 7.997 3.775 1.993 1.099 1.108 1.161 1.494 0.619 0.457 0.060 0.000 0.000 0.000 0.000 0.000 0.000 0.000 0.000 0.000 0.000 0.000 0.031 0.000 0.000 0.000 0.000 0.000 0.000 
0.000 0.000 0.000 0.000 0.000 0.000 0.074 0.036 0.200 0.028 0.032 0.000 0.000 0.147 0.000 0.000 0.000 0.000 0.000 0.136 0.134 0.000 0.000 0.000 0.000 0.000 0.000 0.000 0.000 0.000 0.000 0.000 0.000 0.000 0.111 0.000 0.000 0.000 0.000 0.000 0.000 0.010 0.000 0.000 0.000 0.151 0.158 0.376 0.000 0.000 0.063 0.000 0.000 0.014 0.031 0.000 0.000 0.000 0.000 0.009 0.185 0.832 5.604 11.994 17.486 21.873 24.558 26.046 27.216 31.758 35.524 32.884 33.421 38.344 36.244 33.464 34.381 36.480 41.216 45.437 45.492 42.678 38.801 25.214 14.996 6.171 1.250 1.036 1.054 6.056 12.590 14.523 7.675 2.365 0.349 0.473 0.497 0.474 0.957 0.319 0.753 0.945 0.025 0.000 0.000 0.000 0.000 0.000 0.000 0.000 0.000 0.000 0.000 0.000 0.000 0.028 0.063 0.000 0.000 0.000 0.000 
0.000 0.000 0.000 0.000 0.000 0.000 0.000 0.096 0.015 0.052 0.075 0.032 0.118 0.046 0.000 0.000 0.000 0.000 0.000 0.000 0.000 0.000 0.000 0.148 0.000 0.000 0.000 0.000 0.000 0.000 0.000 0.000 0.000 0.000 0.000 0.051 0.000 0.000 0.000 0.000 0.019 0.000 0.000 0.000 0.000 0.151 0.160 0.000 0.000 0.000 0.013 0.000 0.000 0.000 0.009 0.000 0.000 0.000 0.000 0.000 0.002 0.018 0.681 3.895 8.000 10.964 11.593 11.631 12.178 14.302 24.822 37.199 44.005 42.429 38.214 38.673 39.324 40.349 40.656 44.319 44.848 38.810 30.052 22.489 14.448 5.762 0.865 0.940 3.070 4.776 6.882 5.157 2.071 0.189 0.053 0.201 0.163 0.065 0.171 0.329 0.687 0.823 0.019 0.000 0.000 0.080 0.000 0.000 0.000 0.000 0.000 0.000 0.000 0.000 0.000 0.000 0.037 0.095 0.000 0.000 0.000 
0.000 0.000 0.000 0.000 0.001 0.197 0.352 0.000 0.000 0.000 0.052 0.000 0.000 0.164 0.000 0.000 0.000 0.000 0.000 0.000 0.000 0.000 0.000 0.000 0.148 0.000 0.000 0.000 0.000 0.000 0.000 0.000 0.000 0.000 0.000 0.407 0.000 0.000 0.000 0.000 0.129 0.222 0.040 0.000 0.000 0.001 0.129 0.000 0.000 0.000 0.000 0.008 0.148 0.175 0.020 0.000 0.076 0.000 0.000 0.000 0.000 0.000 0.011 0.046 0.679 2.150 2.643 2.600 2.875 5.540 12.435 21.192 33.627 48.009 44.871 38.984 39.069 38.815 36.804 32.597 25.247 20.394 16.691 15.383 17.044 14.171 4.745 5.531 8.202 5.656 3.344 1.170 0.052 0.001 0.000 0.065 0.283 0.362 0.277 0.054 0.705 0.876 0.219 0.000 0.000 0.000 0.083 0.000 0.000 0.000 0.000 0.060 0.000 0.000 0.000 0.000 0.000 0.021 0.000 0.000 0.000 
0.000 0.000 0.000 0.000 0.000 0.038 0.208 0.022 0.000 0.000 0.000 0.000 0.000 0.000 0.000 0.000 0.000 0.000 0.150 0.000 0.000 0.000 0.000 0.000 0.000 0.000 0.000 0.000 0.000 0.000 0.000 0.000 0.002 0.000 0.000 0.000 0.428 0.000 0.000 0.070 0.000 0.142 0.193 0.000 0.000 0.000 0.000 0.000 0.273 0.026 0.000 0.000 0.367 0.228 0.181 0.000 0.000 0.076 0.000 0.000 0.000 0.000 0.000 0.003 0.000 0.000 0.008 0.035 0.017 0.388 4.695 10.199 14.417 20.962 31.119 33.315 30.306 25.644 18.295 13.992 12.241 10.791 10.068 10.174 14.621 17.009 16.270 16.291 18.785 11.099 4.038 0.427 0.061 0.092 0.191 0.260 0.509 1.192 1.549 1.454 2.479 1.856 0.544 0.084 0.000 0.000 0.000 0.000 0.000 0.000 0.000 0.076 0.050 0.000 0.000 0.000 0.000 0.000 0.000 0.000 0.000 
0.000 0.000 0.000 0.016 0.000 0.000 0.000 0.000 0.020 0.011 0.000 0.000 0.000 0.000 0.000 0.000 0.000 0.000 0.019 0.165 0.000 0.000 0.000 0.000 0.027 0.020 0.000 0.000 0.000 0.000 0.000 0.409 0.764 0.193 0.000 0.000 0.000 0.000 0.000 0.000 0.070 0.000 0.000 0.000 0.000 0.000 0.000 0.000 0.020 0.266 0.041 0.000 0.000 0.311 0.000 0.000 0.000 0.000 0.000 0.000 0.000 0.000 0.000 0.000 0.000 0.000 0.000 0.000 0.000 0.022 0.078 1.948 4.679 8.824 13.178 14.389 13.527 12.094 9.181 5.565 3.169 2.043 2.220 4.345 10.517 17.809 22.118 23.532 22.236 15.684 7.198 1.091 0.123 0.057 0.099 0.212 0.505 0.665 1.887 3.086 6.167 4.217 1.955 0.197 0.000 0.000 0.000 0.000 0.000 0.000 0.000 0.000 0.000 0.000 0.000 0.000 0.000 0.000 0.000 0.000 0.000 
0.000 0.000 0.000 0.000 0.000 0.000 0.120 0.013 0.001 0.018 0.000 0.000 0.000 0.000 0.000 0.000 0.000 0.000 0.000 0.000 0.000 0.000 0.000 0.000 0.000 0.026 0.000 0.000 0.000 0.000 0.000 0.005 0.537 0.106 0.000 0.000 0.000 0.000 0.000 0.000 0.000 0.000 0.000 0.000 0.000 0.000 0.000 0.201 0.074 0.035 0.000 0.000 0.000 0.000 0.003 0.000 0.000 0.000 0.000 0.000 0.000 0.000 0.000 0.003 0.049 0.000 0.000 0.000 0.000 0.000 0.000 0.003 0.000 0.963 3.776 5.694 5.580 4.208 2.151 0.102 0.078 0.000 0.057 1.219 4.961 10.721 16.422 19.131 17.940 13.507 7.671 2.098 0.474 0.250 0.024 0.114 0.051 0.005 0.227 1.063 5.890 6.365 3.024 0.413 0.029 0.000 0.000 0.000 0.000 0.000 0.000 0.060 0.000 0.081 0.000 0.000 0.000 0.000 0.000 0.000 0.000 
0.000 0.000 0.000 0.000 0.000 0.026 0.052 0.124 0.003 0.001 0.000 0.000 0.000 0.000 0.000 0.000 0.000 0.000 0.000 0.000 0.000 0.000 0.000 0.000 0.000 0.080 0.188 0.000 0.000 0.000 0.000 0.000 0.000 0.000 0.000 0.000 0.000 0.000 0.000 0.000 0.000 0.000 0.000 0.116 0.182 0.208 0.000 0.020 0.196 0.000 0.000 0.000 0.032 0.000 0.000 0.000 0.000 0.000 0.000 0.000 0.000 0.000 0.000 0.000 0.002 0.048 0.000 0.000 0.000 0.000 0.000 0.000 0.000 0.000 0.136 0.048 0.125 0.095 0.000 0.000 0.000 0.000 0.000 0.118 1.356 4.849 8.072 8.922 8.352 6.957 4.688 2.190 1.325 0.359 0.105 0.048 0.030 0.096 0.140 0.155 1.782 4.870 2.895 0.416 0.039 0.000 0.000 0.000 0.000 0.000 0.000 0.000 0.069 0.124 0.078 0.000 0.000 0.000 0.000 0.000 0.000 
0.000 0.000 0.000 0.000 0.000 0.000 0.198 0.000 0.000 0.000 0.021 0.000 0.000 0.000 0.000 0.000 0.000 0.000 0.000 0.000 0.000 0.000 0.000 0.000 0.000 0.000 0.039 0.001 0.000 0.000 0.000 0.000 0.000 0.000 0.219 0.000 0.000 0.000 0.000 0.000 0.000 0.000 0.000 0.231 0.217 0.141 0.213 0.000 0.000 0.000 0.000 0.000 0.000 0.032 0.000 0.000 0.002 0.000 0.000 0.009 0.382 0.036 0.000 0.000 0.000 0.000 0.000 0.000 0.000 0.000 0.000 0.000 0.000 0.017 0.015 0.000 0.000 0.000 0.000 0.000 0.000 0.000 0.000 0.008 0.051 0.774 1.886 2.106 1.640 1.032 0.744 0.860 1.251 0.987 0.170 0.045 0.000 0.063 0.144 0.235 0.706 1.487 1.351 0.149 0.000 0.000 0.000 0.000 0.000 0.000 0.000 0.189 0.000 0.233 0.170 0.000 0.000 0.000 0.000 0.000 0.000 
0.000 0.000 0.000 0.000 0.000 0.000 0.044 0.183 0.000 0.000 0.000 0.022 0.000 0.000 0.017 0.000 0.000 0.000 0.000 0.000 0.000 0.000 0.000 0.000 0.000 0.000 0.000 0.000 0.000 0.000 0.000 0.000 0.000 0.000 0.000 0.220 0.000 0.000 0.000 0.000 0.000 0.000 0.099 0.079 0.154 0.192 0.067 0.000 0.025 0.000 0.000 0.001 0.000 0.000 0.000 0.000 0.010 0.000 0.000 0.001 0.054 0.372 0.000 0.000 0.000 0.000 0.000 0.000 0.000 0.000 0.000 0.000 0.000 0.000 0.018 0.000 0.000 0.000 0.000 0.000 0.000 0.000 0.000 0.000 0.011 0.000 0.000 0.000 0.000 0.000 0.001 0.102 0.348 0.333 0.120 0.191 0.232 0.000 0.045 0.298 0.554 0.596 0.249 0.000 0.245 0.000 0.191 0.000 0.000 0.000 0.000 0.000 0.303 0.000 0.080 0.000 0.000 0.000 0.000 0.000 0.000 
0.000 0.000 0.000 0.000 0.000 0.000 0.000 0.000 0.000 0.000 0.000 0.000 0.000 0.000 0.000 0.022 0.000 0.000 0.000 0.000 0.000 0.000 0.000 0.000 0.206 0.000 0.000 0.076 0.000 0.000 0.000 0.000 0.101 0.233 0.232 0.000 0.000 0.000 0.023 0.000 0.000 0.000 0.000 0.091 0.066 0.000 0.000 0.075 0.000 0.036 0.000 0.000 0.206 0.000 0.000 0.000 0.000 0.000 0.000 0.000 0.000 0.000 0.001 0.000 0.000 0.000 0.000 0.000 0.000 0.000 0.000 0.000 0.000 0.000 0.000 0.000 0.000 0.000 0.000 0.000 0.000 0.000 0.000 0.000 0.000 0.000 0.000 0.000 0.000 0.000 0.028 0.336 0.467 0.156 0.172 0.162 0.328 0.155 0.000 0.066 0.268 0.217 0.060 0.000 0.000 0.220 0.053 0.186 0.000 0.000 0.000 0.000 0.000 0.000 0.000 0.000 0.000 0.000 0.000 0.000 0.000 
0.000 0.000 0.000 0.000 0.000 0.000 0.000 0.000 0.000 0.000 0.091 0.000 0.000 0.000 0.000 0.035 0.000 0.000 0.000 0.000 0.000 0.000 0.000 0.000 0.000 0.172 0.000 0.004 0.000 0.000 0.000 0.000 0.000 0.149 0.171 0.192 0.000 0.000 0.000 0.023 0.000 0.052 0.350 0.234 0.000 0.000 0.000 0.000 0.000 0.000 0.062 0.022 0.000 0.277 0.000 0.000 0.000 0.000 0.000 0.000 0.000 0.000 0.000 0.000 0.000 0.000 0.000 0.063 0.000 0.000 0.000 0.000 0.000 0.000 0.000 0.000 0.000 0.000 0.000 0.000 0.000 0.000 0.000 0.000 0.000 0.000 0.000 0.000 0.047 0.230 0.445 1.022 0.641 0.199 0.037 0.019 0.149 0.106 0.000 0.000 0.005 0.000 0.000 0.000 0.000 0.000 0.077 0.109 0.000 0.000 0.000 0.000 0.000 0.000 0.000 0.000 0.000 0.000 0.000 0.000 0.000 
0.000 0.000 0.000 0.000 0.000 0.000 0.000 0.000 0.000 0.026 0.000 0.091 0.000 0.000 0.000 0.000 0.036 0.000 0.092 0.021 0.000 0.000 0.000 0.000 0.000 0.000 0.000 0.139 0.240 0.328 0.658 0.968 1.375 0.350 0.079 0.076 0.116 0.000 0.000 0.001 0.000 0.000 0.050 0.398 0.154 0.000 0.000 0.000 0.000 0.000 0.000 0.059 0.000 0.000 0.000 0.000 0.195 0.000 0.000 0.000 0.000 0.000 0.000 0.000 0.000 0.000 0.000 0.010 0.061 0.000 0.000 0.000 0.000 0.000 0.000 0.000 0.000 0.000 0.000 0.080 0.044 0.000 0.000 0.000 0.000 0.000 0.000 0.096 0.116 0.494 0.518 0.970 0.560 0.100 0.038 0.002 0.005 0.000 0.000 0.000 0.000 0.000 0.000 0.000 0.000 0.000 0.000 0.072 0.000 0.000 0.000 0.026 0.073 0.048 0.000 0.004 0.000 0.000 0.000 0.000 0.000 
0.000 0.000 0.000 0.000 0.000 0.440 0.000 0.000 0.000 0.000 0.026 0.000 0.000 0.000 0.000 0.000 0.000 0.000 0.001 0.116 0.000 0.000 0.000 0.000 0.000 0.122 0.149 0.547 0.612 0.365 0.281 0.721 1.189 1.125 0.137 0.295 0.188 0.071 0.078 0.090 0.207 0.067 0.027 0.025 0.000 0.016 0.000 0.000 0.000 0.000 0.000 0.000 0.000 0.000 0.000 0.000 0.236 0.215 0.000 0.000 0.000 0.000 0.000 0.000 0.000 0.000 0.000 0.000 0.000 0.000 0.000 0.000 0.000 0.000 0.000 0.000 0.000 0.000 0.000 0.022 0.024 0.000 0.000 0.000 0.000 0.000 0.000 0.015 0.209 0.188 0.412 0.171 0.317 0.669 0.633 0.016 0.003 0.000 0.000 0.000 0.000 0.000 0.000 0.000 0.000 0.000 0.000 0.000 0.000 0.000 0.000 0.000 0.026 0.361 0.083 0.000 0.003 0.000 0.000 0.000 0.000 
0.000 0.000 0.000 0.000 0.000 0.000 0.432 0.000 0.000 0.000 0.000 0.000 0.000 0.000 0.000 0.112 0.000 0.000 0.000 0.000 0.034 0.000 0.000 0.000 0.000 0.000 0.206 0.282 0.343 0.358 0.052 0.089 0.085 0.000 0.000 0.000 0.384 0.217 0.275 0.295 0.335 0.664 0.530 0.472 0.225 0.000 0.037 0.000 0.000 0.000 0.000 0.255 0.036 0.000 0.000 0.000 0.037 0.000 0.000 0.000 0.059 0.081 0.000 0.000 0.000 0.000 0.000 0.000 0.000 0.000 0.016 0.128 0.146 0.000 0.006 0.000 0.000 0.000 0.000 0.000 0.029 0.000 0.000 0.000 0.000 0.000 0.000 0.000 0.026 0.160 0.185 0.323 0.323 0.354 0.377 0.222 0.000 0.000 0.000 0.000 0.000 0.000 0.000 0.000 0.000 0.000 0.000 0.000 0.000 0.000 0.521 0.000 0.000 0.001 0.312 0.005 0.000 0.000 0.000 0.000 0.000 
0.000 0.000 0.000 0.000 0.000 0.000 0.000 0.210 0.000 0.000 0.000 0.000 0.000 0.122 0.000 0.000 0.107 0.013 0.000 0.065 0.000 0.000 0.000 0.000 0.000 0.000 0.000 0.116 0.438 0.063 0.009 0.014 0.144 0.210 0.000 0.000 0.206 0.577 0.147 0.502 0.214 0.289 0.625 0.628 0.557 0.106 0.000 0.041 0.000 0.000 0.000 0.000 0.406 0.027 0.000 0.000 0.000 0.046 0.000 0.000 0.000 0.055 0.148 0.086 0.000 0.000 0.000 0.000 0.000 0.000 0.000 0.048 0.083 0.145 0.383 0.072 0.000 0.000 0.000 0.000 0.000 0.039 0.000 0.000 0.000 0.000 0.000 0.000 0.000 0.000 0.074 0.229 0.313 0.228 0.130 0.050 0.000 0.099 0.028 0.000 0.000 0.000 0.033 0.000 0.000 0.000 0.000 0.000 0.000 0.000 0.201 0.646 0.000 0.000 0.003 0.000 0.000 0.000 0.000 0.000 0.000 
0.000 0.000 0.000 0.000 0.042 0.000 0.082 0.000 0.209 0.000 0.000 0.000 0.000 0.000 0.120 0.000 0.000 0.119 0.012 0.000 0.052 0.000 0.000 0.000 0.000 0.000 0.000 0.000 0.015 0.000 0.038 0.017 0.000 0.211 0.000 0.000 0.000 0.240 0.404 0.068 0.535 0.347 0.194 0.280 0.570 0.215 0.227 0.111 0.122 0.025 0.000 0.000 0.000 0.000 0.000 0.000 0.000 0.000 0.003 0.000 0.000 0.000 0.187 0.173 0.066 0.000 0.000 0.000 0.000 0.000 0.000 0.124 0.000 0.002 0.177 0.355 0.026 0.000 0.000 0.090 0.144 0.000 0.000 0.000 0.000 0.000 0.000 0.000 0.000 0.000 0.000 0.057 0.211 0.149 0.032 0.014 0.109 0.205 0.268 0.101 0.000 0.149 0.001 0.025 0.000 0.020 0.000 0.000 0.000 0.000 0.000 0.073 0.216 0.000 0.000 0.000 0.000 0.000 0.000 0.000 0.000 
0.000 0.000 0.000 0.000 0.009 0.039 0.000 0.079 0.000 0.027 0.122 0.037 0.000 0.000 0.000 0.000 0.000 0.000 0.119 0.000 0.000 0.000 0.000 0.008 0.000 0.000 0.000 0.000 0.000 0.014 0.000 0.000 0.000 0.000 0.001 0.000 0.069 0.000 0.280 0.063 0.172 0.529 0.283 0.246 0.517 0.279 0.160 0.232 0.124 0.093 0.009 0.000 0.000 0.022 0.000 0.059 0.000 0.058 0.000 0.000 0.000 0.000 0.000 0.096 0.000 0.135 0.222 0.083 0.000 0.000 0.000 0.000 0.117 0.000 0.000 0.000 0.000 0.055 0.007 0.001 0.037 0.194 0.000 0.000 0.000 0.000 0.000 0.000 0.000 0.000 0.000 0.000 0.011 0.000 0.004 0.141 0.213 0.271 0.273 0.181 0.053 0.000 0.148 0.000 0.000 0.000 0.020 0.069 0.158 0.042 0.000 0.000 0.000 0.000 0.035 0.000 0.000 0.000 0.000 0.000 0.000 
0.000 0.000 0.000 0.000 0.000 0.000 0.007 0.000 0.000 0.007 0.027 0.086 0.358 0.000 0.000 0.000 0.000 0.000 0.000 0.000 0.000 0.000 0.000 0.000 0.008 0.000 0.128 0.004 0.292 0.053 0.000 0.000 0.000 0.000 0.000 0.000 0.000 0.215 0.000 0.213 0.107 0.170 0.406 0.084 0.227 0.238 0.018 0.141 0.000 0.010 0.000 0.000 0.000 0.000 0.022 0.028 0.055 0.025 0.057 0.000 0.000 0.000 0.000 0.000 0.116 0.000 0.114 0.109 0.000 0.066 0.134 0.000 0.000 0.000 0.000 0.000 0.000 0.000 0.008 0.001 0.000 0.000 0.000 0.000 0.000 0.000 0.000 0.000 0.000 0.000 0.000 0.000 0.000 0.000 0.059 0.078 0.173 0.127 0.159 0.000 0.000 0.000 0.000 0.000 0.000 0.028 0.015 0.000 0.152 0.140 0.042 0.000 0.000 0.000 0.000 0.033 0.000 0.000 0.000 0.000 0.000 
0.000 0.000 0.000 0.091 0.000 0.000 0.000 0.009 0.000 0.000 0.000 0.000 0.000 0.365 0.000 0.000 0.000 0.000 0.008 0.000 0.000 0.000 0.000 0.000 0.046 0.081 0.000 0.194 0.132 0.306 0.108 0.000 0.000 0.057 0.099 0.002 0.000 0.000 0.000 0.000 0.000 0.073 0.006 0.004 0.041 0.000 0.000 0.000 0.000 0.014 0.091 0.219 0.000 0.000 0.000 0.000 0.040 0.215 0.000 0.000 0.000 0.000 0.000 0.000 0.000 0.000 0.000 0.000 0.000 0.018 0.062 0.000 0.000 0.000 0.000 0.000 0.000 0.000 0.000 0.000 0.000 0.000 0.000 0.000 0.000 0.016 0.000 0.015 0.000 0.000 0.000 0.000 0.000 0.000 0.000 0.060 0.036 0.000 0.000 0.024 0.000 0.000 0.000 0.000 0.000 0.013 0.092 0.000 0.081 0.154 0.000 0.000 0.000 0.000 0.000 0.000 0.004 0.000 0.000 0.000 0.000 
0.000 0.000 0.000 0.000 0.060 0.000 0.000 0.000 0.000 0.000 0.000 0.000 0.000 0.000 0.000 0.000 0.000 0.000 0.000 0.000 0.000 0.000 0.053 0.162 0.000 0.062 0.066 0.000 0.200 0.001 0.000 0.000 0.000 0.002 0.033 0.095 0.000 0.000 0.000 0.001 0.000 0.000 0.000 0.000 0.158 0.000 0.000 0.000 0.000 0.000 0.000 0.087 0.000 0.000 0.000 0.000 0.052 0.000 0.209 0.115 0.000 0.000 0.000 0.000 0.000 0.000 0.000 0.035 0.000 0.008 0.003 0.000 0.000 0.000 0.000 0.000 0.086 0.000 0.000 0.000 0.000 0.000 0.000 0.000 0.000 0.000 0.016 0.005 0.022 0.000 0.000 0.000 0.000 0.000 0.038 0.000 0.046 0.000 0.000 0.000 0.000 0.000 0.000 0.000 0.000 0.000 0.001 0.092 0.024 0.178 0.138 0.000 0.000 0.000 0.000 0.000 0.000 0.000 0.000 0.000 0.000 
0.000 0.000 0.000 0.000 0.000 0.000 0.070 0.000 0.000 0.000 0.000 0.000 0.000 0.000 0.000 0.000 0.000 0.000 0.000 0.000 0.000 0.000 0.000 0.059 0.116 0.000 0.010 0.000 0.000 0.000 0.000 0.000 0.000 0.000 0.002 0.000 0.000 0.000 0.000 0.001 0.061 0.000 0.000 0.000 0.071 0.155 0.000 0.000 0.000 0.000 0.000 0.000 0.066 0.000 0.000 0.000 0.256 0.185 0.000 0.001 0.058 0.000 0.000 0.000 0.000 0.000 0.000 0.000 0.061 0.115 0.077 0.000 0.000 0.000 0.000 0.000 0.000 0.079 0.000 0.000 0.000 0.000 0.000 0.000 0.000 0.000 0.000 0.000 0.005 0.000 0.000 0.000 0.000 0.022 0.000 0.038 0.000 0.000 0.000 0.000 0.000 0.000 0.000 0.000 0.000 0.000 0.000 0.000 0.189 0.091 0.114 0.000 0.000 0.000 0.000 0.000 0.000 0.000 0.000 0.000 0.000 
0.000 0.000 0.000 0.000 0.000 0.000 0.000 0.086 0.000 0.000 0.000 0.000 0.000 0.000 0.000 0.000 0.000 0.000 0.000 0.029 0.020 0.004 0.000 0.186 0.024 0.000 0.000 0.011 0.000 0.000 0.001 0.000 0.651 0.251 0.000 0.003 0.000 0.000 0.042 0.173 0.251 0.000 0.000 0.000 0.000 0.000 0.000 0.000 0.000 0.000 0.007 0.000 0.000 0.065 0.094 0.030 0.000 0.347 0.000 0.304 0.000 0.000 0.070 0.000 0.000 0.000 0.000 0.000 0.000 0.000 0.074 0.004 0.000 0.146 0.000 0.165 0.000 0.000 0.000 0.000 0.000 0.183 0.014 0.000 0.000 0.000 0.000 0.000 0.000 0.000 0.000 0.000 0.000 0.000 0.022 0.000 0.000 0.000 0.000 0.000 0.000 0.000 0.000 0.000 0.000 0.334 0.023 0.000 0.000 0.188 0.000 0.000 0.000 0.000 0.000 0.000 0.000 0.000 0.000 0.000 0.000 
0.000 0.000 0.000 0.000 0.000 0.000 0.000 0.000 0.000 0.006 0.000 0.000 0.000 0.000 0.000 0.000 0.000 0.000 0.000 0.000 0.047 0.019 0.000 0.224 0.258 0.000 0.000 0.000 0.000 0.000 0.140 0.008 0.084 0.657 0.091 0.000 0.000 0.216 0.000 0.440 0.453 0.214 0.135 0.000 0.000 0.008 0.246 0.000 0.000 0.037 0.000 0.011 0.000 0.000 0.000 0.097 0.000 0.000 0.000 0.000 0.300 0.000 0.000 0.070 0.081 0.030 0.001 0.000 0.000 0.000 0.000 0.000 0.000 0.068 0.232 0.000 0.163 0.129 0.000 0.000 0.000 0.000 0.231 0.000 0.000 0.000 0.000 0.000 0.000 0.000 0.000 0.000 0.000 0.000 0.000 0.000 0.000 0.000 0.000 0.000 0.000 0.220 0.000 0.000 0.001 0.000 0.329 0.037 0.029 0.000 0.000 0.000 0.003 0.000 0.000 0.000 0.000 0.000 0.000 0.000 0.000 
0.000 0.000 0.000 0.000 0.000 0.000 0.000 0.000 0.127 0.011 0.000 0.000 0.000 0.000 0.000 0.000 0.000 0.000 0.213 0.000 0.000 0.000 0.000 0.126 0.262 0.000 0.000 0.030 0.000 0.000 0.000 0.126 0.000 0.076 0.000 0.000 0.000 0.000 0.341 0.070 0.302 0.245 0.026 0.000 0.000 0.000 0.068 0.247 0.469 0.000 0.036 0.000 0.000 0.000 0.000 0.120 0.000 0.000 0.000 0.000 0.000 0.000 0.000 0.000 0.001 0.055 0.028 0.000 0.054 0.000 0.104 0.000 0.000 0.000 0.302 0.000 0.000 0.000 0.132 0.000 0.000 0.000 0.000 0.000 0.000 0.000 0.000 0.000 0.000 0.000 0.000 0.000 0.000 0.000 0.000 0.000 0.000 0.000 0.000 0.000 0.000 0.002 0.212 0.000 0.000 0.218 0.000 0.000 0.034 0.000 0.000 0.000 0.000 0.141 0.000 0.000 0.000 0.000 0.000 0.000 0.000 
0.000 0.000 0.000 0.000 0.027 0.000 0.000 0.018 0.051 0.126 0.000 0.000 0.000 0.000 0.000 0.000 0.000 0.000 0.024 0.242 0.000 0.000 0.000 0.000 0.000 0.000 0.000 0.033 0.039 0.006 0.001 0.000 0.000 0.000 0.069 0.000 0.000 0.000 0.000 0.000 0.000 0.006 0.000 0.000 0.000 0.000 0.000 0.000 0.000 0.471 0.000 0.014 0.000 0.000 0.000 0.000 0.088 0.000 0.000 0.000 0.000 0.000 0.000 0.000 0.000 0.075 0.046 0.000 0.000 0.056 0.008 0.105 0.001 0.002 0.000 0.296 0.000 0.000 0.000 0.000 0.000 0.000 0.000 0.000 0.000 0.000 0.000 0.000 0.000 0.101 0.000 0.000 0.000 0.000 0.000 0.000 0.000 0.000 0.000 0.036 0.000 0.000 0.000 0.000 0.000 0.000 0.345 0.000 0.000 0.000 0.000 0.000 0.000 0.287 0.151 0.000 0.000 0.000 0.000 0.000 0.000 
0.000 0.000 0.000 0.000 0.000 0.058 0.000 0.000 0.022 0.000 0.000 0.000 0.000 0.000 0.000 0.000 0.000 0.000 0.000 0.000 0.039 0.024 0.000 0.000 0.000 0.000 0.000 0.000 0.092 0.075 0.000 0.000 0.000 0.000 0.277 0.000 0.000 0.000 0.000 0.000 0.000 0.000 0.055 0.000 0.237 0.152 0.000 0.000 0.000 0.125 0.225 0.048 0.015 0.000 0.000 0.000 0.000 0.000 0.000 0.000 0.000 0.000 0.000 0.000 0.000 0.000 0.078 0.046 0.000 0.000 0.000 0.012 0.054 0.001 0.000 0.000 0.511 0.000 0.000 0.000 0.000 0.000 0.057 0.000 0.000 0.000 0.000 0.000 0.000 0.000 0.178 0.000 0.000 0.000 0.000 0.000 0.000 0.000 0.000 0.000 0.037 0.000 0.000 0.000 0.000 0.000 0.000 0.000 0.000 0.000 0.000 0.000 0.000 0.000 0.284 0.127 0.188 0.000 0.000 0.000 0.000 
0.000 0.000 0.000 0.000 0.000 0.000 0.028 0.000 0.000 0.000 0.000 0.274 0.083 0.000 0.000 0.000 0.000 0.000 0.000 0.000 0.018 0.056 0.015 0.015 0.000 0.000 0.000 0.000 0.000 0.000 0.092 0.000 0.000 0.000 0.001 0.275 0.000 0.000 0.000 0.000 0.000 0.000 0.000 0.000 0.000 0.181 0.134 0.003 0.000 0.010 0.113 0.000 0.000 0.021 0.000 0.013 0.000 0.000 0.000 0.000 0.146 0.042 0.000 0.000 0.000 0.096 0.000 0.000 0.000 0.000 0.000 0.000 0.000 0.000 0.000 0.000 0.516 0.679 0.000 0.000 0.000 0.000 0.263 0.071 0.000 0.000 0.000 0.000 0.000 0.174 0.116 0.151 0.000 0.000 0.000 0.000 0.000 0.000 0.000 0.000 0.000 0.000 0.000 0.000 0.000 0.000 0.000 0.000 0.000 0.000 0.000 0.000 0.000 0.000 0.000 0.003 0.173 0.049 0.000 0.000 0.000 
0.000 0.000 0.000 0.000 0.000 0.000 0.000 0.000 0.000 0.000 0.000 0.000 0.274 0.005 0.003 0.114 0.087 0.000 0.000 0.047 0.004 0.007 0.000 0.000 0.019 0.000 0.000 0.000 0.000 0.000 0.000 0.000 0.000 0.091 0.233 0.166 0.032 0.000 0.000 0.000 0.000 0.000 0.000 0.000 0.000 0.002 0.024 0.132 0.000 0.000 0.000 0.000 0.033 0.106 0.001 0.005 0.013 0.000 0.000 0.000 0.206 0.118 0.053 0.000 0.000 0.022 0.095 0.000 0.000 0.000 0.000 0.000 0.000 0.000 0.000 0.000 0.088 0.413 0.040 0.032 0.070 0.000 0.000 0.276 0.000 0.079 0.000 0.000 0.000 0.094 0.161 0.162 0.000 0.000 0.000 0.000 0.000 0.000 0.000 0.000 0.000 0.174 0.054 0.082 0.000 0.000 0.000 0.000 0.000 0.000 0.000 0.008 0.129 0.001 0.000 0.000 0.000 0.000 0.000 0.000 0.000 
0.000 0.000 0.000 0.058 0.000 0.000 0.000 0.000 0.000 0.000 0.000 0.000 0.000 0.000 0.000 0.030 0.101 0.000 0.000 0.009 0.000 0.000 0.000 0.000 0.000 0.168 0.003 0.000 0.000 0.000 0.000 0.000 0.000 0.025 0.501 0.443 0.156 0.000 0.000 0.054 0.000 0.000 0.000 0.000 0.000 0.007 0.005 0.012 0.000 0.000 0.000 0.327 0.000 0.302 0.191 0.000 0.009 0.000 0.000 0.000 0.000 0.183 0.079 0.000 0.000 0.000 0.000 0.000 0.000 0.000 0.000 0.000 0.000 0.000 0.000 0.000 0.000 0.009 0.020 0.236 0.098 0.113 0.171 0.000 0.000 0.000 0.005 0.000 0.000 0.000 0.163 0.000 0.000 0.000 0.000 0.000 0.000 0.000 0.000 0.000 0.000 0.028 0.472 0.214 0.082 0.007 0.000 0.000 0.000 0.000 0.000 0.004 0.001 0.139 0.011 0.001 0.000 0.000 0.000 0.000 0.000 
0.000 0.000 0.000 0.018 0.000 0.000 0.000 0.000 0.000 0.000 0.000 0.000 0.000 0.000 0.000 0.000 0.008 0.044 0.102 0.021 0.000 0.000 0.000 0.000 0.022 0.024 0.221 0.016 0.000 0.000 0.000 0.000 0.000 0.046 0.068 0.463 0.029 0.046 0.000 0.000 0.035 0.000 0.000 0.130 0.000 0.000 0.000 0.031 0.000 0.000 0.653 0.366 0.639 0.004 0.251 0.000 0.000 0.000 0.000 0.000 0.000 0.000 0.000 0.000 0.000 0.000 0.000 0.000 0.000 0.000 0.000 0.000 0.000 0.000 0.000 0.000 0.000 0.224 0.000 0.079 0.303 0.084 0.044 0.158 0.000 0.000 0.000 0.000 0.000 0.000 0.000 0.000 0.000 0.000 0.000 0.000 0.000 0.000 0.000 0.000 0.000 0.000 0.185 0.648 0.032 0.000 0.006 0.000 0.000 0.000 0.000 0.000 0.000 0.024 0.020 0.000 0.000 0.000 0.000 0.000 0.000 
0.000 0.000 0.000 0.000 0.000 0.000 0.000 0.000 0.000 0.000 0.000 0.000 0.000 0.000 0.000 0.000 0.000 0.136 0.231 0.205 0.036 0.000 0.000 0.147 0.006 0.020 0.009 0.000 0.007 0.002 0.000 0.000 0.000 0.001 0.000 0.073 0.000 0.000 0.005 0.000 0.000 0.000 0.094 0.536 0.304 0.000 0.000 0.000 0.036 0.000 0.000 0.570 0.387 0.288 0.000 0.000 0.000 0.000 0.000 0.000 0.000 0.000 0.000 0.000 0.058 0.000 0.000 0.000 0.000 0.000 0.000 0.000 0.183 0.063 0.000 0.000 0.000 0.000 0.306 0.000 0.117 0.025 0.000 0.000 0.000 0.000 0.000 0.033 0.000 0.304 0.586 0.701 0.041 0.000 0.000 0.000 0.164 0.155 0.000 0.000 0.000 0.000 0.000 0.234 0.270 0.022 0.000 0.000 0.000 0.000 0.000 0.000 0.000 0.000 0.022 0.000 0.000 0.000 0.000 0.000 0.000 
0.000 0.000 0.000 0.000 0.000 0.000 0.000 0.000 0.000 0.074 0.000 0.000 0.000 0.024 0.232 0.034 0.211 0.917 0.344 0.000 0.021 0.000 0.000 0.000 0.145 0.000 0.000 0.000 0.007 0.012 0.000 0.000 0.000 0.000 0.000 0.062 0.000 0.000 0.000 0.000 0.000 0.000 0.046 0.429 0.651 0.305 0.002 0.000 0.000 0.000 0.000 0.049 0.423 0.284 0.065 0.012 0.008 0.000 0.000 0.000 0.000 0.000 0.000 0.000 0.009 0.073 0.000 0.000 0.000 0.000 0.000 0.000 0.180 0.360 0.093 0.000 0.000 0.033 0.000 0.165 0.000 0.000 0.000 0.000 0.000 0.000 0.000 0.011 0.094 0.000 0.235 0.795 0.605 0.000 0.000 0.000 0.235 0.136 0.152 0.000 0.000 0.000 0.000 0.000 0.195 0.003 0.104 0.000 0.000 0.000 0.000 0.000 0.000 0.000 0.003 0.000 0.000 0.000 0.000 0.000 0.000 
0.000 0.000 0.000 0.000 0.000 0.000 0.000 0.000 0.000 0.000 0.216 0.000 0.000 0.088 0.512 0.762 1.478 1.343 1.316 0.661 0.684 0.098 0.000 0.000 0.000 0.000 0.000 0.000 0.000 0.013 0.001 0.000 0.000 0.000 0.000 0.000 0.231 0.000 0.000 0.000 0.071 0.000 0.000 0.155 0.577 0.647 0.260 0.074 0.036 0.094 0.107 0.000 0.268 0.560 0.390 0.067 0.005 0.000 0.000 0.000 0.000 0.000 0.000 0.000 0.001 0.006 0.006 0.000 0.000 0.000 0.000 0.000 0.209 0.485 0.429 0.053 0.000 0.000 0.302 0.000 0.000 0.000 0.000 0.000 0.000 0.000 0.000 0.000 0.166 0.102 0.000 0.001 0.312 0.000 0.000 0.000 0.000 0.000 0.000 0.000 0.000 0.000 0.000 0.000 0.000 0.000 0.016 0.119 0.002 0.000 0.000 0.048 0.000 0.000 0.156 0.148 0.000 0.000 0.000 0.000 0.000 
0.000 0.000 0.000 0.000 0.000 0.000 0.000 0.000 0.000 0.000 0.000 0.000 0.117 0.366 0.661 0.750 1.548 2.276 0.928 1.083 1.462 0.713 0.000 0.000 0.000 0.000 0.000 0.000 0.000 0.000 0.000 0.000 0.000 0.000 0.000 0.000 0.000 0.166 0.000 0.274 0.353 0.187 0.059 0.073 0.389 0.793 0.625 0.283 0.258 0.238 0.288 0.090 0.123 0.359 0.361 0.200 0.000 0.000 0.000 0.000 0.000 0.000 0.128 0.000 0.000 0.000 0.000 0.000 0.103 0.000 0.000 0.011 0.213 0.449 0.142 0.031 0.005 0.014 0.000 0.191 0.000 0.000 0.000 0.000 0.000 0.000 0.000 0.395 0.000 0.159 0.080 0.096 0.000 0.168 0.000 0.002 0.000 0.000 0.000 0.000 0.000 0.000 0.000 0.000 0.000 0.000 0.000 0.009 0.104 0.000 0.000 0.000 0.114 0.000 0.000 0.245 0.000 0.000 0.000 0.000 0.000 
0.000 0.000 0.000 0.000 0.000 0.055 0.292 0.000 0.000 0.000 0.000 0.020 0.141 0.316 0.479 0.735 1.110 0.624 0.802 1.293 1.411 0.959 0.000 0.000 0.000 0.000 0.038 0.060 0.004 0.025 0.000 0.000 0.022 0.000 0.000 0.000 0.000 0.000 0.334 0.655 0.574 0.452 0.367 0.213 0.281 0.636 0.827 0.648 1.378 0.857 0.331 0.116 0.000 0.168 0.276 0.085 0.000 0.000 0.000 0.000 0.000 0.000 0.000 0.190 0.000 0.000 0.000 0.000 0.008 0.102 0.000 0.000 0.047 0.104 0.020 0.142 0.417 0.003 0.014 0.000 0.176 0.001 0.000 0.000 0.000 0.000 0.209 0.015 0.379 0.011 0.002 0.019 0.087 0.000 0.001 0.000 0.000 0.000 0.230 0.000 0.000 0.000 0.000 0.000 0.000 0.001 0.000 0.000 0.000 0.000 0.000 0.000 0.018 0.114 0.000 0.000 0.000 0.000 0.000 0.000 0.000 
0.000 0.000 0.000 0.000 0.000 0.000 0.129 0.411 0.000 0.000 0.000 0.069 0.047 0.089 0.209 0.122 0.655 0.944 0.000 0.777 1.435 0.843 0.000 0.000 0.000 0.000 0.000 0.099 0.122 0.281 0.123 0.000 0.000 0.031 0.000 0.058 0.000 0.337 0.962 0.878 0.738 0.567 0.443 0.383 0.294 0.436 0.641 1.305 1.466 1.262 0.880 0.322 0.000 0.000 0.034 0.000 0.000 0.000 0.000 0.000 0.000 0.000 0.000 0.000 0.101 0.000 0.000 0.000 0.000 0.000 0.002 0.000 0.000 0.000 0.000 0.000 0.171 0.367 0.000 0.000 0.000 0.168 0.000 0.000 0.000 0.000 0.000 0.208 0.000 0.000 0.009 0.000 0.000 0.000 0.000 0.000 0.000 0.000 0.203 0.281 0.185 0.000 0.169 0.000 0.107 0.026 0.000 0.000 0.000 0.000 0.000 0.000 0.000 0.102 0.000 0.000 0.000 0.000 0.000 0.000 0.000 
0.000 0.000 0.000 0.000 0.000 0.000 0.284 0.094 0.000 0.000 0.015 0.000 0.049 0.000 0.010 0.091 0.000 0.888 0.679 0.044 0.423 0.014 0.000 0.000 0.000 0.004 0.054 0.125 0.218 0.279 0.225 0.020 0.000 0.000 0.000 0.000 0.304 0.887 1.078 1.094 0.719 0.455 0.284 0.227 0.225 0.122 0.447 1.013 1.392 1.469 1.172 0.788 0.241 0.000 0.000 0.000 0.000 0.000 0.000 0.000 0.000 0.000 0.000 0.000 0.000 0.000 0.000 0.000 0.000 0.000 0.000 0.000 0.000 0.000 0.000 0.000 0.000 0.432 0.009 0.000 0.000 0.000 0.000 0.300 0.000 0.000 0.000 0.000 0.000 0.000 0.000 0.000 0.000 0.000 0.000 0.000 0.000 0.000 0.000 0.141 0.000 0.384 0.000 0.100 0.000 0.326 0.000 0.000 0.000 0.000 0.000 0.000 0.000 0.000 0.018 0.000 0.070 0.001 0.000 0.000 0.000 
0.000 0.000 0.000 0.000 0.000 0.083 0.000 0.000 0.000 0.000 0.000 0.019 0.000 0.000 0.000 0.009 0.000 0.000 0.114 0.000 0.000 0.000 0.000 0.000 0.000 0.000 0.157 0.291 0.185 0.130 0.036 0.000 0.000 0.000 0.000 0.183 0.538 0.872 1.134 0.881 0.489 0.130 0.000 0.003 0.046 0.052 0.128 0.678 1.485 1.478 1.425 1.061 0.606 0.156 0.084 0.117 0.074 0.000 0.000 0.206 0.000 0.000 0.000 0.000 0.000 0.000 0.000 0.000 0.000 0.000 0.000 0.000 0.000 0.000 0.000 0.000 0.000 0.180 0.571 0.108 0.023 0.016 0.000 0.013 0.319 0.000 0.000 0.000 0.016 0.000 0.000 0.000 0.000 0.000 0.000 0.000 0.000 0.000 0.000 0.000 0.000 0.001 0.183 0.000 0.432 0.064 0.000 0.000 0.000 0.000 0.000 0.000 0.000 0.000 0.000 0.000 0.100 0.087 0.000 0.000 0.000 
0.000 0.000 0.000 0.000 0.000 0.000 0.082 0.000 0.000 0.000 0.000 0.000 0.080 0.017 0.000 0.000 0.000 0.000 0.000 0.000 0.000 0.000 0.000 0.000 0.000 0.015 0.268 0.461 0.330 0.097 0.055 0.000 0.000 0.000 0.113 0.334 0.545 0.810 1.125 0.751 0.474 0.135 0.000 0.000 0.050 0.037 0.206 0.992 1.030 1.156 1.193 0.862 0.307 0.042 0.079 0.237 0.384 0.171 0.000 0.000 0.233 0.000 0.000 0.000 0.000 0.000 0.000 0.000 0.000 0.000 0.000 0.000 0.000 0.000 0.028 0.101 0.180 1.446 1.300 0.536 0.401 0.296 0.098 0.000 0.000 0.000 0.000 0.015 0.145 0.054 0.000 0.000 0.000 0.000 0.000 0.000 0.000 0.000 0.000 0.000 0.212 0.000 0.070 0.000 0.000 0.402 0.128 0.000 0.000 0.000 0.000 0.000 0.000 0.000 0.000 0.000 0.000 0.063 0.000 0.000 0.000 
0.000 0.000 0.000 0.000 0.009 0.000 0.000 0.000 0.000 0.000 0.000 0.000 0.001 0.077 0.000 0.000 0.000 0.000 0.000 0.000 0.000 0.000 0.000 0.000 0.000 0.036 0.270 0.635 0.487 0.090 0.426 0.130 0.000 0.024 0.237 0.417 0.817 1.203 1.425 0.923 0.630 0.301 0.060 0.040 0.293 0.756 1.192 0.910 0.836 0.805 0.450 0.350 0.032 0.000 0.002 0.078 0.395 0.480 0.153 0.000 0.000 0.000 0.010 0.009 0.000 0.000 0.000 0.000 0.000 0.000 0.000 0.000 0.000 0.000 0.072 0.156 0.755 1.303 1.705 0.795 1.191 2.412 1.691 0.161 0.004 0.000 0.000 0.000 0.069 0.142 0.000 0.000 0.000 0.000 0.000 0.000 0.000 0.000 0.000 0.000 0.074 0.213 0.000 0.066 0.000 0.000 0.015 0.025 0.062 0.011 0.000 0.000 0.000 0.000 0.000 0.000 0.000 0.000 0.000 0.000 0.000 
0.000 0.000 0.000 0.000 0.000 0.010 0.054 0.000 0.000 0.000 0.000 0.000 0.000 0.000 0.091 0.024 0.000 0.000 0.000 0.000 0.000 0.000 0.000 0.000 0.000 0.067 0.288 0.878 1.046 0.321 0.453 0.354 0.016 0.037 0.329 0.619 1.069 1.333 1.521 0.858 0.541 0.361 0.157 0.060 0.670 2.300 1.725 1.432 0.377 0.612 0.442 0.137 0.172 0.054 0.012 0.104 0.481 0.743 0.385 0.031 0.000 0.010 0.121 0.184 0.070 0.011 0.014 0.010 0.000 0.000 0.000 0.000 0.000 0.000 0.082 0.065 0.237 0.605 0.444 0.196 0.717 2.886 3.626 1.687 0.154 0.009 0.000 0.000 0.000 0.000 0.000 0.000 0.000 0.000 0.000 0.000 0.000 0.000 0.000 0.000 0.000 0.079 0.000 0.129 0.029 0.000 0.000 0.116 0.039 0.062 0.000 0.000 0.000 0.053 0.214 0.035 0.042 0.000 0.000 0.000 0.000 
0.000 0.000 0.000 0.228 0.042 0.000 0.000 0.053 0.000 0.000 0.000 0.000 0.000 0.000 0.000 0.192 0.030 0.000 0.000 0.000 0.000 0.000 0.000 0.000 0.000 0.000 0.092 0.716 1.085 1.009 0.294 0.146 0.000 0.033 0.359 0.657 1.019 1.249 0.971 0.535 0.557 0.888 0.904 0.276 0.820 1.633 2.469 0.859 0.376 0.420 0.210 0.229 0.366 0.185 0.146 0.388 1.838 2.232 1.084 0.370 0.206 0.251 0.389 0.544 0.376 0.264 0.193 0.206 0.100 0.010 0.000 0.000 0.000 0.000 0.011 0.061 0.009 0.000 0.207 0.196 0.202 1.662 2.784 2.448 1.188 0.021 0.006 0.000 0.000 0.000 0.000 0.000 0.000 0.000 0.000 0.000 0.000 0.000 0.000 0.000 0.000 0.017 0.000 0.000 0.127 0.000 0.000 0.000 0.000 0.000 0.000 0.000 0.096 0.000 0.094 0.194 0.034 0.000 0.000 0.000 0.000 
0.000 0.000 0.000 0.000 0.384 0.040 0.000 0.000 0.000 0.000 0.000 0.234 0.000 0.000 0.000 0.000 0.000 0.038 0.035 0.000 0.000 0.000 0.000 0.000 0.000 0.000 0.000 0.231 0.445 0.171 0.160 0.000 0.000 0.032 0.377 0.631 0.883 1.036 0.938 0.496 0.983 3.917 5.060 3.612 1.188 0.684 0.536 0.511 0.060 0.325 0.000 0.098 0.292 0.410 0.725 1.604 3.669 3.428 2.385 0.974 0.549 0.427 0.601 1.195 1.345 1.309 0.770 0.524 0.526 0.131 0.013 0.000 0.000 0.000 0.000 0.000 0.000 0.000 0.098 0.434 0.248 0.210 1.688 1.450 1.188 0.061 0.000 0.000 0.000 0.000 0.000 0.000 0.000 0.000 0.000 0.000 0.000 0.000 0.000 0.000 0.016 0.287 0.073 0.000 0.000 0.000 0.000 0.000 0.000 0.000 0.000 0.000 0.000 0.168 0.031 0.000 0.004 0.000 0.000 0.000 0.000 
0.000 0.000 0.000 0.000 0.000 0.325 0.000 0.084 0.000 0.000 0.000 0.000 0.264 0.142 0.000 0.033 0.179 0.304 0.186 0.033 0.000 0.000 0.000 0.000 0.000 0.000 0.000 0.000 0.144 0.141 0.027 0.000 0.000 0.168 0.434 0.455 0.827 1.121 1.076 0.814 1.849 6.932 9.843 8.710 4.955 1.136 0.031 0.134 0.051 0.000 0.000 0.000 0.121 0.342 0.374 0.955 2.248 3.531 2.144 0.811 0.608 0.470 0.550 1.822 4.287 5.006 4.822 4.324 3.669 1.476 0.126 0.009 0.000 0.000 0.014 0.000 0.000 0.000 0.016 0.112 0.291 0.422 0.607 1.182 0.186 0.000 0.000 0.000 0.000 0.000 0.020 0.000 0.018 0.043 0.070 0.000 0.000 0.000 0.000 0.023 0.053 0.096 0.271 0.000 0.000 0.000 0.000 0.005 0.000 0.000 0.000 0.000 0.000 0.000 0.159 0.023 0.000 0.000 0.000 0.000 0.000 
0.000 0.000 0.000 0.000 0.000 0.000 0.000 0.000 0.084 0.000 0.000 0.000 0.000 0.262 0.097 0.000 0.152 0.292 0.281 0.065 0.000 0.000 0.000 0.000 0.000 0.000 0.000 0.000 0.078 0.170 0.174 0.115 0.175 0.382 0.498 0.538 0.767 0.883 1.042 0.941 2.484 10.397 18.809 17.634 10.701 3.966 0.024 0.000 0.000 0.000 0.005 0.000 0.000 0.051 0.107 0.300 0.276 0.728 0.597 0.463 0.386 0.186 0.197 1.309 4.262 6.398 6.948 7.420 6.749 4.865 2.262 0.233 0.054 0.000 0.074 0.250 0.000 0.000 0.000 0.021 0.029 0.242 0.438 0.320 0.138 0.000 0.000 0.000 0.000 0.000 0.029 0.037 0.080 0.331 0.250 0.080 0.012 0.000 0.000 0.000 0.021 0.050 0.000 0.000 0.000 0.000 0.000 0.000 0.008 0.000 0.000 0.000 0.000 0.138 0.000 0.000 0.000 0.000 0.000 0.000 0.000 
0.000 0.000 0.000 0.000 0.000 0.087 0.000 0.000 0.000 0.035 0.000 0.000 0.000 0.000 0.000 0.000 0.000 0.082 0.077 0.000 0.000 0.000 0.000 0.000 0.000 0.000 0.000 0.090 0.370 0.305 0.286 0.322 0.396 0.518 0.783 1.050 1.072 0.870 0.915 1.781 4.724 10.707 16.275 20.970 17.572 7.471 0.463 0.000 0.000 0.081 0.086 0.046 0.000 0.002 0.073 0.312 0.283 0.111 0.000 0.030 0.035 0.003 0.088 0.213 1.162 3.315 4.160 4.926 6.201 6.507 5.054 2.214 0.472 0.142 0.000 0.029 0.000 0.000 0.000 0.000 0.000 0.000 0.044 0.003 0.323 0.001 0.000 0.000 0.167 0.189 0.065 0.097 0.416 0.514 0.396 0.046 0.020 0.110 0.000 0.069 0.000 0.000 0.000 0.000 0.000 0.000 0.000 0.000 0.000 0.000 0.000 0.000 0.015 0.077 0.137 0.129 0.000 0.000 0.000 0.000 0.000 
0.000 0.000 0.000 0.038 0.000 0.000 0.084 0.000 0.000 0.000 0.036 0.000 0.000 0.000 0.000 0.000 0.000 0.000 0.000 0.000 0.000 0.000 0.000 0.000 0.000 0.000 0.000 0.716 0.670 0.473 0.404 0.378 0.348 0.712 1.918 2.466 2.262 2.194 2.965 4.339 5.671 7.811 12.377 12.750 11.403 6.727 1.029 0.024 0.242 0.952 1.390 1.188 0.061 0.001 0.054 0.220 0.702 0.503 0.086 0.000 0.094 0.031 0.059 0.103 0.169 0.268 0.273 0.315 0.652 2.550 3.717 2.993 0.901 0.018 0.128 0.000 0.000 0.000 0.000 0.073 0.000 0.014 0.001 0.000 0.013 0.015 0.010 0.318 0.985 0.783 0.407 0.414 0.361 0.510 0.203 0.044 0.000 0.008 0.085 0.116 0.088 0.000 0.000 0.000 0.000 0.000 0.028 0.044 0.000 0.000 0.000 0.000 0.000 0.000 0.000 0.000 0.134 0.000 0.000 0.000 0.000 
0.000 0.000 0.000 0.000 0.000 0.000 0.000 0.000 0.000 0.000 0.000 0.000 0.000 0.000 0.000 0.000 0.000 0.000 0.000 0.000 0.000 0.000 0.000 0.000 0.000 0.000 0.000 0.000 0.000 0.000 0.000 0.000 0.000 0.000 0.000 0.000 0.000 0.000 0.000 0.000 0.000 0.000 0.000 0.000 0.000 0.000 0.000 0.000 0.000 0.000 0.000 0.000 0.000 0.000 0.000 0.000 0.000 0.000 0.000 0.000 0.000 0.000 0.000 0.000 0.000 0.000 0.000 0.000 0.000 0.000 0.000 0.000 0.000 0.000 0.000 0.000 0.000 0.000 0.000 0.000 0.000 0.000 0.000 0.000 0.000 0.000 0.000 0.000 0.000 0.000 0.000 0.000 0.000 0.000 0.000 0.000 0.000 0.000 0.000 0.000 0.000 0.000 0.000 0.000 0.000 0.000 0.000 0.000 0.000 0.000 0.000 0.000 0.000 0.000 0.000 0.000 0.000 0.000 0.000 0.000 0.000 
0.000 0.000 0.000 0.000 0.000 0.000 0.000 0.000 0.000 0.000 0.000 0.000 0.000 0.000 0.000 0.000 0.000 0.000 0.000 0.000 0.000 0.000 0.000 0.000 0.000 0.000 0.000 0.000 0.000 0.000 0.000 0.000 0.000 0.000 0.000 0.000 0.000 0.000 0.000 0.000 0.000 0.000 0.000 0.000 0.000 0.000 0.000 0.000 0.000 0.000 0.000 0.000 0.000 0.000 0.000 0.000 0.000 0.000 0.000 0.000 0.000 0.000 0.000 0.000 0.000 0.000 0.000 0.000 0.000 0.000 0.000 0.000 0.000 0.000 0.000 0.000 0.000 0.000 0.000 0.000 0.000 0.000 0.000 0.000 0.000 0.000 0.000 0.000 0.000 0.000 0.000 0.000 0.000 0.000 0.000 0.000 0.000 0.000 0.000 0.000 0.000 0.000 0.000 0.000 0.000 0.000 0.000 0.000 0.000 0.000 0.000 0.000 0.000 0.000 0.000 0.000 0.000 0.000 0.000 0.000 0.000 
0.000 0.000 0.000 0.000 0.000 0.000 0.000 0.000 0.000 0.000 0.000 0.000 0.000 0.000 0.000 0.000 0.000 0.000 0.000 0.000 0.000 0.000 0.000 0.000 0.000 0.000 0.000 0.000 0.000 0.000 0.000 0.000 0.000 0.000 0.000 0.000 0.000 0.000 0.000 0.000 0.000 0.000 0.000 0.000 0.000 0.000 0.000 0.000 0.000 0.000 0.000 0.000 0.000 0.000 0.000 0.000 0.000 0.000 0.000 0.000 0.000 0.000 0.000 0.000 0.000 0.000 0.000 0.000 0.000 0.000 0.000 0.000 0.000 0.000 0.000 0.000 0.000 0.000 0.000 0.000 0.000 0.000 0.000 0.000 0.000 0.000 0.000 0.000 0.000 0.000 0.000 0.000 0.000 0.000 0.000 0.000 0.000 0.000 0.000 0.000 0.000 0.000 0.000 0.000 0.000 0.000 0.000 0.000 0.000 0.000 0.000 0.000 0.000 0.000 0.000 0.000 0.000 0.000 0.000 0.000 0.000 
