ncols 121
nrows 121
xllcenter 614385.88
yllcenter 1276940.75
cellsize 92.28
NODATA_value -9999.000
0.000 0.000 0.000 0.000 0.000 0.000 0.000 0.000 0.000 0.000 0.000 0.000 0.000 0.000 0.000 0.000 0.000 0.000 0.000 0.000 0.000 0.000 0.000 0.000 0.000 0.000 0.000 0.000 0.000 0.000 0.000 0.000 0.000 0.000 0.000 0.000 0.000 0.000 0.000 0.000 0.000 0.000 0.000 0.000 0.000 0.000 0.000 0.000 0.000 0.000 0.000 0.000 0.000 0.000 0.000 0.000 0.000 0.000 0.000 0.000 0.000 0.000 0.000 0.000 0.000 0.000 0.000 0.000 0.000 0.000 0.000 0.000 0.000 0.000 0.000 0.000 0.000 0.000 0.000 0.000 0.000 0.000 0.000 0.000 0.000 0.000 0.000 0.000 0.000 0.000 0.000 0.000 0.000 0.000 0.000 0.000 0.000 0.000 0.000 0.000 0.000 0.000 0.000 0.000 0.000 0.000 0.000 0.000 0.000 0.000 0.000 0.000 0.000 0.000 0.000 0.000 0.000 0.000 0.000 0.000 0.000 
0.000 0.000 0.000 0.000 0.000 0.000 0.000 0.000 0.000 0.000 0.000 0.000 0.000 0.000 0.000 0.000 0.000 0.000 0.000 0.000 0.000 0.000 0.000 0.000 0.000 0.000 0.000 0.000 0.000 0.000 0.000 0.000 0.000 0.000 0.000 0.000 0.000 0.000 0.000 0.000 0.000 0.000 0.000 0.000 0.000 0.000 0.000 0.000 0.000 0.000 0.000 0.000 0.000 0.000 0.000 0.000 0.000 0.000 0.000 0.000 0.000 0.000 0.000 0.000 0.000 0.000 0.000 0.000 0.000 0.000 0.000 0.000 0.000 0.000 0.000 0.000 0.000 0.000 0.000 0.000 0.000 0.000 0.000 0.000 0.000 0.000 0.000 0.000 0.000 0.000 0.000 0.000 0.000 0.000 0.000 0.000 0.000 0.000 0.000 0.000 0.000 0.000 0.000 0.000 0.000 0.000 0.000 0.000 0.000 0.000 0.000 0.000 0.000 0.000 0.000 0.000 0.000 0.000 0.000 0.000 0.000 
0.000 0.000 0.000 0.000 0.000 0.000 0.000 0.000 0.000 0.000 0.000 0.000 0.000 0.000 0.000 0.000 0.000 0.000 0.000 0.000 0.000 0.000 0.000 0.000 0.000 0.000 0.000 0.000 0.000 0.000 0.000 0.000 0.000 0.000 0.000 0.000 0.000 0.000 0.000 0.000 0.000 0.000 0.000 0.000 0.000 0.000 0.000 0.000 0.000 0.000 0.000 0.000 0.000 0.000 0.000 0.000 0.000 0.000 0.000 0.000 0.000 0.000 0.000 0.000 0.000 0.000 0.000 0.000 0.000 0.000 0.000 0.000 0.000 0.000 0.000 0.000 0.000 0.000 0.000 0.000 0.000 0.000 0.000 0.000 0.000 0.000 0.000 0.000 0.000 0.000 0.000 0.000 0.000 0.000 0.000 0.000 0.000 0.000 0.000 0.000 0.000 0.000 0.000 0.000 0.000 0.000 0.000 0.000 0.000 0.000 0.000 0.000 0.000 0.000 0.000 0.000 0.000 0.000 0.000 0.000 0.000 
0.000 0.000 0.000 0.000 0.000 0.000 0.000 0.000 0.000 0.000 0.000 0.000 0.000 0.000 0.000 0.135 0.000 0.000 0.000 0.000 0.000 0.000 0.000 0.000 0.000 0.000 0.000 0.000 0.000 0.000 0.000 0.000 0.000 0.000 0.000 7.328 21.238 2.694 0.450 16.855 0.000 0.000 0.000 0.000 0.086 0.000 0.000 0.000 0.000 0.000 0.000 0.000 0.000 0.000 0.000 0.000 0.000 0.000 0.000 0.000 0.000 0.718 0.000 0.000 0.000 0.000 0.000 0.000 13.562 0.000 0.000 0.000 0.000 0.040 0.079 0.000 0.000 0.000 0.000 0.000 0.000 0.876 0.633 0.961 0.000 0.628 0.000 0.000 0.000 0.000 8.980 227.385 0.000 0.000 0.000 7.919 0.000 0.000 0.000 0.000 0.000 0.000 2.828 0.000 0.000 0.000 0.000 0.000 0.000 0.000 0.000 0.618 0.000 0.000 0.000 7.474 0.000 0.000 0.000 0.000 0.000 
0.000 0.000 0.000 0.000 0.000 0.000 19.509 0.000 0.000 0.000 0.000 0.000 0.000 0.000 9.417 111.813 0.875 0.000 0.000 0.000 0.000 0.000 0.000 0.000 0.000 0.000 0.000 0.000 0.000 0.000 0.000 0.000 0.000 0.000 0.000 0.000 17.472 17.750 0.000 0.000 0.000 0.000 0.000 0.000 0.000 0.000 0.000 0.000 0.000 0.000 0.000 0.000 0.000 0.000 0.000 0.000 0.000 0.000 0.000 0.000 0.000 0.000 0.592 0.000 0.000 0.000 0.000 0.000 0.000 12.597 0.000 0.000 0.000 3.695 0.026 0.000 0.000 0.000 0.000 0.000 0.000 0.000 0.951 0.000 1.141 0.000 0.059 0.000 0.000 0.000 16.436 0.000 0.000 0.000 0.000 0.000 0.000 0.000 0.000 0.000 0.000 0.000 0.000 2.545 0.000 0.007 0.000 0.000 0.000 0.000 0.000 0.000 0.582 0.000 0.000 0.000 83.484 58.472 0.000 0.000 0.000 
0.000 0.000 0.000 0.000 0.000 0.000 1.504 20.027 0.000 0.000 0.000 0.000 0.000 0.000 0.000 4.875 115.791 0.000 0.000 0.012 0.000 0.000 0.000 0.000 5.039 104.104 0.000 0.000 0.002 7.167 0.000 0.000 0.000 0.000 0.000 0.000 0.000 0.000 0.000 0.000 0.000 0.000 0.000 0.000 0.000 0.000 0.000 0.000 0.000 0.007 0.000 0.000 0.000 0.000 0.000 0.000 0.000 0.000 0.000 0.000 0.000 1.574 3.691 0.091 0.000 0.000 0.000 0.000 0.000 0.000 0.000 0.000 0.000 0.000 3.759 0.000 0.000 0.000 0.000 0.000 0.000 0.000 0.000 0.000 0.000 0.000 0.000 0.000 0.000 0.000 0.000 40.064 0.000 5.596 0.000 0.000 0.000 9.063 0.000 0.000 0.000 0.000 0.000 0.000 0.000 0.000 0.000 0.000 0.000 0.000 0.000 0.000 2.487 9.453 0.000 0.000 7.222 113.835 0.000 0.000 0.000 
0.000 0.000 0.000 0.000 0.000 0.000 0.000 0.121 0.367 0.000 0.000 70.055 0.000 0.000 0.000 0.000 63.989 21.313 0.737 0.042 0.000 0.000 0.000 0.000 0.064 18.681 0.000 0.000 0.492 2.565 6.118 0.000 0.000 0.000 0.000 0.000 0.000 0.000 0.000 0.000 0.000 0.000 0.000 0.000 0.000 0.000 0.000 0.000 0.000 0.000 0.474 0.000 3.023 0.000 0.000 0.000 0.000 0.000 0.000 0.000 0.000 3.381 2.901 2.229 0.000 0.000 0.000 0.000 0.000 0.000 0.000 0.000 0.000 0.000 0.000 0.000 0.000 0.000 0.000 0.000 0.000 0.000 0.015 0.000 0.000 0.000 0.000 0.000 0.000 0.000 0.000 0.000 0.000 0.000 6.059 0.000 0.000 0.010 11.000 0.000 0.000 0.000 0.000 4.031 0.000 0.000 0.000 0.000 13.197 0.000 0.000 0.000 0.000 5.520 5.056 0.000 0.000 0.000 0.000 0.000 0.000 
0.000 0.000 0.000 0.000 0.000 0.555 0.002 0.000 3.176 0.000 0.000 0.000 66.769 0.000 0.000 0.210 0.001 73.782 6.078 0.000 0.000 0.000 0.000 0.000 0.000 0.000 0.000 0.000 0.274 13.681 0.000 0.000 0.000 0.000 0.000 0.000 0.000 0.000 0.000 0.000 0.000 0.000 0.000 0.000 0.000 134.591 0.000 0.000 0.000 0.000 0.000 0.456 0.142 3.313 0.000 0.000 0.000 0.000 0.000 0.000 0.000 2.448 3.754 0.000 0.000 0.000 0.000 0.000 0.000 0.000 0.000 0.000 0.000 0.000 0.000 0.000 0.000 0.000 0.000 0.000 0.000 0.000 0.000 0.027 0.000 0.000 0.000 0.000 0.000 0.000 0.000 0.000 0.000 0.000 0.000 0.000 0.000 1.348 0.000 0.000 0.000 0.000 0.000 0.000 3.586 0.000 0.000 0.000 0.005 13.052 0.000 0.000 0.000 0.000 0.000 0.000 0.000 0.000 0.000 0.000 0.000 
0.000 0.000 0.000 0.000 11.820 0.000 0.896 0.000 0.448 0.255 0.000 0.000 0.000 0.000 0.000 0.000 0.175 0.000 0.000 0.000 0.000 0.000 0.000 0.000 0.000 0.000 0.000 0.000 0.906 0.034 0.000 0.000 0.000 0.000 0.000 0.000 0.000 0.000 0.000 0.000 0.000 0.000 0.000 0.037 3.897 0.009 120.401 0.000 0.000 0.000 0.000 0.000 0.000 0.000 0.000 4.198 0.000 0.000 0.000 0.000 0.000 0.000 0.000 0.000 0.000 9.618 0.000 0.000 0.000 0.000 0.000 0.000 0.000 0.000 0.000 0.000 0.000 0.000 0.000 0.000 0.000 0.000 0.034 0.034 0.000 0.000 0.000 0.000 0.000 0.000 0.000 0.000 0.000 0.000 0.000 30.959 0.921 9.180 0.000 0.000 0.000 0.000 0.000 0.000 0.000 0.000 0.000 0.000 0.000 0.000 0.000 4.193 0.000 0.000 34.041 9.308 0.016 0.000 0.000 0.000 0.000 
0.000 0.000 0.000 0.000 0.000 8.808 0.000 0.203 0.000 1.001 0.000 0.000 0.000 0.000 0.000 0.000 0.000 0.000 0.000 0.000 0.000 0.000 0.000 0.000 5.380 0.000 0.000 0.000 0.000 0.000 0.000 53.854 0.000 0.000 0.000 0.000 0.000 0.000 0.000 0.000 0.000 0.000 0.000 0.000 0.225 2.406 0.000 0.000 0.000 0.000 0.000 0.000 0.000 0.000 0.000 0.000 0.163 0.000 0.000 0.000 0.000 0.000 0.000 0.000 0.000 0.169 13.204 0.000 0.000 0.000 0.000 0.000 0.000 0.000 0.000 3.157 0.000 0.000 0.000 0.000 0.000 0.000 4.025 0.055 0.020 0.000 0.000 0.000 0.000 0.000 0.000 32.705 606.724 0.001 0.000 0.000 27.219 0.000 8.889 0.000 0.000 0.819 47.289 0.000 0.000 0.000 0.000 0.000 0.000 0.000 0.000 0.000 3.427 0.000 0.000 34.460 8.562 0.000 0.000 0.000 0.000 
0.000 0.000 0.000 0.000 0.000 0.000 0.000 0.007 0.176 0.000 0.000 0.000 0.000 0.000 0.000 0.000 0.000 0.000 0.000 0.000 0.000 0.000 0.000 0.000 5.508 5.000 0.000 325.968 0.000 0.000 0.000 0.000 53.131 0.000 0.000 0.000 0.000 0.000 0.000 0.000 0.000 0.000 0.000 0.857 0.000 0.000 0.000 0.000 0.000 0.000 0.000 0.000 0.000 0.000 0.000 0.000 0.000 0.000 0.000 0.000 0.000 0.000 0.000 0.000 0.000 40.282 0.925 4.164 0.000 0.000 0.000 0.000 0.000 0.000 0.000 1.700 2.954 0.000 0.000 0.000 0.000 0.000 0.001 3.898 0.000 0.000 0.000 0.000 0.000 0.000 9.904 0.000 102.114 63.233 0.000 0.000 0.000 0.000 0.000 0.000 0.000 0.000 4.727 41.562 0.000 0.000 10.328 0.000 0.000 0.000 0.000 0.000 0.000 0.000 0.000 0.000 0.000 0.000 0.000 0.000 0.000 
0.000 0.000 0.000 0.000 0.000 0.000 0.000 0.000 0.029 0.000 0.000 0.000 0.000 0.000 0.000 3.297 0.000 0.000 0.000 0.000 0.000 0.000 0.000 0.000 0.000 2.288 0.000 0.000 328.296 0.000 0.000 0.000 0.000 0.000 0.000 0.000 0.000 0.000 0.000 0.000 0.000 1.713 0.341 0.000 2.251 0.000 0.000 0.000 0.000 0.000 0.000 0.000 0.000 0.000 0.000 0.000 0.000 0.000 12.032 0.000 0.000 0.000 0.000 0.000 0.000 0.000 40.065 0.000 0.000 2.413 8.322 9.554 0.203 0.000 0.238 0.000 0.374 0.000 0.000 0.000 0.000 0.000 0.000 4.885 10.529 0.000 0.000 0.000 0.000 0.000 0.000 6.777 0.000 0.000 0.000 0.000 0.000 0.000 0.000 0.000 0.000 4.899 1.846 0.000 0.000 0.000 0.531 9.828 0.000 0.000 0.000 0.000 0.000 0.000 0.000 30.193 0.000 0.000 0.000 0.000 0.000 
0.000 0.000 0.000 0.000 0.000 0.000 24.681 0.000 0.000 0.000 0.000 1.400 0.000 0.000 0.000 0.000 7.701 52.548 0.000 0.000 0.000 0.000 0.000 0.000 0.000 0.000 0.000 0.000 0.000 0.000 5.227 0.000 0.000 0.000 14.769 0.000 0.000 0.000 0.000 0.000 0.000 0.000 0.214 0.352 0.000 0.000 0.000 0.000 0.000 0.000 0.812 0.000 0.000 0.000 0.000 0.000 0.000 49.967 0.236 21.088 0.000 0.000 0.000 0.000 0.000 0.000 0.000 0.000 0.000 0.000 5.221 16.064 2.798 0.761 0.000 0.268 0.000 0.000 1.323 1.833 0.000 0.000 0.000 0.000 7.912 9.768 0.000 0.000 0.000 0.000 0.000 0.000 0.000 0.000 0.000 0.000 0.000 0.000 0.000 0.000 0.328 0.000 6.518 4.225 0.000 0.000 0.000 0.000 0.000 0.000 0.000 0.000 0.139 0.858 0.000 31.493 62.487 0.000 0.000 0.000 0.000 
0.000 0.000 0.000 0.000 3.700 0.000 0.000 3.932 0.000 0.000 0.000 1.309 1.848 0.000 0.000 0.000 1.526 8.377 52.881 0.013 12.297 0.000 0.000 0.000 0.000 0.000 0.000 0.000 0.000 0.000 0.000 11.304 0.000 0.000 0.000 18.263 0.000 0.000 0.000 0.846 0.000 0.000 0.000 0.000 0.000 0.000 0.000 0.000 0.000 0.000 0.000 0.732 0.000 0.000 0.000 0.000 0.000 0.000 65.194 0.000 0.000 0.000 0.000 0.000 0.000 0.000 0.000 24.615 0.000 0.000 0.000 0.012 0.000 0.000 0.000 0.000 0.000 0.000 2.508 1.241 0.000 0.000 0.000 0.000 0.000 0.001 4.708 0.000 0.000 0.000 0.000 0.009 0.000 0.000 0.000 0.000 0.000 0.000 0.000 0.000 0.008 0.507 0.000 0.053 0.000 0.000 0.000 0.000 0.000 0.000 0.000 0.000 0.000 0.081 0.000 0.186 9.582 31.052 0.000 0.000 0.000 
0.000 0.000 0.000 127.221 0.000 4.205 0.005 0.000 0.000 0.000 0.000 0.000 0.000 0.000 0.000 0.000 0.000 1.622 0.000 0.000 0.044 2.788 25.790 0.000 0.000 0.000 0.000 0.000 0.000 0.000 0.000 0.000 0.000 0.000 0.000 0.000 0.000 0.000 0.000 0.000 0.803 0.000 0.000 0.000 0.000 0.000 0.000 0.000 0.000 0.000 0.000 0.000 0.000 0.000 0.000 0.000 135.998 0.000 0.000 0.000 0.000 0.000 0.768 0.000 0.000 0.000 0.000 0.000 0.000 0.000 0.000 20.000 0.939 0.000 0.000 0.000 0.000 0.000 0.000 5.850 0.000 4.203 0.000 0.000 0.000 0.000 2.859 1.096 0.000 0.000 0.000 0.000 0.010 0.000 0.000 0.000 0.000 0.000 0.000 0.000 0.000 0.000 0.000 0.000 0.000 0.000 0.000 0.000 0.000 0.000 0.000 0.000 0.000 0.000 0.000 0.000 0.000 0.000 0.000 0.000 0.000 
0.000 0.000 0.000 90.902 16.845 2.629 0.017 0.001 0.000 0.326 0.000 0.000 0.000 0.000 0.000 0.000 0.000 0.000 0.000 0.000 0.000 0.000 0.000 25.176 7.244 0.393 0.000 0.000 0.000 0.000 0.000 0.000 0.000 0.000 0.000 0.000 0.000 0.005 0.000 0.000 0.000 0.000 0.000 0.000 0.000 0.000 0.000 0.000 0.000 0.000 0.000 0.000 0.000 0.000 0.000 0.000 0.000 197.808 0.000 0.000 0.000 0.000 0.000 0.663 0.000 0.000 0.000 0.000 0.000 0.000 0.000 0.000 20.057 0.000 0.000 0.779 9.800 0.000 0.000 0.000 0.000 0.002 4.134 0.000 0.000 0.000 0.869 9.978 3.674 0.000 0.000 0.000 0.000 0.000 0.000 0.000 0.000 0.000 0.000 0.000 0.000 0.000 0.000 0.000 17.801 0.000 0.000 0.000 0.000 0.000 0.000 0.000 0.000 0.000 0.000 0.000 0.000 0.000 0.000 0.000 0.000 
0.000 0.000 0.000 0.000 12.338 44.856 11.242 0.000 0.000 3.340 0.218 0.000 2.688 8.850 0.000 0.723 0.001 0.000 0.000 0.000 0.000 0.000 0.000 0.000 0.000 6.919 0.491 0.000 0.000 0.000 0.000 0.000 0.000 0.000 0.000 0.000 0.000 38.470 1.861 0.000 0.000 0.000 0.000 0.000 0.000 0.000 0.000 0.000 0.000 0.000 0.000 0.000 0.000 0.000 0.000 0.000 0.000 0.000 0.000 2.736 0.000 0.000 0.000 0.000 0.000 0.000 0.000 0.000 0.000 0.000 0.000 0.000 0.000 0.000 0.000 0.186 0.671 0.199 0.000 0.000 0.000 0.000 0.000 1.306 3.098 0.000 0.000 15.168 8.313 0.304 0.735 0.000 0.000 0.000 0.000 29.145 17.091 0.029 0.000 0.000 0.000 0.000 0.000 0.000 0.355 17.937 0.000 0.000 0.000 0.000 0.000 0.000 0.000 0.000 0.000 0.000 0.000 0.000 0.000 0.000 0.000 
0.000 0.000 0.000 0.000 0.000 4.449 68.024 0.000 0.000 0.000 0.078 0.000 0.000 5.457 5.447 0.000 0.735 0.000 0.000 0.000 0.000 0.000 0.000 0.000 100.607 0.000 0.000 1.252 0.000 0.000 0.000 0.000 0.000 0.000 1.115 77.985 0.000 0.000 51.795 0.000 0.000 0.000 0.000 0.000 0.000 0.000 0.000 0.000 0.000 0.000 0.000 0.000 0.262 0.000 0.000 0.000 0.000 0.000 0.000 28.459 2.252 0.000 0.000 0.000 0.000 0.000 0.000 0.000 0.000 0.000 0.000 0.000 0.000 0.000 0.000 0.985 0.451 0.004 0.000 0.000 0.000 0.000 0.000 0.000 0.571 0.000 0.000 0.000 17.871 0.000 0.486 5.796 0.000 0.000 0.000 29.432 48.426 21.064 0.000 0.000 0.000 0.000 0.000 0.000 0.000 0.000 0.000 0.000 3.334 0.000 0.000 0.000 0.000 0.000 0.000 0.000 0.000 0.000 0.000 0.000 0.000 
0.000 0.000 0.000 42.361 0.000 0.000 0.002 80.459 0.000 0.000 0.000 0.000 0.000 0.897 0.102 4.600 0.000 0.065 0.000 0.000 10.985 0.000 0.000 0.000 0.000 74.684 0.000 0.000 0.000 0.000 0.000 0.000 0.000 0.000 0.099 8.904 65.425 0.000 0.078 42.163 0.189 0.000 0.000 0.000 0.000 0.000 0.000 0.000 0.000 0.000 0.000 0.000 0.000 18.705 0.000 0.000 0.000 0.000 0.000 0.000 0.021 0.000 0.000 0.000 0.000 0.000 0.000 0.000 0.000 0.000 0.000 0.000 0.000 0.000 0.000 0.000 0.315 0.000 0.000 0.000 0.000 0.000 0.000 0.000 0.000 0.000 0.000 0.000 0.000 0.000 0.000 0.000 0.000 0.000 0.000 0.000 0.000 1.798 17.515 0.000 0.000 0.000 9.247 41.347 180.430 941.476 859.297 56.963 0.101 4.732 0.000 0.000 0.000 0.000 0.000 0.000 0.000 0.000 0.000 0.000 0.000 
0.000 0.000 0.000 2.547 10.811 1.797 5.222 0.000 0.000 0.000 0.000 0.146 17.368 0.000 4.668 0.000 1.529 0.000 7.023 0.000 1.726 10.901 39.786 24.943 112.475 0.000 0.000 2.781 0.000 0.000 0.000 0.000 0.000 0.000 3.307 0.000 0.000 0.000 0.000 0.000 0.000 1.021 0.000 0.000 0.000 0.000 0.000 0.000 0.000 0.000 0.000 0.000 0.080 135.413 98.211 0.000 0.000 0.000 0.000 0.000 0.000 0.000 0.000 0.000 0.000 0.000 0.000 0.000 0.000 0.000 0.000 0.000 0.000 0.133 0.000 0.000 0.000 0.000 0.000 0.000 0.000 0.000 0.000 0.000 0.000 0.000 0.000 3.758 0.000 0.000 0.000 0.000 9.035 0.000 0.000 0.000 0.000 0.000 0.000 0.000 0.000 0.000 0.000 8.461 511.722 700.631 949.474 603.005 6.079 0.004 0.000 0.000 0.000 0.000 0.000 0.000 0.000 0.000 0.000 0.000 0.000 
0.000 0.000 0.000 0.000 86.287 50.201 4.291 0.000 0.000 0.000 0.000 0.000 0.002 17.700 0.000 2.557 0.000 0.000 0.000 32.806 0.020 0.000 0.000 47.972 32.688 146.516 0.006 0.000 4.314 0.000 0.000 0.000 0.000 0.000 7.024 11.454 0.000 0.000 0.000 0.000 0.868 0.147 0.000 0.000 0.000 0.000 0.000 0.000 0.000 0.000 0.000 0.000 0.000 115.767 412.551 97.670 0.000 0.000 0.000 0.000 0.000 0.000 0.000 0.000 0.000 0.000 0.000 0.000 0.000 0.000 0.000 0.000 0.000 0.000 3.561 0.000 0.000 0.000 0.000 0.000 0.000 0.023 0.000 0.000 0.000 0.000 0.000 0.000 3.626 0.000 0.000 0.000 0.000 2.485 0.000 0.000 0.000 0.000 0.000 0.000 0.000 0.000 0.000 0.000 0.000 0.000 0.000 0.000 86.031 0.000 0.000 0.000 0.000 0.000 0.000 0.000 0.000 0.000 0.000 0.000 0.000 
0.000 0.000 0.000 0.000 0.014 120.093 24.393 0.000 93.769 0.000 0.000 9.221 50.309 160.464 22.983 0.000 0.000 0.000 0.202 0.975 32.385 0.000 0.000 0.000 0.000 0.000 0.223 0.014 0.000 0.000 0.000 0.000 0.000 0.000 0.000 34.795 0.000 0.000 0.000 0.000 0.000 0.624 0.081 0.000 0.000 0.000 0.000 0.000 0.000 0.000 0.000 0.000 0.000 19.908 629.427 338.991 1.998 0.000 0.000 0.000 0.000 0.000 0.000 0.000 0.000 0.000 0.000 0.000 0.000 0.116 0.004 0.000 0.000 0.000 0.000 0.515 0.000 0.000 0.000 0.128 0.000 0.000 0.023 0.000 0.000 0.000 0.000 0.622 0.000 2.373 5.047 0.000 0.000 0.000 0.000 0.148 0.000 0.000 0.000 0.000 0.000 0.000 0.000 0.000 0.000 0.000 0.000 0.000 0.000 70.035 0.000 0.000 0.000 0.000 0.000 111.492 1.582 0.071 0.000 0.000 0.000 
0.000 0.000 0.000 0.005 5.128 0.001 0.000 0.002 4.219 98.495 0.000 0.000 163.424 112.628 84.182 0.000 214.285 0.000 0.000 0.305 0.174 0.000 0.000 0.000 0.000 0.000 0.004 0.000 0.000 0.000 0.000 0.000 0.000 78.329 101.486 2.694 13.242 0.000 0.000 0.000 0.000 5.149 0.153 0.000 0.000 0.000 0.000 0.000 0.000 0.000 0.000 0.000 0.000 12.830 955.311 605.802 5.255 0.000 0.000 0.000 0.010 0.000 0.000 0.000 0.000 0.000 0.000 0.000 0.455 1.272 0.092 2.875 1.878 0.073 0.433 0.000 0.000 0.000 0.000 0.000 2.508 0.000 0.000 0.147 0.000 0.000 0.000 0.967 1.011 0.610 2.262 0.000 0.000 0.000 0.000 11.152 0.163 0.000 0.000 0.000 0.000 0.000 0.000 6.493 0.000 0.000 0.000 0.000 0.000 0.000 0.000 0.000 0.000 0.000 0.000 1.514 112.656 0.000 0.000 0.000 0.000 
0.000 0.000 0.000 0.000 0.000 4.000 0.000 0.000 0.000 0.000 0.000 0.000 0.000 85.779 0.000 79.264 0.670 110.326 11.703 0.000 0.000 0.000 0.000 0.000 0.000 0.000 0.000 0.001 0.484 0.246 0.000 0.000 0.000 0.000 110.981 59.648 0.000 0.000 0.000 0.000 0.000 0.000 9.902 0.000 0.000 0.000 0.000 0.000 0.000 0.000 0.000 0.000 0.000 591.357 3898.410 22763.484 8987.227 639.879 22.521 0.000 0.000 0.015 0.000 0.000 0.000 0.000 0.000 10.770 11.383 157.637 113.346 73.922 148.304 240.000 640.668 124.701 323.122 0.070 0.000 0.000 0.000 0.000 0.000 0.000 0.000 0.000 0.000 0.000 0.000 0.000 0.000 0.000 0.000 0.000 0.000 0.000 0.000 0.000 1.144 0.000 0.000 0.000 0.000 0.000 6.451 0.000 0.000 0.000 0.000 0.000 0.000 0.000 0.000 0.000 0.000 0.000 0.000 0.000 0.000 0.000 0.000 
0.000 0.000 0.000 0.000 0.000 0.000 0.000 0.000 0.000 0.000 0.000 0.000 0.000 0.000 0.000 0.000 78.242 226.410 5.852 11.364 0.000 0.000 0.000 0.000 0.000 0.000 0.000 0.000 0.000 0.532 0.000 0.000 0.000 0.000 0.000 0.000 0.000 0.000 0.000 0.000 0.000 0.000 0.000 0.000 0.000 0.000 29.027 0.031 0.000 0.000 0.000 0.000 0.000 2.903 3705.973 94842.867 131325.609 84870.625 29742.545 3070.702 68.104 0.010 0.000 0.000 0.000 0.000 0.000 127.372 491.892 626.052 495.194 304.338 685.354 1745.099 3486.607 7162.243 7859.575 2115.874 5.037 0.000 0.000 0.000 0.000 0.000 0.000 0.000 0.000 0.000 0.000 0.000 0.000 0.000 0.000 0.000 0.000 0.000 0.000 0.000 0.005 1.421 0.000 0.000 0.000 0.000 0.000 6.756 9.520 0.000 0.000 0.000 0.000 0.000 0.000 200.111 1.707 0.000 0.000 0.014 0.000 0.000 0.000 
0.000 0.000 0.000 0.000 0.000 0.000 0.000 8.439 0.000 0.000 0.000 0.000 0.000 0.000 10.275 0.061 0.000 0.629 248.261 0.000 0.000 0.000 0.000 0.000 0.000 0.000 0.000 0.000 0.153 16.803 0.000 0.000 0.000 0.000 0.000 0.014 0.000 0.000 0.000 0.015 0.000 0.000 0.000 0.000 0.000 0.000 0.000 30.472 0.000 0.000 0.000 0.000 118.507 388.518 238.135 42128.520 381057.656 363594.156 236466.172 104150.844 15824.217 684.172 0.836 0.000 0.000 0.000 49.261 423.741 882.794 1199.586 437.451 114.844 79.818 94.393 98.835 2759.093 13871.973 28985.361 12182.236 1602.653 0.000 0.000 0.000 0.000 0.000 0.000 0.000 0.000 0.000 0.000 0.000 0.000 0.000 0.011 0.000 0.000 0.000 0.000 0.000 1.348 0.145 0.000 0.000 0.000 0.000 5.294 6.815 0.000 0.000 0.000 0.000 2.438 0.000 0.000 89.880 0.000 0.000 0.000 0.000 0.000 0.000 
0.000 0.000 0.000 0.000 0.000 0.000 0.000 0.473 7.413 0.000 0.000 0.000 3.509 0.000 1.350 10.410 0.000 0.000 3.824 159.590 0.000 0.000 0.000 0.000 0.000 0.000 0.000 0.000 2.263 0.129 16.948 7.383 118.740 0.001 0.000 0.000 0.000 0.000 0.000 0.000 0.000 0.000 0.000 0.000 0.000 0.000 0.000 0.000 0.000 0.000 0.000 34.810 516.706 573.775 477.030 172.632 47848.391 592035.875 749617.562 319091.875 113882.078 10924.416 155.258 0.927 0.091 40.601 130.682 207.971 239.484 370.806 200.996 64.548 57.981 1.676 0.109 0.040 665.912 18331.133 54941.754 58665.535 17035.494 497.570 0.000 0.000 0.000 0.000 0.000 0.000 0.000 0.000 0.000 0.000 0.000 0.000 0.000 0.000 0.000 0.000 0.000 0.000 1.750 0.099 0.000 0.000 0.000 0.000 0.000 0.000 0.000 6.338 0.000 0.000 2.362 0.000 0.000 0.000 0.000 0.000 0.000 0.000 0.000 
0.000 0.000 0.000 0.019 17.037 0.000 0.000 0.000 0.000 0.000 0.000 0.000 0.000 3.153 5.170 0.000 0.000 0.000 0.000 0.000 0.000 0.000 0.000 0.000 0.000 0.000 0.000 0.008 0.000 2.165 0.000 0.007 7.363 113.468 0.000 0.000 0.000 0.000 0.000 0.000 0.000 0.000 0.000 0.000 3.688 10.649 0.000 0.000 0.000 0.000 5.748 107.753 176.134 280.774 102.129 11.933 675.079 32498.574 405355.562 532253.875 195570.094 42976.781 1072.686 72.418 629.570 1216.860 515.511 205.245 227.245 866.812 509.416 166.701 262.592 77.617 117.813 0.455 0.000 391.420 14961.397 84758.078 118139.562 30653.162 1195.513 7.898 0.000 0.000 0.000 0.000 0.000 80.886 49.234 0.000 0.000 0.000 0.000 0.000 0.000 0.000 0.000 0.000 0.000 1.971 0.000 0.000 0.000 0.000 0.000 0.000 1.261 0.000 6.420 0.000 0.000 0.000 0.000 0.000 0.000 0.000 0.000 0.000 0.000 
0.000 0.000 0.000 0.000 55.284 24.788 0.000 0.000 0.000 35.447 0.000 0.000 0.000 0.000 2.964 3.583 0.000 0.000 0.000 0.000 0.000 0.000 0.425 0.000 0.000 0.000 0.000 0.000 1.083 0.000 0.000 4.117 3.964 0.000 0.000 0.000 0.000 0.000 0.000 0.537 0.000 0.000 0.000 0.000 0.000 2.393 0.000 0.000 0.000 0.000 15.545 20.892 52.504 58.014 0.000 69.891 87.931 811.538 9494.147 79384.500 127277.953 40966.930 5306.318 9891.933 12418.271 7142.359 959.268 312.910 253.167 2176.322 1552.963 421.629 2687.095 16875.453 6908.959 1132.439 0.000 0.000 38.922 5333.653 67720.398 108447.070 26978.551 640.687 2.380 0.000 0.000 1.001 3.543 1008.588 1592.659 86.890 0.000 0.000 0.000 0.000 0.000 0.000 0.000 0.000 0.000 0.000 0.000 0.000 0.000 41.764 0.000 0.000 0.003 0.000 0.000 0.000 0.000 0.000 0.000 0.000 0.000 0.000 0.000 0.000 0.000 
0.000 0.000 0.000 0.000 1.202 62.182 0.000 0.000 0.000 0.000 87.460 0.000 0.000 0.000 0.000 0.000 0.309 1.276 0.000 0.000 1.005 0.000 0.006 0.053 0.000 0.000 0.000 0.000 1.376 0.000 0.000 0.000 0.429 2.669 0.000 0.000 0.000 0.000 0.000 0.000 0.236 0.000 0.000 0.000 0.000 0.016 0.000 0.000 0.000 0.000 0.000 4.360 0.000 0.000 7.652 461.337 923.155 187.757 123.888 1324.011 19631.459 17199.002 10259.300 7998.856 13509.713 7912.411 102.778 4.758 22.537 4642.375 6110.709 1429.601 3012.195 74926.031 170148.969 67290.352 8654.519 0.000 0.000 36.135 329.393 23343.090 48563.156 7411.471 0.000 0.000 0.000 0.000 0.517 1154.813 13858.772 8211.339 73.753 0.000 0.000 0.000 0.000 0.000 0.000 0.000 0.000 0.000 0.000 0.000 0.000 0.000 53.551 0.000 0.000 0.000 0.000 0.000 0.000 0.000 7.926 0.000 0.000 0.000 0.000 0.000 0.000 
0.000 0.000 0.000 0.972 0.000 0.000 0.000 214.824 42.501 0.330 0.000 59.847 0.000 0.000 0.000 11.354 1.459 1.762 1.187 0.989 0.015 0.997 0.000 0.006 0.000 0.000 0.000 0.000 0.000 1.142 0.000 0.000 0.000 0.000 0.000 0.000 0.000 0.000 0.000 0.000 0.000 0.000 0.000 0.000 0.000 0.000 0.008 0.000 0.000 0.000 0.000 0.000 0.000 0.000 4.113 127.796 636.848 648.226 126.114 14.067 309.066 1410.945 3070.385 1346.749 898.465 22.316 8.055 19.661 11018.104 36129.273 16220.616 2903.610 8248.919 104788.328 436233.094 423429.469 180243.391 23616.031 0.000 0.000 2.416 68.753 3649.911 7645.782 754.820 0.000 0.000 0.000 0.874 45.949 3090.585 17279.947 7505.255 76.283 0.000 0.000 0.000 0.000 0.000 0.000 0.000 0.000 0.000 0.000 0.000 0.000 0.000 0.000 0.000 0.000 0.000 0.000 0.000 0.000 0.000 113.535 258.066 178.730 0.000 0.000 0.000 
0.000 0.000 0.000 0.000 3.091 0.000 0.000 0.088 207.248 9.469 0.344 0.000 0.000 0.002 2.753 12.679 10.687 8.640 0.432 0.125 0.757 0.000 0.000 0.000 0.000 0.000 0.000 0.000 0.000 0.675 0.457 1.177 0.000 0.000 0.000 0.000 0.000 0.000 0.000 0.000 0.000 0.000 0.000 0.000 0.000 0.000 0.000 0.000 0.000 0.000 0.000 0.000 0.000 0.000 0.000 6.705 107.192 255.689 19.771 153.328 0.823 0.058 167.947 174.990 79.469 708.497 9984.262 40108.734 93149.305 104793.164 48225.164 18131.260 66900.734 244131.359 1077023.375 1606952.125 653511.875 216366.141 26735.404 0.000 0.000 48.925 106.981 430.370 1422.418 178.293 0.000 0.000 0.000 0.000 0.136 976.366 8891.923 1083.085 19.421 0.000 0.000 0.000 0.000 0.000 0.000 0.000 0.000 0.000 0.000 0.000 0.000 0.000 0.000 0.000 0.000 0.000 0.000 0.000 0.010 0.000 119.144 338.038 0.000 0.000 0.000 
0.000 0.000 0.000 1.359 9.262 0.000 0.000 9.962 0.137 9.021 0.000 0.000 0.000 0.000 0.000 3.222 0.000 0.000 0.000 0.000 0.085 0.000 0.000 0.004 0.000 0.000 0.000 0.000 0.000 0.036 0.913 0.172 1.215 0.000 0.000 0.000 0.000 0.000 5.118 0.000 0.000 0.000 0.000 0.000 0.000 0.000 0.000 0.000 0.000 0.000 0.000 0.000 0.000 0.000 0.000 0.000 4.956 0.098 0.000 0.000 0.691 0.756 32.653 85.095 471.124 5497.362 44345.059 172035.750 244188.391 220995.641 118308.539 127156.008 301308.312 854645.062 1585109.750 2690142.000 2080052.500 654638.188 199699.438 17661.936 0.000 38.454 66.514 143.845 1309.777 877.068 113.503 0.000 2.890 0.000 0.000 0.000 880.941 482.380 13.993 0.000 0.000 0.000 0.000 0.000 1.348 1.844 0.000 0.000 0.000 0.000 4.006 0.000 15.144 40.718 0.000 0.000 0.000 0.000 0.116 53.757 0.000 0.000 0.000 0.000 0.000 
0.000 0.000 0.000 0.000 3.656 1.270 0.000 0.000 10.078 0.000 6.932 94.390 3.994 0.000 0.000 0.000 2.326 0.000 0.640 0.000 0.000 0.000 0.000 0.000 0.000 0.000 0.000 0.000 0.000 0.000 0.000 0.000 0.000 0.000 0.000 0.000 0.000 0.000 2.500 5.299 0.000 0.000 0.000 0.000 4.524 0.380 0.000 0.000 0.000 0.000 0.000 0.000 0.000 0.000 0.000 0.000 0.000 0.039 0.000 0.000 0.000 51.283 141.800 45.298 103.538 1198.567 12864.269 91227.562 279088.906 632428.250 755866.812 806275.562 1144965.000 1459826.625 1618072.875 2095278.625 3061064.000 1761623.125 508323.031 89017.250 1409.585 0.000 9.141 184.424 1011.299 1379.152 467.181 29.988 1.414 2.613 0.000 0.000 0.000 0.024 2.537 0.000 0.000 0.000 0.000 0.000 0.000 1.332 1.877 0.000 0.000 0.975 370.824 100.005 0.005 14.923 36.606 0.000 128.804 20.963 0.000 1.904 50.603 0.000 0.000 0.000 0.000 
0.000 0.000 0.000 0.000 0.000 0.003 0.297 8.772 0.000 17.086 0.000 1.914 224.073 0.000 0.000 0.000 0.045 1.551 0.000 3.809 1.676 0.000 0.000 0.000 0.511 0.000 0.003 0.000 0.000 0.000 0.000 0.000 0.000 0.000 0.000 0.000 0.000 0.000 0.000 0.000 0.000 0.000 0.000 0.000 0.480 4.431 0.321 0.000 0.000 0.000 0.000 0.000 0.002 0.000 0.000 0.000 25.057 222.774 112.021 56.932 62.529 4449.395 14372.639 2133.395 30.931 13.334 373.431 3261.764 43448.023 302681.500 877993.750 1068065.375 953551.062 1077923.375 1281245.875 1513792.250 1928394.000 2101465.500 794107.188 205666.031 17908.334 175.180 0.777 13.571 390.943 680.502 189.375 34.092 4.970 0.798 0.000 0.000 0.000 0.000 0.000 0.000 0.000 0.000 0.000 0.000 0.000 0.000 0.000 0.000 0.000 0.032 24.868 331.140 24.621 0.000 0.000 0.000 0.000 127.397 0.000 0.000 0.000 0.000 0.000 0.000 0.000 
0.000 0.000 0.000 0.000 0.000 0.000 0.000 0.231 7.731 0.000 16.384 0.000 2.654 0.016 0.016 0.000 0.000 0.000 0.000 0.000 3.681 0.000 0.000 0.000 0.000 0.486 0.000 0.000 0.000 5.058 0.769 0.000 0.000 0.000 0.000 0.000 0.000 0.000 0.000 0.000 0.000 0.000 0.000 0.000 0.000 0.000 0.000 0.000 0.000 0.000 0.000 0.000 0.000 0.013 1.755 1.990 132.339 931.790 3280.102 2186.033 10178.026 96148.430 279598.938 245791.125 47865.688 5452.651 6193.844 29099.775 105467.945 229067.109 275637.062 263587.156 187294.266 207611.406 446164.812 708882.375 764303.688 922962.750 855259.500 260248.703 54320.145 1054.509 40.216 252.618 18040.242 19489.072 4388.733 188.989 43.757 5.552 0.014 0.000 0.000 0.000 0.000 3.407 0.049 0.000 0.000 0.207 0.000 0.000 0.000 0.000 0.000 0.000 0.000 0.000 0.000 0.000 0.000 66.861 9.335 0.000 0.000 0.000 0.000 0.000 0.000 0.000 0.000 
0.000 0.000 0.000 0.000 0.000 7.130 0.000 0.000 0.000 0.000 0.000 10.551 0.327 39.910 0.021 1.983 0.000 0.000 0.000 0.000 0.000 0.000 0.411 0.000 0.000 1.430 0.055 0.000 18.242 0.000 11.983 0.000 0.043 0.122 0.000 0.000 0.000 0.000 0.000 0.000 0.000 16.062 0.000 6.698 0.000 1.296 0.000 0.000 0.000 0.000 0.000 0.000 36.939 83.288 32.827 37.045 412.132 666.388 3470.254 10239.327 14204.783 64054.102 207978.328 409201.219 305775.188 105123.594 104527.336 185978.297 394900.156 701971.875 686581.812 242700.188 51709.613 7388.860 22229.561 84285.031 138503.734 238286.875 417917.281 249033.406 73272.281 2187.742 921.012 50239.664 276672.719 100702.062 31385.299 953.508 363.621 108.314 30.542 59.326 22.105 0.000 0.000 0.000 3.331 0.046 0.000 0.000 0.191 0.298 0.013 0.000 0.000 0.000 0.000 0.000 0.000 0.000 0.000 28.403 21.597 0.000 0.000 0.000 21.526 0.000 0.000 0.000 0.000 
0.000 0.000 0.000 0.000 0.000 0.000 132.641 0.000 0.000 0.000 0.000 0.000 11.956 19.473 31.333 0.000 1.944 0.000 0.000 0.000 0.000 0.000 2.361 6.610 0.000 0.000 1.734 0.000 0.095 18.196 0.000 0.000 20.823 0.042 2.341 0.000 0.000 0.000 0.000 0.000 0.000 0.000 17.970 0.003 5.627 0.051 1.243 0.000 0.000 0.000 0.000 0.000 22.732 202.555 244.256 138.009 296.194 239.636 234.628 3034.511 6159.504 16473.486 65221.508 122721.141 117489.250 97620.633 134835.469 183918.500 233367.500 357693.344 608840.812 695854.438 270363.438 28777.846 1220.435 1899.835 989.678 7884.194 39881.898 61267.988 27853.082 4361.188 20877.174 205816.547 358118.906 196856.031 43812.879 914.492 311.884 321.483 78.561 276.356 290.846 58.811 0.000 0.000 1.129 0.000 2.725 0.010 0.000 0.000 0.321 0.013 0.000 0.000 22.208 0.000 0.000 0.000 0.000 0.000 0.004 0.000 0.000 1.147 0.043 23.197 0.000 0.000 0.000 
0.000 0.000 0.000 0.000 0.000 0.000 0.000 14.864 15.733 0.000 0.000 0.000 0.000 0.000 0.000 0.000 0.000 0.000 0.000 0.000 0.000 0.000 0.000 0.000 0.000 0.000 0.000 0.000 0.000 0.000 0.000 0.000 0.000 0.000 0.000 0.101 0.000 0.000 3.389 0.000 0.557 0.000 0.000 2.440 0.001 0.000 0.000 0.000 0.000 0.000 0.000 0.000 19.807 48.608 62.475 15.367 40.238 8.055 3.943 418.672 458.961 639.016 1066.209 9595.085 35590.473 62590.102 83447.906 117617.570 80827.555 70148.180 115100.062 207622.172 176322.328 41536.688 2532.245 415.498 465.717 541.666 551.428 6212.614 6757.688 5024.212 25173.793 182107.750 315042.344 128473.211 21841.078 596.443 265.195 107.660 21.291 0.000 245.080 151.077 36.729 0.000 0.000 23.761 0.000 2.983 0.000 0.003 0.000 0.000 0.000 0.000 0.000 25.026 37.165 37.848 0.000 0.000 0.000 0.000 0.000 0.000 1.650 0.000 0.000 0.000 0.000 
0.000 0.000 0.000 0.000 0.000 0.000 0.000 5.486 0.403 0.345 0.000 0.000 0.000 0.002 0.000 0.000 0.000 0.000 0.000 0.000 0.000 0.000 0.000 0.000 0.000 0.000 0.000 0.000 0.000 32.788 0.000 0.000 0.000 0.000 0.000 0.000 0.000 0.000 0.000 3.626 0.000 0.810 0.000 0.012 0.590 0.000 1.456 0.000 0.000 0.000 3.800 0.000 9.622 19.730 981.802 531.401 188.136 10.591 58.486 2971.987 15668.866 37845.965 91335.492 178701.781 231764.297 217616.953 149988.734 100295.266 57212.645 28894.924 24525.330 39407.633 40884.414 14241.745 1076.781 58.602 218.468 438.987 237.249 1010.497 2935.754 1485.947 6290.651 81394.680 195753.078 86820.125 17548.127 159.285 113.692 14.764 0.000 0.000 0.000 0.000 4.492 19.599 0.000 0.000 0.000 0.000 0.000 0.000 0.003 0.000 0.000 0.000 0.000 0.000 25.251 56.269 35.353 0.419 20.786 0.000 0.000 0.000 0.000 0.000 0.000 0.000 0.000 
0.000 0.000 0.000 0.000 0.000 0.000 0.000 0.000 9.030 0.640 0.000 0.000 24.069 0.000 0.000 0.000 1.450 0.270 0.000 0.000 0.000 0.000 5.413 8.591 0.102 0.000 0.148 0.000 0.000 0.000 31.185 0.522 3.687 0.000 0.000 0.000 0.000 0.000 0.000 3.447 4.535 0.000 0.000 2.346 0.000 0.000 0.000 0.000 3.881 0.000 0.000 0.000 0.000 18.117 0.114 1182.497 173.112 2409.169 3125.905 23266.148 78097.977 183556.234 471569.594 932339.188 1099073.875 872102.500 558364.375 401951.438 291382.938 180430.812 91970.766 32037.096 4439.411 716.303 1264.852 347.594 121.570 356.163 94.301 694.627 338.812 171.304 326.618 10824.752 46188.258 30167.121 14338.018 1143.239 29.535 0.000 64.793 0.000 0.000 0.000 3.508 0.000 10.998 0.000 0.000 0.000 0.000 24.221 3.288 0.000 0.000 0.000 0.000 0.000 0.000 10.990 0.000 18.760 0.126 18.290 0.000 0.000 0.000 0.000 0.000 0.000 0.000 
0.000 0.000 0.000 0.000 0.000 0.000 0.000 0.000 0.421 6.276 0.000 0.000 0.000 21.025 0.000 0.000 4.670 2.792 87.169 10.915 0.002 0.000 0.000 0.019 8.546 0.000 0.000 0.229 0.000 0.000 0.000 0.520 0.772 0.000 0.000 0.000 0.000 0.000 0.000 0.099 1.506 0.000 0.000 0.000 1.640 0.000 0.000 0.000 0.000 18.015 0.000 0.000 0.000 0.000 0.000 36.716 685.107 5312.886 8480.666 28666.365 122840.258 414842.906 1572847.125 2113695.000 2154871.250 2260692.500 1962196.375 1453227.375 994623.250 633332.750 392319.312 192452.062 56302.781 6919.471 769.593 1576.250 1055.502 7158.424 3277.391 390.251 41.272 56.535 340.530 2367.591 4289.854 3351.663 5852.564 2822.391 257.177 17.858 0.000 85.659 0.000 0.000 0.000 47.993 0.000 0.000 0.811 0.000 0.000 0.000 25.431 3.459 0.000 0.000 54.719 0.000 0.000 0.000 29.936 0.000 0.000 0.000 0.000 0.000 0.000 4.901 0.000 0.000 0.000 
0.000 0.000 0.000 92.041 0.000 0.000 0.000 0.000 0.000 0.361 0.000 0.000 0.000 0.000 0.000 0.000 0.000 3.020 4.334 0.000 0.000 0.001 0.000 0.000 0.000 1.745 1.943 0.000 0.000 1.406 101.575 0.000 0.000 76.783 0.000 0.000 0.000 0.000 0.000 0.000 0.039 0.000 0.000 3.427 1.656 0.000 0.000 0.000 0.000 0.011 12.698 0.000 0.000 0.000 0.000 23.229 319.426 1744.110 5651.604 8561.811 93493.125 391280.625 1542789.000 1786090.625 1517255.250 1478546.750 1817791.125 1834783.750 1631954.625 1318001.875 967792.875 536099.312 185092.453 39200.750 5547.500 2245.194 8552.598 53573.199 26634.477 3360.828 83.374 67.189 465.775 3423.431 3062.689 2421.058 2317.042 2067.225 329.825 222.323 111.245 0.000 35.725 0.000 0.000 0.000 50.762 0.000 0.000 0.761 0.000 0.000 0.000 0.000 0.000 0.000 3.925 56.647 0.000 0.000 36.429 29.651 0.000 0.000 0.000 0.000 0.000 0.000 0.000 0.000 0.000 
0.000 0.000 0.000 0.000 0.000 0.000 0.000 0.000 0.000 0.000 0.000 0.000 0.000 0.000 0.000 0.000 0.000 0.000 0.000 0.000 0.000 0.000 0.155 0.000 0.000 0.000 15.949 3.392 0.000 0.000 16.714 121.829 0.602 0.358 80.090 0.000 0.000 2.043 0.000 0.000 0.000 0.000 0.000 0.000 3.184 0.000 0.766 2.534 0.000 0.000 0.000 0.000 0.000 0.000 0.000 10.052 63.517 296.627 411.698 162.162 48775.105 275858.844 1391634.375 1294310.375 739531.875 563216.875 635945.562 867766.125 1046870.750 1027514.438 627332.750 180471.000 52185.375 26374.293 13808.712 3652.008 32196.170 167378.688 85418.961 23007.457 67.524 69.648 709.651 14936.431 44232.508 41633.238 18480.725 2009.940 540.149 505.181 1745.144 245.955 0.000 8.095 0.000 38.575 0.010 0.000 0.000 0.000 0.000 0.000 0.000 0.000 0.000 0.000 0.000 33.690 0.000 0.000 0.000 38.289 0.003 0.001 24.329 0.000 0.000 0.874 0.000 0.000 0.000 
0.000 0.000 0.000 0.000 0.000 0.000 0.000 0.000 3.796 16.210 0.009 0.000 0.000 0.000 0.000 0.000 0.000 0.000 0.000 0.000 144.533 0.000 0.000 0.000 0.000 0.001 236.990 41.921 1.815 0.000 0.000 0.000 58.326 0.006 0.000 0.000 0.000 0.000 2.162 13.453 0.000 0.000 0.000 0.000 0.000 0.000 0.000 0.797 7.994 0.000 0.000 0.000 0.000 0.000 0.235 62.310 107.656 41.854 35.912 200.607 25735.996 173681.422 748179.312 1134048.250 568647.250 247514.953 167596.141 171983.062 209112.500 191580.922 83543.484 10691.491 1185.107 1708.869 3256.185 2046.911 35852.219 248288.094 179745.828 48955.188 2510.865 31.162 473.093 33432.074 159325.094 227665.641 132604.328 31698.285 1910.742 411.562 3220.590 2503.620 165.904 0.000 0.395 0.000 33.947 0.000 0.000 0.000 0.000 0.000 0.000 0.000 0.001 0.467 0.000 0.000 30.494 0.000 10.377 0.000 0.618 0.000 0.000 0.000 0.000 11.063 0.000 0.000 0.000 
0.000 0.000 0.000 0.000 0.000 0.000 0.000 0.000 35.010 4.596 6.946 0.879 0.000 0.000 0.000 0.000 0.000 1.782 72.325 30.300 0.000 144.998 0.000 0.000 0.000 0.000 13.571 306.836 0.000 22.185 0.000 0.000 0.000 0.000 0.053 18.665 0.000 0.000 0.000 0.000 12.918 2.859 0.000 0.000 0.000 0.000 0.000 0.000 0.000 0.085 2.401 4.833 0.000 0.000 0.000 19.261 131.759 207.868 137.121 351.272 18356.451 114036.219 370323.906 614249.125 374242.094 130965.016 32818.965 8498.966 5716.578 935.125 2448.867 1207.787 202.705 284.751 197.635 719.709 7958.808 123179.531 230142.656 66723.922 4804.975 8.008 293.515 33142.840 282734.406 669872.500 371164.094 147826.469 23110.012 813.844 8749.292 18219.605 3608.194 0.959 0.000 0.000 0.000 0.000 0.000 0.000 0.000 0.000 0.000 0.000 0.078 5.620 0.000 0.000 0.000 0.429 0.000 14.070 4.109 3.120 0.000 0.000 0.000 0.000 0.000 0.000 0.000 
0.000 0.000 0.000 0.000 0.000 0.000 0.000 0.000 0.000 1.993 3.059 29.037 0.000 0.000 6.144 0.099 0.000 0.000 5.894 71.110 0.000 0.000 0.000 0.000 0.000 0.000 0.000 0.000 0.000 0.000 0.000 0.000 0.000 0.000 3.305 0.000 0.000 0.000 0.000 0.000 0.000 0.000 1.176 0.001 0.000 0.000 0.000 0.000 0.000 0.000 1.739 4.519 5.488 0.000 3.867 352.852 5173.052 2487.867 980.124 1288.680 14673.901 70673.859 188488.141 312961.719 150843.234 39100.621 35576.902 37510.316 9103.997 1332.841 1429.629 1168.433 3135.656 2136.351 1129.433 114.151 959.974 5158.457 83329.289 62431.543 5050.220 11.792 282.101 14938.774 208811.422 854857.562 1019978.938 337882.406 88447.203 8267.767 31620.994 82613.477 26197.279 3.644 0.000 0.000 0.000 0.000 0.000 0.000 0.000 0.000 0.000 0.000 0.000 43.019 4.456 0.005 0.000 0.000 0.000 0.000 13.737 80.283 4.016 0.000 0.000 0.000 0.000 0.000 0.000 
0.000 0.000 0.000 0.000 0.000 0.000 0.000 0.000 0.000 0.000 0.844 2.559 0.000 0.000 0.489 8.037 0.000 0.000 0.000 0.001 0.000 8.771 10.622 0.000 0.000 0.000 0.000 0.000 0.000 0.000 0.000 0.001 0.102 0.000 0.000 2.564 0.000 0.000 0.000 0.000 0.000 0.000 0.010 0.004 0.003 0.000 0.000 0.000 0.000 0.000 0.000 0.000 2.051 2.163 26.901 18770.357 65661.906 31650.967 4018.498 1397.501 4438.348 25407.885 76926.406 94802.438 16108.909 23041.971 98094.297 100908.406 39780.742 2255.596 844.224 2279.046 4490.938 4685.639 1754.987 265.628 128.356 38.269 320.734 6125.132 3701.169 248.420 1152.168 10647.966 98613.484 381042.188 1098475.500 869712.688 212431.219 32663.445 45124.316 176960.500 89802.086 7428.336 0.000 0.000 0.000 0.000 0.000 0.000 0.000 0.000 0.000 0.000 0.000 0.000 29.320 0.000 3.136 2.674 0.000 0.000 8.970 1.594 49.903 0.000 0.000 0.000 0.000 0.000 0.000 
0.000 0.000 0.000 0.000 0.000 0.000 0.000 0.000 0.000 0.000 0.000 0.000 3.813 0.000 22.256 1.398 0.000 0.000 0.000 0.000 0.000 0.000 10.211 3.546 0.000 0.000 21.790 1.011 0.000 9.173 8.109 12.539 0.000 0.081 30.911 0.000 0.000 0.000 0.000 0.000 0.000 0.000 0.000 0.000 0.000 0.000 0.000 0.000 0.000 0.000 0.011 0.000 0.000 0.000 3505.429 96810.023 280171.406 127238.977 19249.875 1582.129 735.319 3569.713 17399.947 14406.184 7786.486 44185.352 80339.031 117823.945 49596.125 2157.418 729.985 822.306 1763.102 2333.979 71.139 5.992 66.019 378.729 141.327 19.085 164.059 346.137 944.551 5092.266 27085.971 112184.742 341123.281 880292.625 363680.750 79004.945 24222.070 82778.438 149883.484 34155.645 69.059 0.000 0.000 0.000 0.000 0.000 0.000 0.000 4.239 0.000 0.000 0.000 0.000 0.000 0.000 28.499 7.905 0.000 0.000 0.000 0.000 5.691 0.000 0.000 0.000 0.000 0.000 
0.000 0.000 0.000 0.000 0.000 0.000 0.000 0.000 0.000 0.000 0.000 6.410 2.688 2.980 0.028 4.059 0.051 0.000 0.510 0.000 0.000 5.847 0.000 14.566 3.674 0.000 16.017 26.401 0.564 26.345 19.063 16.210 7.849 65.222 0.108 38.278 0.000 0.000 0.000 0.000 19.318 0.000 0.000 0.000 0.000 0.000 0.000 0.000 0.000 0.000 0.000 0.015 0.000 1.632 5651.372 125229.977 458830.000 310770.188 22424.484 477.369 111.777 43.098 1753.870 3827.608 6655.324 15027.851 36103.836 44095.199 25277.754 2530.352 217.381 169.407 351.675 283.591 257.152 56.257 477.504 1024.120 779.450 144.525 45.625 162.616 843.860 3739.359 10141.621 34001.094 118468.750 373742.031 306010.312 78221.094 13916.126 4885.417 43747.625 37128.035 1585.398 0.630 0.000 0.000 0.000 0.000 0.000 0.000 0.102 4.343 0.000 0.000 0.000 0.000 0.000 0.000 176.634 0.000 0.050 17.584 0.000 0.000 0.000 5.046 0.000 0.000 0.000 
0.000 0.000 0.000 0.000 0.000 0.000 0.000 0.000 0.000 0.000 0.000 0.000 6.069 47.395 0.000 0.000 14.401 1.098 0.000 0.527 0.000 7.892 7.903 0.032 0.164 0.000 25.929 14.193 0.000 2.922 2.348 0.000 14.474 6.136 126.026 0.000 7.273 0.000 0.000 0.000 0.000 17.241 0.000 0.000 0.000 0.000 0.000 0.000 0.000 0.000 0.000 0.000 0.000 17.425 2657.606 80175.773 311246.500 348506.969 18469.217 184.724 7.558 0.000 34.705 651.321 3329.480 5943.729 3958.989 7961.557 9632.307 3714.721 314.358 80.270 20.017 306.510 5180.869 7874.752 1649.323 488.355 746.218 156.494 31.600 353.504 2620.986 18282.225 59600.695 154987.969 580439.188 659448.312 384847.594 89449.633 5102.518 73.275 246.446 6176.502 9020.385 126.662 0.000 0.000 0.000 0.000 0.000 0.000 0.001 9.281 0.000 0.000 0.000 4.468 0.000 0.000 0.000 36.912 0.002 0.081 16.381 0.000 0.000 0.000 0.000 0.000 0.000 
0.000 0.000 0.000 0.000 0.000 0.002 0.000 0.000 0.000 0.000 0.000 2.075 0.770 0.000 101.800 0.000 0.000 12.706 0.000 0.000 0.000 0.000 4.630 0.000 0.000 0.000 0.000 0.000 0.000 0.000 0.000 16.107 0.000 0.000 55.096 0.472 0.000 139.740 4.560 0.000 0.000 7.872 0.000 0.000 0.000 0.097 18.259 0.000 0.000 0.000 0.000 0.666 0.000 11.352 222.631 17603.172 94136.039 189493.484 24181.512 37.904 2.471 0.000 239.708 645.559 1173.595 0.011 1.067 472.967 2046.862 6406.875 1444.234 326.527 48.684 260.626 9252.294 45163.305 45069.652 3602.388 147.608 9.451 121.331 1473.006 25279.828 133494.234 342069.781 707585.438 877753.688 842128.812 284061.781 57068.117 483.836 0.209 3.798 150.497 3111.651 223.980 0.907 0.000 0.000 0.000 2.762 0.000 0.000 0.064 8.862 0.000 0.000 0.000 4.222 0.000 8.309 0.000 0.000 0.000 0.000 0.000 0.000 0.000 0.000 0.000 0.000 
0.000 0.000 0.000 0.000 0.000 0.000 0.002 0.000 0.000 0.000 0.000 0.000 2.966 0.585 0.000 0.000 9.973 0.000 0.000 0.000 0.000 72.543 0.000 0.000 0.000 0.000 0.000 0.133 1.390 0.000 0.000 0.000 15.787 0.000 49.205 121.436 0.008 0.000 124.023 0.000 0.000 1.321 2.510 0.000 0.000 0.069 2.258 17.860 0.000 0.000 0.000 0.000 1.289 0.000 12.939 2511.079 17195.129 48918.723 42831.199 2355.300 0.860 0.000 0.000 201.877 1295.229 757.156 0.000 0.950 1228.255 558.152 1056.482 1233.851 287.303 150.697 1997.225 21507.734 47754.551 26978.432 2914.994 94.386 2114.132 11815.326 117995.445 456119.344 854597.188 1052922.500 929055.812 438772.531 133936.938 10865.141 4.986 1.226 8.055 228.484 289.222 89.775 0.374 0.000 0.000 13.402 0.000 2.790 0.000 0.000 0.000 0.000 0.000 0.000 0.000 0.220 0.000 6.388 0.000 0.093 0.000 0.000 0.000 0.000 0.000 0.000 0.000 
0.000 0.000 0.000 18.461 0.000 0.000 0.000 0.000 0.000 0.000 0.000 96.471 0.000 0.000 0.000 0.000 29.995 7.480 0.000 0.000 0.000 0.000 75.877 14.297 0.039 20.415 0.000 0.000 77.194 8.183 0.000 0.000 0.000 0.000 0.000 49.031 95.928 17.557 20.850 0.000 0.000 0.695 1.190 0.000 0.000 7.118 0.000 0.464 0.030 0.000 0.000 0.000 0.000 0.000 0.000 44.255 1366.582 16869.744 66909.859 38860.809 94.063 0.451 0.000 0.000 0.000 27.398 4.321 65.794 333.495 585.109 96.054 445.457 235.200 44.101 65.224 2640.700 11699.037 10784.676 10156.630 4278.457 6338.098 24648.752 191009.672 714465.062 1149578.000 1156587.500 1013286.438 309877.375 83677.820 892.005 0.000 0.317 97.637 2373.654 1991.074 153.692 0.540 0.000 0.000 5.199 13.288 0.000 0.000 0.000 0.000 0.000 0.000 0.000 0.000 0.000 0.000 22.536 0.000 0.000 0.066 0.000 0.000 0.000 0.000 0.000 0.000 
0.000 0.000 0.000 0.000 18.149 0.000 0.000 0.000 0.000 0.000 0.000 0.000 95.260 0.000 2.076 0.057 0.000 60.292 0.000 0.000 0.009 0.000 0.000 0.868 14.551 0.000 20.854 6.152 0.000 23.316 0.000 0.000 0.000 34.306 0.000 0.000 0.000 0.000 33.753 22.948 0.000 0.000 0.000 0.000 0.000 0.000 7.317 0.000 2.970 0.000 0.000 0.000 0.000 0.000 0.000 0.000 64.532 2284.427 29067.469 60944.020 10881.013 17.655 1.580 0.000 272.106 0.000 0.000 134.837 709.128 729.023 20.546 1.953 15.609 418.774 490.690 463.418 734.583 4381.674 9052.369 9992.867 2408.705 18476.459 208047.234 849321.375 1367942.500 1294485.500 1036328.062 274691.031 65659.320 151.710 17.069 34.234 3207.638 8129.889 2022.739 64.038 0.000 2.249 0.335 0.000 5.216 0.000 0.000 0.000 0.000 0.000 0.000 0.000 0.000 0.000 0.000 0.000 54.578 0.000 0.000 13.511 0.000 0.000 0.000 0.000 0.000 
0.000 0.000 0.000 0.000 0.000 0.000 0.000 0.000 0.000 0.000 0.000 0.000 0.000 1.330 0.002 52.382 0.000 2.087 0.357 0.000 18.904 0.000 0.000 0.000 8.126 17.114 0.000 0.000 6.027 0.000 0.000 0.000 0.000 0.000 35.388 0.003 2.378 59.234 0.000 29.350 0.000 0.000 0.104 0.000 0.000 0.000 4.823 0.000 1.406 3.024 0.000 0.000 0.000 0.477 0.000 0.000 0.364 118.504 4555.896 26706.221 17481.730 514.484 260.868 109.985 47.786 175.966 0.017 357.842 76.937 207.656 101.646 844.002 15191.212 22505.617 21752.338 28365.902 44620.258 46025.836 24887.939 8058.903 242.688 4000.320 166015.156 972039.875 1811534.375 1761321.750 1263803.500 322663.188 70524.375 37.165 25.972 468.859 3278.078 6351.572 777.987 1.920 0.000 0.000 2.296 0.310 0.000 0.000 0.000 0.000 0.000 0.000 0.000 0.000 0.000 0.000 0.000 0.000 0.000 13.686 0.000 1.769 30.295 0.000 0.000 0.000 0.000 
0.000 0.000 0.000 0.000 0.000 0.000 0.000 0.000 0.000 0.000 0.000 0.000 0.000 0.000 1.308 2.686 0.000 0.000 4.946 0.000 0.000 18.911 0.000 0.000 0.000 12.461 0.003 0.000 0.000 0.000 0.000 0.000 3.611 0.000 0.000 46.231 1.787 1.884 3.183 0.000 0.181 9.454 0.205 0.286 19.512 14.099 0.000 3.964 0.000 0.000 0.229 0.000 0.000 0.412 0.360 0.000 0.000 1.128 71.358 4142.493 10573.185 2179.989 696.504 507.502 385.278 400.139 383.791 125.682 45.280 0.615 237.204 13649.157 106188.555 211070.422 202637.453 214646.219 243118.844 226164.703 114408.961 26114.070 3710.173 3957.779 178389.859 967866.438 1903320.625 2435197.000 1959038.625 606614.188 152136.938 5164.191 209.176 502.075 1396.461 1197.205 38.765 0.000 0.000 0.147 0.000 0.000 0.000 0.000 0.000 0.000 0.000 4.499 1.301 0.000 0.000 1.251 0.000 0.000 0.000 0.000 14.457 0.000 0.040 0.000 0.000 0.000 0.000 
0.000 0.000 0.000 0.000 0.000 0.000 178.224 7.764 0.000 0.000 0.000 0.000 0.000 0.000 0.000 0.000 5.205 0.000 0.000 0.000 0.000 0.000 133.548 0.000 0.000 0.000 0.000 152.171 0.000 0.000 0.052 0.011 0.000 24.798 0.000 51.325 98.389 0.000 2.596 0.000 0.000 0.092 0.000 61.382 0.290 41.494 4.777 0.000 0.000 0.000 0.000 0.371 0.000 0.000 0.000 0.000 0.000 0.000 32.181 125.476 2498.929 2572.700 945.067 601.627 458.872 502.406 676.125 662.784 244.966 1123.915 8015.981 49926.441 352419.531 965111.812 972944.000 901461.188 946828.688 883965.375 378801.031 120028.141 17797.625 40938.238 388594.375 1194367.750 2057130.500 2981678.750 2911205.500 1442223.625 386289.688 86247.070 1916.143 276.602 132.158 11.856 0.749 0.000 0.000 0.000 0.137 0.000 0.000 0.000 0.000 0.000 0.000 1.632 8.148 0.236 0.000 0.000 0.000 51.302 3.596 0.000 0.000 0.000 0.000 0.000 0.000 0.000 0.000 
0.000 0.000 0.000 0.000 0.000 23.218 0.064 180.179 0.014 0.000 0.000 0.000 0.000 0.000 0.000 0.000 0.000 0.000 0.000 0.000 97.671 0.000 0.000 125.516 0.000 0.000 0.000 0.000 146.766 0.000 0.000 0.623 0.000 3.126 0.000 0.000 7.514 0.000 0.000 0.000 0.000 0.000 236.925 11.542 0.000 0.000 3.230 0.000 0.000 0.000 0.000 0.000 0.000 0.000 0.000 0.000 0.000 0.000 0.000 157.382 18.894 92.294 174.971 188.785 122.309 195.978 413.828 479.768 2500.727 38205.730 141485.438 261842.922 282056.406 692690.250 1397696.750 1308150.750 1193233.375 1055033.250 708741.062 209192.094 20948.875 203254.453 954013.062 1714322.125 2329889.500 3257605.500 3454233.750 2865467.500 918767.438 298298.844 32649.459 15.827 0.011 0.540 0.000 0.000 0.000 0.000 0.000 7.319 0.000 0.000 0.000 0.000 0.000 0.000 3.540 0.000 0.000 0.000 0.000 0.000 51.141 15.029 8.789 0.000 0.000 0.000 0.000 0.000 0.000 
0.000 0.000 0.000 0.000 0.000 0.220 22.567 0.500 14.160 5.825 0.000 0.000 0.000 0.000 0.000 0.000 0.000 0.000 0.000 0.000 0.000 74.162 0.000 41.503 0.000 0.062 36.445 0.000 0.781 0.000 36.659 0.000 0.204 0.000 0.000 0.000 0.131 0.598 0.660 0.000 0.000 0.000 1.427 330.730 91.046 0.000 0.029 3.842 0.000 0.000 0.000 0.000 0.000 0.000 0.000 0.000 0.000 0.000 0.334 0.000 0.353 0.138 4.571 23.581 216.833 80.824 54.517 315.855 9027.024 95577.492 414830.562 660563.688 324273.375 250411.266 598938.062 846442.625 748444.750 516459.969 193100.656 22974.703 40597.328 399525.344 1161029.000 1869206.500 2579917.000 3523717.750 4082793.000 3891979.750 1737884.750 492037.188 102091.602 339.727 0.000 0.000 0.000 0.000 0.000 0.000 0.000 0.000 4.788 0.000 0.000 0.000 0.000 0.000 0.000 0.000 0.000 0.000 0.000 0.000 0.047 0.000 33.378 9.132 0.000 0.000 0.000 0.000 0.000 
0.000 0.000 0.000 0.000 0.000 0.000 0.000 0.000 0.000 93.929 150.542 0.000 0.000 0.000 6.432 0.000 14.961 0.000 61.577 0.000 0.000 0.000 0.000 0.000 103.413 36.122 0.365 8.389 182.592 0.463 0.058 37.109 0.000 0.000 0.000 0.000 0.000 3.508 0.000 0.657 0.000 0.000 0.000 0.016 0.117 86.857 0.000 0.000 0.000 0.000 0.000 0.000 0.000 0.000 0.000 0.000 0.289 1.817 0.498 0.578 0.000 16.706 201.800 491.331 1796.185 1425.684 1012.900 1181.975 16998.625 117139.711 545163.000 865785.750 488990.344 137298.688 71507.891 115281.508 105217.094 65835.477 17284.014 3467.565 71076.719 587853.500 1555936.750 2318012.250 3038853.250 4193459.750 5131391.000 5390154.000 3347507.000 693793.062 217709.859 14360.621 4.408 0.000 0.000 0.000 0.000 25.214 0.000 0.000 0.000 0.000 0.000 0.000 0.000 0.000 0.000 0.000 0.000 0.664 0.574 0.000 78.242 0.000 0.000 24.695 0.000 0.000 0.000 0.000 0.000 
0.000 0.000 0.000 0.000 0.000 0.000 8.199 0.000 0.000 3.344 48.471 43.931 0.000 0.000 2.755 5.033 0.058 13.946 0.000 61.507 0.000 0.000 0.000 0.000 0.000 197.380 20.441 19.702 0.000 221.658 0.000 0.000 0.000 0.000 0.000 0.000 0.000 0.253 2.977 0.000 0.000 0.000 0.000 0.000 0.000 0.000 0.000 0.772 0.000 0.000 0.000 0.000 0.000 0.000 0.000 0.000 11.153 32.673 66.383 130.806 216.235 158.621 876.428 4326.267 20546.254 26996.801 12153.291 2291.726 15706.329 110304.305 414665.656 775277.250 428287.000 88022.320 4037.271 3331.090 691.553 1127.572 359.146 66.912 38060.312 592040.938 2191872.250 3632386.250 4124834.000 5131057.000 7085573.000 6354383.500 4831600.000 1385301.250 411699.094 96763.945 3822.790 0.000 0.000 0.000 0.000 0.000 25.106 0.000 0.000 27.292 0.000 0.000 0.000 0.000 0.000 0.000 0.000 0.149 1.624 0.797 0.000 42.242 0.000 34.740 0.000 0.013 0.000 0.000 0.000 
0.000 0.000 0.000 0.000 0.000 0.000 0.000 8.270 0.000 0.000 3.019 10.303 0.221 0.000 0.000 4.120 0.000 0.000 0.000 0.000 0.000 0.000 0.000 0.000 0.000 0.000 149.445 0.000 0.821 27.335 42.688 0.000 0.000 0.000 0.000 0.000 0.018 0.063 0.000 0.000 0.000 0.000 0.000 0.000 0.055 0.000 10.332 0.568 0.328 0.000 0.000 0.000 0.000 0.000 0.000 39.516 203.513 126.745 109.008 293.302 577.597 654.087 910.740 2734.473 24564.143 42052.078 33591.344 4247.873 4329.750 30249.004 126385.742 330669.125 224417.922 78109.883 32720.303 6840.364 2179.726 245.807 110.003 35.215 1984.453 166622.828 1123419.375 3110430.500 4566066.500 5379801.000 5511096.500 5162397.500 4067178.500 2723722.750 683865.375 269891.188 63467.793 2442.710 65.499 21.269 0.187 0.000 0.000 0.000 0.000 0.000 27.399 0.000 0.332 0.969 0.000 0.000 0.000 0.000 0.000 0.000 0.000 0.000 0.000 0.000 35.125 0.014 0.000 0.000 0.000 
0.000 0.000 0.000 10.562 1.085 0.995 0.000 0.000 0.000 0.000 0.000 13.806 0.000 8.993 0.000 0.000 0.000 0.000 0.000 0.000 0.000 0.000 0.000 0.000 0.000 0.000 406.568 11.273 0.000 0.000 48.096 0.000 0.000 0.000 0.000 1.563 0.000 0.005 0.000 0.000 0.000 0.000 0.000 11.130 314.887 11.212 16.947 50.172 2.521 0.000 0.000 0.000 0.000 0.000 19.749 346.690 1255.331 1379.919 731.151 203.303 1328.576 951.462 757.847 801.842 5440.280 21529.787 19871.387 2852.436 786.274 1523.611 8308.938 29500.738 70350.852 136146.484 150262.109 88591.422 14739.966 1661.255 780.743 259.470 206.900 19564.049 394885.750 1467688.125 2922637.500 4267793.000 4261622.500 3411662.250 3045963.000 3321592.500 1771942.500 431425.000 182687.391 30343.848 39.002 0.000 23.093 0.000 0.000 0.000 0.000 0.000 0.000 0.000 0.000 1.333 0.000 0.000 0.000 0.000 0.000 0.000 0.000 0.000 0.000 0.000 0.000 0.653 0.000 0.000 0.000 
0.000 0.000 0.000 0.000 1.753 1.372 0.617 0.000 0.000 0.000 0.000 0.021 0.000 0.000 9.312 0.000 0.000 0.000 0.000 0.000 0.000 0.106 0.000 1.004 0.000 0.000 0.000 442.914 0.000 0.000 12.445 0.000 0.000 0.000 0.000 34.630 52.898 0.000 0.000 0.000 0.000 0.000 0.000 0.000 45.554 268.447 0.228 0.244 0.000 0.000 0.000 0.000 0.000 1.025 62.909 195.817 1394.826 6101.522 5609.036 3105.870 975.746 1218.406 6683.892 13176.505 12870.603 2382.152 1160.308 94.580 166.871 78.611 17.788 3177.853 56183.375 150465.312 185126.094 156643.562 76435.984 10457.802 2177.701 1674.061 1474.103 3411.371 130787.406 877495.375 1894556.625 2990111.750 2941624.500 2609998.250 2370723.500 3712501.500 3367817.250 1025997.125 296307.344 80997.531 1563.644 0.000 100.122 0.602 0.000 0.000 0.000 0.000 0.000 0.000 0.000 0.000 0.000 0.000 0.000 0.000 0.000 0.000 0.000 0.000 0.000 11.736 0.000 0.000 0.000 0.000 0.000 
0.000 0.000 0.000 0.000 0.000 0.000 0.000 0.000 0.000 0.000 0.000 0.000 0.047 0.000 0.000 0.906 0.001 72.796 0.000 0.000 0.000 0.000 2.800 1.370 0.588 0.000 0.000 0.000 7.503 0.000 0.000 12.143 0.000 0.000 0.000 16.239 14.271 0.000 0.000 0.000 0.000 0.000 0.000 0.000 0.000 0.000 3.752 0.000 0.000 0.000 0.000 0.000 0.000 0.000 18.300 72.696 248.155 3110.067 8144.258 4628.811 2554.475 18526.064 84100.391 190759.438 150725.562 30654.117 1872.711 327.186 238.318 64.685 62.262 6586.906 96851.914 256561.500 241175.688 163599.969 72057.914 13371.941 2975.992 1627.610 6601.623 24763.807 112221.516 498497.469 1099133.250 1803057.250 1940437.625 1746776.625 1850771.125 2493468.500 3918094.500 2711406.750 609999.812 157306.562 6519.327 1.484 2.367 116.120 0.000 0.000 0.000 0.000 0.000 1.186 114.383 0.422 0.000 0.000 0.000 0.000 0.000 0.000 0.000 0.000 0.000 12.596 7.359 15.515 0.000 0.000 0.000 
0.000 0.000 0.000 0.000 0.000 61.110 0.000 0.000 0.000 0.000 0.000 0.000 0.000 0.000 0.000 0.000 0.548 0.004 65.505 0.000 0.000 0.000 0.000 1.998 1.057 0.000 0.000 0.000 171.948 8.002 0.000 0.000 0.000 0.000 0.000 3.331 224.246 0.021 0.000 0.000 0.000 0.000 0.000 0.000 0.000 0.000 0.000 0.000 0.000 0.000 0.000 0.000 0.000 0.000 0.129 75.086 102.307 718.431 3706.377 3963.661 19764.766 89244.141 238711.078 645211.250 617299.938 185265.734 36377.508 5241.184 397.984 228.093 2297.012 42372.609 210870.891 512056.500 432800.344 186909.203 42474.262 3307.970 853.810 1651.834 26637.426 129003.992 266314.031 333866.312 513529.750 728123.125 964655.875 1106344.750 1243413.375 1431941.375 1812156.125 2827907.000 1525099.375 310347.875 31309.285 21.276 0.000 0.115 6.552 0.000 0.000 104.774 48.822 0.068 9.208 283.295 0.000 0.000 0.330 0.000 0.000 0.000 0.000 0.000 0.000 30.715 18.530 0.000 0.000 0.000 0.000 
0.000 0.000 0.000 0.000 0.000 0.000 64.789 0.000 0.000 0.000 0.000 0.000 0.000 0.000 0.000 0.009 0.000 0.076 0.000 0.000 0.000 0.000 0.000 0.000 0.000 0.000 0.000 0.000 5.972 123.441 0.000 0.000 0.000 22.734 0.531 0.000 0.000 155.772 0.000 0.000 0.000 0.000 0.000 0.000 0.000 0.000 0.000 0.000 0.000 0.000 0.000 0.000 0.000 0.000 0.000 49.595 226.300 164.584 1700.537 10252.865 79628.047 206677.578 500003.750 1152362.375 1430817.875 652076.625 296908.344 121860.219 48894.840 38535.801 58081.695 193608.641 393337.625 749815.562 837507.750 356883.219 72783.203 6727.069 5958.268 25680.727 143374.188 426269.281 608091.562 462431.250 265766.000 122660.055 153098.891 270415.688 488408.250 840393.812 1460292.250 1828498.125 2094852.250 440246.781 88056.141 34.465 0.000 0.000 0.000 0.000 0.000 0.000 17.418 45.934 0.000 0.021 189.700 0.000 0.000 0.403 0.000 0.000 0.000 0.000 0.000 0.000 35.413 0.000 0.000 0.000 0.000 
0.000 0.000 0.000 1.518 0.000 0.000 0.000 0.035 0.000 0.000 0.000 0.000 0.000 0.000 0.000 0.000 229.276 0.000 0.000 0.000 0.000 0.000 0.000 0.000 0.000 0.000 0.000 0.000 0.000 12.454 0.000 0.000 27.224 0.000 21.167 3.098 0.587 0.000 0.000 0.000 0.000 0.000 0.000 823.379 0.000 0.000 0.000 0.000 0.000 0.000 0.000 0.000 0.000 0.000 0.000 0.000 73.262 114.248 554.595 4893.412 83140.703 283444.156 884936.625 1598533.500 2154297.750 1736520.375 1064335.750 684798.688 453992.219 375312.375 421958.094 549173.125 689901.688 1014280.938 1240815.125 920375.125 326528.656 119037.461 140114.344 313335.938 612959.312 1100123.375 1287607.875 926464.188 373290.094 58926.879 4090.889 9352.872 97070.938 668045.750 1586721.000 1810406.875 1780799.250 483156.312 125076.961 3044.503 8.474 0.121 24.590 84.836 16.499 0.000 0.000 0.000 0.000 0.000 0.000 0.001 0.000 0.000 0.000 0.000 0.000 0.000 0.000 0.000 0.000 34.263 0.000 0.000 0.000 
0.000 0.000 0.000 0.000 0.886 0.000 0.000 0.000 0.003 0.000 0.000 0.000 0.000 0.000 0.000 0.000 1.079 211.656 0.000 0.002 0.000 0.000 0.000 0.000 0.000 0.000 0.000 0.000 0.000 0.001 13.483 0.000 0.000 13.447 38.518 114.722 3.262 0.000 0.000 0.000 1.820 4.481 0.000 7.165 810.077 21.547 0.000 0.000 0.000 0.000 0.000 0.000 0.000 0.000 0.000 0.000 0.000 4.208 48.368 529.133 23846.080 210829.875 646283.562 2306528.500 2658291.500 2800376.000 2415236.000 1974289.875 1761749.125 1409515.875 1091924.000 963364.938 1040242.438 1360744.750 1497772.250 1250295.500 763043.250 554464.000 668230.938 1064501.375 1645009.875 2139657.500 2088010.750 1467418.125 702987.875 229947.422 12327.866 74.130 10258.895 366588.781 1314030.125 1644213.250 1064368.750 328615.688 111443.461 12497.140 451.432 313.923 1945.246 960.201 637.217 14.189 0.000 0.000 0.000 0.000 0.000 0.000 0.000 0.000 0.000 0.000 0.000 0.000 0.000 0.000 0.000 0.000 0.000 0.000 0.000 
0.000 0.000 0.000 0.000 0.000 0.000 0.000 72.094 43.456 0.000 0.000 0.000 20.244 0.000 0.000 0.000 0.000 0.000 1.366 32.839 6.668 0.000 0.000 0.000 0.000 0.000 0.000 0.000 0.000 0.000 0.000 0.000 0.000 8.288 0.000 82.603 0.133 0.000 0.000 0.000 0.176 1.800 0.000 0.000 0.154 70.421 335.399 0.000 0.000 7.230 0.000 0.000 0.000 54.571 0.000 0.000 0.000 0.000 0.000 32.983 958.355 51169.219 284118.094 776074.500 2303979.500 2723786.250 2927632.750 3073969.250 2878271.500 2604005.750 1468814.750 1349566.000 1482551.250 1938273.125 1855950.750 1471053.375 1279518.000 1356568.250 1691601.125 2486895.750 3068836.500 3121741.750 2457812.000 1706727.375 620444.125 186273.328 15102.405 2064.011 1161.276 133679.125 810437.062 1129723.000 401611.000 115104.781 25651.320 7151.983 2174.524 2210.117 2427.455 4019.359 689.056 375.473 6.485 0.000 0.000 0.000 0.000 0.000 0.000 0.000 0.000 0.000 0.000 0.000 1.702 0.000 0.000 0.000 0.000 0.000 0.000 
0.000 0.000 0.000 0.000 0.000 0.000 9.990 2.307 71.822 1.397 1.888 0.000 0.000 39.115 0.000 0.000 0.000 0.000 0.000 33.354 32.328 0.000 0.000 0.000 0.000 0.000 0.000 0.000 0.000 0.000 0.000 0.000 0.000 0.000 22.357 0.000 0.000 0.000 0.000 0.000 0.000 0.181 0.000 0.000 0.000 41.162 44.678 254.133 0.000 0.000 7.069 0.000 0.000 0.376 1.776 0.000 0.000 0.000 0.000 0.137 61.481 1246.969 56527.344 258950.156 550396.812 861187.688 1085557.375 1221127.375 1333272.375 1815435.250 2271460.000 1946411.625 2010563.875 2646447.250 2364481.750 2015720.875 2127741.500 2395432.750 3057734.500 3716186.500 3725073.000 3278605.250 2709883.500 1144312.750 404757.312 68536.445 2813.614 1930.678 1999.331 66020.062 285292.750 379657.719 106042.250 10070.593 219.036 402.161 443.841 404.470 1646.952 183.081 1020.456 1606.120 1.124 0.000 0.000 0.000 0.000 0.000 0.000 0.000 0.000 0.000 0.000 0.000 0.000 1.399 7.143 0.000 0.000 0.000 0.000 
0.000 0.000 0.000 0.000 0.000 0.000 0.000 16.531 0.430 4.826 10.154 1.829 25.083 3.787 0.000 0.000 0.000 0.000 0.000 0.000 0.000 0.000 0.000 39.574 0.000 0.000 0.000 0.000 0.000 0.000 0.000 0.000 0.000 0.000 0.000 4.763 0.000 0.000 0.000 0.000 0.628 0.000 0.000 0.000 0.000 41.016 46.135 0.000 0.000 0.000 0.286 0.000 0.000 0.000 0.135 0.000 0.000 0.000 0.000 0.000 0.006 0.581 835.164 27311.012 115206.039 216380.781 241908.031 243519.359 266934.938 368202.750 1109033.875 2490748.750 3485578.250 3240339.750 2628534.000 2692037.750 2783460.500 2930478.500 2975308.750 3535557.750 3620337.500 2711243.500 1625595.875 910384.562 375716.969 59751.516 1346.771 1588.971 16967.475 41062.270 85240.820 47876.414 7719.949 64.586 5.151 72.596 47.570 7.600 52.864 194.554 850.385 1218.418 0.679 0.000 0.000 11.394 0.000 0.000 0.000 0.000 0.000 0.000 0.000 0.000 0.000 0.000 2.464 16.087 0.000 0.000 0.000 
0.000 0.000 0.000 0.000 0.000 69.710 222.842 0.000 0.000 0.000 4.926 0.000 0.000 48.190 0.000 0.000 0.000 0.000 0.000 0.000 0.000 0.000 0.000 0.000 39.571 0.000 0.000 0.000 0.000 0.000 0.000 0.000 0.000 0.000 0.000 298.157 0.000 0.000 0.000 0.000 29.937 88.832 2.880 0.000 0.000 0.003 29.862 0.000 0.000 0.000 0.000 0.106 39.283 54.985 0.725 0.000 10.513 0.000 0.000 0.000 0.000 0.000 0.233 3.865 830.651 8320.684 12575.425 12169.249 14878.728 55247.512 278340.781 808393.312 2035346.625 4148826.250 3624120.000 2735565.000 2747432.250 2711951.500 2438185.250 1912653.125 1147346.000 748623.562 501489.500 425937.625 522904.062 361475.781 40526.602 55060.578 121080.141 57580.180 20126.859 2465.896 4.855 0.001 0.000 7.667 144.392 236.369 138.160 5.293 893.800 1379.822 86.458 0.000 0.000 0.000 12.263 0.000 0.000 0.000 0.000 6.425 0.000 0.000 0.000 0.000 0.000 0.775 0.000 0.000 0.000 
0.000 0.000 0.000 0.000 0.000 2.598 77.528 0.848 0.000 0.000 0.000 0.000 0.000 0.000 0.000 0.000 0.000 0.000 40.236 0.000 0.000 0.000 0.000 0.000 0.000 0.000 0.000 0.000 0.000 0.000 0.000 0.000 0.004 0.000 0.000 0.000 329.872 0.000 0.000 8.793 0.000 36.356 67.271 0.000 0.000 0.000 0.000 0.000 133.686 1.240 0.000 0.000 241.789 93.964 58.692 0.000 0.000 10.430 0.000 0.000 0.000 0.000 0.000 0.019 0.000 0.000 0.104 2.216 0.514 271.508 39669.871 187236.031 374120.250 790903.312 1743125.250 1997775.250 1653254.375 1183735.125 602441.250 352405.531 269733.500 209604.500 182445.500 186304.453 384782.438 520764.312 476468.281 477690.000 635171.375 221747.422 29346.391 327.668 6.695 15.292 65.567 121.400 466.484 2557.782 4317.438 3804.823 11065.823 6197.317 532.612 12.802 0.000 0.000 0.000 0.000 0.000 0.000 0.000 10.404 4.421 0.000 0.000 0.000 0.000 0.000 0.000 0.000 0.000 
0.000 0.000 0.000 0.444 0.000 0.000 0.000 0.000 0.712 0.222 0.000 0.000 0.000 0.000 0.000 0.000 0.000 0.000 0.639 49.129 0.000 0.000 0.000 0.000 1.327 0.694 0.000 0.000 0.000 0.000 0.000 301.706 1050.281 66.804 0.000 0.000 0.000 0.000 0.000 0.000 8.819 0.000 0.000 0.000 0.000 0.000 0.000 0.000 0.746 127.769 3.062 0.000 0.000 174.507 0.000 0.000 0.000 0.000 0.000 0.000 0.000 0.000 0.000 0.000 0.000 0.000 0.000 0.000 0.000 0.842 11.082 6829.074 39408.980 140140.188 312569.938 372654.312 329366.969 263293.031 151713.531 55747.863 18074.691 7513.458 8873.638 33984.121 199102.438 570869.938 880599.062 996724.562 890002.125 442799.781 93253.234 2142.247 27.311 5.838 17.708 80.865 458.744 795.282 6407.694 17139.980 68466.938 32005.854 6882.539 69.515 0.000 0.000 0.000 0.000 0.000 0.000 0.000 0.000 0.000 0.000 0.000 0.000 0.000 0.000 0.000 0.000 0.000 
0.000 0.000 0.000 0.000 0.000 0.000 25.962 0.312 0.001 0.612 0.000 0.000 0.000 0.000 0.000 0.000 0.000 0.000 0.000 0.000 0.000 0.000 0.000 0.000 0.000 1.215 0.000 0.000 0.000 0.000 0.000 0.045 519.209 20.304 0.000 0.000 0.000 0.000 0.000 0.000 0.000 0.000 0.000 0.000 0.000 0.000 0.000 72.461 9.830 2.253 0.000 0.000 0.000 0.000 0.013 0.000 0.000 0.000 0.000 0.000 0.000 0.000 0.000 0.017 4.252 0.000 0.000 0.000 0.000 0.000 0.000 0.012 0.000 1670.578 25671.135 58366.105 56045.977 31874.039 8330.947 18.613 10.977 0.000 5.799 2672.711 44293.023 206887.219 485406.031 658809.062 579349.188 328400.250 105908.203 7919.483 404.249 112.560 1.039 23.284 4.729 0.048 92.828 2034.552 62451.328 72916.086 16456.486 307.395 1.496 0.000 0.000 0.000 0.000 0.000 0.000 6.481 0.000 11.683 0.000 0.000 0.000 0.000 0.000 0.000 0.000 
0.000 0.000 0.000 0.000 0.000 1.193 4.858 27.681 0.014 0.002 0.000 0.000 0.000 0.000 0.000 0.000 0.000 0.000 0.000 0.000 0.000 0.000 0.000 0.000 0.000 11.495 63.916 0.000 0.000 0.000 0.000 0.000 0.000 0.000 0.000 0.000 0.000 0.000 0.000 0.000 0.000 0.000 0.000 24.102 59.721 77.765 0.000 0.744 69.253 0.000 0.000 0.000 1.879 0.000 0.000 0.000 0.000 0.000 0.000 0.000 0.000 0.000 0.000 0.000 0.008 4.198 0.000 0.000 0.000 0.000 0.000 0.000 0.000 0.000 33.329 4.182 28.283 16.266 0.000 0.000 0.000 0.000 0.000 25.077 3310.222 42324.090 117270.391 143292.719 125551.055 87127.047 39562.434 8630.606 3158.238 231.935 19.732 4.174 1.614 16.439 35.352 43.030 5713.153 42687.199 15083.656 310.932 2.716 0.000 0.000 0.000 0.000 0.000 0.000 0.000 8.504 27.484 11.086 0.000 0.000 0.000 0.000 0.000 0.000 
0.000 0.000 0.000 0.000 0.000 0.000 70.279 0.000 0.000 0.000 0.783 0.000 0.000 0.000 0.000 0.000 0.000 0.000 0.000 0.000 0.000 0.000 0.000 0.000 0.000 0.000 2.710 0.001 0.000 0.000 0.000 0.000 0.000 0.000 86.380 0.000 0.000 0.000 0.000 0.000 0.000 0.000 0.000 96.366 84.517 35.758 81.923 0.000 0.000 0.000 0.000 0.000 0.000 1.844 0.000 0.000 0.004 0.000 0.000 0.131 262.150 2.279 0.000 0.000 0.000 0.000 0.000 0.000 0.000 0.000 0.000 0.000 0.000 0.519 0.427 0.000 0.000 0.000 0.000 0.000 0.000 0.000 0.000 0.120 4.759 1078.685 6402.449 7980.518 4840.483 1916.927 997.313 1331.684 2815.573 1753.973 52.054 3.612 0.000 7.202 37.392 98.998 898.327 3982.531 3285.386 40.226 0.000 0.000 0.000 0.000 0.000 0.000 0.000 64.222 0.000 97.924 51.786 0.000 0.000 0.000 0.000 0.000 0.000 
0.000 0.000 0.000 0.000 0.000 0.000 3.444 60.415 0.000 0.000 0.000 0.875 0.000 0.000 0.505 0.000 0.000 0.000 0.000 0.000 0.000 0.000 0.000 0.000 0.000 0.000 0.000 0.000 0.000 0.000 0.000 0.000 0.000 0.000 0.000 87.374 0.000 0.000 0.000 0.000 0.000 0.000 17.518 11.339 42.578 66.700 8.007 0.000 1.150 0.000 0.000 0.000 0.000 0.000 0.000 0.000 0.185 0.000 0.000 0.001 5.255 248.750 0.000 0.000 0.000 0.000 0.000 0.000 0.000 0.000 0.000 0.000 0.000 0.000 0.563 0.000 0.000 0.000 0.000 0.000 0.000 0.000 0.000 0.000 0.210 0.000 0.000 0.000 0.000 0.000 0.001 18.815 218.608 199.341 25.706 65.530 97.246 0.000 3.625 160.377 551.973 639.601 111.815 0.000 108.472 0.000 65.665 0.000 0.000 0.000 0.000 0.000 165.668 0.000 11.656 0.000 0.000 0.000 0.000 0.000 0.000 
0.000 0.000 0.000 0.000 0.000 0.000 0.000 0.000 0.000 0.000 0.000 0.000 0.000 0.000 0.000 0.905 0.000 0.000 0.000 0.000 0.000 0.000 0.000 0.000 76.151 0.000 0.000 10.278 0.000 0.000 0.000 0.000 18.451 98.023 97.022 0.000 0.000 0.000 0.967 0.000 0.000 0.000 0.000 14.955 7.825 0.000 0.000 10.149 0.000 2.287 0.000 0.000 76.700 0.000 0.000 0.000 0.000 0.000 0.000 0.000 0.000 0.000 0.001 0.000 0.000 0.000 0.000 0.000 0.000 0.000 0.000 0.000 0.000 0.000 0.000 0.000 0.000 0.000 0.000 0.000 0.000 0.000 0.000 0.000 0.000 0.000 0.000 0.000 0.000 0.000 1.462 203.141 391.889 43.722 53.178 47.125 193.450 43.340 0.000 7.863 129.242 84.372 6.408 0.000 0.000 87.494 5.084 62.587 0.000 0.000 0.000 0.000 0.000 0.000 0.000 0.000 0.000 0.000 0.000 0.000 0.000 
0.000 0.000 0.000 0.000 0.000 0.000 0.000 0.000 0.000 0.000 14.927 0.000 0.000 0.000 0.000 2.257 0.000 0.000 0.000 0.000 0.000 0.000 0.000 0.000 0.000 53.434 0.000 0.031 0.000 0.000 0.000 0.000 0.000 39.846 52.814 66.477 0.000 0.000 0.000 0.917 0.000 4.959 220.149 98.412 0.000 0.000 0.000 0.000 0.000 0.000 6.829 0.878 0.000 137.810 0.000 0.000 0.000 0.000 0.000 0.000 0.000 0.000 0.000 0.000 0.000 0.000 0.000 7.145 0.000 0.000 0.000 0.000 0.000 0.000 0.000 0.000 0.000 0.000 0.000 0.000 0.000 0.000 0.000 0.000 0.000 0.000 0.000 0.000 4.020 95.328 356.463 1878.840 739.920 71.076 2.428 0.679 39.932 20.042 0.000 0.000 0.049 0.000 0.000 0.000 0.000 0.000 10.746 21.386 0.000 0.000 0.000 0.000 0.000 0.000 0.000 0.000 0.000 0.000 0.000 0.000 0.000 
0.000 0.000 0.000 0.000 0.000 0.000 0.000 0.000 0.000 1.213 0.000 14.771 0.000 0.000 0.000 0.000 2.353 0.000 15.266 0.776 0.000 0.000 0.000 0.000 0.000 0.000 0.000 34.749 103.449 193.939 778.489 1688.257 3404.969 219.941 11.129 10.326 24.120 0.000 0.000 0.002 0.000 0.000 4.501 285.164 42.600 0.000 0.000 0.000 0.000 0.000 0.000 6.315 0.000 0.000 0.000 0.000 68.197 0.000 0.000 0.000 0.000 0.000 0.000 0.000 0.000 0.000 0.000 0.167 6.785 0.000 0.000 0.000 0.000 0.000 0.000 0.000 0.000 0.000 0.000 11.459 3.436 0.000 0.000 0.000 0.000 0.000 0.000 16.486 24.349 439.987 483.080 1694.408 565.305 18.053 2.605 0.005 0.043 0.000 0.000 0.000 0.000 0.000 0.000 0.000 0.000 0.000 0.000 9.444 0.000 0.000 0.000 1.206 9.521 4.101 0.000 0.030 0.000 0.000 0.000 0.000 0.000 
0.000 0.000 0.000 0.000 0.000 349.031 0.000 0.000 0.000 0.000 1.196 0.000 0.000 0.000 0.000 0.000 0.000 0.000 0.002 24.113 0.000 0.000 0.000 0.000 0.000 26.749 40.176 539.140 674.749 240.377 142.166 936.204 2546.549 2277.343 33.615 157.121 63.715 9.157 10.967 14.623 76.866 8.136 1.328 1.098 0.000 0.473 0.000 0.000 0.000 0.000 0.000 0.000 0.000 0.000 0.000 0.000 99.991 83.007 0.000 0.000 0.000 0.000 0.000 0.000 0.000 0.000 0.000 0.000 0.000 0.000 0.000 0.000 0.000 0.000 0.000 0.000 0.000 0.000 0.000 0.902 1.009 0.000 0.000 0.000 0.000 0.000 0.000 0.401 78.505 63.697 305.469 52.852 181.190 804.883 720.512 0.449 0.015 0.000 0.000 0.000 0.000 0.000 0.000 0.000 0.000 0.000 0.000 0.000 0.000 0.000 0.000 0.000 1.180 234.214 12.392 0.000 0.013 0.000 0.000 0.000 0.000 
0.000 0.000 0.000 0.000 0.000 0.000 335.949 0.000 0.000 0.000 0.000 0.000 0.000 0.000 0.000 22.523 0.000 0.000 0.000 0.000 2.055 0.000 0.000 0.000 0.000 0.000 76.710 142.859 211.896 230.869 4.781 14.265 13.098 0.000 0.000 0.000 265.311 84.867 136.334 157.117 201.809 794.704 505.008 400.587 91.136 0.000 2.432 0.000 0.000 0.000 0.000 117.300 2.286 0.000 0.000 0.000 2.501 0.000 0.000 0.000 6.201 11.927 0.000 0.000 0.000 0.000 0.000 0.000 0.000 0.000 0.453 29.700 38.349 0.000 0.060 0.000 0.000 0.000 0.000 0.000 1.528 0.000 0.000 0.000 0.000 0.000 0.000 0.000 1.190 45.801 61.319 187.297 188.249 225.779 255.836 88.409 0.000 0.000 0.000 0.000 0.000 0.000 0.000 0.000 0.000 0.000 0.000 0.000 0.000 0.000 487.784 0.000 0.000 0.002 175.318 0.050 0.000 0.000 0.000 0.000 0.000 
0.000 0.000 0.000 0.000 0.000 0.000 0.000 79.610 0.000 0.000 0.000 0.000 0.000 26.925 0.000 0.000 20.627 0.287 0.000 7.666 0.000 0.000 0.000 0.000 0.000 0.000 0.000 24.033 345.877 7.133 0.143 0.354 37.362 79.467 0.000 0.000 76.539 599.074 38.642 453.725 82.062 150.755 703.172 709.237 559.153 20.303 0.000 3.029 0.000 0.000 0.000 0.000 296.946 1.325 0.000 0.000 0.000 3.805 0.000 0.000 0.000 5.513 39.259 13.291 0.000 0.000 0.000 0.000 0.000 0.000 0.000 4.103 12.263 37.798 263.969 9.370 0.000 0.000 0.000 0.000 0.000 2.752 0.000 0.000 0.000 0.000 0.000 0.000 0.000 0.000 9.974 94.746 176.776 93.460 30.318 4.562 0.000 17.725 1.391 0.000 0.000 0.000 1.954 0.000 0.000 0.000 0.000 0.000 0.000 0.000 72.431 751.165 0.000 0.000 0.012 0.000 0.000 0.000 0.000 0.000 0.000 
0.000 0.000 0.000 0.000 3.232 0.000 12.031 0.000 78.963 0.000 0.000 0.000 0.000 0.000 26.068 0.000 0.000 25.584 0.255 0.000 4.820 0.000 0.000 0.000 0.000 0.000 0.000 0.000 0.383 0.000 2.667 0.522 0.000 80.386 0.000 0.000 0.000 103.318 294.494 8.373 515.626 217.346 67.461 141.166 585.715 83.217 92.988 22.363 26.846 1.170 0.000 0.000 0.000 0.000 0.000 0.000 0.000 0.000 0.017 0.000 0.000 0.000 62.789 54.150 7.918 0.000 0.000 0.000 0.000 0.000 0.000 27.734 0.000 0.011 56.532 226.217 1.224 0.000 0.000 14.489 37.439 0.000 0.000 0.000 0.000 0.000 0.000 0.000 0.000 0.000 0.000 5.799 79.984 40.139 1.880 0.342 21.441 75.776 129.096 18.428 0.000 40.044 0.001 1.154 0.000 0.713 0.000 0.000 0.000 0.000 0.000 9.650 84.312 0.000 0.000 0.000 0.000 0.000 0.000 0.000 0.000 
0.000 0.000 0.000 0.000 0.156 2.802 0.000 11.256 0.000 1.296 26.867 2.459 0.000 0.000 0.000 0.000 0.000 0.000 25.615 0.000 0.000 0.000 0.000 0.102 0.000 0.000 0.000 0.000 0.000 0.329 0.000 0.000 0.000 0.000 0.002 0.000 8.505 0.000 141.152 7.170 53.440 503.163 144.216 108.525 481.532 139.829 45.891 96.750 27.833 15.533 0.146 0.000 0.000 0.887 0.000 6.212 0.000 6.060 0.000 0.000 0.000 0.000 0.000 16.735 0.000 32.998 88.459 12.347 0.000 0.000 0.000 0.000 24.634 0.000 0.000 0.000 0.000 5.536 0.097 0.001 2.406 67.495 0.000 0.000 0.000 0.000 0.000 0.000 0.000 0.000 0.000 0.000 0.216 0.000 0.027 35.761 81.762 132.605 134.541 58.976 5.126 0.000 39.314 0.000 0.000 0.000 0.747 8.466 45.214 3.180 0.000 0.000 0.000 0.000 2.231 0.000 0.000 0.000 0.000 0.000 0.000 
0.000 0.000 0.000 0.000 0.000 0.000 0.078 0.000 0.000 0.095 1.266 13.460 230.252 0.000 0.000 0.000 0.000 0.000 0.000 0.000 0.000 0.000 0.000 0.000 0.121 0.000 29.276 0.026 153.298 4.992 0.000 0.000 0.000 0.000 0.000 0.000 0.000 82.897 0.000 81.380 20.588 52.205 296.542 12.551 92.510 102.320 0.601 35.920 0.000 0.165 0.000 0.000 0.000 0.000 0.863 1.409 5.426 1.164 5.794 0.000 0.000 0.000 0.000 0.000 24.304 0.000 23.321 21.363 0.000 7.911 32.397 0.000 0.000 0.000 0.000 0.000 0.000 0.000 0.116 0.003 0.000 0.000 0.000 0.000 0.000 0.000 0.000 0.000 0.000 0.000 0.000 0.000 0.000 0.000 6.308 10.849 54.003 28.914 45.659 0.000 0.000 0.000 0.000 0.000 0.000 1.417 0.392 0.000 41.478 35.315 3.116 0.000 0.000 0.000 0.000 2.003 0.000 0.000 0.000 0.000 0.000 
0.000 0.000 0.000 14.939 0.000 0.000 0.000 0.135 0.000 0.000 0.000 0.000 0.000 240.305 0.000 0.000 0.000 0.000 0.121 0.000 0.000 0.000 0.000 0.000 3.767 11.747 0.000 67.971 31.382 168.808 21.179 0.000 0.000 5.875 17.629 0.005 0.000 0.000 0.000 0.000 0.000 9.613 0.060 0.026 3.041 0.000 0.000 0.000 0.000 0.344 15.020 86.616 0.000 0.000 0.000 0.000 2.916 82.978 0.000 0.000 0.000 0.000 0.000 0.000 0.000 0.000 0.000 0.000 0.000 0.563 6.881 0.000 0.000 0.000 0.000 0.000 0.000 0.000 0.000 0.000 0.000 0.000 0.000 0.000 0.000 0.476 0.000 0.430 0.000 0.000 0.000 0.000 0.000 0.000 0.000 6.505 2.300 0.000 0.000 1.074 0.000 0.000 0.000 0.000 0.000 0.317 15.079 0.000 11.881 42.627 0.000 0.000 0.000 0.000 0.000 0.000 0.028 0.000 0.000 0.000 0.000 
0.000 0.000 0.000 0.000 6.387 0.000 0.000 0.000 0.000 0.000 0.000 0.000 0.000 0.000 0.000 0.000 0.000 0.000 0.000 0.000 0.000 0.000 5.081 46.994 0.000 6.823 7.769 0.000 71.955 0.002 0.000 0.000 0.000 0.010 1.902 16.326 0.000 0.000 0.000 0.004 0.000 0.000 0.000 0.000 44.987 0.000 0.000 0.000 0.000 0.000 0.000 13.552 0.000 0.000 0.000 0.000 4.783 0.000 78.664 23.815 0.000 0.000 0.000 0.000 0.000 0.000 0.000 2.266 0.000 0.105 0.019 0.000 0.000 0.000 0.000 0.000 13.373 0.000 0.000 0.000 0.000 0.000 0.000 0.000 0.000 0.000 0.473 0.053 0.836 0.000 0.000 0.000 0.000 0.000 2.575 0.000 3.748 0.000 0.000 0.000 0.000 0.000 0.000 0.000 0.000 0.000 0.002 15.090 1.025 56.814 34.304 0.000 0.000 0.000 0.000 0.000 0.000 0.000 0.000 0.000 0.000 
0.000 0.000 0.000 0.000 0.000 0.000 8.816 0.000 0.000 0.000 0.000 0.000 0.000 0.000 0.000 0.000 0.000 0.000 0.000 0.000 0.000 0.000 0.000 6.306 24.202 0.000 0.176 0.000 0.000 0.000 0.000 0.000 0.000 0.000 0.006 0.000 0.000 0.000 0.000 0.001 6.632 0.000 0.000 0.000 9.057 43.200 0.000 0.000 0.000 0.000 0.000 0.000 7.756 0.000 0.000 0.000 117.851 61.808 0.000 0.002 6.159 0.000 0.000 0.000 0.000 0.000 0.000 0.000 6.791 23.985 10.590 0.000 0.000 0.000 0.000 0.000 0.000 11.267 0.000 0.000 0.000 0.000 0.000 0.000 0.000 0.000 0.000 0.000 0.052 0.000 0.000 0.000 0.000 0.847 0.000 2.555 0.000 0.000 0.000 0.000 0.000 0.000 0.000 0.000 0.000 0.000 0.000 0.000 64.514 14.813 23.588 0.000 0.000 0.000 0.000 0.000 0.000 0.000 0.000 0.000 0.000 
0.000 0.000 0.000 0.000 0.000 0.000 0.000 13.200 0.000 0.000 0.000 0.000 0.000 0.000 0.000 0.000 0.000 0.000 0.000 1.555 0.748 0.029 0.000 62.091 1.051 0.000 0.000 0.226 0.000 0.000 0.001 0.000 762.569 113.777 0.000 0.015 0.000 0.000 3.210 53.873 113.256 0.000 0.000 0.000 0.000 0.000 0.000 0.000 0.000 0.000 0.100 0.000 0.000 7.598 15.864 1.664 0.000 216.837 0.000 166.470 0.000 0.000 8.879 0.000 0.000 0.000 0.000 0.000 0.000 0.000 9.967 0.030 0.000 38.336 0.000 48.917 0.000 0.000 0.000 0.000 0.000 60.019 0.332 0.000 0.000 0.000 0.000 0.000 0.000 0.000 0.000 0.000 0.000 0.000 0.837 0.000 0.000 0.000 0.000 0.000 0.000 0.000 0.000 0.000 0.000 200.668 0.921 0.000 0.000 63.702 0.000 0.000 0.000 0.000 0.000 0.000 0.000 0.000 0.000 0.000 0.000 
0.000 0.000 0.000 0.000 0.000 0.000 0.000 0.000 0.000 0.066 0.000 0.000 0.000 0.000 0.000 0.000 0.000 0.000 0.000 0.000 3.919 0.646 0.000 90.059 119.406 0.000 0.000 0.000 0.000 0.000 35.179 0.126 12.729 776.526 14.801 0.000 0.000 83.651 0.000 347.955 369.500 82.261 32.743 0.000 0.000 0.103 108.700 0.000 0.000 2.526 0.000 0.225 0.000 0.000 0.000 16.832 0.000 0.000 0.000 0.000 162.511 0.000 0.000 8.793 11.912 1.596 0.001 0.000 0.000 0.000 0.000 0.000 0.000 8.227 96.721 0.000 47.832 30.104 0.000 0.000 0.000 0.000 96.195 0.000 0.000 0.000 0.000 0.000 0.000 0.000 0.000 0.000 0.000 0.000 0.000 0.000 0.000 0.000 0.000 0.000 0.000 87.382 0.000 0.000 0.001 0.000 195.113 2.488 1.554 0.000 0.000 0.000 0.014 0.000 0.000 0.000 0.000 0.000 0.000 0.000 0.000 
0.000 0.000 0.000 0.000 0.000 0.000 0.000 0.000 28.890 0.216 0.000 0.000 0.000 0.000 0.000 0.000 0.000 0.000 81.543 0.000 0.000 0.000 0.000 28.553 123.982 0.000 0.000 1.616 0.000 0.000 0.000 28.510 0.000 10.414 0.000 0.000 0.000 0.000 208.866 8.841 164.429 108.481 1.208 0.000 0.000 0.000 8.424 109.581 396.694 0.000 2.390 0.000 0.000 0.000 0.000 25.921 0.000 0.000 0.000 0.000 0.000 0.000 0.000 0.000 0.001 5.497 1.372 0.000 5.264 0.000 19.536 0.000 0.000 0.000 164.245 0.000 0.000 0.000 31.243 0.000 0.000 0.000 0.000 0.000 0.000 0.000 0.000 0.000 0.000 0.000 0.000 0.000 0.000 0.000 0.000 0.000 0.000 0.000 0.000 0.000 0.000 0.007 81.135 0.000 0.000 85.722 0.000 0.000 2.108 0.000 0.000 0.000 0.000 35.739 0.000 0.000 0.000 0.000 0.000 0.000 0.000 
0.000 0.000 0.000 0.000 1.332 0.000 0.000 0.614 4.723 28.613 0.000 0.000 0.000 0.000 0.000 0.000 0.000 0.000 1.060 105.741 0.000 0.000 0.000 0.000 0.000 0.000 0.000 1.984 2.723 0.071 0.003 0.000 0.000 0.000 8.523 0.000 0.000 0.000 0.000 0.000 0.000 0.062 0.000 0.000 0.000 0.000 0.000 0.000 0.000 398.526 0.000 0.341 0.000 0.000 0.000 0.000 13.869 0.000 0.000 0.000 0.000 0.000 0.000 0.000 0.000 10.157 3.765 0.000 0.000 5.586 0.112 19.955 0.003 0.007 0.000 158.023 0.000 0.000 0.000 0.000 0.000 0.000 0.000 0.000 0.000 0.000 0.000 0.000 0.000 18.218 0.000 0.000 0.000 0.000 0.000 0.000 0.000 0.000 0.000 2.274 0.000 0.000 0.000 0.000 0.000 0.000 214.600 0.000 0.000 0.000 0.000 0.000 0.000 148.426 40.986 0.000 0.000 0.000 0.000 0.000 0.000 
0.000 0.000 0.000 0.000 0.000 6.142 0.000 0.000 0.900 0.000 0.000 0.000 0.000 0.000 0.000 0.000 0.000 0.000 0.000 0.000 2.789 1.077 0.000 0.000 0.000 0.000 0.000 0.000 15.168 10.120 0.000 0.000 0.000 0.000 137.878 0.000 0.000 0.000 0.000 0.000 0.000 0.000 5.367 0.000 100.736 41.684 0.000 0.000 0.000 28.209 91.506 4.094 0.403 0.000 0.000 0.000 0.000 0.000 0.000 0.000 0.000 0.000 0.000 0.000 0.000 0.000 11.085 3.820 0.000 0.000 0.000 0.243 5.168 0.003 0.000 0.000 470.516 0.000 0.000 0.000 0.000 0.000 5.926 0.000 0.000 0.000 0.000 0.000 0.000 0.000 56.774 0.000 0.000 0.000 0.000 0.000 0.000 0.000 0.000 0.000 2.420 0.000 0.000 0.000 0.000 0.000 0.000 0.000 0.000 0.000 0.000 0.000 0.000 0.000 144.764 28.979 63.663 0.000 0.000 0.000 0.000 
0.000 0.000 0.000 0.000 0.000 0.000 1.427 0.000 0.000 0.000 0.000 135.134 12.252 0.000 0.000 0.000 0.000 0.000 0.000 0.000 0.552 5.671 0.397 0.421 0.000 0.000 0.000 0.000 0.000 0.000 15.180 0.000 0.000 0.000 0.003 135.743 0.000 0.000 0.000 0.000 0.000 0.000 0.000 0.000 0.000 59.141 32.385 0.012 0.000 0.166 22.900 0.000 0.000 0.827 0.000 0.304 0.000 0.000 0.000 0.000 38.217 3.139 0.000 0.000 0.000 16.442 0.000 0.000 0.000 0.000 0.000 0.000 0.000 0.000 0.000 0.000 479.298 828.665 0.000 0.000 0.000 0.000 124.392 9.129 0.000 0.000 0.000 0.000 0.000 54.439 24.303 41.060 0.000 0.000 0.000 0.000 0.000 0.000 0.000 0.000 0.000 0.000 0.000 0.000 0.000 0.000 0.000 0.000 0.000 0.000 0.000 0.000 0.000 0.000 0.000 0.018 53.927 4.381 0.000 0.000 0.000 
0.000 0.000 0.000 0.000 0.000 0.000 0.000 0.000 0.000 0.000 0.000 0.000 134.674 0.042 0.022 23.198 13.491 0.000 0.000 4.022 0.023 0.096 0.000 0.000 0.626 0.000 0.000 0.000 0.000 0.000 0.000 0.000 0.000 14.963 97.902 49.310 1.851 0.000 0.000 0.000 0.000 0.000 0.000 0.000 0.000 0.009 1.076 31.249 0.000 0.000 0.000 0.000 1.949 20.185 0.001 0.037 0.289 0.000 0.000 0.000 76.016 24.989 5.095 0.000 0.000 0.887 16.185 0.000 0.000 0.000 0.000 0.000 0.000 0.000 0.000 0.000 13.831 306.892 2.867 1.845 8.886 0.000 0.000 137.468 0.000 11.272 0.000 0.000 0.000 15.939 46.847 47.435 0.000 0.000 0.000 0.000 0.000 0.000 0.000 0.000 0.000 54.514 5.214 12.190 0.000 0.000 0.000 0.000 0.000 0.000 0.000 0.129 29.945 0.002 0.000 0.000 0.000 0.000 0.000 0.000 0.000 
0.000 0.000 0.000 5.957 0.000 0.000 0.000 0.000 0.000 0.000 0.000 0.000 0.000 0.000 0.000 1.639 18.485 0.000 0.000 0.138 0.000 0.000 0.000 0.000 0.000 50.578 0.018 0.000 0.000 0.000 0.000 0.000 0.000 1.107 451.579 353.635 43.566 0.000 0.000 5.301 0.000 0.000 0.000 0.000 0.000 0.080 0.037 0.261 0.000 0.000 0.000 191.906 0.000 164.045 65.708 0.000 0.151 0.000 0.000 0.000 0.000 60.361 11.103 0.000 0.000 0.000 0.000 0.000 0.000 0.000 0.000 0.000 0.000 0.000 0.000 0.000 0.000 0.137 0.718 100.353 17.150 23.131 52.472 0.000 0.000 0.000 0.042 0.000 0.000 0.000 47.762 0.000 0.000 0.000 0.000 0.000 0.000 0.000 0.000 0.000 0.000 1.375 400.429 82.407 11.979 0.095 0.000 0.000 0.000 0.000 0.000 0.033 0.003 34.759 0.219 0.001 0.000 0.000 0.000 0.000 0.000 
0.000 0.000 0.000 0.597 0.000 0.000 0.000 0.000 0.000 0.000 0.000 0.000 0.000 0.000 0.000 0.000 0.120 3.464 18.618 0.806 0.000 0.000 0.000 0.000 0.899 1.043 88.263 0.452 0.000 0.000 0.000 0.000 0.000 3.865 8.202 385.078 1.537 3.741 0.000 0.000 2.225 0.000 0.000 30.405 0.000 0.000 0.000 1.726 0.000 0.000 768.659 241.490 735.147 0.032 113.122 0.000 0.000 0.000 0.000 0.000 0.000 0.000 0.000 0.000 0.000 0.000 0.000 0.000 0.000 0.000 0.000 0.000 0.000 0.000 0.000 0.000 0.000 90.613 0.000 11.359 164.942 12.610 3.432 44.836 0.000 0.000 0.000 0.000 0.000 0.000 0.000 0.000 0.000 0.000 0.000 0.000 0.000 0.000 0.000 0.000 0.000 0.000 61.390 754.761 1.838 0.000 0.063 0.000 0.000 0.000 0.000 0.000 0.000 1.059 0.689 0.000 0.000 0.000 0.000 0.000 0.000 
0.000 0.000 0.000 0.000 0.000 0.000 0.000 0.000 0.000 0.000 0.000 0.000 0.000 0.000 0.000 0.000 0.000 33.116 95.661 75.899 2.305 0.000 0.000 38.667 0.070 0.744 0.142 0.000 0.098 0.004 0.000 0.000 0.000 0.001 0.000 9.671 0.000 0.000 0.052 0.000 0.000 0.000 15.900 517.121 165.824 0.000 0.000 0.000 2.369 0.000 0.000 583.983 269.990 149.544 0.000 0.000 0.000 0.000 0.000 0.000 0.000 0.000 0.000 0.000 6.049 0.000 0.000 0.000 0.000 0.000 0.000 0.000 60.349 7.032 0.000 0.000 0.000 0.000 168.083 0.000 24.543 1.143 0.000 0.000 0.000 0.000 0.000 1.907 0.000 166.504 618.147 884.529 2.957 0.000 0.000 0.000 48.131 43.010 0.000 0.000 0.000 0.000 0.000 98.600 130.791 0.892 0.000 0.000 0.000 0.000 0.000 0.000 0.000 0.000 0.864 0.000 0.000 0.000 0.000 0.000 0.000 
0.000 0.000 0.000 0.000 0.000 0.000 0.000 0.000 0.000 9.771 0.000 0.000 0.000 1.055 96.690 2.107 79.854 1514.527 213.430 0.000 0.824 0.000 0.000 0.000 37.848 0.000 0.000 0.000 0.090 0.242 0.000 0.000 0.000 0.000 0.000 6.904 0.000 0.000 0.000 0.000 0.000 0.000 3.850 330.774 763.739 167.783 0.008 0.000 0.000 0.000 0.000 4.259 321.685 144.892 7.499 0.256 0.128 0.000 0.000 0.000 0.000 0.000 0.000 0.000 0.140 9.513 0.000 0.000 0.000 0.000 0.000 0.000 58.632 233.606 15.492 0.000 0.000 2.016 0.000 49.118 0.000 0.000 0.000 0.000 0.000 0.000 0.000 0.228 16.069 0.000 99.634 1136.524 658.904 0.000 0.000 0.000 99.212 33.436 41.549 0.000 0.000 0.000 0.000 0.000 68.242 0.017 19.509 0.000 0.000 0.000 0.000 0.000 0.000 0.000 0.019 0.000 0.000 0.000 0.000 0.000 0.000 
0.000 0.000 0.000 0.000 0.000 0.000 0.000 0.000 0.000 0.000 83.941 0.000 0.000 13.875 471.439 1043.905 3933.650 3248.442 3117.409 786.591 841.163 17.202 0.000 0.000 0.000 0.000 0.000 0.000 0.000 0.312 0.001 0.000 0.000 0.000 0.000 0.000 96.260 0.000 0.000 0.000 8.990 0.000 0.000 43.514 598.735 754.189 121.402 9.768 2.395 15.908 20.609 0.000 129.732 564.044 273.915 7.984 0.048 0.000 0.000 0.000 0.000 0.000 0.000 0.000 0.001 0.074 0.075 0.000 0.000 0.000 0.000 0.000 78.907 423.452 330.979 5.151 0.000 0.000 164.609 0.000 0.000 0.000 0.000 0.000 0.000 0.000 0.000 0.000 49.560 18.823 0.000 0.002 175.456 0.000 0.000 0.000 0.000 0.000 0.000 0.000 0.000 0.000 0.000 0.000 0.000 0.000 0.466 25.297 0.005 0.000 0.000 4.186 0.000 0.000 43.994 39.336 0.000 0.000 0.000 0.000 0.000 
0.000 0.000 0.000 0.000 0.000 0.000 0.000 0.000 0.000 0.000 0.000 0.000 24.531 240.568 785.369 1012.874 4313.561 9321.807 1549.676 2111.540 3847.539 915.169 0.000 0.000 0.000 0.000 0.000 0.000 0.000 0.000 0.000 0.000 0.000 0.000 0.000 0.000 0.000 49.869 0.000 134.869 224.313 62.793 6.264 9.484 272.395 1131.806 704.233 144.214 120.040 101.724 149.690 14.738 27.061 231.401 235.201 71.737 0.000 0.000 0.000 0.000 0.000 0.000 29.494 0.000 0.000 0.000 0.000 0.000 19.281 0.000 0.000 0.233 81.741 362.323 36.125 1.727 0.046 0.358 0.000 65.660 0.000 0.000 0.000 0.000 0.000 0.000 0.000 281.510 0.000 45.290 11.567 16.641 0.000 50.660 0.000 0.011 0.000 0.000 0.000 0.000 0.000 0.000 0.000 0.000 0.000 0.000 0.000 0.136 19.409 0.000 0.000 0.000 23.302 0.000 0.000 108.156 0.000 0.000 0.000 0.000 0.000 
0.000 0.000 0.000 0.000 0.000 5.518 153.459 0.000 0.000 0.000 0.000 0.712 35.810 179.769 413.587 973.618 2217.943 700.626 1158.089 3009.630 3586.151 1653.973 0.000 0.000 0.000 0.000 2.648 6.414 0.035 1.083 0.000 0.000 0.884 0.000 0.000 0.000 0.000 0.000 200.455 772.136 592.185 367.600 242.650 81.857 141.630 728.364 1230.691 755.640 3419.702 1321.392 197.092 24.096 0.000 51.042 136.783 13.079 0.000 0.000 0.000 0.000 0.000 0.000 0.000 65.214 0.000 0.000 0.000 0.000 0.107 18.727 0.000 0.000 4.052 19.352 0.705 36.097 312.365 0.019 0.340 0.000 55.553 0.002 0.000 0.000 0.000 0.000 78.425 0.390 258.193 0.229 0.007 0.670 13.775 0.000 0.002 0.000 0.000 0.000 95.469 0.000 0.000 0.000 0.000 0.000 0.000 0.002 0.000 0.000 0.000 0.000 0.000 0.000 0.612 23.257 0.000 0.000 0.000 0.000 0.000 0.000 0.000 
0.000 0.000 0.000 0.000 0.000 0.000 29.771 303.932 0.000 0.000 0.000 8.483 3.953 14.198 78.457 26.958 771.212 1603.227 0.000 1086.375 3706.227 1279.374 0.000 0.000 0.000 0.000 0.000 17.781 26.918 142.155 27.179 0.000 0.000 1.695 0.000 6.090 0.000 204.642 1666.965 1388.777 979.986 578.525 353.463 264.635 155.964 342.258 738.463 3067.206 3868.136 2866.603 1395.133 186.972 0.000 0.000 2.076 0.000 0.000 0.000 0.000 0.000 0.000 0.000 0.000 0.000 18.337 0.000 0.000 0.000 0.000 0.000 0.011 0.000 0.000 0.000 0.000 0.000 52.845 242.979 0.000 0.000 0.000 50.998 0.000 0.000 0.000 0.000 0.000 78.244 0.000 0.000 0.142 0.000 0.000 0.000 0.000 0.000 0.000 0.000 73.854 142.534 61.602 0.000 51.593 0.000 20.649 1.251 0.000 0.000 0.000 0.000 0.000 0.000 0.000 18.809 0.000 0.000 0.000 0.000 0.000 0.000 0.000 
0.000 0.000 0.000 0.000 0.000 0.000 145.575 15.787 0.000 0.000 0.421 0.000 4.383 0.000 0.166 15.008 0.000 1418.074 829.836 3.516 322.517 0.334 0.000 0.000 0.000 0.022 5.305 28.346 85.557 140.476 91.514 0.722 0.000 0.000 0.000 0.000 166.760 1416.625 2090.353 2154.165 931.702 372.718 144.899 92.508 91.081 26.588 359.086 1847.286 3488.403 3881.766 2474.298 1117.203 104.921 0.000 0.000 0.000 0.000 0.000 0.000 0.000 0.000 0.000 0.000 0.000 0.000 0.000 0.000 0.000 0.000 0.000 0.000 0.000 0.000 0.000 0.000 0.000 0.000 335.775 0.132 0.000 0.000 0.000 0.000 161.770 0.000 0.000 0.000 0.000 0.000 0.000 0.000 0.000 0.000 0.000 0.000 0.000 0.000 0.000 0.000 35.951 0.000 264.763 0.000 18.105 0.000 190.834 0.000 0.000 0.000 0.000 0.000 0.000 0.000 0.000 0.582 0.000 8.852 0.001 0.000 0.000 0.000 
0.000 0.000 0.000 0.000 0.000 12.374 0.000 0.000 0.000 0.000 0.000 0.659 0.000 0.000 0.000 0.147 0.000 0.000 23.569 0.000 0.000 0.000 0.000 0.000 0.000 0.000 44.475 152.651 61.762 30.489 2.383 0.000 0.000 0.000 0.000 60.137 521.149 1368.691 2312.973 1397.774 430.764 30.374 0.000 0.013 3.874 4.938 29.375 828.414 3970.330 3930.714 3653.577 2024.406 661.561 43.633 12.672 24.609 9.796 0.000 0.000 76.096 0.000 0.000 0.000 0.000 0.000 0.000 0.000 0.000 0.000 0.000 0.000 0.000 0.000 0.000 0.000 0.000 0.000 58.063 586.322 21.187 0.979 0.466 0.000 0.321 182.675 0.000 0.000 0.000 0.464 0.000 0.000 0.000 0.000 0.000 0.000 0.000 0.000 0.000 0.000 0.000 0.000 0.001 60.421 0.000 335.956 7.409 0.000 0.000 0.000 0.000 0.000 0.000 0.000 0.000 0.000 0.000 17.927 13.531 0.000 0.000 0.000 
0.000 0.000 0.000 0.000 0.000 0.000 12.061 0.000 0.000 0.000 0.000 0.000 11.607 0.525 0.000 0.000 0.000 0.000 0.000 0.000 0.000 0.000 0.000 0.000 0.000 0.415 128.890 383.135 196.542 16.791 5.400 0.000 0.000 0.000 23.142 200.818 533.740 1180.399 2278.304 1015.454 404.830 32.855 0.000 0.000 4.467 2.447 76.668 1772.782 1908.852 2405.707 2561.103 1337.461 169.746 3.239 11.116 100.896 264.966 52.693 0.000 0.000 97.927 0.000 0.000 0.000 0.000 0.000 0.000 0.000 0.000 0.000 0.000 0.000 0.000 0.000 1.429 18.422 58.565 3762.263 3040.351 518.022 290.007 157.538 17.216 0.000 0.000 0.000 0.000 0.390 37.688 5.333 0.000 0.000 0.000 0.000 0.000 0.000 0.000 0.000 0.000 0.000 81.118 0.000 8.816 0.000 0.000 290.859 29.466 0.000 0.000 0.000 0.000 0.000 0.000 0.000 0.000 0.000 0.000 7.097 0.000 0.000 0.000 
0.000 0.000 0.000 0.000 0.144 0.000 0.000 0.000 0.000 0.000 0.000 0.000 0.001 10.675 0.000 0.000 0.000 0.000 0.000 0.000 0.000 0.000 0.000 0.000 0.000 2.303 131.376 726.172 427.365 14.634 327.414 30.429 0.000 1.031 100.802 313.571 1202.527 2606.860 3655.890 1534.296 714.071 163.487 6.541 2.830 154.015 1027.663 2555.854 1491.860 1258.381 1165.989 364.614 219.896 1.901 0.000 0.006 10.976 280.399 414.602 42.086 0.000 0.000 0.000 0.175 0.155 0.000 0.000 0.000 0.000 0.000 0.000 0.000 0.000 0.000 0.000 9.378 44.008 1026.577 3055.823 5231.245 1136.697 2554.618 10473.986 5147.153 46.636 0.025 0.000 0.000 0.000 8.570 36.205 0.000 0.000 0.000 0.000 0.000 0.000 0.000 0.000 0.000 0.000 9.897 81.475 0.000 7.777 0.000 0.000 0.389 1.152 6.823 0.237 0.000 0.000 0.000 0.000 0.000 0.000 0.000 0.000 0.000 0.000 0.000 
0.000 0.000 0.000 0.000 0.000 0.172 5.174 0.000 0.000 0.000 0.000 0.000 0.000 0.000 14.761 1.050 0.000 0.000 0.000 0.000 0.000 0.000 0.000 0.000 0.000 7.978 149.612 1386.244 1968.955 185.107 369.871 225.836 0.474 2.430 194.392 690.118 2057.468 3196.782 4162.354 1326.218 526.933 234.463 44.481 6.478 808.577 9519.096 5354.023 3691.015 256.229 674.516 351.815 33.578 53.424 5.182 0.252 19.287 417.024 994.548 266.810 1.745 0.000 0.167 26.545 60.746 8.924 0.217 0.378 0.175 0.000 0.000 0.000 0.000 0.000 0.000 12.095 7.662 101.438 658.707 354.286 69.440 924.772 14995.531 23666.086 5124.087 42.472 0.140 0.000 0.000 0.000 0.000 0.000 0.000 0.000 0.000 0.000 0.000 0.000 0.000 0.000 0.000 0.000 11.182 0.000 29.779 1.555 0.000 0.000 24.104 2.701 6.959 0.000 0.000 0.000 5.037 82.185 2.181 3.196 0.000 0.000 0.000 0.000 
0.000 0.000 0.000 93.520 3.225 0.000 0.000 4.998 0.000 0.000 0.000 0.000 0.000 0.000 0.000 66.258 1.598 0.000 0.000 0.000 0.000 0.000 0.000 0.000 0.000 0.000 15.071 923.878 2117.201 1830.942 155.356 38.338 0.000 1.961 232.595 777.760 1870.055 2806.161 1695.852 515.734 557.562 1420.609 1470.834 136.938 1211.490 4797.858 10975.365 1327.563 253.893 317.892 79.187 94.685 241.374 61.622 38.489 270.549 6080.483 8968.683 2113.425 246.485 76.322 113.565 271.916 532.222 254.828 125.426 66.836 76.054 18.072 0.183 0.000 0.000 0.000 0.000 0.203 6.668 0.138 0.000 76.793 69.455 73.298 4970.973 13953.680 10788.227 2541.359 0.785 0.064 0.000 0.000 0.000 0.000 0.000 0.000 0.000 0.000 0.000 0.000 0.000 0.000 0.000 0.000 0.542 0.000 0.000 29.068 0.000 0.000 0.000 0.000 0.000 0.000 0.000 16.599 0.000 15.904 67.898 2.049 0.000 0.000 0.000 0.000 
0.000 0.000 0.000 0.000 266.039 2.847 0.000 0.000 0.000 0.000 0.000 98.325 0.000 0.000 0.000 0.000 0.000 2.621 2.192 0.000 0.000 0.000 0.000 0.000 0.000 0.000 0.000 95.641 355.962 52.846 46.306 0.000 0.000 1.860 255.941 716.682 1402.543 1933.111 1583.403 443.066 1738.690 27614.807 46082.207 23487.896 2540.953 842.281 516.436 470.847 6.422 190.383 0.000 17.167 152.978 302.021 944.859 4632.137 24237.047 21146.400 10236.692 1708.163 541.884 328.618 649.713 2569.229 3258.629 3082.843 1068.049 494.158 498.588 31.050 0.305 0.000 0.000 0.000 0.000 0.000 0.000 0.000 17.272 339.017 110.955 79.249 5126.312 3782.007 2540.958 6.693 0.000 0.000 0.000 0.000 0.000 0.000 0.000 0.000 0.000 0.000 0.000 0.000 0.000 0.000 0.437 148.084 9.667 0.000 0.000 0.000 0.000 0.000 0.000 0.000 0.000 0.000 0.000 50.659 1.759 0.000 0.036 0.000 0.000 0.000 0.000 
0.000 0.000 0.000 0.000 0.000 189.921 0.000 12.696 0.000 0.000 0.000 0.000 124.989 36.157 0.000 1.994 57.477 166.318 62.054 1.957 0.000 0.000 0.000 0.000 0.000 0.000 0.000 0.000 37.511 35.769 1.358 0.000 0.000 50.915 338.911 372.087 1230.233 2261.168 2085.228 1193.284 6152.058 86491.883 174390.125 136543.234 44196.781 2323.914 1.691 32.286 4.656 0.000 0.000 0.000 26.221 210.740 252.002 1641.795 9096.807 22439.318 8274.285 1184.708 666.378 397.866 543.714 5972.282 33074.320 45103.477 41852.867 33652.219 24229.352 3920.163 28.656 0.145 0.000 0.000 0.334 0.000 0.000 0.000 0.438 22.575 152.406 320.047 663.458 2514.541 62.086 0.000 0.000 0.000 0.000 0.000 0.706 0.000 0.585 3.343 8.905 0.000 0.000 0.000 0.000 0.918 5.130 16.479 132.361 0.000 0.000 0.000 0.000 0.052 0.000 0.000 0.000 0.000 0.000 0.000 45.744 0.961 0.000 0.000 0.000 0.000 0.000 
0.000 0.000 0.000 0.000 0.000 0.000 0.000 0.000 12.647 0.000 0.000 0.000 0.000 123.449 16.808 0.000 41.646 153.530 142.432 7.608 0.000 0.000 0.000 0.000 0.000 0.000 0.000 0.000 10.854 52.043 54.311 23.948 54.834 262.150 447.262 520.492 1059.507 1404.263 1953.232 1595.072 11106.503 194560.078 636782.125 559717.562 206126.219 28317.676 1.025 0.000 0.000 0.000 0.044 0.000 0.000 4.711 20.762 162.149 137.250 953.950 641.375 386.297 267.866 62.466 69.516 3082.032 32695.066 73675.812 86887.133 99101.469 81999.938 42596.035 9211.764 97.562 5.185 0.000 9.810 112.152 0.000 0.000 0.000 0.813 1.492 105.224 346.093 184.082 34.503 0.000 0.000 0.000 0.000 0.000 1.485 2.433 11.590 197.191 112.503 11.561 0.263 0.000 0.000 0.000 0.816 4.519 0.000 0.000 0.000 0.000 0.000 0.000 0.123 0.000 0.000 0.000 0.000 34.168 0.000 0.000 0.000 0.000 0.000 0.000 0.000 
0.000 0.000 0.000 0.000 0.000 13.659 0.000 0.000 0.000 2.174 0.000 0.000 0.000 0.000 0.000 0.000 0.000 12.149 10.742 0.000 0.000 0.000 0.000 0.000 0.000 0.000 0.000 14.670 246.810 167.651 147.071 186.077 281.635 482.428 1103.021 1985.147 2067.288 1362.041 1505.541 5710.292 40167.602 206346.469 476798.688 791523.750 555793.688 100468.414 386.169 0.000 0.000 11.934 13.273 3.860 0.000 0.007 9.497 174.856 144.358 22.121 0.000 1.567 2.185 0.020 13.852 81.423 2431.463 19784.088 31153.283 43677.527 69212.922 76221.852 45978.816 8821.042 401.022 36.526 0.000 1.530 0.000 0.000 0.000 0.000 0.000 0.000 3.413 0.012 188.130 0.001 0.000 0.000 50.485 64.348 7.664 16.800 312.098 474.707 282.404 3.788 0.739 21.904 0.000 8.598 0.000 0.000 0.000 0.000 0.000 0.000 0.000 0.000 0.000 0.000 0.000 0.000 0.427 10.689 33.970 29.871 0.000 0.000 0.000 0.000 0.000 
0.000 0.000 0.000 2.576 0.000 0.000 12.647 0.000 0.000 0.000 2.352 0.000 0.000 0.000 0.000 0.000 0.000 0.000 0.000 0.000 0.000 0.000 0.000 0.000 0.000 0.000 0.000 922.852 807.668 401.981 294.243 256.999 218.423 911.454 6619.526 10950.118 9208.255 8667.123 15827.324 33891.879 57887.031 109826.219 275730.719 292598.531 234036.531 81452.109 1905.230 1.046 105.157 1630.135 3477.652 2538.353 6.776 0.001 5.193 87.225 886.023 454.998 13.386 0.000 16.041 1.675 6.178 19.021 51.684 129.567 133.939 178.620 764.978 11703.280 24862.742 16125.575 1462.232 0.571 29.668 0.000 0.000 0.000 0.000 9.683 0.000 0.337 0.001 0.000 0.287 0.387 0.188 181.971 1747.208 1102.268 297.588 308.413 235.146 467.743 73.884 3.524 0.000 0.124 12.921 24.245 13.861 0.000 0.000 0.000 0.000 0.000 1.443 3.563 0.000 0.000 0.000 0.000 0.000 0.000 0.000 0.000 32.178 0.000 0.000 0.000 0.000 
0.000 0.000 0.000 0.000 0.000 0.000 0.000 0.000 0.000 0.000 0.000 0.000 0.000 0.000 0.000 0.000 0.000 0.000 0.000 0.000 0.000 0.000 0.000 0.000 0.000 0.000 0.000 0.000 0.000 0.000 0.000 0.000 0.000 0.000 0.000 0.000 0.000 0.000 0.000 0.000 0.000 0.000 0.000 0.000 0.000 0.000 0.000 0.000 0.000 0.000 0.000 0.000 0.000 0.000 0.000 0.000 0.000 0.000 0.000 0.000 0.000 0.000 0.000 0.000 0.000 0.000 0.000 0.000 0.000 0.000 0.000 0.000 0.000 0.000 0.000 0.000 0.000 0.000 0.000 0.000 0.000 0.000 0.000 0.000 0.000 0.000 0.000 0.000 0.000 0.000 0.000 0.000 0.000 0.000 0.000 0.000 0.000 0.000 0.000 0.000 0.000 0.000 0.000 0.000 0.000 0.000 0.000 0.000 0.000 0.000 0.000 0.000 0.000 0.000 0.000 0.000 0.000 0.000 0.000 0.000 0.000 
0.000 0.000 0.000 0.000 0.000 0.000 0.000 0.000 0.000 0.000 0.000 0.000 0.000 0.000 0.000 0.000 0.000 0.000 0.000 0.000 0.000 0.000 0.000 0.000 0.000 0.000 0.000 0.000 0.000 0.000 0.000 0.000 0.000 0.000 0.000 0.000 0.000 0.000 0.000 0.000 0.000 0.000 0.000 0.000 0.000 0.000 0.000 0.000 0.000 0.000 0.000 0.000 0.000 0.000 0.000 0.000 0.000 0.000 0.000 0.000 0.000 0.000 0.000 0.000 0.000 0.000 0.000 0.000 0.000 0.000 0.000 0.000 0.000 0.000 0.000 0.000 0.000 0.000 0.000 0.000 0.000 0.000 0.000 0.000 0.000 0.000 0.000 0.000 0.000 0.000 0.000 0.000 0.000 0.000 0.000 0.000 0.000 0.000 0.000 0.000 0.000 0.000 0.000 0.000 0.000 0.000 0.000 0.000 0.000 0.000 0.000 0.000 0.000 0.000 0.000 0.000 0.000 0.000 0.000 0.000 0.000 
0.000 0.000 0.000 0.000 0.000 0.000 0.000 0.000 0.000 0.000 0.000 0.000 0.000 0.000 0.000 0.000 0.000 0.000 0.000 0.000 0.000 0.000 0.000 0.000 0.000 0.000 0.000 0.000 0.000 0.000 0.000 0.000 0.000 0.000 0.000 0.000 0.000 0.000 0.000 0.000 0.000 0.000 0.000 0.000 0.000 0.000 0.000 0.000 0.000 0.000 0.000 0.000 0.000 0.000 0.000 0.000 0.000 0.000 0.000 0.000 0.000 0.000 0.000 0.000 0.000 0.000 0.000 0.000 0.000 0.000 0.000 0.000 0.000 0.000 0.000 0.000 0.000 0.000 0.000 0.000 0.000 0.000 0.000 0.000 0.000 0.000 0.000 0.000 0.000 0.000 0.000 0.000 0.000 0.000 0.000 0.000 0.000 0.000 0.000 0.000 0.000 0.000 0.000 0.000 0.000 0.000 0.000 0.000 0.000 0.000 0.000 0.000 0.000 0.000 0.000 0.000 0.000 0.000 0.000 0.000 0.000 
